<?xml version='1.0' encoding='UTF-8'?>
<map version="1.10" tiledversion="1.11.0" orientation="orthogonal" renderorder="right-down" width="52" height="84" tilewidth="16" tileheight="16" infinite="0" nextlayerid="9" nextobjectid="679">
 <tileset firstgid="1" source="../tilesets/amberwood-ground.tsx" />
 <tileset firstgid="1601" source="../tilesets/amberwood-overlay.tsx" />
 <tileset firstgid="2305" source="../tilesets/amberwood-water.tsx" />
 <tileset firstgid="3905" source="../tilesets/amberwood-patch.tsx" />
 <tileset firstgid="5505" source="../tilesets/amberwood-path.tsx" />
 <tileset firstgid="7105" source="../tilesets/buildings.tsx" />
 <tileset firstgid="8848" source="../tilesets/amberwood-decor.tsx" />
 <tileset firstgid="8912" source="../tilesets/collision.tsx" />
 <tileset firstgid="8914" source="../tilesets/embellishments.tsx" />
 <tileset firstgid="8962" source="../tilesets/amberwood-props.tsx" />
 <layer id="1" name="Ground" width="52" height="84">
  <data encoding="csv">
1,2,3,4,5,6,7,8,9,10,11,12,13,14,15,16,17,18,19,20,21,22,23,24,25,26,27,28,29,30,31,32,33,34,35,36,37,38,39,40,1,2,3,4,5,6,7,8,9,10,11,12,
41,42,43,44,45,46,47,48,49,50,51,52,53,54,55,56,57,58,59,60,61,62,63,64,65,66,67,68,69,70,71,72,73,74,75,76,77,78,79,80,41,42,43,44,45,46,47,48,49,50,51,52,
81,82,83,84,85,86,87,88,89,90,91,92,93,94,95,96,97,98,99,100,101,102,103,104,105,106,107,108,109,110,111,112,113,114,115,116,117,118,119,120,81,82,83,84,85,86,87,88,89,90,91,92,
121,122,123,124,125,126,127,128,129,130,131,132,133,134,135,136,137,138,139,140,141,142,143,144,145,146,147,148,149,150,151,152,153,154,155,156,157,158,159,160,121,122,123,124,125,126,127,128,129,130,131,132,
161,162,163,164,165,166,167,168,169,170,171,172,173,174,175,176,177,178,179,180,181,182,183,184,185,186,187,188,189,190,191,192,193,194,195,196,197,198,199,200,161,162,163,164,165,166,167,168,169,170,171,172,
201,202,203,204,205,206,207,208,209,210,211,212,213,214,215,216,217,218,219,220,221,222,223,224,225,226,227,228,229,230,231,232,233,234,235,236,237,238,239,240,201,202,203,204,205,206,207,208,209,210,211,212,
241,242,243,244,245,246,247,248,249,250,251,252,253,254,255,256,257,258,259,260,261,262,263,264,265,266,267,268,269,270,271,272,273,274,275,276,277,278,279,280,241,242,243,244,245,246,247,248,249,250,251,252,
281,282,283,284,285,286,287,288,289,290,291,292,293,294,295,296,297,298,299,300,301,302,303,304,305,306,307,308,309,310,311,312,313,314,315,316,317,318,319,320,281,282,283,284,285,286,287,288,289,290,291,292,
321,322,323,324,325,326,327,328,329,330,331,332,333,334,335,336,337,338,339,340,341,342,343,344,345,346,347,348,349,350,351,352,353,354,355,356,357,358,359,360,321,322,323,324,325,326,327,328,329,330,331,332,
361,362,363,364,365,366,367,368,369,370,371,372,373,374,375,376,377,378,379,380,381,382,383,384,385,386,387,388,389,390,391,392,393,394,395,396,397,398,399,400,361,362,363,364,365,366,367,368,369,370,371,372,
401,402,403,404,405,406,407,408,409,410,411,412,413,414,415,416,417,418,419,420,421,422,423,424,425,426,427,428,429,430,431,432,433,434,435,436,437,438,439,440,401,402,403,404,405,406,407,408,409,410,411,412,
441,442,443,444,445,446,447,448,449,450,451,452,453,454,455,456,457,458,459,460,461,462,463,464,465,466,467,468,469,470,471,472,473,474,475,476,477,478,479,480,441,442,443,444,445,446,447,448,449,450,451,452,
481,482,483,484,485,486,487,488,489,490,491,492,493,494,495,496,497,498,499,500,501,502,503,504,505,506,507,508,509,510,511,512,513,514,515,516,517,518,519,520,481,482,483,484,485,486,487,488,489,490,491,492,
521,522,523,524,525,526,527,528,529,530,531,532,533,534,535,536,537,538,539,540,541,542,543,544,545,546,547,548,549,550,551,552,553,554,555,556,557,558,559,560,521,522,523,524,525,526,527,528,529,530,531,532,
561,562,563,564,565,566,567,568,569,570,571,572,573,574,575,576,577,578,579,580,581,582,583,584,585,586,587,588,589,590,591,592,593,594,595,596,597,598,599,600,561,562,563,564,565,566,567,568,569,570,571,572,
601,602,603,604,605,606,607,608,609,610,611,612,613,614,615,616,617,618,619,620,621,622,623,624,625,626,627,628,629,630,631,632,633,634,635,636,637,638,639,640,601,602,603,604,605,606,607,608,609,610,611,612,
641,642,643,644,645,646,647,648,649,650,651,652,653,654,655,656,657,658,659,660,661,662,663,664,665,666,667,668,669,670,671,672,673,674,675,676,677,678,679,680,641,642,643,644,645,646,647,648,649,650,651,652,
681,682,683,684,685,686,687,688,689,690,691,692,693,694,695,696,697,698,699,700,701,702,703,704,705,706,707,708,709,710,711,712,713,714,715,716,717,718,719,720,681,682,683,684,685,686,687,688,689,690,691,692,
721,722,723,724,725,726,727,728,729,730,731,732,733,734,735,736,737,738,739,740,741,742,743,744,745,746,747,748,749,750,751,752,753,754,755,756,757,758,759,760,721,722,723,724,725,726,727,728,729,730,731,732,
761,762,763,764,765,766,767,768,769,770,771,772,773,774,775,776,777,778,779,780,781,782,783,784,785,786,787,788,789,790,791,792,793,794,795,796,797,798,799,800,761,762,763,764,765,766,767,768,769,770,771,772,
801,802,803,804,805,806,807,808,809,810,811,812,813,814,815,816,817,818,819,820,821,822,823,824,825,826,827,828,829,830,831,832,833,834,835,836,837,838,839,840,801,802,803,804,805,806,807,808,809,810,811,812,
841,842,843,844,845,846,847,848,849,850,851,852,853,854,855,856,857,858,859,860,861,862,863,864,865,866,867,868,869,870,871,872,873,874,875,876,877,878,879,880,841,842,843,844,845,846,847,848,849,850,851,852,
881,882,883,884,885,886,887,888,889,890,891,892,893,894,895,896,897,898,899,900,901,902,903,904,905,906,907,908,909,910,911,912,913,914,915,916,917,918,919,920,881,882,883,884,885,886,887,888,889,890,891,892,
921,922,923,924,925,926,927,928,929,930,931,932,933,934,935,936,937,938,939,940,941,942,943,944,945,946,947,948,949,950,951,952,953,954,955,956,957,958,959,960,921,922,923,924,925,926,927,928,929,930,931,932,
961,962,963,964,965,966,967,968,969,970,971,972,973,974,975,976,977,978,979,980,981,982,983,984,985,986,987,988,989,990,991,992,993,994,995,996,997,998,999,1000,961,962,963,964,965,966,967,968,969,970,971,972,
1001,1002,1003,1004,1005,1006,1007,1008,1009,1010,1011,1012,1013,1014,1015,1016,1017,1018,1019,1020,1021,1022,1023,1024,1025,1026,1027,1028,1029,1030,1031,1032,1033,1034,1035,1036,1037,1038,1039,1040,1001,1002,1003,1004,1005,1006,1007,1008,1009,1010,1011,1012,
1041,1042,1043,1044,1045,1046,1047,1048,1049,1050,1051,1052,1053,1054,1055,1056,1057,1058,1059,1060,1061,1062,1063,1064,1065,1066,1067,1068,1069,1070,1071,1072,1073,1074,1075,1076,1077,1078,1079,1080,1041,1042,1043,1044,1045,1046,1047,1048,1049,1050,1051,1052,
1081,1082,1083,1084,1085,1086,1087,1088,1089,1090,1091,1092,1093,1094,1095,1096,1097,1098,1099,1100,1101,1102,1103,1104,1105,1106,1107,1108,1109,1110,1111,1112,1113,1114,1115,1116,1117,1118,1119,1120,1081,1082,1083,1084,1085,1086,1087,1088,1089,1090,1091,1092,
1121,1122,1123,1124,1125,1126,1127,1128,1129,1130,1131,1132,1133,1134,1135,1136,1137,1138,1139,1140,1141,1142,1143,1144,1145,1146,1147,1148,1149,1150,1151,1152,1153,1154,1155,1156,1157,1158,1159,1160,1121,1122,1123,1124,1125,1126,1127,1128,1129,1130,1131,1132,
1161,1162,1163,1164,1165,1166,1167,1168,1169,1170,1171,1172,1173,1174,1175,1176,1177,1178,1179,1180,1181,1182,1183,1184,1185,1186,1187,1188,1189,1190,1191,1192,1193,1194,1195,1196,1197,1198,1199,1200,1161,1162,1163,1164,1165,1166,1167,1168,1169,1170,1171,1172,
1201,1202,1203,1204,1205,1206,1207,1208,1209,1210,1211,1212,1213,1214,1215,1216,1217,1218,1219,1220,1221,1222,1223,1224,1225,1226,1227,1228,1229,1230,1231,1232,1233,1234,1235,1236,1237,1238,1239,1240,1201,1202,1203,1204,1205,1206,1207,1208,1209,1210,1211,1212,
1241,1242,1243,1244,1245,1246,1247,1248,1249,1250,1251,1252,1253,1254,1255,1256,1257,1258,1259,1260,1261,1262,1263,1264,1265,1266,1267,1268,1269,1270,1271,1272,1273,1274,1275,1276,1277,1278,1279,1280,1241,1242,1243,1244,1245,1246,1247,1248,1249,1250,1251,1252,
1281,1282,1283,1284,1285,1286,1287,1288,1289,1290,1291,1292,1293,1294,1295,1296,1297,1298,1299,1300,1301,1302,1303,1304,1305,1306,1307,1308,1309,1310,1311,1312,1313,1314,1315,1316,1317,1318,1319,1320,1281,1282,1283,1284,1285,1286,1287,1288,1289,1290,1291,1292,
1321,1322,1323,1324,1325,1326,1327,1328,1329,1330,1331,1332,1333,1334,1335,1336,1337,1338,1339,1340,1341,1342,1343,1344,1345,1346,1347,1348,1349,1350,1351,1352,1353,1354,1355,1356,1357,1358,1359,1360,1321,1322,1323,1324,1325,1326,1327,1328,1329,1330,1331,1332,
1361,1362,1363,1364,1365,1366,1367,1368,1369,1370,1371,1372,1373,1374,1375,1376,1377,1378,1379,1380,1381,1382,1383,1384,1385,1386,1387,1388,1389,1390,1391,1392,1393,1394,1395,1396,1397,1398,1399,1400,1361,1362,1363,1364,1365,1366,1367,1368,1369,1370,1371,1372,
1401,1402,1403,1404,1405,1406,1407,1408,1409,1410,1411,1412,1413,1414,1415,1416,1417,1418,1419,1420,1421,1422,1423,1424,1425,1426,1427,1428,1429,1430,1431,1432,1433,1434,1435,1436,1437,1438,1439,1440,1401,1402,1403,1404,1405,1406,1407,1408,1409,1410,1411,1412,
1441,1442,1443,1444,1445,1446,1447,1448,1449,1450,1451,1452,1453,1454,1455,1456,1457,1458,1459,1460,1461,1462,1463,1464,1465,1466,1467,1468,1469,1470,1471,1472,1473,1474,1475,1476,1477,1478,1479,1480,1441,1442,1443,1444,1445,1446,1447,1448,1449,1450,1451,1452,
1481,1482,1483,1484,1485,1486,1487,1488,1489,1490,1491,1492,1493,1494,1495,1496,1497,1498,1499,1500,1501,1502,1503,1504,1505,1506,1507,1508,1509,1510,1511,1512,1513,1514,1515,1516,1517,1518,1519,1520,1481,1482,1483,1484,1485,1486,1487,1488,1489,1490,1491,1492,
1521,1522,1523,1524,1525,1526,1527,1528,1529,1530,1531,1532,1533,1534,1535,1536,1537,1538,1539,1540,1541,1542,1543,1544,1545,1546,1547,1548,1549,1550,1551,1552,1553,1554,1555,1556,1557,1558,1559,1560,1521,1522,1523,1524,1525,1526,1527,1528,1529,1530,1531,1532,
1561,1562,1563,1564,1565,1566,1567,1568,1569,1570,1571,1572,1573,1574,1575,1576,1577,1578,1579,1580,1581,1582,1583,1584,1585,1586,1587,1588,1589,1590,1591,1592,1593,1594,1595,1596,1597,1598,1599,1600,1561,1562,1563,1564,1565,1566,1567,1568,1569,1570,1571,1572,
1,2,3,4,5,6,7,8,9,10,11,12,13,14,15,16,17,18,19,20,21,22,23,24,25,26,27,28,29,30,31,32,33,34,35,36,37,38,39,40,1,2,3,4,5,6,7,8,9,10,11,12,
41,42,43,44,45,46,47,48,49,50,51,52,53,54,55,56,57,58,59,60,61,62,63,64,65,66,67,68,69,70,71,72,73,74,75,76,77,78,79,80,41,42,43,44,45,46,47,48,49,50,51,52,
81,82,83,84,85,86,87,88,89,90,91,92,93,94,95,96,97,98,99,100,101,102,103,104,105,106,107,108,109,110,111,112,113,114,115,116,117,118,119,120,81,82,83,84,85,86,87,88,89,90,91,92,
121,122,123,124,125,126,127,128,129,130,131,132,133,134,135,136,137,138,139,140,141,142,143,144,145,146,147,148,149,150,151,152,153,154,155,156,157,158,159,160,121,122,123,124,125,126,127,128,129,130,131,132,
161,162,163,164,165,166,167,168,169,170,171,172,173,174,175,176,177,178,179,180,181,182,183,184,185,186,187,188,189,190,191,192,193,194,195,196,197,198,199,200,161,162,163,164,165,166,167,168,169,170,171,172,
201,202,203,204,205,206,207,208,209,210,211,212,213,214,215,216,217,218,219,220,221,222,223,224,225,226,227,228,229,230,231,232,233,234,235,236,237,238,239,240,201,202,203,204,205,206,207,208,209,210,211,212,
241,242,243,244,245,246,247,248,249,250,251,252,253,254,255,256,257,258,259,260,261,262,263,264,265,266,267,268,269,270,271,272,273,274,275,276,277,278,279,280,241,242,243,244,245,246,247,248,249,250,251,252,
281,282,283,284,285,286,287,288,289,290,291,292,293,294,295,296,297,298,299,300,301,302,303,304,305,306,307,308,309,310,311,312,313,314,315,316,317,318,319,320,281,282,283,284,285,286,287,288,289,290,291,292,
321,322,323,324,325,326,327,328,329,330,331,332,333,334,335,336,337,338,339,340,341,342,343,344,345,346,347,348,349,350,351,352,353,354,355,356,357,358,359,360,321,322,323,324,325,326,327,328,329,330,331,332,
361,362,363,364,365,366,367,368,369,370,371,372,373,374,375,376,377,378,379,380,381,382,383,384,385,386,387,388,389,390,391,392,393,394,395,396,397,398,399,400,361,362,363,364,365,366,367,368,369,370,371,372,
401,402,403,404,405,406,407,408,409,410,411,412,413,414,415,416,417,418,419,420,421,422,423,424,425,426,427,428,429,430,431,432,433,434,435,436,437,438,439,440,401,402,403,404,405,406,407,408,409,410,411,412,
441,442,443,444,445,446,447,448,449,450,451,452,453,454,455,456,457,458,459,460,461,462,463,464,465,466,467,468,469,470,471,472,473,474,475,476,477,478,479,480,441,442,443,444,445,446,447,448,449,450,451,452,
481,482,483,484,485,486,487,488,489,490,491,492,493,494,495,496,497,498,499,500,501,502,503,504,505,506,507,508,509,510,511,512,513,514,515,516,517,518,519,520,481,482,483,484,485,486,487,488,489,490,491,492,
521,522,523,524,525,526,527,528,529,530,531,532,533,534,535,536,537,538,539,540,541,542,543,544,545,546,547,548,549,550,551,552,553,554,555,556,557,558,559,560,521,522,523,524,525,526,527,528,529,530,531,532,
561,562,563,564,565,566,567,568,569,570,571,572,573,574,575,576,577,578,579,580,581,582,583,584,585,586,587,588,589,590,591,592,593,594,595,596,597,598,599,600,561,562,563,564,565,566,567,568,569,570,571,572,
601,602,603,604,605,606,607,608,609,610,611,612,613,614,615,616,617,618,619,620,621,622,623,624,625,626,627,628,629,630,631,632,633,634,635,636,637,638,639,640,601,602,603,604,605,606,607,608,609,610,611,612,
641,642,643,644,645,646,647,648,649,650,651,652,653,654,655,656,657,658,659,660,661,662,663,664,665,666,667,668,669,670,671,672,673,674,675,676,677,678,679,680,641,642,643,644,645,646,647,648,649,650,651,652,
681,682,683,684,685,686,687,688,689,690,691,692,693,694,695,696,697,698,699,700,701,702,703,704,705,706,707,708,709,710,711,712,713,714,715,716,717,718,719,720,681,682,683,684,685,686,687,688,689,690,691,692,
721,722,723,724,725,726,727,728,729,730,731,732,733,734,735,736,737,738,739,740,741,742,743,744,745,746,747,748,749,750,751,752,753,754,755,756,757,758,759,760,721,722,723,724,725,726,727,728,729,730,731,732,
761,762,763,764,765,766,767,768,769,770,771,772,773,774,775,776,777,778,779,780,781,782,783,784,785,786,787,788,789,790,791,792,793,794,795,796,797,798,799,800,761,762,763,764,765,766,767,768,769,770,771,772,
801,802,803,804,805,806,807,808,809,810,811,812,813,814,815,816,817,818,819,820,821,822,823,824,825,826,827,828,829,830,831,832,833,834,835,836,837,838,839,840,801,802,803,804,805,806,807,808,809,810,811,812,
841,842,843,844,845,846,847,848,849,850,851,852,853,854,855,856,857,858,859,860,861,862,863,864,865,866,867,868,869,870,871,872,873,874,875,876,877,878,879,880,841,842,843,844,845,846,847,848,849,850,851,852,
881,882,883,884,885,886,887,888,889,890,891,892,893,894,895,896,897,898,899,900,901,902,903,904,905,906,907,908,909,910,911,912,913,914,915,916,917,918,919,920,881,882,883,884,885,886,887,888,889,890,891,892,
921,922,923,924,925,926,927,928,929,930,931,932,933,934,935,936,937,938,939,940,941,942,943,944,945,946,947,948,949,950,951,952,953,954,955,956,957,958,959,960,921,922,923,924,925,926,927,928,929,930,931,932,
961,962,963,964,965,966,967,968,969,970,971,972,973,974,975,976,977,978,979,980,981,982,983,984,985,986,987,988,989,990,991,992,993,994,995,996,997,998,999,1000,961,962,963,964,965,966,967,968,969,970,971,972,
1001,1002,1003,1004,1005,1006,1007,1008,1009,1010,1011,1012,1013,1014,1015,1016,1017,1018,1019,1020,1021,1022,1023,1024,1025,1026,1027,1028,1029,1030,1031,1032,1033,1034,1035,1036,1037,1038,1039,1040,1001,1002,1003,1004,1005,1006,1007,1008,1009,1010,1011,1012,
1041,1042,1043,1044,1045,1046,1047,1048,1049,1050,1051,1052,1053,1054,1055,1056,1057,1058,1059,1060,1061,1062,1063,1064,1065,1066,1067,1068,1069,1070,1071,1072,1073,1074,1075,1076,1077,1078,1079,1080,1041,1042,1043,1044,1045,1046,1047,1048,1049,1050,1051,1052,
1081,1082,1083,1084,1085,1086,1087,1088,1089,1090,1091,1092,1093,1094,1095,1096,1097,1098,1099,1100,1101,1102,1103,1104,1105,1106,1107,1108,1109,1110,1111,1112,1113,1114,1115,1116,1117,1118,1119,1120,1081,1082,1083,1084,1085,1086,1087,1088,1089,1090,1091,1092,
1121,1122,1123,1124,1125,1126,1127,1128,1129,1130,1131,1132,1133,1134,1135,1136,1137,1138,1139,1140,1141,1142,1143,1144,1145,1146,1147,1148,1149,1150,1151,1152,1153,1154,1155,1156,1157,1158,1159,1160,1121,1122,1123,1124,1125,1126,1127,1128,1129,1130,1131,1132,
1161,1162,1163,1164,1165,1166,1167,1168,1169,1170,1171,1172,1173,1174,1175,1176,1177,1178,1179,1180,1181,1182,1183,1184,1185,1186,1187,1188,1189,1190,1191,1192,1193,1194,1195,1196,1197,1198,1199,1200,1161,1162,1163,1164,1165,1166,1167,1168,1169,1170,1171,1172,
1201,1202,1203,1204,1205,1206,1207,1208,1209,1210,1211,1212,1213,1214,1215,1216,1217,1218,1219,1220,1221,1222,1223,1224,1225,1226,1227,1228,1229,1230,1231,1232,1233,1234,1235,1236,1237,1238,1239,1240,1201,1202,1203,1204,1205,1206,1207,1208,1209,1210,1211,1212,
1241,1242,1243,1244,1245,1246,1247,1248,1249,1250,1251,1252,1253,1254,1255,1256,1257,1258,1259,1260,1261,1262,1263,1264,1265,1266,1267,1268,1269,1270,1271,1272,1273,1274,1275,1276,1277,1278,1279,1280,1241,1242,1243,1244,1245,1246,1247,1248,1249,1250,1251,1252,
1281,1282,1283,1284,1285,1286,1287,1288,1289,1290,1291,1292,1293,1294,1295,1296,1297,1298,1299,1300,1301,1302,1303,1304,1305,1306,1307,1308,1309,1310,1311,1312,1313,1314,1315,1316,1317,1318,1319,1320,1281,1282,1283,1284,1285,1286,1287,1288,1289,1290,1291,1292,
1321,1322,1323,1324,1325,1326,1327,1328,1329,1330,1331,1332,1333,1334,1335,1336,1337,1338,1339,1340,1341,1342,1343,1344,1345,1346,1347,1348,1349,1350,1351,1352,1353,1354,1355,1356,1357,1358,1359,1360,1321,1322,1323,1324,1325,1326,1327,1328,1329,1330,1331,1332,
1361,1362,1363,1364,1365,1366,1367,1368,1369,1370,1371,1372,1373,1374,1375,1376,1377,1378,1379,1380,1381,1382,1383,1384,1385,1386,1387,1388,1389,1390,1391,1392,1393,1394,1395,1396,1397,1398,1399,1400,1361,1362,1363,1364,1365,1366,1367,1368,1369,1370,1371,1372,
1401,1402,1403,1404,1405,1406,1407,1408,1409,1410,1411,1412,1413,1414,1415,1416,1417,1418,1419,1420,1421,1422,1423,1424,1425,1426,1427,1428,1429,1430,1431,1432,1433,1434,1435,1436,1437,1438,1439,1440,1401,1402,1403,1404,1405,1406,1407,1408,1409,1410,1411,1412,
1441,1442,1443,1444,1445,1446,1447,1448,1449,1450,1451,1452,1453,1454,1455,1456,1457,1458,1459,1460,1461,1462,1463,1464,1465,1466,1467,1468,1469,1470,1471,1472,1473,1474,1475,1476,1477,1478,1479,1480,1441,1442,1443,1444,1445,1446,1447,1448,1449,1450,1451,1452,
1481,1482,1483,1484,1485,1486,1487,1488,1489,1490,1491,1492,1493,1494,1495,1496,1497,1498,1499,1500,1501,1502,1503,1504,1505,1506,1507,1508,1509,1510,1511,1512,1513,1514,1515,1516,1517,1518,1519,1520,1481,1482,1483,1484,1485,1486,1487,1488,1489,1490,1491,1492,
1521,1522,1523,1524,1525,1526,1527,1528,1529,1530,1531,1532,1533,1534,1535,1536,1537,1538,1539,1540,1541,1542,1543,1544,1545,1546,1547,1548,1549,1550,1551,1552,1553,1554,1555,1556,1557,1558,1559,1560,1521,1522,1523,1524,1525,1526,1527,1528,1529,1530,1531,1532,
1561,1562,1563,1564,1565,1566,1567,1568,1569,1570,1571,1572,1573,1574,1575,1576,1577,1578,1579,1580,1581,1582,1583,1584,1585,1586,1587,1588,1589,1590,1591,1592,1593,1594,1595,1596,1597,1598,1599,1600,1561,1562,1563,1564,1565,1566,1567,1568,1569,1570,1571,1572,
1,2,3,4,5,6,7,8,9,10,11,12,13,14,15,16,17,18,19,20,21,22,23,24,25,26,27,28,29,30,31,32,33,34,35,36,37,38,39,40,1,2,3,4,5,6,7,8,9,10,11,12,
41,42,43,44,45,46,47,48,49,50,51,52,53,54,55,56,57,58,59,60,61,62,63,64,65,66,67,68,69,70,71,72,73,74,75,76,77,78,79,80,41,42,43,44,45,46,47,48,49,50,51,52,
81,82,83,84,85,86,87,88,89,90,91,92,93,94,95,96,97,98,99,100,101,102,103,104,105,106,107,108,109,110,111,112,113,114,115,116,117,118,119,120,81,82,83,84,85,86,87,88,89,90,91,92,
121,122,123,124,125,126,127,128,129,130,131,132,133,134,135,136,137,138,139,140,141,142,143,144,145,146,147,148,149,150,151,152,153,154,155,156,157,158,159,160,121,122,123,124,125,126,127,128,129,130,131,132
</data>
 </layer>
 <layer id="2" name="Terrain" width="52" height="84">
  <data encoding="csv">
0,0,0,0,0,0,0,0,0,0,0,0,0,0,0,0,0,0,0,0,0,0,0,0,0,0,0,0,0,0,0,0,0,0,0,0,0,0,0,0,0,0,0,0,0,0,0,0,0,0,0,0,
0,0,0,0,0,0,0,0,0,0,0,0,0,0,0,0,0,0,0,0,0,0,0,0,0,0,0,0,0,0,0,0,0,0,0,0,0,0,0,0,0,0,0,0,0,0,0,0,0,0,0,0,
0,0,0,0,0,0,0,0,0,0,0,0,0,0,0,0,0,0,0,0,0,0,0,0,0,0,0,0,0,0,0,0,0,0,0,0,0,0,0,0,0,0,0,0,0,0,0,0,0,0,0,0,
0,0,0,0,0,0,0,0,0,0,0,0,0,0,0,0,0,0,0,0,0,0,0,0,0,0,0,0,0,0,0,0,0,0,0,0,0,0,0,0,0,0,0,0,0,0,0,0,0,0,0,0,
0,0,0,0,0,0,0,0,0,0,0,0,0,0,0,0,0,0,0,0,0,0,0,0,0,0,0,0,0,0,0,0,0,0,0,0,0,0,0,0,0,0,0,0,0,0,0,0,0,0,0,0,
0,0,0,0,0,0,0,0,0,0,0,0,0,0,0,0,0,1601,1602,1603,1604,1605,0,0,0,0,0,0,0,0,0,0,0,0,0,0,0,0,0,0,0,0,0,0,0,0,0,0,0,0,0,0,
0,0,0,0,0,0,0,0,0,0,0,0,0,0,0,0,1606,1607,1608,2564,2565,1609,1610,0,0,0,0,0,0,0,0,0,0,0,0,0,0,0,0,0,0,0,0,0,0,0,0,0,0,0,0,0,
0,0,0,0,0,0,0,0,0,0,0,0,0,0,0,1611,1612,2602,2603,2604,2605,2606,1613,0,0,0,0,0,0,0,0,0,0,0,0,0,0,0,0,0,0,0,0,0,0,0,0,0,0,0,0,0,
0,0,0,0,0,0,0,0,0,0,0,0,0,0,0,1614,2641,2642,2643,2644,2645,1615,1616,0,0,0,0,0,0,0,0,0,0,0,0,0,0,0,0,0,0,0,0,0,0,0,0,0,0,0,0,0,
0,0,0,0,0,0,0,0,0,0,0,0,0,0,0,1617,2681,2682,1618,1619,1620,1621,0,0,0,0,0,0,0,0,0,0,0,0,0,0,0,0,0,0,0,0,0,0,0,0,0,0,0,0,0,0,
0,0,0,0,0,0,0,0,0,0,0,0,0,0,0,1622,2721,2722,1623,0,0,0,0,0,0,0,0,0,0,0,0,0,0,0,0,0,0,0,0,0,0,0,0,0,0,0,0,0,0,0,0,0,
0,0,0,0,0,0,0,0,0,0,0,0,0,0,0,1624,2761,1625,1626,0,0,0,0,0,0,0,0,0,0,0,0,0,0,0,0,0,0,0,0,0,0,0,0,0,0,0,0,0,0,0,0,0,
0,0,0,0,0,0,0,0,0,0,0,0,0,0,1627,1628,2801,1629,0,0,0,0,0,0,0,0,0,0,0,0,0,0,0,0,0,0,0,0,0,0,0,0,0,0,0,0,0,0,0,0,0,0,
0,0,0,0,0,0,0,0,0,0,0,0,0,0,1630,1631,2841,1632,0,0,0,0,0,0,0,0,0,0,0,0,0,0,0,0,0,0,0,0,0,0,0,0,0,0,0,0,0,0,0,0,0,0,
0,0,0,0,0,0,0,0,0,0,0,0,0,0,1633,2880,2881,1634,0,0,0,0,0,0,0,0,0,0,0,0,0,0,0,0,0,0,0,0,0,0,0,0,0,0,0,0,0,0,0,0,0,0,
0,0,0,0,0,0,0,0,0,0,0,0,0,0,1635,1636,2921,1637,0,0,0,0,0,0,0,0,0,0,0,0,0,0,0,0,0,0,0,0,0,0,0,0,0,0,0,0,0,0,0,0,0,0,
0,0,0,0,0,0,0,0,0,0,0,0,0,0,0,1638,2961,1639,1640,0,0,0,0,0,0,0,0,0,0,0,0,0,0,0,0,0,0,0,0,0,0,0,0,0,0,0,0,0,0,0,0,0,
0,0,0,0,0,0,0,0,0,0,0,0,0,0,0,1641,1642,3002,1643,0,0,0,0,0,0,0,0,0,0,0,0,0,0,0,0,0,0,0,0,0,0,0,0,0,0,0,0,0,0,0,0,0,
0,0,0,0,0,0,0,0,0,0,0,0,0,0,0,0,1644,3042,1645,1646,0,0,0,0,0,0,0,0,0,0,0,0,0,0,0,0,0,0,0,0,0,0,0,0,0,0,0,0,0,0,0,0,
0,0,0,0,0,0,0,0,0,0,0,0,0,0,0,0,1647,3082,3083,1648,0,0,0,0,0,0,0,0,0,0,0,0,0,0,0,0,0,0,0,0,0,0,0,0,0,0,0,0,0,0,0,0,
0,0,0,0,0,0,0,0,0,0,0,0,0,0,0,0,1649,3122,3123,1650,0,0,0,0,0,0,0,0,0,0,0,0,0,0,0,0,0,0,0,0,0,0,0,0,0,0,0,0,0,0,0,0,
0,0,0,0,0,0,0,0,0,0,0,0,0,0,0,0,1651,3162,1652,1653,0,0,0,0,0,0,0,0,0,0,0,0,0,0,0,0,0,0,0,0,0,0,0,0,0,0,0,0,0,0,0,0,
0,0,0,0,0,0,0,0,0,0,0,0,0,0,0,1654,1655,3202,1656,0,0,0,0,0,0,0,0,0,0,0,0,0,0,0,0,0,0,0,0,0,0,0,0,0,0,0,0,0,0,0,0,0,
0,0,0,0,0,0,0,0,0,0,0,0,0,0,1657,1658,3241,1659,1660,0,0,0,0,0,0,0,0,0,0,0,0,0,0,0,0,0,0,0,0,0,0,0,0,0,0,0,0,0,0,0,0,0,
0,0,0,0,0,0,0,0,0,0,0,0,0,1661,1662,3280,1663,1664,0,0,0,0,0,0,0,0,0,0,0,0,0,0,0,0,0,0,0,0,0,0,0,0,0,0,0,0,0,0,0,0,0,0,
0,0,0,0,0,0,0,0,0,0,0,0,1665,1666,1667,1668,1669,0,0,0,0,0,0,0,0,0,0,0,0,0,0,0,0,0,0,0,0,0,0,0,0,0,0,0,0,0,0,0,0,0,0,0,
0,0,0,0,0,0,0,0,0,0,0,1670,1671,3358,1672,1673,0,0,0,0,0,0,0,0,0,0,0,0,0,0,0,0,0,0,0,0,0,0,0,0,0,0,0,0,0,0,0,0,0,0,0,0,
0,0,0,0,0,0,0,0,0,0,0,1674,3397,3398,1675,0,0,0,0,0,0,0,0,0,0,0,0,0,0,0,0,0,0,0,0,0,0,0,0,0,0,0,0,0,0,0,0,0,0,0,0,0,
0,0,0,0,0,0,0,0,0,0,0,1676,3437,3438,1677,0,0,0,0,0,0,0,0,0,0,0,0,0,0,0,0,0,0,0,0,0,0,0,0,0,0,0,0,0,0,0,0,0,0,0,0,0,
0,0,0,0,0,0,0,0,0,0,0,1678,3477,3478,1679,0,0,0,0,0,0,0,0,0,0,0,0,0,0,0,0,0,0,0,0,0,0,0,0,0,0,0,0,0,0,0,0,0,0,0,0,0,
0,0,0,0,0,0,0,0,0,0,0,1680,3517,3518,1681,0,0,0,0,0,0,0,0,0,0,0,0,0,0,0,0,0,0,0,0,0,0,0,0,0,0,0,0,0,0,0,0,0,0,0,0,0,
0,0,0,0,0,0,0,0,0,0,0,1682,3557,3558,1683,0,0,0,0,0,0,0,0,0,0,0,0,0,0,0,0,0,0,0,0,0,0,0,0,0,0,0,0,0,0,0,0,0,0,0,0,0,
0,0,0,0,0,0,0,0,0,0,0,1684,1685,3598,1686,0,0,0,0,0,0,0,0,0,0,0,0,0,0,0,0,0,0,0,0,0,0,0,0,0,0,0,0,0,0,0,0,0,0,0,0,0,
0,0,0,0,0,0,0,0,0,0,0,0,1687,3638,1688,1689,0,0,0,0,0,0,0,0,0,0,0,0,0,0,0,0,0,0,0,0,0,0,0,0,0,0,0,0,0,0,0,0,0,0,0,0,
0,0,0,0,0,0,0,0,0,0,0,0,1690,1691,3679,1692,1693,0,0,0,0,0,0,0,0,0,0,0,0,0,0,0,0,0,0,0,0,0,0,0,0,0,0,0,0,0,0,0,0,0,0,0,
0,0,0,0,0,0,0,0,0,0,0,0,0,1694,1695,3720,1696,0,0,0,0,0,0,0,0,0,0,0,0,0,0,0,0,0,0,0,0,0,0,0,0,0,0,0,0,0,0,0,0,0,0,0,
0,0,0,0,0,0,0,0,0,0,0,0,0,0,1697,3760,1698,1699,0,0,0,0,0,0,0,0,0,0,0,0,0,0,0,0,0,0,0,0,0,0,0,0,0,0,0,0,0,0,0,0,0,0,
0,0,0,0,0,0,0,0,0,0,0,0,0,0,1700,3800,3801,1701,0,0,0,0,0,0,0,0,0,0,0,0,0,0,0,0,0,0,0,0,0,0,0,0,0,0,0,0,0,0,0,0,0,0,
0,0,0,0,0,0,0,0,0,0,0,0,0,0,1702,3840,3841,1703,0,0,0,0,0,0,0,0,0,0,0,0,0,0,0,0,0,0,0,0,0,0,0,0,0,0,0,0,0,0,0,0,0,0,
0,0,0,0,0,0,0,0,0,0,0,0,0,0,1704,3880,3881,1705,0,0,0,0,0,0,0,0,0,0,0,0,0,0,0,0,0,0,0,0,0,0,0,0,0,0,0,0,0,0,0,0,0,0,
0,0,0,0,0,0,0,0,0,0,0,0,0,0,1706,2320,1707,1708,0,0,0,0,0,0,0,0,0,0,0,0,0,0,0,0,0,0,0,0,0,0,0,0,0,0,0,0,0,0,0,0,0,0,
0,0,0,0,0,0,0,0,0,0,0,0,0,1709,1710,2360,1711,0,0,0,0,0,0,0,0,0,0,0,0,0,0,0,0,0,0,0,0,0,0,0,0,0,0,0,0,0,0,0,0,0,0,0,
0,0,0,0,0,0,0,0,0,0,0,0,0,1712,2399,1713,1714,0,0,0,0,0,0,0,0,0,0,0,0,0,0,0,0,0,0,0,0,0,0,0,0,0,0,0,0,0,0,0,0,0,0,0,
0,0,0,0,0,0,0,0,0,0,0,0,1715,1716,2439,1717,0,0,0,0,0,0,0,0,0,0,0,0,0,0,0,0,0,0,0,0,0,0,0,0,0,0,0,0,0,0,0,0,0,0,0,0,
0,0,0,0,0,0,0,0,0,0,0,0,1718,1719,2479,1720,0,0,0,0,0,0,0,0,0,0,0,0,0,0,0,0,0,0,0,0,0,0,0,0,0,0,0,0,0,0,0,0,0,0,0,0,
0,0,0,0,0,0,0,0,0,0,0,0,1721,1722,2519,1723,0,0,0,0,0,0,0,0,0,0,0,0,0,0,0,0,0,0,0,0,0,0,0,0,0,0,0,0,0,0,0,0,0,0,0,0,
0,0,0,0,0,0,0,0,0,0,0,0,1724,2558,2559,1725,0,0,0,0,0,0,0,0,0,0,0,0,0,0,0,0,0,0,0,0,0,0,0,0,0,0,0,0,0,0,0,0,0,0,0,0,
0,0,0,0,0,0,0,0,0,0,0,0,1726,1727,2599,1728,0,0,0,0,0,0,0,0,0,0,0,0,0,0,0,0,0,0,0,0,0,0,0,0,0,0,0,0,0,0,0,0,0,0,0,0,
0,0,0,0,0,0,0,0,0,0,0,0,1729,1730,2639,1731,0,0,0,0,0,0,0,0,0,0,0,0,0,0,0,0,0,0,0,0,0,0,0,0,0,0,0,0,0,0,0,0,0,0,0,0,
0,0,0,0,0,0,0,0,0,0,0,0,0,1732,2679,1733,1734,0,0,0,0,0,0,0,0,0,0,0,0,0,0,0,0,0,0,0,0,0,0,0,0,0,0,0,0,0,0,0,0,0,0,0,
0,0,0,0,0,0,0,0,0,0,0,0,0,1735,1736,2720,1737,0,0,0,0,0,0,0,0,0,0,0,0,0,0,0,0,0,0,0,0,0,0,0,0,0,0,0,0,0,0,0,0,0,0,0,
0,0,0,0,0,0,0,0,0,0,0,0,0,0,1738,2760,1739,1740,0,0,0,0,0,0,0,0,0,0,0,0,0,0,0,0,0,0,0,0,0,0,0,0,0,0,0,0,0,0,0,0,0,0,
0,0,0,0,0,0,0,0,0,0,0,0,0,0,1741,2800,2801,1742,0,0,0,0,0,0,0,0,0,0,0,0,0,0,0,0,0,0,0,0,0,0,0,0,0,0,0,0,0,0,0,0,0,0,
0,0,0,0,0,0,0,0,0,0,0,0,0,0,1743,2840,1744,1745,0,0,0,0,0,0,0,0,0,0,0,0,0,0,0,0,0,0,0,0,0,0,0,0,0,0,0,0,0,0,0,0,0,0,
0,0,0,0,0,0,0,0,0,0,0,0,0,0,1746,2880,1747,0,0,0,0,0,0,0,0,0,0,0,0,0,0,0,0,0,0,0,0,0,0,0,0,0,0,0,0,0,0,0,0,0,0,0,
0,0,0,0,0,0,0,0,0,0,0,0,0,1748,1749,2920,1750,0,0,0,0,0,0,0,0,0,0,0,0,0,0,0,0,0,0,0,0,0,0,0,0,0,0,0,0,0,0,0,0,0,0,0,
0,0,0,0,0,0,0,0,0,0,0,0,0,1751,1752,2960,1753,0,0,0,0,0,0,0,0,0,0,0,0,0,0,0,0,0,0,0,0,0,0,0,0,0,0,0,0,0,0,0,0,0,0,0,
0,0,0,0,0,0,0,0,0,0,0,0,0,1754,2999,3000,1755,0,0,0,0,0,0,0,0,0,0,0,0,0,0,0,0,0,0,0,0,0,0,0,0,0,0,0,0,0,0,0,0,0,0,0,
0,0,0,0,0,0,0,0,0,0,0,0,0,1756,3039,3040,1757,0,0,0,0,0,0,0,0,0,0,0,0,0,0,0,0,0,0,0,0,0,0,0,0,0,0,0,0,0,0,0,0,0,0,0,
0,0,0,0,0,0,0,0,0,0,0,0,0,1758,3079,3080,1759,0,0,0,0,0,0,0,0,0,0,0,0,0,0,0,0,0,0,0,0,0,0,0,0,0,0,0,0,0,0,0,0,0,0,0,
0,0,0,0,0,0,0,0,0,0,0,0,0,1760,3119,3120,1761,0,0,0,0,0,0,0,0,0,0,0,0,0,0,0,0,0,0,0,0,0,0,0,0,0,0,0,0,0,0,0,0,0,0,0,
0,0,0,0,0,0,0,0,0,0,0,0,0,1762,3159,1763,1764,0,0,0,0,0,0,0,0,0,0,0,0,0,0,0,0,0,0,0,0,0,0,0,0,0,0,0,0,0,0,0,0,0,0,0,
0,0,0,0,0,0,0,0,0,0,0,0,1765,1766,3199,1767,0,0,0,0,0,0,0,0,0,0,0,0,0,0,0,0,0,0,0,0,0,0,0,0,0,0,0,0,0,0,0,0,0,0,0,0,
0,0,0,0,0,0,0,0,0,0,0,0,1768,3238,1769,1770,0,0,0,0,0,0,0,0,0,0,0,0,0,0,0,0,0,0,0,0,0,0,0,0,0,0,0,0,0,0,0,0,0,0,0,0,
0,0,0,0,0,0,0,0,0,0,0,1771,1772,3278,1773,0,0,0,0,0,0,0,0,0,0,0,0,0,0,0,0,0,0,0,0,0,0,0,0,0,0,0,0,0,0,0,0,0,0,0,0,0,
0,0,0,0,0,0,0,0,0,0,0,1774,3317,1775,1776,0,0,0,0,0,0,0,0,0,0,0,0,0,0,0,0,0,0,0,0,0,0,0,0,0,0,0,0,0,0,0,0,0,0,0,0,0,
0,0,0,0,0,0,0,0,0,0,1777,1778,1779,1780,0,0,0,0,0,0,0,0,0,0,0,0,0,0,0,0,0,0,0,0,0,0,0,0,0,0,0,0,0,0,0,0,0,0,0,0,0,0,
0,0,0,0,0,0,0,0,1781,1782,1783,3396,1784,0,0,0,0,0,0,0,0,0,0,0,0,0,0,0,0,0,0,0,0,0,0,0,0,0,0,0,0,0,0,0,0,0,0,0,0,0,0,0,
0,0,0,0,0,0,1785,1786,1787,3434,3435,1788,1789,0,0,0,0,0,0,0,0,0,0,0,0,0,0,0,0,0,0,0,0,0,0,0,0,0,0,0,0,0,0,0,0,0,0,0,0,0,0,0,
0,0,1790,1791,1792,1793,1794,3472,3473,1795,1796,1797,0,0,0,0,0,0,0,0,0,0,0,0,0,0,0,0,0,0,0,0,0,0,0,0,0,0,0,0,0,0,0,0,0,0,0,0,0,0,0,0,
1798,1799,1800,3508,3509,3510,3511,1801,1802,1803,0,0,0,0,0,0,0,0,0,0,0,0,0,0,0,0,0,0,0,0,0,0,0,0,0,0,1804,1805,1806,1807,1808,1808,1809,1810,1808,1811,1812,1813,0,0,0,0,
1814,3546,3547,3548,3549,1815,1816,1817,0,0,0,0,0,0,0,0,0,0,0,0,0,0,0,0,0,0,0,0,0,0,0,0,0,0,0,1818,1819,5182,5183,5184,5145,5146,5147,5148,5149,5150,5151,1820,1821,0,0,0,
1822,1823,1824,1825,1826,1827,0,0,0,0,0,0,0,0,0,0,0,0,0,0,0,0,0,0,0,0,0,0,0,0,0,0,0,0,0,1828,5221,5222,5223,5224,5185,5186,5187,5188,5189,5190,5191,5192,1829,0,0,0,
1830,1831,0,0,0,0,0,0,0,0,0,0,0,0,0,0,0,0,0,0,0,0,0,0,0,0,0,0,0,0,0,0,0,0,0,1832,5261,5262,5263,5264,5225,5226,5227,5228,5229,5230,5231,5232,1833,0,0,0,
0,0,0,0,0,0,0,0,0,0,0,0,0,0,0,0,0,0,0,0,0,0,0,0,0,0,0,0,0,0,0,0,0,0,0,1834,5301,5302,5303,5304,5265,5266,5267,5268,5269,5270,5271,5272,1835,0,0,0,
0,0,0,0,0,0,0,0,0,0,0,0,0,0,0,0,0,0,0,0,0,0,0,0,0,0,0,0,0,0,0,0,0,0,0,1836,5341,5342,5343,5344,5305,5306,5307,5308,5309,5310,5311,5312,1837,0,0,0,
0,0,0,0,0,0,0,0,0,0,0,0,0,0,0,0,0,0,0,0,0,0,0,0,0,0,0,0,0,0,0,0,0,0,0,1838,5381,5382,5383,5384,5345,5346,5347,5348,5349,5350,5351,5352,1839,0,0,0,
0,0,0,0,0,0,0,0,0,0,0,0,0,0,0,0,0,0,0,0,0,0,0,0,0,0,0,0,0,0,0,0,0,0,0,1840,5421,5422,5423,5424,5385,5386,5387,5388,5389,5390,5391,5392,1841,0,0,0,
0,0,0,0,0,0,0,0,0,0,0,0,0,0,0,0,0,0,0,0,0,0,0,0,0,0,0,0,0,0,0,0,0,0,0,1842,1843,5462,5463,5464,5425,5426,5427,5428,5429,5430,5431,1844,1845,0,0,0,
0,0,0,0,0,0,0,0,0,0,0,0,0,0,0,0,0,0,0,0,0,0,0,0,0,0,0,0,0,0,0,0,0,0,0,0,1846,1847,1848,1849,1850,1849,1849,1851,1849,1852,1853,1854,0,0,0,0,
0,0,0,0,0,0,0,0,0,0,0,0,0,0,0,0,0,0,0,0,0,0,0,0,0,0,0,0,0,0,0,0,0,0,0,0,0,0,0,0,0,0,0,0,0,0,0,0,0,0,0,0,
0,0,0,0,0,0,0,0,0,0,0,0,0,0,0,0,0,0,0,0,0,0,0,0,0,0,0,0,0,0,0,0,0,0,0,0,0,0,0,0,0,0,0,0,0,0,0,0,0,0,0,0,
0,0,0,0,0,0,0,0,0,0,0,0,0,0,0,0,0,0,0,0,0,0,0,0,0,0,0,0,0,0,0,0,0,0,0,0,0,0,0,0,0,0,0,0,0,0,0,0,0,0,0,0,
0,0,0,0,0,0,0,0,0,0,0,0,0,0,0,0,0,0,0,0,0,0,0,0,0,0,0,0,0,0,0,0,0,0,0,0,0,0,0,0,0,0,0,0,0,0,0,0,0,0,0,0
</data>
 </layer>
 <layer id="3" name="Overlay" width="52" height="84">
  <data encoding="csv">
0,0,0,0,0,0,0,0,0,0,0,0,0,0,0,0,0,0,0,0,0,0,0,0,0,0,0,0,0,0,0,0,0,0,0,0,0,0,0,0,0,0,0,0,0,0,0,0,0,0,0,0,
0,0,0,0,0,0,0,0,0,0,0,0,0,0,0,0,0,0,0,0,0,0,0,0,0,0,0,0,0,0,0,0,0,0,0,0,0,0,0,0,0,0,0,0,0,0,0,0,0,0,0,0,
0,0,0,0,0,0,0,0,0,0,0,0,0,0,0,0,0,0,0,0,0,0,0,0,0,0,0,0,0,0,0,0,0,0,0,0,0,0,0,0,0,0,0,0,0,0,0,0,0,0,0,0,
0,0,0,0,0,0,0,0,0,0,0,0,0,0,0,0,0,0,0,0,0,0,0,0,0,0,0,0,0,0,0,0,0,0,0,0,0,0,0,0,0,0,0,0,0,0,0,0,0,0,0,0,
0,0,0,0,0,0,0,0,0,0,0,0,0,0,0,0,0,0,0,0,0,0,0,0,0,0,0,0,0,0,0,0,0,0,0,0,0,0,0,0,0,0,0,0,0,0,0,0,0,0,0,0,
0,0,0,0,0,0,0,0,0,0,0,0,0,0,0,0,0,0,0,0,0,0,0,0,0,0,0,0,0,0,0,0,0,0,0,0,0,0,0,0,0,0,0,0,0,0,0,0,0,0,0,0,
0,0,0,0,0,0,0,0,0,0,0,0,0,0,0,0,0,0,0,0,0,0,0,0,0,0,0,0,0,0,0,0,0,0,0,0,0,0,0,0,0,0,0,0,0,0,0,0,0,0,0,0,
0,0,0,0,0,0,0,0,0,0,0,0,0,0,0,0,0,0,0,0,0,0,0,0,0,0,0,0,0,0,0,0,0,0,0,0,0,0,0,0,0,0,0,0,0,0,0,0,0,0,0,0,
0,0,0,0,0,0,0,0,0,0,0,0,0,0,0,0,0,0,0,0,0,0,0,0,0,0,0,0,0,0,0,0,0,0,0,0,0,0,0,0,0,0,0,0,0,0,0,0,0,0,0,0,
0,0,0,0,0,0,0,0,0,0,0,0,0,0,0,0,0,0,0,0,0,0,0,0,0,0,0,0,0,0,0,0,0,0,0,0,0,0,0,0,0,0,0,0,0,0,0,0,0,0,0,0,
0,0,0,0,0,0,0,0,0,0,0,0,0,0,0,0,0,0,0,0,0,0,0,0,0,0,0,0,0,0,0,0,0,0,0,0,0,0,0,0,0,0,0,0,0,0,0,0,0,0,0,0,
0,0,0,0,0,0,0,0,0,0,0,0,0,0,0,0,0,0,0,0,0,0,0,0,0,0,0,0,0,0,0,0,0,0,0,0,0,0,0,0,0,0,0,0,0,0,0,0,0,0,0,0,
0,0,0,0,0,0,0,0,0,0,0,0,0,0,0,0,0,0,0,0,0,0,0,0,1855,1856,0,0,0,0,0,0,0,0,0,0,0,0,0,0,0,0,0,0,0,0,0,0,0,0,0,0,
0,0,0,0,0,0,0,0,0,0,0,0,0,0,0,0,0,0,0,0,0,0,0,0,1857,1858,0,0,0,0,0,0,0,0,0,0,0,0,0,0,0,0,0,0,0,0,0,0,0,0,0,0,
0,0,0,0,0,0,0,0,0,0,0,0,0,0,0,0,0,0,0,0,0,0,0,0,1859,1860,0,0,0,0,0,0,0,0,0,0,0,0,0,0,0,0,0,0,0,0,0,0,0,0,0,0,
0,0,0,0,0,0,0,0,0,0,0,0,0,0,0,0,0,0,0,0,0,0,0,0,1861,1862,1863,0,0,0,0,0,0,0,0,0,0,0,0,0,0,0,0,0,0,0,0,0,0,0,0,0,
0,0,0,0,0,0,0,0,0,0,0,0,0,0,0,0,0,0,0,0,0,0,0,0,1864,1865,1866,0,0,0,0,0,0,0,0,0,0,0,0,0,0,0,0,0,0,0,0,0,0,0,0,0,
0,0,0,0,0,0,0,0,0,0,0,0,0,0,0,0,0,0,0,0,0,0,0,0,0,1867,1868,0,0,0,0,0,0,0,0,0,0,0,0,0,0,0,0,0,0,0,0,0,0,0,0,0,
0,0,0,0,0,0,0,0,0,0,0,0,0,0,0,0,0,0,0,0,0,0,0,0,0,1869,1870,1871,0,0,0,0,0,0,0,0,0,0,0,0,0,0,0,0,0,0,0,0,0,0,0,0,
0,0,0,0,0,0,0,0,0,0,0,0,0,0,0,0,0,0,0,0,0,0,0,0,0,1872,1873,1874,0,0,0,0,0,0,0,0,0,0,0,0,0,0,0,0,0,0,0,0,0,0,0,0,
0,0,0,0,0,0,0,0,0,0,0,0,0,0,0,0,0,0,0,0,0,0,0,0,0,1875,1876,1877,0,0,0,0,0,0,0,0,0,0,0,0,0,0,0,0,0,0,0,0,0,0,0,0,
0,0,0,0,0,0,0,0,0,0,0,0,0,0,0,0,0,0,0,0,0,0,0,0,0,0,1878,1879,0,0,0,0,0,0,0,0,0,0,0,0,0,0,0,0,0,0,0,0,0,0,0,0,
0,0,0,0,0,0,0,0,0,0,0,0,0,0,0,0,0,0,0,0,0,0,0,0,0,0,1880,1881,1882,0,0,0,0,0,0,0,0,0,0,0,0,0,0,0,0,0,0,0,0,0,0,0,
0,0,0,0,0,0,0,0,0,0,0,0,0,0,0,0,0,0,0,0,0,0,0,0,0,0,1883,1884,1885,0,0,0,0,0,0,0,0,0,0,0,0,0,0,0,0,0,0,0,0,0,0,0,
0,0,0,0,0,0,0,0,0,0,0,0,0,0,0,0,0,0,0,0,0,0,0,0,0,0,0,1886,1887,0,0,0,0,0,0,0,0,0,0,0,0,0,0,0,0,0,0,0,0,0,0,0,
0,0,0,0,0,0,0,0,0,0,0,0,0,0,0,0,0,0,0,0,0,0,0,0,0,0,0,1888,1889,1890,0,0,0,0,0,0,0,0,0,0,0,0,0,0,0,0,0,0,0,0,0,0,
0,0,0,0,0,0,0,0,0,0,0,0,0,0,0,0,0,0,0,0,0,0,0,0,0,0,0,1891,1892,1893,0,0,0,0,0,0,0,0,0,0,0,0,0,0,0,0,0,0,0,0,0,0,
0,0,0,0,0,0,0,0,0,0,0,0,0,0,0,0,0,0,0,0,0,0,0,0,0,0,0,0,1894,1895,0,0,0,0,0,0,0,0,0,0,0,0,0,0,0,0,0,0,0,0,0,0,
0,0,0,0,0,0,0,0,0,0,0,0,0,0,0,0,0,0,0,0,0,0,0,0,0,0,0,0,1896,1897,1898,0,0,0,0,0,0,0,0,0,0,0,0,0,0,0,0,0,0,0,0,0,
0,0,0,0,0,0,0,0,0,0,0,0,0,0,0,0,0,0,0,0,0,0,0,0,0,0,0,0,1899,1900,1901,0,0,0,0,0,0,0,0,0,0,0,0,0,0,0,0,0,0,0,0,0,
0,0,0,0,0,0,0,0,0,0,0,0,0,0,0,0,0,0,0,0,0,0,0,0,0,0,0,0,0,1902,1903,0,0,1904,1905,1906,1907,1908,1909,1910,1911,1912,1913,1914,1915,1916,1917,1918,1919,1920,1921,1922,
0,0,0,0,0,0,0,0,0,0,0,0,0,0,0,0,0,0,0,0,0,0,0,0,0,0,0,0,0,1923,1924,1925,1926,1927,6779,6780,6781,6782,1928,1929,6745,6746,6747,6748,6749,6750,6751,6752,6753,6754,6755,6756,
0,0,0,0,0,0,0,0,0,0,0,0,0,0,0,0,0,0,0,0,0,0,0,0,0,0,0,0,0,1930,1931,1932,1933,6818,6819,1934,1935,1936,1937,1938,1939,1940,1941,1942,1943,1944,1945,1946,1947,1948,1949,1950,
0,0,0,0,0,0,0,0,0,0,0,0,0,0,0,0,0,0,0,0,0,0,0,0,0,0,0,0,0,0,1951,6856,1952,1953,1954,1955,0,0,0,0,0,0,0,0,0,0,0,1956,0,0,0,0,
0,0,0,0,0,0,0,0,0,0,0,0,0,0,0,0,0,0,0,0,0,0,0,0,0,0,0,0,0,0,1957,1958,1959,0,0,0,0,0,0,0,0,0,0,0,0,0,0,0,0,0,0,0,
0,0,0,0,0,0,0,0,0,0,0,0,0,0,0,0,0,0,0,0,0,0,0,0,0,0,0,0,0,1960,1961,1962,1963,0,0,0,0,0,0,0,0,0,0,0,0,0,0,0,0,0,0,0,
0,0,0,0,0,0,0,0,0,0,0,0,0,0,0,0,0,0,0,0,0,0,0,0,0,0,0,0,0,1964,6975,1965,0,0,0,0,0,0,0,0,0,0,0,0,0,0,0,0,0,0,0,0,
0,0,0,0,0,0,0,0,0,0,0,0,0,0,0,0,0,0,0,0,0,0,0,1966,1967,0,0,0,0,1968,7015,1969,0,0,0,0,0,0,0,0,0,0,0,0,0,0,0,0,0,0,0,0,
0,0,0,0,0,0,0,0,0,0,0,0,0,0,0,0,0,0,0,0,0,0,0,1970,1971,1972,0,0,0,1973,1974,1975,0,0,0,0,0,0,0,0,0,1976,1977,0,0,0,0,0,0,0,0,0,
0,0,0,0,0,0,0,0,0,0,0,0,0,0,0,0,0,0,0,0,0,0,0,1978,1979,1980,1981,1982,1983,1984,1985,1986,0,0,0,0,0,0,0,0,1987,1988,1989,1990,1991,1992,1993,1994,0,0,0,0,
0,0,0,0,0,0,0,0,0,0,0,0,0,0,0,0,0,0,0,0,0,0,0,1995,1996,1997,1998,1999,2000,2001,2002,1871,0,0,0,0,0,0,0,0,2003,5506,5507,5508,5509,5510,2004,2005,2006,0,0,0,
0,0,0,0,0,0,0,0,0,0,0,0,0,0,0,0,0,0,0,0,0,0,0,0,0,0,0,0,2007,2008,2009,2010,0,0,0,0,0,0,0,0,2011,5546,5547,5548,5549,5550,5551,5552,2012,0,0,0,
0,0,0,0,0,0,0,0,0,0,0,0,0,0,0,0,0,0,0,0,0,0,0,0,0,0,0,0,2013,2014,2015,2016,0,0,0,0,2017,2018,2019,2020,2021,5586,5587,5588,5589,5590,5591,5592,2022,2023,0,0,
0,0,0,0,0,0,0,0,0,0,0,0,0,0,0,0,0,0,0,0,0,0,0,0,0,0,0,0,2024,5654,5655,2025,0,0,0,0,2026,5662,2027,0,2028,5626,5627,5628,5629,5630,2029,2030,2031,2032,0,0,
0,0,0,0,0,0,0,0,0,0,0,0,0,0,0,0,0,0,0,0,0,0,0,0,0,0,0,0,2033,2034,5695,2035,0,0,2036,2037,2038,5702,2039,0,2040,2041,5667,5668,1952,2042,2043,2044,0,0,0,0,
0,0,0,0,0,0,0,0,0,0,0,0,0,0,0,0,0,0,0,0,0,0,2045,2046,2047,0,0,0,2048,2049,5735,2050,2051,2052,2053,2054,5741,2055,2056,0,0,2057,2058,2059,2060,2061,0,0,0,0,0,0,
0,0,0,0,0,0,0,0,0,0,0,0,0,0,0,0,0,0,0,0,0,0,2062,5768,2063,0,0,0,0,2064,5775,2065,2066,2067,2068,2069,2070,2071,2072,0,0,0,0,0,0,0,0,0,0,0,0,0,
0,0,0,0,0,0,0,0,0,0,0,0,0,0,0,0,0,0,0,0,0,0,2073,2074,2075,0,0,0,0,2076,5815,2077,0,0,0,0,0,0,0,0,0,0,0,0,0,0,0,0,0,0,0,0,
0,0,0,0,0,0,0,0,0,0,0,0,0,0,0,0,0,0,0,0,0,0,2078,2079,2080,2081,2082,2083,2084,2085,5855,2086,0,0,0,0,0,0,0,0,0,0,0,0,0,0,0,0,0,0,0,0,
0,0,0,0,0,0,0,0,0,0,0,0,0,0,0,0,0,0,0,0,0,0,2087,2088,2089,2090,2091,5892,2092,2093,5895,2094,0,0,0,0,0,0,0,0,0,0,0,0,0,0,0,0,0,0,0,0,
0,0,0,0,0,0,0,0,0,0,0,0,0,0,0,0,0,0,0,0,0,0,0,0,0,2095,2096,2097,2098,2099,5935,2100,0,0,0,0,0,0,0,0,0,0,0,0,0,0,0,0,0,0,0,0,
0,0,0,0,0,0,0,0,0,0,0,0,0,0,0,0,0,0,0,0,0,0,0,0,0,0,0,0,0,2101,5975,2102,0,0,0,0,0,0,0,0,0,0,0,0,0,0,0,0,0,0,0,0,
0,0,0,0,0,0,0,0,0,0,0,0,0,0,0,0,0,0,0,0,0,0,0,0,0,0,0,0,0,2103,2104,2105,0,0,0,0,0,0,0,0,0,0,0,0,0,0,0,0,0,0,0,0,
0,0,0,0,0,0,0,2106,0,0,0,0,0,0,0,0,0,0,0,0,0,0,0,0,0,0,0,0,0,2107,2108,0,0,0,0,0,0,0,0,0,0,0,0,0,0,0,0,0,0,0,0,0,
0,0,0,0,0,0,0,2109,2110,0,0,0,0,0,0,0,0,0,0,0,0,0,0,0,0,0,0,0,2111,2112,2113,0,0,0,0,0,0,0,0,0,0,0,0,0,0,0,0,0,0,0,0,0,
0,0,0,0,0,0,0,2114,2115,2116,0,0,0,0,0,0,0,0,0,0,0,0,0,0,0,0,0,0,2117,2118,2119,0,0,0,0,0,0,0,0,0,0,0,0,0,0,0,0,0,0,0,0,0,
0,0,0,0,0,0,0,2120,2121,2122,0,0,0,0,0,0,0,0,0,0,0,0,0,0,0,0,0,0,2123,6174,2124,2125,0,0,0,0,0,0,0,0,0,0,0,0,0,0,0,0,0,0,0,0,
0,0,0,0,0,0,0,0,2126,2127,2128,0,0,0,0,0,0,0,0,0,0,0,0,0,0,0,0,0,2129,6214,2130,2131,0,0,0,0,0,0,0,0,0,0,0,0,0,0,0,0,0,0,0,0,
0,0,0,0,0,0,0,0,0,2132,2133,2134,0,0,0,2135,2136,2137,2138,2139,2140,2141,2142,2143,0,0,0,0,2144,6254,2145,2146,0,0,0,0,0,0,0,0,0,0,0,0,0,0,0,0,0,0,0,0,
0,0,0,0,0,0,0,0,0,2147,2148,2149,2150,2151,2152,2153,2154,2155,2156,6284,6285,6286,6287,2157,2158,2159,2160,2161,2162,2163,2164,2165,0,0,0,0,0,0,0,0,0,0,0,0,0,0,0,0,0,0,0,0,
0,0,0,0,0,0,0,0,0,0,0,2166,2167,2168,2169,2170,2171,2172,2173,2174,2175,2176,2177,2178,2179,2180,2181,2182,2183,2184,2185,2186,0,2017,2187,2188,0,0,0,0,0,0,0,0,0,0,0,0,0,0,0,0,
0,0,0,0,0,0,0,0,0,0,0,0,0,0,0,0,0,0,0,0,0,0,0,0,0,0,0,0,0,2189,6375,2190,0,2191,2192,2193,0,0,0,0,0,0,0,0,0,0,0,0,0,0,0,0,
0,0,0,0,0,0,0,0,0,0,0,0,0,0,0,0,0,0,0,0,0,0,0,0,0,0,0,0,0,2194,6415,2195,0,2196,6419,2197,0,0,0,0,0,0,0,0,0,0,0,0,0,0,0,0,
0,0,0,0,0,0,0,0,0,0,0,0,0,0,0,0,0,0,0,0,0,0,0,0,0,0,0,0,0,2198,6455,2199,2200,2201,6459,2202,0,0,0,0,0,0,0,0,0,0,0,0,0,0,0,0,
0,0,0,0,0,0,0,0,0,0,0,0,0,0,0,0,0,0,0,0,0,0,0,0,0,0,0,0,0,2203,2204,2205,2206,2207,2208,2209,2210,0,0,0,0,0,0,2211,2212,0,2213,0,0,0,0,0,
0,0,0,0,0,0,0,0,0,0,0,0,0,0,0,0,0,0,0,0,0,0,0,0,0,0,0,0,0,2214,2215,2216,2217,0,2218,2219,2220,2221,0,0,0,0,0,2222,2223,2224,2225,2226,0,0,0,0,
0,0,0,0,0,0,0,0,0,0,0,0,0,0,0,0,0,0,0,0,0,0,0,0,0,0,0,0,0,0,2227,2228,2229,0,0,2230,2231,2232,2233,2234,0,0,2235,2236,2237,2238,2239,2240,0,0,0,0,
0,0,0,0,0,0,0,0,0,0,0,0,0,0,0,0,0,0,0,0,0,0,0,0,0,0,0,0,0,0,2241,6616,2242,0,0,0,2243,2244,2245,2246,2247,2248,2249,6588,2250,2251,2252,0,0,0,0,0,
0,0,0,0,0,0,0,0,0,0,0,0,0,0,0,0,0,0,0,0,0,0,0,0,0,0,0,0,0,0,2253,6656,2254,0,0,0,0,2255,2256,2257,2258,2259,2260,2261,2262,0,0,0,0,0,0,0,
0,0,0,0,0,0,0,0,0,0,0,0,0,0,0,0,0,0,0,0,0,0,0,0,0,0,0,0,0,0,2263,6696,2264,2265,0,0,0,0,0,0,0,0,0,0,0,0,0,0,0,0,0,0,
0,0,0,0,0,0,0,0,0,0,0,0,0,0,0,0,0,0,0,0,0,0,0,0,0,0,0,0,0,0,2266,2267,2268,2269,0,0,0,0,0,0,0,0,0,0,0,0,0,0,0,0,0,0,
0,0,0,0,0,0,0,0,0,0,0,0,0,0,0,0,0,0,0,0,0,0,0,0,0,0,0,0,0,0,2270,2271,6777,2272,0,0,0,0,0,0,0,0,0,0,0,0,0,0,0,0,0,0,
0,0,0,0,0,0,0,0,0,0,0,0,0,0,0,0,0,0,0,0,0,0,0,0,0,0,0,0,0,0,2273,2274,6817,2275,0,0,0,0,0,0,0,0,0,0,0,0,0,0,0,0,0,0,
0,0,0,0,0,0,0,0,0,0,0,0,0,0,0,0,0,0,0,0,0,0,0,0,0,0,0,0,0,0,0,2276,6857,2277,0,0,0,0,0,0,0,0,0,0,0,0,0,0,0,0,0,0,
0,0,0,0,0,0,0,0,0,0,0,0,0,0,0,0,0,0,0,0,0,0,0,0,0,0,0,0,0,0,2278,2279,2280,2281,0,0,0,0,0,0,0,0,0,0,0,0,0,0,0,0,0,0,
0,0,0,0,0,0,0,0,0,0,0,0,0,0,0,0,0,0,0,0,0,0,0,0,0,0,0,0,0,0,2282,6936,2283,0,0,0,0,0,0,0,0,0,0,0,0,0,0,0,0,0,0,0,
0,0,0,0,0,0,0,0,0,0,0,0,0,0,0,0,0,0,0,0,0,0,0,0,0,0,0,0,0,0,2284,6976,2285,0,0,0,0,0,0,0,0,0,0,0,0,0,0,0,0,0,0,0,
0,0,0,0,0,0,0,0,0,0,0,0,0,0,0,0,0,0,0,0,0,0,0,0,0,0,0,0,0,0,2286,7016,2287,0,0,0,0,0,0,0,0,0,0,0,0,0,0,0,0,0,0,0,
0,0,0,0,0,0,0,0,0,0,0,0,0,0,0,0,0,0,0,0,0,0,0,0,0,0,0,0,0,2288,2289,2290,2291,0,0,0,0,0,0,0,0,0,0,0,0,0,0,0,0,0,0,0,
0,0,0,0,0,0,0,0,0,0,0,0,0,0,0,0,0,0,0,0,0,0,0,0,0,0,0,0,0,0,2292,2293,2294,0,0,0,0,0,0,0,0,0,0,0,0,0,0,0,0,0,0,0,
0,0,0,0,0,0,0,0,0,0,0,0,0,0,0,0,0,0,0,0,0,0,0,0,0,0,0,0,0,0,2295,2296,0,0,0,0,0,0,0,0,0,0,0,0,0,0,0,0,0,0,0,0,
0,0,0,0,0,0,0,0,0,0,0,0,0,0,0,0,0,0,0,0,0,0,0,0,0,0,0,0,0,0,2297,2298,2299,0,0,0,0,0,0,0,0,0,0,0,0,0,0,0,0,0,0,0,
0,0,0,0,0,0,0,0,0,0,0,0,0,0,0,0,0,0,0,0,0,0,0,0,0,0,0,0,0,0,2300,2301,2302,0,0,0,0,0,0,0,0,0,0,0,0,0,0,0,0,0,0,0,
0,0,0,0,0,0,0,0,0,0,0,0,0,0,0,0,0,0,0,0,0,0,0,0,0,0,0,0,0,0,2303,5656,2304,0,0,0,0,0,0,0,0,0,0,0,0,0,0,0,0,0,0,0
</data>
 </layer>
 <layer id="4" name="Decor" width="52" height="84">
  <data encoding="csv">
0,0,0,0,0,0,0,0,0,0,0,0,0,0,0,0,0,0,0,0,0,0,0,0,0,0,0,0,0,0,0,0,0,0,0,0,0,0,0,0,0,0,0,0,0,0,0,0,0,0,0,0,
0,0,0,0,0,0,0,0,0,0,0,0,0,0,0,0,0,0,0,0,0,0,0,0,0,0,0,0,0,0,0,0,0,0,0,0,0,0,0,0,0,0,0,0,0,0,0,0,0,0,0,0,
0,0,0,0,0,0,0,0,0,0,0,0,0,0,0,0,0,0,0,0,0,0,0,0,0,0,0,0,0,0,0,0,0,0,0,0,0,0,0,0,0,0,0,0,0,0,0,0,0,0,0,0,
0,0,0,0,0,0,0,0,0,0,0,0,0,0,0,0,0,0,0,0,0,0,0,0,0,0,0,0,0,0,0,0,0,0,0,8910,0,0,0,0,0,0,0,0,0,0,0,0,0,0,0,0,
0,0,0,0,8849,0,8852,0,0,0,0,0,0,0,0,0,0,0,0,0,0,0,0,0,0,0,0,0,0,0,0,0,0,0,0,0,0,0,0,0,0,0,0,0,8853,0,0,0,0,0,0,0,
0,0,0,8905,0,0,8867,0,8853,0,0,0,0,0,0,0,0,0,0,0,0,0,0,8885,0,0,0,0,0,0,0,0,0,0,0,0,0,0,0,0,0,0,0,0,0,0,0,8877,0,0,0,0,
0,0,0,0,0,0,0,0,0,0,0,0,0,0,0,0,0,0,0,0,0,0,0,0,0,0,8870,0,0,0,0,0,0,0,0,0,0,0,0,0,0,8849,0,8856,0,8849,0,0,0,0,0,0,
0,0,0,0,0,0,0,0,0,0,0,0,0,0,0,0,0,0,0,0,0,0,0,0,0,0,0,0,8903,0,0,0,0,8855,0,0,8864,0,0,0,0,0,0,0,0,0,0,0,0,0,0,0,
0,0,8848,0,0,0,0,0,0,0,0,0,0,0,0,0,0,0,0,0,0,0,0,0,0,8877,0,8877,0,0,0,0,0,8857,0,8848,0,0,0,0,0,0,0,0,0,0,0,0,0,0,0,0,
0,0,0,0,0,0,0,0,0,0,0,0,0,0,0,0,0,0,0,0,0,0,0,0,0,0,0,0,0,0,0,0,0,0,0,0,0,0,0,0,0,0,0,0,8904,0,0,0,0,0,0,0,
0,0,0,8867,0,0,0,0,0,0,0,8865,0,0,0,0,0,0,0,0,0,0,0,0,0,0,0,0,0,0,8879,8849,0,0,0,0,0,0,0,0,0,0,0,0,0,0,0,0,0,0,0,0,
0,0,0,0,8905,0,0,0,0,0,0,0,0,0,0,0,0,0,0,8849,0,0,0,0,0,0,0,0,0,0,0,0,0,0,0,0,0,0,0,0,0,0,0,0,0,0,0,0,0,0,0,0,
0,0,0,0,0,0,0,8911,0,0,0,0,0,0,0,0,0,0,0,0,0,0,8903,0,0,0,0,0,0,0,0,0,0,0,0,0,0,0,0,8911,0,0,0,0,0,0,0,0,0,0,0,0,
0,0,0,0,0,8848,0,0,8856,0,0,8910,0,0,0,0,0,0,0,0,0,8903,0,0,0,0,0,0,0,0,0,0,0,0,0,0,0,8879,0,0,0,0,0,0,0,0,0,8867,0,0,0,0,
0,0,0,0,0,0,0,0,0,0,0,0,0,0,0,0,0,0,8853,8885,0,0,0,0,0,0,0,0,0,8869,0,0,0,0,0,0,0,0,0,0,0,0,0,0,0,0,0,0,0,0,0,0,
0,0,0,0,0,0,0,0,0,0,0,8869,0,0,0,0,0,0,0,0,0,0,0,0,0,0,0,0,0,0,0,0,0,0,0,0,0,0,0,8885,8911,0,8869,0,0,0,0,0,0,0,0,0,
0,0,0,0,0,0,0,0,0,0,8848,0,8855,0,0,0,0,0,0,0,0,0,0,0,8851,0,0,0,0,0,0,0,0,0,0,0,0,0,8856,0,8877,0,0,0,0,0,0,0,0,0,0,0,
0,0,0,0,0,0,0,8849,0,0,0,0,0,0,0,0,0,0,0,0,0,0,8904,8861,0,0,0,8851,0,8853,0,0,0,0,0,0,0,0,0,0,0,0,0,0,0,0,0,0,0,0,0,0,
0,0,0,0,0,0,0,0,0,0,0,0,0,0,0,0,0,0,0,0,0,0,0,0,0,0,8848,0,0,0,0,0,0,0,0,0,0,0,0,0,0,0,0,0,0,0,0,8852,0,0,0,0,
0,0,8905,8904,0,0,0,0,0,0,0,0,0,0,0,0,0,0,0,0,0,0,0,0,0,0,0,0,0,0,0,0,0,0,0,0,0,8867,0,0,0,0,0,0,0,0,0,0,0,0,0,0,
0,0,0,0,0,0,0,0,0,0,0,0,0,0,8904,8852,0,0,0,0,0,0,0,8911,0,8855,0,0,0,0,8910,0,0,0,0,0,0,0,0,0,0,0,0,0,0,8861,0,0,0,0,0,0,
0,0,8857,0,0,0,0,0,0,0,0,0,0,0,0,0,0,0,0,0,0,0,0,0,0,0,0,0,8910,0,0,0,0,0,0,0,0,0,0,0,0,0,8848,0,0,8848,0,0,8848,0,0,0,
0,0,8848,0,0,0,0,0,0,0,0,0,0,0,0,0,0,0,0,0,0,0,0,0,0,0,8903,0,0,0,0,0,0,0,0,0,0,0,0,0,0,0,0,0,0,0,0,0,0,0,0,0,
0,0,0,0,0,0,0,0,0,0,0,0,0,0,0,0,0,0,0,0,0,0,0,0,0,0,0,0,0,0,0,0,0,0,0,0,0,0,0,0,0,0,0,0,8856,0,8885,0,0,0,0,0,
0,0,0,0,0,0,0,0,0,0,0,0,0,0,0,0,0,0,0,0,0,0,0,8865,0,0,0,0,0,0,0,0,0,0,0,0,0,0,0,0,0,0,0,0,0,0,0,0,0,0,0,0,
0,0,0,0,0,0,0,0,0,0,0,0,0,0,0,0,0,0,0,0,0,0,0,0,0,0,0,0,0,0,0,0,0,0,0,0,0,0,0,0,0,0,0,0,0,0,0,0,0,0,0,0,
0,0,0,0,0,0,0,0,0,0,0,0,0,0,0,0,0,0,0,0,0,0,0,0,0,0,0,0,0,0,0,0,0,0,0,0,0,0,0,0,0,0,0,0,0,0,0,0,0,0,0,0,
0,0,0,0,0,0,0,0,0,0,0,0,0,0,0,0,0,0,0,0,0,0,0,0,0,0,0,0,0,0,0,0,0,0,0,0,0,0,0,0,0,0,0,0,0,0,0,0,0,0,0,0,
0,0,0,0,0,0,0,0,0,0,0,0,0,0,0,0,0,0,0,0,0,0,0,0,0,0,0,0,0,0,0,0,0,0,0,0,0,0,0,0,0,0,0,0,0,0,0,0,0,0,0,0,
0,0,0,0,0,0,0,0,0,0,0,0,0,0,0,0,0,0,0,0,0,0,0,0,0,0,0,8911,0,0,0,0,8870,0,0,0,0,0,0,0,0,0,0,0,0,0,0,0,0,0,0,0,
0,0,0,0,0,0,0,0,0,0,0,0,0,0,0,0,0,0,0,0,0,0,0,0,0,0,0,0,0,0,0,8904,0,0,0,0,0,0,0,0,0,0,0,0,0,0,0,0,0,0,0,8848,
0,0,0,0,0,0,0,0,0,0,0,0,0,0,0,0,0,0,0,0,0,0,0,0,0,0,0,0,0,0,0,0,0,0,0,0,8848,0,0,0,0,0,0,0,0,0,0,0,0,0,0,0,
0,0,0,0,0,0,0,0,0,0,0,0,0,0,0,0,0,0,0,0,0,0,0,0,8856,0,0,0,0,0,0,0,0,0,0,0,0,0,0,0,0,0,0,0,0,0,0,0,0,0,0,0,
0,0,0,0,0,0,0,0,0,0,0,0,0,0,0,0,0,0,0,0,0,0,0,8869,0,0,0,8851,0,0,0,0,0,0,0,8848,0,0,0,0,0,0,0,0,0,0,0,8911,8849,0,0,0,
0,0,0,0,0,0,0,0,0,8849,0,0,0,0,0,0,0,0,0,0,0,0,0,0,0,0,0,0,0,0,0,0,0,0,0,0,0,0,0,0,0,0,0,0,0,0,0,0,0,0,0,0,
0,0,0,0,0,0,0,0,0,8905,8870,0,0,0,0,0,0,0,0,0,0,8854,0,0,0,0,0,0,0,0,0,0,0,0,0,0,0,0,0,0,0,8853,0,0,0,0,0,0,0,0,0,0,
0,0,0,0,0,0,0,0,0,0,0,0,0,0,0,0,0,0,0,0,0,8867,0,0,0,0,0,0,8861,0,0,0,0,0,0,0,0,0,0,0,0,0,0,0,0,0,0,0,0,0,0,0,
0,0,0,8864,0,0,0,0,0,0,8869,8851,0,0,0,0,0,0,0,0,0,0,0,0,0,0,0,0,0,0,0,0,0,0,0,0,8855,0,0,0,8861,0,0,0,0,8857,0,0,0,0,0,0,
0,0,0,0,0,0,0,0,0,0,0,0,0,0,0,0,0,0,0,0,0,0,0,0,0,0,0,0,0,0,0,0,0,8879,0,0,0,0,0,0,0,0,0,0,0,0,0,0,0,0,0,0,
0,0,0,0,0,0,0,8869,0,0,0,0,0,0,0,0,0,0,0,0,0,0,0,0,0,0,0,0,0,0,0,0,0,8885,0,0,0,0,0,0,0,0,0,0,0,0,0,0,0,0,0,0,
0,0,0,0,0,0,0,8885,0,0,8904,0,0,0,0,0,0,0,0,0,8910,8885,8869,0,0,0,0,0,0,0,0,0,0,0,0,0,0,0,0,0,0,0,0,0,0,0,0,0,0,0,0,0,
0,0,0,0,0,0,0,0,0,0,0,0,0,0,0,0,0,8864,0,0,0,0,0,0,0,8869,0,0,0,0,0,0,0,0,0,0,0,0,0,0,0,0,0,0,0,0,0,0,0,0,0,0,
0,0,0,0,8848,0,0,0,8869,8911,0,0,8877,0,0,0,0,0,0,0,0,0,0,0,0,0,0,0,0,0,0,8852,0,8857,8905,0,0,0,0,0,0,0,0,0,0,0,8854,0,0,0,0,0,
0,0,0,0,0,0,0,0,0,0,0,0,0,0,0,0,0,0,0,0,0,0,0,0,0,0,0,0,0,0,0,0,8885,8856,0,0,0,0,0,0,0,0,0,0,0,0,0,0,0,0,0,0,
0,0,0,8855,0,0,0,0,0,0,8903,0,0,0,0,0,0,0,0,0,0,0,0,0,0,0,0,0,0,0,0,0,0,0,0,0,0,0,0,0,0,0,0,0,0,0,0,0,0,0,0,0,
0,0,0,0,0,0,0,0,0,0,8903,0,0,0,0,0,0,0,0,0,0,0,0,0,0,0,0,0,0,0,0,0,0,0,0,0,0,8849,0,0,0,0,0,0,0,0,8870,8864,0,0,0,0,
0,0,0,8885,0,0,0,0,0,8861,0,0,0,0,0,0,0,0,0,0,0,0,0,0,0,0,0,0,0,0,0,0,8864,0,0,8848,0,0,0,0,0,0,0,0,8904,0,0,0,0,0,0,0,
0,0,0,0,0,0,0,8879,0,0,0,0,0,0,0,0,0,0,0,0,0,0,0,0,0,0,0,0,0,0,0,0,0,0,0,0,0,0,0,8903,0,0,0,0,0,0,0,0,0,0,0,0,
0,0,0,0,0,0,0,8861,8848,0,0,0,0,0,0,0,0,0,0,0,0,0,0,0,0,0,0,0,0,0,0,0,0,0,0,0,0,0,0,8851,0,8865,0,0,0,0,0,0,0,0,0,0,
0,0,0,0,8903,8910,0,0,0,0,0,0,0,0,0,0,0,0,0,0,0,0,0,0,0,0,0,0,0,0,0,0,0,0,8865,0,0,0,0,0,0,0,0,0,0,0,0,0,0,0,0,0,
0,0,0,0,0,0,0,0,0,8905,0,8861,0,0,0,0,0,0,0,0,0,0,8861,0,0,8854,0,0,0,0,0,0,8848,0,0,0,0,0,0,0,0,0,0,0,0,0,0,0,0,0,0,0,
0,0,0,0,0,0,0,8869,0,0,0,0,8852,0,0,0,0,0,0,0,0,0,0,0,0,0,0,8904,0,0,0,0,0,0,0,0,0,0,0,0,0,0,0,0,0,0,0,0,0,0,0,0,
0,0,0,0,8910,0,8855,0,0,0,8854,0,0,0,0,0,0,0,0,0,0,0,0,0,0,0,0,0,0,0,0,0,0,0,0,0,0,0,0,0,0,0,0,0,0,0,0,0,0,0,0,0,
0,0,0,0,0,0,8911,8861,0,0,0,0,0,0,0,0,0,0,0,0,0,0,0,0,0,0,0,0,0,0,0,0,0,0,0,0,0,0,0,0,0,0,0,0,0,0,0,0,0,0,0,0,
0,0,0,0,0,0,0,0,0,0,0,0,0,0,0,0,0,0,0,0,0,0,0,0,0,0,0,0,0,0,0,0,0,0,0,0,0,0,0,0,0,0,0,0,0,0,0,0,0,0,0,0,
0,0,0,0,0,0,0,0,0,0,0,0,0,0,0,0,0,0,0,0,0,0,0,0,0,0,0,0,0,0,0,0,0,0,0,0,0,0,0,0,0,0,0,0,0,0,0,0,0,0,0,0,
0,0,0,0,0,0,0,8857,0,0,0,0,0,0,0,0,0,0,0,0,0,0,0,0,0,0,0,0,0,0,0,0,0,0,0,0,0,0,0,0,0,0,0,0,0,0,0,0,0,0,0,0,
0,0,0,0,0,0,0,0,0,0,0,0,0,0,0,0,0,0,0,0,0,0,0,0,0,0,0,0,0,0,8854,0,0,0,0,8853,0,0,8869,0,0,0,0,0,0,0,0,0,0,0,0,0,
0,0,0,0,0,0,0,0,0,0,0,0,0,8811,8812,8813,8814,0,0,0,0,0,0,0,0,0,0,0,0,0,0,0,0,0,0,0,0,0,0,0,0,0,0,0,0,0,0,0,0,0,0,0,
0,0,0,0,0,0,0,0,0,0,0,0,0,8815,8816,8817,8818,0,0,0,0,0,0,0,0,0,0,0,0,0,0,0,0,0,0,0,0,0,8867,8910,0,0,8867,0,0,0,0,0,0,0,0,0,
0,0,0,0,0,8911,0,0,0,0,0,0,0,8819,8820,8821,8822,0,0,0,0,0,0,0,0,0,0,0,0,0,0,8865,0,0,0,0,0,0,0,8857,0,8865,0,0,0,0,0,0,0,0,0,0,
0,0,0,0,0,0,0,0,8877,0,0,0,0,0,0,0,0,0,0,0,0,0,0,0,8879,0,0,0,0,0,8867,0,0,0,0,0,0,0,0,0,0,0,0,0,0,0,0,0,0,0,0,0,
0,0,0,0,0,0,0,0,0,8870,0,0,0,0,0,0,8855,0,0,0,0,0,0,0,0,0,0,0,0,0,0,0,0,0,0,8848,0,8905,0,0,0,0,0,0,0,0,0,0,0,0,0,0,
0,0,0,8853,0,0,0,0,0,0,0,0,0,0,0,0,0,0,0,0,0,0,0,0,0,8864,8857,0,0,8870,0,0,0,0,0,0,8849,0,0,0,0,0,0,0,0,0,0,0,0,0,0,0,
0,0,0,0,0,0,0,0,0,0,0,0,0,0,0,0,0,0,0,0,0,0,0,0,0,0,0,0,0,0,0,0,0,0,0,8867,0,0,0,0,0,0,0,0,0,0,0,0,0,0,0,0,
0,0,0,0,0,0,0,0,0,0,0,0,0,0,0,0,0,0,0,0,0,0,8903,0,0,0,0,8857,0,8910,0,8854,8905,0,0,0,0,0,0,0,0,0,0,0,0,0,0,0,0,0,0,0,
0,0,0,0,0,0,0,0,0,0,0,0,0,0,0,0,0,0,0,0,0,0,0,0,0,0,0,0,8869,0,0,0,0,0,0,0,0,0,0,0,0,0,0,0,0,8867,0,0,0,0,0,0,
0,0,0,0,0,0,0,0,0,0,0,0,0,0,0,0,0,0,0,0,0,0,0,8870,0,0,0,0,0,0,0,0,0,8864,0,0,0,0,0,0,0,0,0,0,0,0,0,0,0,0,0,0,
0,0,0,0,0,0,0,0,0,0,0,0,0,0,0,0,0,0,0,0,0,0,0,0,0,0,0,0,0,0,0,0,0,0,0,0,0,0,0,0,0,0,0,0,0,0,0,0,0,0,0,0,
0,0,0,0,0,0,0,0,0,0,0,0,0,0,0,0,0,0,0,0,0,0,0,0,0,0,0,0,0,0,0,0,0,0,0,0,0,0,8911,0,0,0,0,0,0,0,0,0,0,0,0,0,
0,0,0,0,0,0,0,0,0,0,8911,0,0,0,0,0,0,0,0,0,0,0,0,8848,0,0,0,0,0,0,0,8870,0,8857,0,0,0,0,0,0,0,0,0,0,0,0,0,0,0,0,0,0,
0,0,0,0,0,0,0,0,0,0,0,0,0,0,0,0,0,0,0,0,0,0,0,0,0,0,0,0,0,8911,0,0,0,0,0,0,0,0,0,0,0,0,0,0,0,0,0,0,0,0,0,0,
0,0,0,0,0,0,0,0,0,0,0,0,0,0,0,0,0,0,0,0,0,0,0,0,0,0,0,0,8910,0,0,0,0,0,0,0,0,0,0,0,0,0,0,0,0,0,0,0,0,0,0,0,
0,0,0,0,0,0,0,0,0,0,0,0,0,0,0,0,0,0,0,0,0,0,0,8885,0,0,0,0,0,0,0,0,0,0,0,0,0,0,0,0,0,8848,0,0,0,0,0,0,0,0,0,0,
0,0,0,0,0,0,0,0,0,0,0,0,0,0,0,0,0,0,0,0,0,0,0,0,0,0,0,0,0,0,0,0,0,0,0,0,0,0,0,8893,0,0,8854,0,0,0,0,0,0,0,0,0,
0,0,0,0,0,0,0,0,0,0,0,0,0,0,0,0,0,0,0,0,0,0,0,8870,0,0,0,8911,0,0,0,0,0,0,0,0,0,0,0,0,0,8856,0,0,0,0,0,0,0,0,0,0,
0,0,0,0,0,0,0,0,0,0,0,0,0,0,0,0,0,0,0,0,0,0,0,0,0,8852,0,0,0,0,0,0,0,0,0,0,0,0,8893,0,0,0,0,0,0,0,0,0,0,0,0,0,
0,0,0,0,0,0,0,0,0,0,0,0,0,0,0,0,0,0,0,0,0,0,0,0,0,0,0,0,0,0,0,0,0,0,0,0,0,0,0,0,0,0,8870,0,0,0,0,0,0,0,0,0,
0,0,0,0,0,0,0,0,0,0,0,0,0,0,0,0,0,0,0,0,0,0,0,0,0,0,0,0,0,0,0,0,0,0,0,0,0,0,0,0,0,0,0,8867,0,0,8848,0,0,0,0,0,
0,0,0,0,0,0,0,0,0,0,0,0,0,0,0,0,0,0,0,0,0,0,0,0,0,0,0,0,8857,8904,0,0,8885,0,0,0,0,0,0,0,0,0,0,0,0,0,0,0,0,0,0,0,
0,0,0,0,0,0,0,0,0,0,0,0,0,0,0,0,0,0,0,0,0,0,0,0,0,0,0,0,0,8849,0,0,0,0,0,0,0,8851,0,0,0,0,0,0,0,0,0,0,0,0,0,0,
0,0,0,0,0,0,0,0,0,0,0,0,0,0,0,0,0,0,0,0,0,0,0,0,0,0,0,0,0,8911,0,0,0,0,0,0,0,0,0,0,0,0,0,0,0,0,0,0,0,0,0,0,
0,0,0,0,0,0,0,0,0,0,0,0,0,0,0,0,0,0,0,0,0,0,0,0,0,0,0,0,0,0,0,0,0,0,0,0,0,0,0,0,0,0,0,0,0,0,0,0,0,0,0,0,
0,0,0,0,0,0,0,0,0,0,0,0,0,0,0,0,0,0,0,0,0,0,0,0,0,0,0,0,0,0,0,0,0,0,0,0,0,0,0,0,0,0,0,0,0,0,0,0,0,0,0,0
</data>
 </layer>
 <layer id="5" name="Dynamic" width="52" height="84">
  <data encoding="csv">
0,0,0,0,0,0,0,0,0,0,0,0,0,0,0,0,0,0,0,0,0,0,0,0,0,0,0,0,0,0,0,0,0,0,0,0,0,0,0,0,0,0,0,0,0,0,0,0,0,0,0,0,
0,0,0,0,0,0,0,0,0,0,0,0,0,0,0,0,0,0,0,0,0,0,0,0,0,0,0,0,0,0,0,0,0,0,0,0,0,0,0,0,0,0,0,0,0,0,0,0,0,0,0,0,
0,0,0,0,0,0,0,0,0,0,0,0,0,0,0,0,0,0,0,0,0,0,0,0,0,0,0,0,0,0,0,0,0,0,0,0,0,0,0,0,0,0,0,0,0,0,0,0,0,0,0,0,
0,0,0,0,0,0,0,0,0,0,0,0,0,0,0,0,0,0,0,0,0,0,0,0,0,0,0,0,0,0,0,0,0,0,0,0,0,0,0,0,0,0,0,0,0,0,0,0,0,0,0,0,
0,0,0,0,0,0,0,0,0,0,0,0,0,0,0,0,0,0,0,0,0,0,0,0,0,0,0,0,0,0,0,0,0,0,0,0,0,0,0,0,0,0,0,0,0,0,0,0,0,0,0,0,
0,0,0,0,0,0,0,0,0,0,0,0,0,0,0,0,0,0,0,0,0,0,0,0,0,0,0,0,0,0,0,0,0,0,0,0,0,0,0,0,0,0,0,0,0,0,0,0,0,0,0,0,
0,0,0,0,0,0,0,0,0,0,0,0,0,0,0,0,0,0,0,0,0,0,0,0,0,0,0,0,0,0,0,0,0,0,0,0,0,0,0,0,0,0,0,0,0,0,0,0,0,0,0,0,
0,0,0,0,0,0,0,0,0,0,0,0,0,0,0,0,0,0,0,0,0,0,0,0,0,0,0,0,0,0,0,0,0,0,0,0,0,0,0,0,0,0,0,0,0,0,0,0,0,0,0,0,
0,0,0,0,0,0,0,0,0,0,0,0,0,0,0,0,0,0,0,0,0,0,0,0,0,0,0,0,0,0,0,0,0,0,0,0,0,0,0,0,0,0,0,0,0,0,0,0,0,0,0,0,
0,0,0,0,0,0,0,0,0,0,0,0,0,0,0,0,0,0,0,0,0,0,0,0,0,0,0,0,0,0,0,0,0,0,0,0,0,0,0,0,0,0,0,0,0,0,0,0,0,0,0,0,
0,0,0,0,0,0,0,0,0,0,0,0,0,0,0,0,0,0,0,0,0,0,0,0,0,0,0,0,0,0,0,0,0,0,0,0,0,0,0,0,0,0,0,0,0,0,0,0,0,0,0,0,
0,0,0,0,0,0,0,0,0,0,0,0,0,0,0,0,0,0,0,0,0,0,0,0,0,0,0,0,0,0,0,0,0,0,0,0,0,0,0,0,0,0,0,0,0,0,0,0,0,0,0,0,
0,0,0,0,0,0,0,0,0,0,0,0,0,0,0,0,0,0,0,0,0,0,0,0,0,0,0,0,0,0,0,0,0,0,0,0,0,0,0,0,0,0,0,0,0,0,0,0,0,0,0,0,
0,0,0,0,0,0,0,0,0,0,0,0,0,0,0,0,0,0,0,0,0,0,0,0,0,0,0,0,0,0,0,0,0,0,0,0,0,0,0,0,0,0,0,0,0,0,0,0,0,0,0,0,
0,0,0,0,0,0,0,0,0,0,0,0,0,0,0,0,0,0,0,0,0,0,0,0,0,0,0,0,0,0,0,0,0,0,0,0,0,0,0,0,0,0,0,0,0,0,0,0,0,0,0,0,
0,0,0,0,0,0,0,0,0,0,0,0,0,0,0,0,0,0,0,0,0,0,0,0,0,0,0,0,0,0,0,0,0,0,0,0,0,0,0,0,0,0,0,0,0,0,0,0,0,0,0,0,
0,0,0,0,0,0,0,0,0,0,0,0,0,0,0,0,0,0,0,0,0,0,0,0,0,0,0,0,0,0,0,0,0,0,0,0,0,0,0,0,0,0,0,0,0,0,0,0,0,0,0,0,
0,0,0,0,0,0,0,0,0,0,0,0,0,0,0,0,0,0,0,0,0,0,0,0,0,0,0,0,0,0,0,0,0,0,0,0,0,0,0,0,0,0,0,0,0,0,0,0,0,0,0,0,
0,0,0,0,0,0,0,0,0,0,0,0,0,0,0,0,0,0,0,0,0,0,0,0,0,0,0,0,0,0,0,0,0,0,0,0,0,0,0,0,0,0,0,0,0,0,0,0,0,0,0,0,
0,0,0,0,0,0,0,0,0,0,0,0,0,0,0,0,0,0,0,0,0,0,0,0,0,0,0,0,0,0,0,0,0,0,0,0,0,0,0,0,0,0,0,0,0,0,0,0,0,0,0,0,
0,0,0,0,0,0,0,0,0,0,0,0,0,0,0,0,0,0,0,0,0,0,0,0,0,0,0,0,0,0,0,0,0,0,0,0,0,0,0,0,0,0,0,0,0,0,0,0,0,0,0,0,
0,0,0,0,0,0,0,0,0,0,0,0,0,0,0,0,0,0,0,0,0,0,0,0,0,0,0,0,0,0,0,0,0,0,0,0,0,0,0,0,0,0,0,0,0,0,0,0,0,0,0,0,
0,0,0,0,0,0,0,0,0,0,0,0,0,0,0,0,0,0,0,0,0,0,0,0,0,0,0,0,0,0,0,0,0,0,0,0,0,0,0,0,0,0,0,0,0,0,0,0,0,0,0,0,
0,0,0,0,0,0,0,0,0,0,0,0,0,0,0,0,0,0,0,0,0,0,0,0,0,0,0,0,0,0,0,0,0,0,0,0,0,0,0,0,0,0,0,0,0,0,0,0,0,0,0,0,
0,0,0,0,0,0,0,0,0,0,0,0,0,0,0,0,0,0,0,0,0,0,0,0,0,0,0,0,0,0,0,0,0,0,0,0,0,0,0,0,0,0,0,0,0,0,0,0,0,0,0,0,
0,0,0,0,0,0,0,0,0,0,0,0,0,0,0,0,0,0,0,0,0,0,0,0,0,0,0,0,0,0,0,0,0,0,0,0,0,0,0,0,0,0,0,0,0,0,0,0,0,0,0,0,
0,0,0,0,0,0,0,0,0,0,0,0,0,0,0,0,0,0,0,0,0,0,0,0,0,0,0,0,0,0,0,0,0,0,0,0,0,0,0,0,0,0,0,0,0,0,0,0,0,0,0,0,
0,0,0,0,0,0,0,0,0,0,0,0,0,0,0,0,0,0,0,0,0,0,0,0,0,0,0,0,0,0,0,0,0,0,0,0,0,0,0,0,0,0,0,0,0,0,0,0,0,0,0,0,
0,0,0,0,0,0,0,0,0,0,0,0,0,0,0,0,0,0,0,0,0,0,0,0,0,0,0,0,0,0,0,0,0,0,0,0,0,0,0,0,0,0,0,0,0,0,0,0,0,0,0,0,
0,0,0,0,0,0,0,0,0,0,0,0,0,0,0,0,0,0,0,0,0,0,0,0,0,0,0,0,0,0,0,0,0,0,0,0,0,0,0,0,0,0,0,0,0,0,0,0,0,0,0,0,
0,0,0,0,0,0,0,0,0,0,0,0,0,0,0,0,0,0,0,0,0,0,0,0,0,0,0,0,0,0,0,0,0,0,0,0,0,0,0,0,0,0,0,0,0,0,0,0,0,0,0,0,
0,0,0,0,0,0,0,0,0,0,0,0,0,0,0,0,0,0,0,0,0,0,0,0,0,0,0,0,0,0,0,0,0,0,0,0,0,0,0,0,0,0,0,0,0,0,0,0,0,0,0,0,
0,0,0,0,0,0,0,0,0,0,0,0,0,0,0,0,0,0,0,0,0,0,0,0,0,0,0,0,0,0,0,0,0,0,0,0,0,0,0,0,0,0,0,0,0,0,0,0,0,0,0,0,
0,0,0,0,0,0,0,0,0,0,0,0,0,0,0,0,0,0,0,0,0,0,0,0,0,0,0,0,0,0,0,0,0,0,0,0,0,0,0,0,0,0,0,0,0,0,0,0,0,0,0,0,
0,0,0,0,0,0,0,0,0,0,0,0,0,0,0,0,0,0,0,0,0,0,7363,7344,7345,7346,7363,0,0,0,0,0,0,0,0,0,0,0,0,0,0,0,0,0,0,0,0,0,0,0,0,0,
0,0,0,0,0,0,0,0,0,0,0,0,0,0,0,0,0,0,0,0,0,0,7347,7348,7349,7350,7351,0,0,0,0,0,0,0,0,0,0,0,0,0,0,0,0,0,0,0,0,0,0,0,0,0,
0,0,0,0,0,0,0,0,0,0,0,0,0,0,0,0,0,0,0,0,0,0,7352,7353,7354,7355,7356,0,0,0,0,0,0,0,0,0,0,0,0,0,0,0,0,0,0,0,0,0,0,0,0,0,
0,0,0,0,0,0,0,0,0,0,0,0,0,0,0,0,0,0,0,0,0,0,7363,7357,7358,7359,7363,0,0,0,0,0,0,0,0,0,0,0,0,0,0,0,0,0,0,0,0,0,0,0,0,0,
0,0,0,0,0,0,0,0,0,0,0,0,0,0,0,0,0,0,0,0,0,0,7363,7360,7361,7362,7363,0,0,0,0,0,0,0,0,0,0,0,0,0,0,0,0,0,0,0,0,0,0,0,0,0,
0,0,0,0,0,0,0,0,0,0,0,0,0,0,0,0,0,0,0,0,0,0,0,0,0,0,0,0,0,0,0,0,0,0,0,7407,7384,7385,7386,7407,0,0,0,0,0,0,0,0,0,0,0,0,
0,0,0,0,0,0,0,0,0,0,0,0,0,0,0,0,0,0,0,0,0,0,0,0,0,0,0,0,0,0,0,0,0,0,0,7387,7388,7389,7390,7391,0,0,0,0,0,0,0,0,0,0,0,0,
0,0,0,0,0,0,0,0,0,0,0,0,0,0,0,0,0,0,0,0,0,0,0,0,0,0,0,0,0,0,0,0,0,0,0,7392,7393,7394,7395,7396,0,0,0,0,0,0,0,0,0,0,0,0,
0,0,0,0,0,0,0,0,0,0,0,0,0,0,0,0,0,0,0,0,0,7838,7815,7816,7817,7838,0,0,0,0,0,0,0,0,0,7397,7398,7399,7400,7401,0,0,0,0,0,0,0,0,0,0,0,0,
0,0,0,0,0,0,0,0,0,0,0,0,0,0,0,0,0,0,0,0,0,7818,7819,7820,7821,7822,0,0,0,0,0,0,0,0,0,7402,7403,7404,7405,7406,0,0,0,0,0,0,0,0,0,0,0,0,
0,0,0,0,0,0,0,0,0,0,0,0,0,0,0,0,0,0,0,0,0,7823,7824,7825,7826,7827,0,0,0,0,0,0,0,0,0,0,0,0,0,0,0,0,0,0,0,0,0,0,0,0,0,0,
0,0,0,0,0,0,0,0,0,0,0,0,0,0,0,0,0,0,0,0,0,7828,7829,7830,7831,7832,0,0,0,0,0,0,0,0,0,0,0,0,0,0,0,0,0,0,0,0,0,0,0,0,0,0,
0,0,0,0,0,0,0,0,0,0,0,0,0,0,0,0,0,0,0,0,0,7833,7834,7835,7836,7837,0,0,0,0,0,0,0,0,0,0,0,0,0,0,0,0,0,0,0,0,0,0,0,0,0,0,
0,0,0,0,0,0,0,0,0,0,0,0,0,0,0,0,0,0,0,0,0,0,0,0,0,0,0,0,0,0,0,0,0,0,0,0,0,0,0,0,0,0,0,0,0,0,0,0,0,0,0,0,
0,0,0,0,0,0,0,0,0,0,0,0,0,0,0,0,0,0,0,0,0,0,0,0,0,0,0,0,0,0,0,0,0,0,0,0,0,0,0,0,0,0,0,0,0,0,0,0,0,0,0,0,
0,0,0,0,0,0,0,0,0,0,0,0,0,0,0,0,0,0,0,0,0,0,0,0,0,0,0,0,0,0,0,0,0,0,0,0,0,0,0,0,0,0,0,0,0,0,0,0,0,0,0,0,
0,0,0,0,0,0,0,0,0,0,0,0,0,0,0,0,0,0,0,0,0,0,0,0,0,0,0,0,0,0,0,0,0,0,0,0,0,0,0,0,0,0,0,0,0,0,0,0,0,0,0,0,
0,0,0,0,0,0,0,0,0,0,0,0,0,0,0,0,0,0,0,0,0,0,0,0,0,0,0,0,0,0,0,0,0,0,0,0,0,0,0,0,0,0,0,0,0,0,0,0,0,0,0,0,
0,0,0,0,0,0,0,0,0,0,0,0,0,0,0,0,0,0,0,0,0,0,0,0,0,0,0,0,0,0,0,0,0,0,0,0,0,0,0,0,0,0,0,0,0,0,0,0,0,0,0,0,
0,0,0,0,0,0,0,0,0,0,0,0,0,0,0,0,0,0,0,0,0,0,0,0,0,0,0,0,0,0,0,0,0,0,0,0,0,0,0,0,0,0,0,0,0,0,0,0,0,0,0,0,
0,0,0,0,0,0,0,0,0,0,0,0,0,0,0,0,0,0,0,0,0,0,0,0,0,0,0,0,0,0,0,0,0,0,0,0,0,0,0,0,0,0,0,0,0,0,0,0,0,0,0,0,
0,0,0,0,0,0,0,0,0,0,0,0,0,0,0,0,0,0,0,0,0,0,0,0,0,0,0,0,0,0,0,0,0,0,0,0,0,0,0,0,0,0,0,0,0,0,0,0,0,0,0,0,
0,0,0,0,0,0,0,0,0,0,0,0,0,0,0,0,0,0,0,0,0,0,0,0,0,0,0,0,0,0,0,0,0,0,0,0,0,0,0,0,0,0,0,0,0,0,0,0,0,0,0,0,
0,0,0,0,0,0,0,0,0,0,0,0,0,0,0,0,0,0,0,0,0,0,0,0,0,0,0,0,0,0,0,0,0,0,0,0,0,0,0,0,0,0,0,0,0,0,0,0,0,0,0,0,
0,0,0,0,0,0,0,0,0,0,0,0,0,0,0,0,0,0,0,0,0,0,0,0,0,0,0,0,0,0,0,0,0,7723,7709,7710,7723,0,0,0,0,0,0,0,0,0,0,0,0,0,0,0,
0,0,0,0,0,0,0,0,0,0,0,0,0,0,0,0,0,0,0,0,0,0,0,0,0,0,0,0,0,0,0,0,0,7711,7712,7713,7714,0,0,0,0,0,0,0,0,0,0,0,0,0,0,0,
0,0,0,0,0,0,0,0,0,0,0,0,0,0,0,0,0,0,0,0,0,0,0,0,0,0,0,0,0,0,0,0,0,7715,7716,7717,7718,0,0,0,0,0,0,0,0,0,0,0,0,0,0,0,
0,0,0,0,0,0,0,0,0,0,0,0,0,0,0,0,0,0,0,0,0,0,0,0,0,0,0,0,0,0,0,0,0,7719,7720,7721,7722,0,0,0,0,8314,8278,8279,8280,8281,8314,8314,8314,0,0,0,
0,0,0,0,0,0,0,0,0,0,0,0,0,0,0,0,0,0,0,0,0,0,0,0,0,0,0,0,0,0,0,0,0,0,0,0,0,0,0,0,0,8282,8283,8284,8285,8286,8287,8288,8289,0,0,0,
0,0,0,0,0,0,0,0,0,0,0,0,0,0,0,0,0,0,0,0,0,0,0,0,0,0,0,0,0,0,0,0,0,0,0,0,0,0,0,0,0,8290,8291,8292,8293,8294,8295,8296,8297,0,0,0,
0,0,0,0,0,0,0,0,0,0,0,0,0,0,0,0,0,0,0,0,0,0,0,0,0,0,0,0,0,0,0,0,0,0,0,0,0,0,0,0,0,8298,8299,8300,8301,8302,8303,8304,8305,0,0,0,
0,0,0,0,0,0,0,0,0,0,0,0,0,0,0,0,0,0,0,0,0,0,0,0,0,0,0,0,0,0,0,0,0,0,0,0,0,0,0,0,0,8306,8307,8308,8309,8310,8311,8312,8313,0,0,0,
0,0,0,0,0,0,0,0,0,0,0,0,0,0,0,0,0,0,0,0,0,0,0,0,0,0,0,0,0,0,0,0,0,0,0,0,0,0,0,0,0,0,0,0,0,0,0,0,0,0,0,0,
0,0,0,0,0,0,0,0,0,0,0,0,0,0,0,0,0,0,0,0,0,0,0,0,0,0,0,0,0,0,0,0,0,0,0,0,0,0,0,0,0,0,0,0,0,0,0,0,0,0,0,0,
0,0,0,0,0,0,0,0,0,0,0,0,0,0,0,0,0,0,0,0,0,0,0,0,0,0,0,0,0,0,0,0,0,0,0,0,0,0,0,0,0,0,0,0,0,0,0,0,0,0,0,0,
0,0,0,0,0,0,0,0,0,0,0,0,0,0,0,0,0,0,0,0,0,0,0,0,0,0,0,0,0,0,0,0,0,0,0,0,0,0,0,0,0,0,0,0,0,0,0,0,0,0,0,0,
0,0,0,0,0,0,0,0,0,0,0,0,0,0,0,0,0,0,0,0,0,0,0,0,0,0,0,0,0,0,0,0,0,0,0,0,0,0,0,0,0,0,0,0,0,0,0,0,0,0,0,0,
0,0,0,0,0,0,0,0,0,0,0,0,0,0,0,0,0,0,0,0,0,0,0,0,0,0,0,0,0,0,0,0,0,0,0,0,0,0,0,0,0,0,0,0,0,0,0,0,0,0,0,0,
0,0,0,0,0,0,0,0,0,0,0,0,0,0,0,0,0,0,0,0,0,0,0,0,0,0,0,0,0,0,0,0,0,0,0,0,0,0,0,0,0,0,0,0,0,0,0,0,0,0,0,0,
0,0,0,0,0,0,0,0,0,0,0,0,0,0,0,0,0,0,0,0,0,0,0,0,0,0,0,0,0,0,0,0,0,0,0,0,0,0,0,0,0,0,0,0,0,0,0,0,0,0,0,0,
0,0,0,0,0,0,0,0,0,0,0,0,0,0,0,0,0,0,0,0,0,0,0,0,0,0,0,0,0,0,0,0,0,0,0,0,0,0,0,0,0,0,0,0,0,0,0,0,0,0,0,0,
0,0,0,0,0,0,0,0,0,0,0,0,0,0,0,0,0,0,0,0,0,0,0,0,0,0,0,0,0,0,0,0,0,0,0,0,0,0,0,0,0,0,0,0,0,0,0,0,0,0,0,0,
0,0,0,0,0,0,0,0,0,0,0,0,0,0,0,0,0,0,0,0,0,0,0,0,0,0,0,0,0,0,0,0,0,0,0,0,0,0,0,0,0,0,0,0,0,0,0,0,0,0,0,0,
0,0,0,0,0,0,0,0,0,0,0,0,0,0,0,0,0,0,0,0,0,0,0,0,0,0,0,0,0,0,0,0,0,0,0,0,0,0,0,0,0,0,0,0,0,0,0,0,0,0,0,0,
0,0,0,0,0,0,0,0,0,0,0,0,0,0,0,0,0,0,0,0,0,0,0,0,0,0,0,0,0,0,0,0,0,0,0,0,0,0,0,0,0,0,0,0,0,0,0,0,0,0,0,0,
0,0,0,0,0,0,0,0,0,0,0,0,0,0,0,0,0,0,0,0,0,0,0,0,0,0,0,0,0,0,0,0,0,0,0,0,0,0,0,0,0,0,0,0,0,0,0,0,0,0,0,0,
0,0,0,0,0,0,0,0,0,0,0,0,0,0,0,0,0,0,0,0,0,0,0,0,0,0,0,0,0,0,0,0,0,0,0,0,0,0,0,0,0,0,0,0,0,0,0,0,0,0,0,0,
0,0,0,0,0,0,0,0,0,0,0,0,0,0,0,0,0,0,0,0,0,0,0,0,0,0,0,0,0,0,0,0,0,0,0,0,0,0,0,0,0,0,0,0,0,0,0,0,0,0,0,0,
0,0,0,0,0,0,0,0,0,0,0,0,0,0,0,0,0,0,0,0,0,0,0,0,0,0,0,0,0,0,0,0,0,0,0,0,0,0,0,0,0,0,0,0,0,0,0,0,0,0,0,0,
0,0,0,0,0,0,0,0,0,0,0,0,0,0,0,0,0,0,0,0,0,0,0,0,0,0,0,0,0,0,0,0,0,0,0,0,0,0,0,0,0,0,0,0,0,0,0,0,0,0,0,0
</data>
 </layer>
 <layer id="6" name="Collision" width="52" height="84">
  <data encoding="csv">
8912,8913,8913,8912,8912,8913,8912,8912,8913,8912,8913,8912,8912,8913,8912,8912,8913,8912,8912,8913,8912,8912,8913,8912,8912,8912,8912,8913,8912,8913,8912,8912,8913,8913,8912,8912,8912,8912,8912,8912,8912,8912,8913,8912,8912,8912,8912,8912,8912,8912,8913,8912,
8912,8913,8912,8912,8912,8912,8912,8912,8912,8912,8913,8912,8912,8912,8912,8912,8912,8912,8912,8912,8912,8912,8913,8913,8912,8912,8912,8912,8912,8912,8912,8912,8912,8913,8913,8912,8912,8913,8912,8913,8912,8912,8912,8913,8912,8913,8913,8912,8912,8913,8912,8912,
8912,8912,8912,8912,8913,8912,8912,8913,8912,8913,8912,8912,8912,8913,8912,8913,8912,8912,8913,8912,8913,8912,8912,8912,8913,8912,8912,8912,8913,8912,8913,8912,8912,8912,8912,8912,8912,8912,8912,8913,8913,8912,8912,8913,8913,8912,8912,8912,8912,8913,8912,8912,
8912,8913,8913,8912,8912,8912,8912,8912,8912,8913,8912,8913,8912,8912,8912,8912,8913,8912,8912,8912,8913,8913,8912,8912,8912,8912,8912,8913,8912,8912,8912,8912,8912,8912,8912,8912,8912,8912,8912,8912,8912,8912,8912,8912,8912,8912,8912,8913,8912,8912,8913,8912,
8912,8912,8912,8912,8912,8913,8912,8912,8912,8913,8912,8912,8912,8912,8912,8913,8912,8912,8913,8913,8912,8912,8912,8913,8912,8912,8912,8912,8912,8913,8912,8912,8913,8912,8913,8912,8913,8912,8913,8912,8913,8912,8912,8913,8912,8913,8912,8912,8912,8912,8912,8912,
8912,8912,8912,8912,8912,8912,8912,8912,8912,8913,8913,8912,8912,8912,8912,8912,8912,8912,8912,8912,8912,8913,8912,8912,8912,8912,8912,8912,8913,8912,8912,8912,8912,8913,8912,8912,8912,8912,8912,8912,8912,8912,8913,8912,8912,8913,8912,8912,8912,8913,8912,8913,
8913,8912,8912,8912,8913,8913,8912,8912,8912,8912,8912,8912,8912,8912,8913,8912,8912,8913,8913,8913,8913,8913,8912,8912,8912,8913,8912,8912,8912,8912,8912,8913,8912,8912,8913,8912,8912,8912,8913,8913,8912,8912,8912,8912,8912,8912,8912,8912,8912,8912,8912,8912,
8913,8912,8912,8912,8913,8912,8912,8912,8912,8913,8912,8912,8913,8912,8912,8912,8913,8913,8913,8913,8913,8913,8912,8912,8912,8912,8912,8913,8912,8913,8912,8913,8912,8912,8912,8912,8912,8912,8912,8912,8912,8912,8912,8912,8913,8912,8913,8913,8912,8912,8913,8912,
8913,8912,8912,8912,8912,8912,8912,8913,8912,8912,8912,8912,8912,8912,8913,8912,8913,8913,8913,8913,8913,8913,8912,8912,8913,8912,8912,8912,8912,8912,8912,8912,8912,8912,8913,8912,8912,8912,8912,8912,8912,8912,8912,8912,8912,8912,8912,8912,8912,8913,8912,8912,
8912,8912,8913,8912,8913,8912,8912,8912,8912,8913,8912,8912,8913,8912,8912,8913,8913,8913,8913,8913,8912,8912,8913,8912,8912,8912,8912,8913,8912,8912,8912,8913,8912,8913,8913,8912,8912,8912,8912,8912,8912,8913,8913,8913,8912,8912,8912,8912,8912,8912,8912,8912,
8913,8912,8912,8912,8913,8912,8913,8912,8912,8912,8912,8912,8913,8912,8912,8913,8913,8913,8913,8912,8912,8913,8912,8913,8912,8912,8912,8912,8912,8913,8912,8912,8912,8912,8912,8912,8912,8912,8912,8912,8912,8913,8913,8912,8912,8912,8912,8912,8912,8912,8913,8912,
8912,8912,8912,8913,8912,8912,8912,8913,8912,8912,8913,8912,8912,8912,8913,8912,8913,8913,8912,8912,8912,8912,8912,8912,8912,8913,8913,8912,8912,8912,8912,8912,8912,8912,8913,8912,8912,8912,8912,8912,8912,8912,8912,8912,8913,8913,8912,8912,8912,8912,8912,8912,
8912,8913,8913,8912,8912,8912,8912,8912,8912,8912,8912,8912,8912,8912,8913,8913,8913,8913,8912,8912,8913,8913,8912,8912,8912,8912,8912,8912,8913,8912,8912,8912,8912,8912,8912,8912,8913,8912,8913,8912,8912,8912,8912,8912,8912,8912,8912,8912,8912,8913,8912,8912,
8912,8912,8912,8913,8912,8912,8912,8912,8912,8912,8912,8912,8912,8912,8912,8913,8913,8913,8912,8912,8912,8912,8912,8912,8912,8912,8912,8912,8912,8912,8912,8912,8912,8912,8912,8912,8912,8912,8912,8912,8912,8912,8912,8912,8912,8913,8912,8912,8912,8912,8912,8912,
8912,8912,8912,8912,8912,8912,8912,8912,8912,8912,8912,8912,8912,8912,8912,8913,8913,8913,8912,8912,8912,8912,8913,8912,8912,8912,8912,8912,8912,8912,8912,8912,8912,8912,8913,8913,8912,8912,8912,8912,8912,8912,8912,8912,8912,8912,8912,8912,8913,8912,8913,8912,
8912,8912,8913,8912,8912,8912,8912,8912,8913,8912,8912,8912,8913,8913,8912,8913,8913,8913,8912,8912,8912,8912,8912,8912,8913,8912,8913,8912,8912,8912,8912,8912,8912,8912,8912,8912,8912,8912,8912,8912,8912,8912,8912,8912,8912,8912,8912,8912,8912,8912,8912,8913,
8912,8912,8912,8912,8912,8912,8912,8912,8912,8912,8912,8912,8912,8912,8913,8912,8913,8913,8913,8912,8912,8912,8912,8912,8912,8912,8912,8912,8912,8912,8913,8912,8912,8912,8912,8912,8912,8912,8912,8912,8912,8912,8912,8912,8912,8912,8912,8913,8912,8912,8913,8912,
8913,8912,8913,8912,8912,8912,8912,8912,8912,8912,8912,8912,8912,8912,8912,8912,8913,8913,8912,8912,8912,8912,8912,8912,8912,8912,8912,8912,8913,8912,8912,8912,8912,8912,8912,8912,8912,8912,8912,8912,8912,8913,8912,8912,8913,8912,8912,8912,8912,8913,8913,8912,
8912,8912,8912,8913,8912,8913,8912,8912,8913,8912,8913,8913,8912,8912,8913,8912,8912,8913,8913,8913,8912,8912,8912,8912,8912,8912,8912,8912,8913,8912,8912,8912,8912,8913,8912,8913,8912,8912,8912,8913,8912,8912,8912,8912,8912,8912,8912,8912,8912,8913,8912,8912,
8912,8912,8912,8912,8912,8912,8912,8912,8912,8912,8912,8912,8912,8912,8912,8913,8913,8913,8913,8912,8912,8912,8913,8913,8912,8912,8912,8912,8912,8912,8912,8913,8912,8912,8912,8912,8912,8912,8913,8912,8912,8913,8912,8912,8913,8913,8913,8912,8912,8912,8912,8913,
8912,8912,8912,8912,8913,8912,8913,8912,8913,8912,8912,8913,8912,8913,8912,8912,8913,8913,8913,8912,8913,8912,8912,8912,8913,8912,8912,8912,8912,8913,8912,8912,8912,8912,8912,8912,8912,8912,8912,8912,8912,8912,8913,8912,8912,8912,8913,8912,8912,8913,8912,8913,
8912,8912,8912,8912,8913,8912,8912,8912,8912,8912,8912,8912,8912,8912,8912,8912,8913,8913,8913,8912,8912,8912,8913,8912,8913,8912,8912,8912,8912,8912,8912,8912,8913,8913,8912,8912,8912,8912,8913,8912,8912,8912,8912,8912,8912,8912,8912,8913,8912,8912,8912,8912,
8913,8912,8912,8913,8912,8912,8913,8912,8912,8913,8912,8912,8913,8912,8913,8912,8913,8913,8913,8912,8912,8912,8912,8912,8912,8912,8912,8912,8912,8913,8912,8913,8912,8912,8912,8913,8912,8912,8912,8913,8912,8913,8912,8913,8912,8913,8912,8912,8912,8912,8912,8912,
8912,8912,8912,8913,8912,8912,8912,8913,8912,8912,8913,8912,8912,8912,8912,8913,8913,8913,8912,8912,8912,8912,8912,8912,8912,8912,8912,8912,8912,8912,8913,8912,8912,8913,8912,8912,8913,8912,8912,8913,8912,8912,8912,8912,8912,8913,8912,8913,8912,8912,8912,8912,
8912,8912,8912,8912,8912,8912,8912,8913,8912,8912,8912,8912,8912,8913,8913,8913,8913,8912,8912,8912,8912,8913,8913,8912,8912,8913,8912,8912,8912,8912,8912,8912,8912,8912,8912,8912,8912,8912,8913,8912,8912,8912,8913,8912,8912,8912,8912,8912,8912,8912,8913,8912,
8912,8912,8912,8912,8912,8912,8912,8913,8912,8912,8912,8913,8912,8913,8913,8913,8913,8912,8912,8912,8912,8912,8913,8912,8912,8912,8912,8912,8912,8912,8912,8913,8912,8912,8913,8912,8912,8912,8912,8913,8912,8913,8913,8912,8912,8913,8913,8912,8912,8912,8912,8912,
8912,8912,8913,8912,8913,8913,8912,8912,8912,8913,8912,8912,8913,8913,8913,8912,8912,8912,8913,8912,8913,8912,8912,8912,8912,8912,8912,8912,8912,8912,8912,8912,8913,8912,8912,8912,8912,8913,8912,8913,8912,8912,8912,8912,8913,8912,8912,8912,8912,8912,8913,8912,
8912,8913,8912,8913,8913,8912,8912,8912,8912,8912,8912,8913,8913,8913,8913,8912,8913,8912,8912,8912,8912,8912,8912,8913,8912,8912,8912,8912,8912,8912,8912,8913,8912,8913,8912,8913,8912,8912,8912,8913,8913,8912,8912,8912,8912,8912,8913,8912,8913,8912,8912,8912,
8912,8912,8912,8912,8912,8912,8912,8913,8912,8913,8912,8913,8913,8913,8913,8913,8912,8912,8912,8912,8913,8913,8912,8912,8912,8912,8912,8912,8912,8912,8912,8912,8912,8912,8912,8912,8912,8912,8912,8912,8912,8912,8912,8913,8912,8912,8912,8913,8912,8912,8912,8913,
8912,8913,8912,8913,8912,8912,8912,8912,8913,8912,8912,8913,8913,8913,8913,8912,8912,8913,8912,8912,8912,8913,8913,8912,8912,8912,8912,8912,8912,8912,8912,8912,8912,8912,8912,8913,8912,8912,8913,8912,8912,8912,8912,8912,8913,8912,8912,8912,8912,8912,8912,8912,
8912,8912,8912,8912,8912,8912,8912,8912,8912,8912,8912,8913,8913,8913,8913,8913,8912,8912,8912,8912,8912,8913,8912,8912,8912,8912,8913,8912,8912,8912,8912,8912,8912,8912,8912,8912,8912,8912,8912,8912,8912,8912,8912,8912,8912,8912,8912,8912,8912,8912,8912,8912,
8912,8912,8913,8912,8912,8913,8912,8913,8912,8912,8913,8913,8913,8913,8913,8912,8913,8912,8912,8913,8912,8912,8912,8912,8912,8912,8912,8912,8912,8912,8912,8912,8912,8912,8912,8912,8912,8912,8912,8912,8912,8912,8912,8912,8912,8912,8912,8912,8912,8912,8912,8912,
8912,8913,8912,8912,8912,8912,8912,8912,8912,8912,8913,8912,8913,8913,8913,8912,8913,8912,8912,8913,8912,8912,8912,8912,8912,8912,8912,8912,8912,8912,8912,8912,8912,8912,8912,8912,8912,8912,8912,8912,8912,8912,8912,8912,8912,8912,8912,8912,8912,8912,8912,8912,
8912,8912,8912,8913,8912,8912,8913,8912,8912,8912,8912,8912,8913,8913,8913,8912,8912,8912,8912,8912,8912,8913,8912,8912,8912,8912,8912,8912,8912,8912,8912,8912,8912,8912,8912,8912,8912,8912,8912,8912,8912,8912,8912,8912,8912,8912,8912,8912,8912,8912,8912,8912,
8913,8912,8912,8912,8912,8912,8912,8912,8913,8912,8912,8912,8912,8913,8913,8913,8912,8913,8912,8912,8913,8912,8912,8912,8912,8912,8912,8912,8912,8912,8912,8912,8912,8912,8912,8912,8912,8912,8912,8912,8913,8913,8913,8913,8912,8913,8912,8912,8912,8912,8912,8912,
8912,8912,8912,8912,8912,8912,8912,8912,8913,8912,8912,8912,8912,8913,8913,8913,8913,8912,8913,8912,8912,8912,8912,8912,8912,8912,8912,8912,8913,8912,8912,8912,8912,8913,8912,8912,8912,8912,8912,8912,8912,8912,8912,8912,8912,8912,8912,8912,8912,8912,8912,8912,
8912,8913,8912,8913,8912,8912,8913,8912,8912,8912,8912,8912,8912,8912,8913,8913,8913,8912,8912,8912,8913,8912,8912,8913,8913,8913,8912,8912,8912,8912,8912,8912,8912,8912,8912,8912,8912,8912,8912,8912,8912,8912,8912,8912,8912,8912,8912,8912,8913,8913,8913,8912,
8913,8912,8912,8912,8912,8912,8912,8912,8912,8912,8912,8912,8912,8912,8913,8913,8913,8913,8912,8912,8912,8912,8912,8913,8913,8913,8912,8912,8912,8912,8912,8912,8912,8912,8912,8912,8912,8912,8912,8912,8912,8912,8912,8912,8912,8912,8912,8912,8912,8912,8912,8913,
8912,8912,8912,8912,8912,8912,8912,8912,8912,8912,8912,8912,8912,8912,8913,8913,8913,8912,8913,8912,8912,8913,8913,8913,8913,8913,8913,8913,8913,8912,8912,8912,8912,8912,8912,8912,8912,8912,8912,8912,8912,8912,8912,8912,8912,8912,8912,8912,8912,8912,8912,8912,
8913,8912,8912,8913,8913,8913,8912,8912,8912,8913,8912,8912,8913,8912,8913,8913,8913,8912,8912,8912,8912,8912,8912,8912,8912,8912,8912,8912,8912,8912,8912,8912,8912,8912,8912,8912,8912,8912,8912,8912,8912,8912,8912,8912,8912,8912,8912,8912,8912,8913,8912,8913,
8912,8912,8913,8912,8912,8912,8912,8912,8912,8912,8912,8912,8912,8912,8913,8913,8913,8912,8913,8912,8912,8912,8912,8912,8912,8912,8912,8912,8912,8912,8912,8912,8912,8912,8912,8912,8912,8912,8912,8912,8912,8913,8913,8913,8913,8913,8912,8912,8912,8912,8912,8912,
8912,8912,8912,8912,8912,8913,8912,8912,8913,8912,8912,8912,8912,8913,8913,8913,8913,8912,8912,8912,8912,8912,8912,8912,8912,8912,8912,8912,8912,8912,8912,8912,8913,8912,8912,8913,8913,8913,8913,8913,8912,8912,8912,8912,8912,8912,8912,8913,8913,8912,8912,8912,
8912,8912,8913,8912,8912,8912,8912,8912,8912,8912,8912,8913,8912,8913,8913,8913,8912,8912,8912,8912,8912,8912,8912,8912,8912,8912,8912,8912,8912,8912,8912,8912,8912,8912,8912,8913,8913,8913,8913,8913,8912,8912,8912,8913,8912,8912,8912,8912,8912,8912,8912,8912,
8912,8912,8912,8912,8912,8912,8912,8912,8912,8912,8912,8912,8912,8913,8913,8913,8912,8912,8912,8913,8912,8912,8912,8912,8912,8912,8912,8913,8912,8912,8912,8912,8912,8912,8912,8913,8913,8913,8913,8913,8912,8912,8912,8912,8913,8912,8912,8912,8912,8912,8912,8912,
8913,8912,8912,8912,8912,8912,8913,8912,8913,8912,8912,8913,8912,8913,8913,8912,8912,8912,8912,8912,8912,8913,8913,8913,8913,8913,8912,8912,8913,8912,8912,8912,8912,8912,8912,8912,8912,8912,8912,8912,8912,8913,8913,8912,8912,8912,8913,8913,8912,8912,8913,8912,
8912,8912,8913,8912,8912,8912,8912,8912,8912,8912,8912,8912,8912,8913,8913,8912,8912,8912,8912,8912,8912,8912,8913,8913,8913,8913,8912,8912,8912,8912,8912,8912,8912,8912,8912,8912,8912,8912,8912,8912,8912,8912,8912,8912,8913,8913,8912,8912,8912,8912,8912,8912,
8912,8912,8912,8912,8912,8913,8912,8912,8912,8912,8912,8912,8912,8913,8913,8913,8912,8912,8912,8912,8912,8913,8913,8912,8913,8913,8912,8912,8912,8912,8912,8912,8912,8912,8912,8912,8912,8912,8912,8912,8912,8912,8912,8912,8912,8912,8912,8912,8912,8912,8913,8913,
8912,8913,8912,8912,8912,8912,8912,8912,8912,8912,8912,8913,8912,8913,8913,8912,8912,8912,8912,8913,8912,8912,8912,8912,8912,8912,8913,8913,8912,8912,8912,8912,8912,8912,8912,8912,8912,8912,8912,8912,8912,8912,8912,8912,8912,8912,8912,8912,8912,8912,8912,8912,
8913,8912,8912,8913,8912,8912,8912,8912,8912,8912,8912,8912,8912,8913,8913,8913,8913,8912,8912,8912,8913,8912,8912,8912,8912,8912,8912,8912,8912,8912,8912,8912,8912,8912,8912,8912,8912,8912,8912,8912,8912,8912,8912,8912,8912,8912,8912,8912,8912,8912,8912,8913,
8913,8912,8913,8912,8912,8912,8913,8913,8912,8913,8913,8912,8912,8913,8913,8913,8912,8912,8912,8912,8912,8912,8912,8912,8912,8912,8912,8912,8912,8912,8912,8912,8912,8912,8912,8912,8913,8913,8912,8912,8912,8912,8912,8912,8912,8913,8913,8912,8912,8913,8912,8912,
8912,8912,8912,8912,8913,8913,8912,8912,8912,8912,8912,8912,8912,8912,8913,8913,8913,8912,8912,8912,8912,8912,8912,8912,8912,8912,8912,8912,8912,8912,8912,8912,8912,8912,8912,8912,8912,8912,8913,8912,8912,8912,8912,8912,8912,8912,8912,8912,8912,8912,8912,8912,
8913,8912,8913,8912,8912,8912,8912,8912,8912,8912,8912,8913,8912,8912,8913,8913,8913,8913,8913,8912,8912,8912,8912,8912,8912,8912,8912,8912,8913,8912,8912,8912,8913,8913,8912,8912,8912,8912,8912,8912,8913,8912,8912,8913,8912,8912,8912,8912,8913,8912,8912,8913,
8912,8912,8912,8912,8912,8912,8912,8913,8912,8912,8912,8912,8912,8912,8913,8913,8913,8912,8912,8912,8912,8912,8912,8912,8912,8913,8912,8912,8912,8912,8912,8912,8912,8912,8912,8912,8912,8912,8912,8912,8912,8912,8912,8912,8912,8912,8913,8912,8912,8912,8912,8912,
8912,8912,8912,8913,8913,8912,8912,8912,8912,8912,8913,8913,8912,8912,8912,8913,8913,8912,8913,8912,8913,8912,8912,8913,8912,8912,8912,8912,8912,8912,8912,8912,8912,8912,8912,8912,8912,8913,8912,8913,8912,8912,8913,8912,8912,8913,8912,8913,8913,8912,8912,8912,
8912,8912,8912,8912,8912,8913,8912,8912,8912,8912,8912,8912,8912,8912,8913,8913,8912,8912,8912,8912,8913,8912,8912,8912,8912,8912,8912,8912,8912,8912,8912,8912,8912,8912,8913,8912,8912,8912,8912,8912,8912,8913,8912,8912,8913,8912,8912,8912,8912,8912,8912,8912,
8912,8912,8912,8912,8912,8912,8912,8912,8913,8912,8912,8912,8912,8912,8913,8913,8912,8913,8912,8912,8912,8913,8912,8912,8913,8912,8912,8912,8912,8912,8912,8912,8912,8912,8912,8912,8913,8912,8913,8912,8912,8912,8912,8912,8912,8913,8912,8913,8912,8912,8912,8913,
8912,8912,8912,8912,8912,8912,8912,8912,8912,8912,8912,8912,8912,8913,8913,8913,8913,8912,8913,8912,8913,8912,8913,8912,8912,8912,8913,8912,8912,8912,8912,8912,8912,8912,8912,8913,8912,8912,8913,8912,8912,8912,8913,8912,8912,8912,8913,8912,8912,8912,8912,8912,
8912,8912,8913,8913,8912,8913,8912,8912,8912,8912,8912,8912,8912,8912,8913,8913,8912,8912,8912,8912,8912,8912,8912,8912,8912,8913,8912,8912,8912,8912,8912,8912,8912,8912,8912,8912,8912,8912,8912,8913,8912,8912,8912,8912,8912,8913,8913,8912,8913,8912,8912,8912,
8913,8912,8912,8912,8912,8912,8912,8912,8912,8912,8912,8912,8912,8912,8913,8913,8913,8912,8912,8912,8912,8912,8912,8912,8912,8912,8912,8912,8912,8912,8912,8912,8912,8912,8912,8912,8912,8912,8913,8912,8912,8912,8912,8913,8912,8913,8912,8913,8912,8912,8913,8912,
8912,8912,8912,8912,8912,8912,8912,8913,8912,8912,8912,8912,8912,8912,8912,8912,8912,8912,8912,8912,8912,8912,8912,8912,8912,8912,8912,8912,8912,8912,8912,8912,8912,8912,8912,8912,8912,8912,8912,8912,8912,8912,8912,8912,8912,8912,8913,8912,8912,8912,8912,8912,
8912,8912,8913,8913,8912,8912,8912,8912,8912,8912,8912,8912,8912,8913,8913,8913,8913,8912,8912,8912,8912,8912,8912,8912,8912,8912,8912,8912,8912,8912,8912,8912,8913,8913,8913,8913,8913,8913,8912,8912,8912,8912,8912,8912,8912,8912,8913,8912,8912,8912,8913,8912,
8912,8913,8912,8912,8912,8912,8913,8912,8912,8912,8912,8912,8912,8913,8913,8913,8912,8912,8913,8912,8912,8912,8912,8912,8912,8912,8912,8912,8912,8912,8912,8912,8912,8913,8913,8913,8913,8912,8912,8912,8912,8912,8912,8912,8912,8912,8912,8912,8912,8912,8913,8912,
8912,8912,8913,8912,8912,8912,8912,8912,8912,8912,8912,8912,8912,8913,8913,8913,8912,8912,8912,8912,8912,8912,8912,8912,8912,8912,8912,8912,8912,8912,8912,8912,8912,8912,8912,8912,8912,8912,8913,8913,8912,8912,8912,8912,8912,8912,8912,8912,8912,8912,8912,8912,
8912,8913,8913,8912,8912,8913,8912,8912,8913,8912,8912,8912,8913,8913,8913,8912,8912,8912,8912,8912,8912,8912,8912,8912,8912,8912,8912,8912,8912,8912,8912,8912,8912,8912,8912,8912,8912,8912,8912,8912,8912,8913,8913,8913,8913,8913,8913,8913,8913,8912,8912,8912,
8912,8912,8912,8913,8912,8912,8912,8912,8912,8912,8912,8913,8913,8913,8913,8912,8912,8912,8912,8913,8912,8912,8912,8912,8912,8912,8912,8912,8912,8912,8912,8912,8912,8912,8912,8912,8912,8912,8912,8912,8912,8913,8913,8913,8913,8913,8913,8913,8913,8913,8912,8912,
8912,8913,8912,8912,8913,8912,8912,8912,8912,8912,8912,8913,8913,8913,8913,8912,8913,8912,8912,8912,8912,8913,8912,8912,8912,8912,8912,8912,8912,8912,8912,8912,8912,8912,8912,8912,8912,8912,8912,8912,8912,8913,8913,8912,8912,8913,8912,8913,8913,8912,8912,8912,
8912,8913,8912,8912,8913,8912,8913,8912,8912,8912,8912,8913,8913,8912,8913,8913,8912,8912,8912,8913,8912,8912,8912,8912,8912,8913,8912,8912,8912,8912,8912,8912,8912,8912,8912,8912,8912,8912,8912,8912,8912,8912,8912,8912,8912,8912,8912,8912,8912,8912,8912,8913,
8912,8912,8912,8912,8912,8912,8912,8912,8912,8913,8913,8913,8913,8913,8912,8912,8912,8912,8912,8913,8912,8912,8912,8912,8913,8913,8912,8912,8912,8912,8912,8912,8912,8912,8912,8912,8912,8912,8912,8912,8912,8912,8912,8912,8912,8912,8912,8912,8912,8912,8912,8912,
8913,8912,8912,8913,8912,8912,8913,8913,8913,8913,8913,8913,8913,8913,8912,8912,8912,8912,8912,8913,8912,8912,8912,8912,8912,8912,8912,8912,8912,8912,8912,8912,8912,8912,8912,8912,8912,8912,8912,8912,8912,8912,8912,8912,8912,8912,8912,8912,8912,8912,8912,8912,
8912,8913,8912,8912,8913,8913,8913,8913,8913,8913,8913,8912,8912,8912,8912,8912,8913,8912,8912,8912,8912,8912,8912,8912,8912,8912,8912,8912,8912,8912,8912,8912,8912,8912,8912,8912,8912,8912,8912,8913,8913,8912,8912,8912,8912,8913,8913,8912,8912,8912,8913,8912,
8912,8912,8913,8913,8913,8913,8913,8913,8912,8912,8912,8912,8913,8912,8913,8913,8912,8912,8913,8912,8912,8912,8912,8912,8912,8912,8912,8912,8912,8912,8912,8912,8912,8912,8912,8912,8913,8913,8913,8913,8913,8913,8912,8912,8913,8913,8913,8913,8912,8912,8912,8913,
8913,8913,8913,8913,8913,8913,8913,8912,8912,8913,8913,8912,8913,8912,8913,8912,8912,8912,8912,8912,8913,8912,8912,8912,8912,8912,8912,8912,8912,8912,8912,8912,8912,8912,8912,8912,8912,8912,8912,8912,8912,8912,8912,8912,8912,8912,8912,8912,8912,8913,8912,8912,
8913,8913,8913,8913,8912,8912,8912,8912,8912,8912,8912,8912,8912,8912,8912,8912,8912,8913,8912,8912,8912,8913,8913,8913,8912,8912,8912,8912,8912,8912,8912,8912,8912,8912,8912,8913,8912,8913,8913,8912,8912,8912,8912,8913,8913,8912,8913,8912,8912,8912,8912,8912,
8912,8912,8912,8913,8912,8912,8912,8913,8912,8912,8912,8912,8912,8912,8912,8912,8913,8912,8912,8913,8912,8912,8912,8912,8912,8912,8912,8912,8912,8912,8912,8912,8912,8912,8912,8913,8912,8912,8912,8912,8912,8912,8912,8912,8912,8912,8912,8912,8913,8913,8912,8913,
8912,8912,8913,8912,8912,8913,8912,8912,8912,8912,8913,8912,8912,8913,8913,8912,8912,8912,8912,8912,8912,8912,8912,8912,8912,8912,8913,8912,8912,8912,8912,8912,8912,8912,8912,8913,8912,8912,8913,8912,8913,8912,8912,8913,8912,8912,8913,8912,8912,8912,8912,8912,
8912,8913,8913,8912,8912,8913,8912,8912,8913,8912,8913,8912,8912,8912,8912,8913,8912,8912,8913,8913,8912,8912,8912,8912,8912,8912,8912,8912,8912,8912,8912,8912,8912,8912,8912,8913,8912,8912,8912,8912,8912,8912,8912,8912,8912,8912,8912,8912,8913,8913,8912,8913,
8912,8912,8912,8912,8913,8912,8912,8912,8912,8913,8912,8912,8913,8912,8912,8912,8913,8912,8912,8913,8912,8912,8912,8912,8912,8912,8912,8912,8912,8912,8912,8912,8912,8912,8912,8913,8912,8913,8912,8912,8913,8913,8912,8913,8913,8912,8913,8912,8912,8912,8912,8912,
8912,8912,8913,8912,8912,8912,8913,8912,8912,8912,8913,8912,8912,8912,8912,8912,8912,8912,8912,8913,8912,8912,8912,8913,8913,8912,8912,8912,8912,8912,8912,8912,8912,8912,8912,8912,8912,8912,8912,8912,8912,8912,8912,8912,8912,8912,8912,8912,8912,8912,8912,8912,
8912,8912,8913,8912,8913,8912,8912,8913,8912,8912,8912,8912,8912,8913,8912,8913,8912,8913,8912,8913,8912,8912,8912,8912,8912,8913,8912,8912,8912,8912,8912,8912,8912,8912,8912,8913,8912,8913,8913,8912,8913,8912,8912,8912,8913,8912,8912,8912,8912,8912,8912,8912,
8912,8912,8913,8912,8912,8912,8912,8912,8912,8912,8912,8913,8912,8912,8912,8913,8912,8912,8912,8912,8912,8912,8913,8912,8912,8912,8913,8912,8912,8912,8912,8912,8912,8912,8912,8913,8913,8913,8913,8913,8913,8913,8913,8913,8913,8913,8913,8913,8912,8912,8913,8912,
8912,8912,8913,8912,8912,8912,8912,8913,8912,8913,8912,8913,8912,8913,8912,8912,8912,8913,8912,8912,8912,8912,8912,8913,8912,8913,8912,8912,8912,8912,8912,8912,8912,8912,8912,8912,8912,8912,8912,8912,8912,8912,8912,8912,8912,8912,8912,8912,8912,8912,8912,8913,
8912,8912,8912,8913,8912,8912,8912,8912,8912,8912,8913,8912,8913,8912,8912,8912,8912,8913,8912,8912,8912,8913,8912,8912,8912,8912,8912,8913,8912,8912,8912,8912,8912,8912,8912,8912,8913,8912,8912,8912,8912,8912,8912,8912,8912,8912,8912,8912,8912,8912,8913,8912,
8913,8912,8912,8912,8912,8913,8913,8912,8912,8912,8912,8912,8912,8913,8912,8912,8912,8912,8912,8913,8912,8912,8912,8912,8913,8912,8912,8912,8912,8912,8912,8912,8912,8912,8912,8912,8912,8912,8912,8912,8912,8912,8912,8912,8912,8912,8912,8912,8912,8913,8912,8912,
8912,8912,8912,8912,8913,8913,8912,8912,8913,8912,8912,8912,8913,8912,8913,8913,8912,8912,8912,8913,8912,8912,8912,8912,8912,8912,8912,8912,8913,8912,8912,8912,8912,8912,8912,8913,8913,8912,8912,8912,8912,8912,8912,8913,8912,8912,8913,8912,8912,8912,8913,8912
</data>
 </layer>
 <objectgroup id="7" name="Scenery">
  <object id="1" gid="2147492613" x="212" y="-1" width="64" height="64" />
  <object id="2" gid="9002" x="56" y="4" width="64" height="64" />
  <object id="3" gid="2147492650" x="179" y="4" width="64" height="64" />
  <object id="4" gid="8963" x="130" y="5" width="64" height="64" />
  <object id="5" gid="2147492611" x="643" y="6" width="64" height="64" />
  <object id="6" gid="2147492612" x="101" y="7" width="64" height="64" />
  <object id="7" gid="8963" x="9" y="8" width="64" height="64" />
  <object id="8" gid="2147492612" x="442" y="9" width="64" height="64" />
  <object id="9" gid="8963" x="320" y="10" width="64" height="64" />
  <object id="10" gid="8968" x="412" y="11" width="64" height="64" />
  <object id="11" gid="2147492616" x="781" y="11" width="64" height="64" />
  <object id="12" gid="2147492616" x="480" y="13" width="64" height="64" />
  <object id="13" gid="2147492613" x="-15" y="16" width="64" height="64" />
  <object id="14" gid="8963" x="237" y="16" width="64" height="64" />
  <object id="15" gid="8965" x="280" y="16" width="64" height="64" />
  <object id="16" gid="8968" x="508" y="16" width="64" height="64" />
  <object id="17" gid="2147492650" x="344" y="17" width="64" height="64" />
  <object id="18" gid="2147492612" x="596" y="17" width="64" height="64" />
  <object id="19" gid="2147492613" x="693" y="17" width="64" height="64" />
  <object id="20" gid="2147492612" x="755" y="17" width="64" height="64" />
  <object id="21" gid="8965" x="670" y="19" width="64" height="64" />
  <object id="22" gid="2147492616" x="566" y="20" width="64" height="64" />
  <object id="23" gid="2147492611" x="712" y="26" width="64" height="64" />
  <object id="24" gid="2147492611" x="-8" y="27" width="64" height="64" />
  <object id="25" gid="8965" x="324" y="27" width="64" height="64" />
  <object id="26" gid="2147492611" x="131" y="29" width="64" height="64" />
  <object id="27" gid="8963" x="514" y="31" width="64" height="64" />
  <object id="28" gid="2147492613" x="509" y="32" width="64" height="64" />
  <object id="29" gid="8965" x="83" y="33" width="64" height="64" />
  <object id="30" gid="8963" x="270" y="33" width="64" height="64" />
  <object id="31" gid="2147492650" x="674" y="33" width="64" height="64" />
  <object id="32" gid="2147492616" x="117" y="37" width="64" height="64" />
  <object id="33" gid="8964" x="361" y="38" width="64" height="64" />
  <object id="34" gid="2147492612" x="417" y="38" width="64" height="64" />
  <object id="35" gid="2147492613" x="608" y="38" width="64" height="64" />
  <object id="36" gid="2147492613" x="176" y="39" width="64" height="64" />
  <object id="37" gid="2147492650" x="221" y="41" width="64" height="64" />
  <object id="38" gid="9002" x="456" y="41" width="64" height="64" />
  <object id="39" gid="2147492613" x="301" y="42" width="64" height="64" />
  <object id="40" gid="2147492611" x="662" y="42" width="64" height="64" />
  <object id="41" gid="8965" x="47" y="45" width="64" height="64" />
  <object id="42" gid="8963" x="765" y="47" width="64" height="64" />
  <object id="43" gid="8966" x="599" y="47" width="64" height="64" />
  <object id="44" gid="2147492613" x="157" y="54" width="64" height="64" />
  <object id="45" gid="9002" x="292" y="54" width="64" height="64" />
  <object id="46" gid="2147492616" x="13" y="55" width="64" height="64" />
  <object id="47" gid="2147492613" x="404" y="57" width="64" height="64" />
  <object id="48" gid="8963" x="730" y="60" width="64" height="64" />
  <object id="49" gid="2147492611" x="125" y="61" width="64" height="64" />
  <object id="50" gid="2147492611" x="231" y="61" width="64" height="64" />
  <object id="51" gid="8965" x="772" y="61" width="64" height="64" />
  <object id="52" gid="8965" x="-13" y="62" width="64" height="64" />
  <object id="53" gid="9002" x="312" y="64" width="64" height="64" />
  <object id="54" gid="8965" x="344" y="65" width="64" height="64" />
  <object id="55" gid="2147492611" x="554" y="65" width="64" height="64" />
  <object id="56" gid="8968" x="480" y="67" width="64" height="64" />
  <object id="57" gid="2147492707" x="274" y="68" width="64" height="64" />
  <object id="58" gid="2147492613" x="441" y="70" width="64" height="64" />
  <object id="59" gid="2147492614" x="695" y="70" width="64" height="64" />
  <object id="60" gid="2147492612" x="127" y="73" width="64" height="64" />
  <object id="61" gid="2147492611" x="669" y="73" width="64" height="64" />
  <object id="62" gid="8965" x="519" y="75" width="64" height="64" />
  <object id="63" gid="8965" x="576" y="75" width="64" height="64" />
  <object id="64" gid="2147492611" x="57" y="76" width="64" height="64" />
  <object id="65" gid="8968" x="617" y="77" width="64" height="64" />
  <object id="66" gid="2147492614" x="218" y="78" width="64" height="64" />
  <object id="67" gid="8967" x="256" y="78" width="64" height="64" />
  <object id="68" gid="9002" x="765" y="84" width="64" height="64" />
  <object id="69" gid="8967" x="116" y="85" width="64" height="64" />
  <object id="70" gid="2147492611" x="654" y="85" width="64" height="64" />
  <object id="71" gid="2147492616" x="418" y="86" width="64" height="64" />
  <object id="72" gid="8968" x="143" y="90" width="64" height="64" />
  <object id="73" gid="9046" x="319" y="90" width="64" height="64" />
  <object id="74" gid="8968" x="696" y="95" width="64" height="64" />
  <object id="75" gid="9002" x="791" y="96" width="64" height="64" />
  <object id="76" gid="2147492611" x="506" y="96" width="64" height="64" />
  <object id="77" gid="8968" x="58" y="97" width="64" height="64" />
  <object id="78" gid="2147492613" x="514" y="98" width="64" height="64" />
  <object id="79" gid="9059" x="371" y="99" width="64" height="64" />
  <object id="80" gid="8963" x="579" y="100" width="64" height="64" />
  <object id="81" gid="8968" x="197" y="101" width="64" height="64" />
  <object id="82" gid="2147492612" x="-23" y="102" width="64" height="64" />
  <object id="83" gid="9059" x="471" y="102" width="64" height="64" />
  <object id="84" gid="8968" x="47" y="105" width="64" height="64" />
  <object id="85" gid="8963" x="593" y="105" width="64" height="64" />
  <object id="86" gid="8967" x="268.8" y="112" width="64" height="64" />
  <object id="87" gid="8963" x="400" y="115" width="64" height="64" />
  <object id="88" gid="8963" x="47" y="116" width="64" height="64" />
  <object id="89" gid="8968" x="682" y="116" width="64" height="64" />
  <object id="90" gid="2147492614" x="114" y="118" width="64" height="64" />
  <object id="91" gid="2147492694" x="224" y="118.4" width="64" height="64" />
  <object id="92" gid="8963" x="-31" y="120" width="64" height="64" />
  <object id="93" gid="2147492612" x="437" y="121" width="64" height="64" />
  <object id="94" gid="2147492650" x="772" y="122" width="64" height="64" />
  <object id="95" gid="2147492616" x="464" y="122" width="64" height="64" />
  <object id="96" gid="9046" x="313.6" y="124.8" width="64" height="64" />
  <object id="97" gid="8968" x="165" y="125" width="64" height="64" />
  <object id="98" gid="9022" x="716.8" y="128" width="64" height="64" />
  <object id="99" gid="2147492611" x="92" y="129" width="64" height="64" />
  <object id="100" gid="2147492616" x="525" y="132" width="64" height="64" />
  <object id="101" gid="9018" x="366" y="134" width="64" height="64" />
  <object id="102" gid="2147492694" x="205" y="138" width="64" height="64" />
  <object id="103" gid="2147492650" x="756" y="140" width="64" height="64" />
  <object id="104" gid="2147492613" x="-19" y="142" width="64" height="64" />
  <object id="105" gid="2147492611" x="10" y="147" width="64" height="64" />
  <object id="106" gid="9018" x="507" y="148" width="64" height="64" />
  <object id="107" gid="9059" x="116" y="150" width="64" height="64" />
  <object id="108" gid="9009" x="334.4" y="150.4" width="64" height="64" />
  <object id="109" gid="2147492694" x="277" y="153" width="64" height="64" />
  <object id="110" gid="2147492634" x="409.6" y="153.6" width="64" height="64" />
  <object id="111" gid="8968" x="43" y="154" width="64" height="64" />
  <object id="112" gid="9059" x="163" y="154" width="64" height="64" />
  <object id="113" gid="8968" x="519" y="155" width="64" height="64" />
  <object id="114" gid="8967" x="646.4" y="156.8" width="64" height="64" />
  <object id="115" gid="9004" x="560" y="160" width="64" height="64" />
  <object id="116" gid="2147492613" x="466" y="160" width="64" height="64" />
  <object id="117" gid="2147492611" x="77" y="162" width="64" height="64" />
  <object id="118" gid="8989" x="345.6" y="163.2" width="64" height="64" />
  <object id="119" gid="8993" x="636.8" y="166.4" width="64" height="64" />
  <object id="120" gid="8964" x="778" y="167" width="64" height="64" />
  <object id="121" gid="8986" x="310.4" y="169.6" width="64" height="64" />
  <object id="122" gid="9025" x="441.6" y="169.6" width="64" height="64" />
  <object id="123" gid="8963" x="-22" y="174" width="64" height="64" />
  <object id="124" gid="2147492616" x="160" y="175" width="64" height="64" />
  <object id="125" gid="2147492611" x="41" y="176" width="64" height="64" />
  <object id="126" gid="8968" x="512" y="178" width="64" height="64" />
  <object id="127" gid="8964" x="134" y="179" width="64" height="64" />
  <object id="128" gid="2147492612" x="80" y="182" width="64" height="64" />
  <object id="129" gid="9003" x="694.4" y="182.4" width="64" height="64" />
  <object id="130" gid="9019" x="387.2" y="185.6" width="64" height="64" />
  <object id="131" gid="2147492616" x="26" y="189" width="64" height="64" />
  <object id="132" gid="2147492611" x="203" y="190" width="64" height="64" />
  <object id="133" gid="9083" x="582.4" y="195.2" width="64" height="64" />
  <object id="134" gid="8965" x="760" y="196" width="64" height="64" />
  <object id="135" gid="9010" x="473.6" y="201.6" width="64" height="64" />
  <object id="136" gid="9008" x="297.6" y="204.8" width="64" height="64" />
  <object id="137" gid="8987" x="547.2" y="204.8" width="64" height="64" />
  <object id="138" gid="2147492613" x="-15" y="205" width="64" height="64" />
  <object id="139" gid="2147492611" x="2" y="205" width="64" height="64" />
  <object id="140" gid="2147492613" x="201" y="205" width="64" height="64" />
  <object id="141" gid="8978" x="425.6" y="208" width="64" height="64" />
  <object id="142" gid="2147492613" x="24" y="213" width="64" height="64" />
  <object id="143" gid="9031" x="700.8" y="217.6" width="64" height="64" />
  <object id="144" gid="8968" x="-43" y="224" width="64" height="64" />
  <object id="145" gid="2147492611" x="778" y="227" width="64" height="64" />
  <object id="146" gid="9022" x="528" y="227.2" width="64" height="64" />
  <object id="147" gid="2147492611" x="738" y="234" width="64" height="64" />
  <object id="148" gid="8986" x="323.2" y="236.8" width="64" height="64" />
  <object id="149" gid="9010" x="579.2" y="236.8" width="64" height="64" />
  <object id="150" gid="2147492666" x="191" y="245" width="64" height="64" />
  <object id="151" gid="2147492611" x="794" y="246" width="64" height="64" />
  <object id="152" gid="9092" x="352" y="246.4" width="64" height="64" />
  <object id="153" gid="9059" x="167" y="247" width="64" height="64" />
  <object id="154" gid="8963" x="15" y="249" width="64" height="64" />
  <object id="155" gid="9043" x="396.8" y="249.6" width="64" height="64" />
  <object id="156" gid="9022" x="107" y="250" width="64" height="64" />
  <object id="157" gid="9018" x="246" y="251" width="64" height="64" />
  <object id="158" gid="8968" x="775" y="257" width="64" height="64" />
  <object id="159" gid="2147492611" x="199" y="258" width="64" height="64" />
  <object id="160" gid="2147492611" x="454" y="261" width="64" height="64" />
  <object id="161" gid="2147492616" x="727" y="268" width="64" height="64" />
  <object id="162" gid="2147492666" x="270" y="271" width="64" height="64" />
  <object id="163" gid="2147492666" x="9" y="273" width="64" height="64" />
  <object id="164" gid="2147492616" x="677" y="273" width="64" height="64" />
  <object id="165" gid="8964" x="422" y="275" width="64" height="64" />
  <object id="166" gid="2147492611" x="636" y="276" width="64" height="64" />
  <object id="167" gid="8968" x="757" y="277" width="64" height="64" />
  <object id="168" gid="8963" x="781" y="283" width="64" height="64" />
  <object id="169" gid="2147492611" x="-17" y="287" width="64" height="64" />
  <object id="170" gid="9018" x="103" y="289" width="64" height="64" />
  <object id="171" gid="2147492611" x="198" y="290" width="64" height="64" />
  <object id="172" gid="8968" x="277" y="291" width="64" height="64" />
  <object id="173" gid="8968" x="539" y="291" width="64" height="64" />
  <object id="174" gid="9059" x="427" y="293" width="64" height="64" />
  <object id="175" gid="8966" x="140" y="296" width="64" height="64" />
  <object id="176" gid="2147492614" x="16" y="297" width="64" height="64" />
  <object id="177" gid="2147492611" x="756" y="299" width="64" height="64" />
  <object id="178" gid="8968" x="597" y="300" width="64" height="64" />
  <object id="179" gid="9018" x="158" y="301" width="64" height="64" />
  <object id="180" gid="8965" x="56" y="302" width="64" height="64" />
  <object id="181" gid="8963" x="499" y="303" width="64" height="64" />
  <object id="182" gid="2147492612" x="336" y="306" width="64" height="64" />
  <object id="183" gid="2147492611" x="678" y="306" width="64" height="64" />
  <object id="184" gid="8965" x="797" y="307" width="64" height="64" />
  <object id="185" gid="2147492611" x="464" y="307" width="64" height="64" />
  <object id="186" gid="2147492616" x="629" y="308" width="64" height="64" />
  <object id="187" gid="2147492612" x="708" y="308" width="64" height="64" />
  <object id="188" gid="8966" x="331" y="315" width="64" height="64" />
  <object id="189" gid="2147492616" x="591" y="316" width="64" height="64" />
  <object id="190" gid="8966" x="696" y="317" width="64" height="64" />
  <object id="191" gid="2147492616" x="215" y="320" width="64" height="64" />
  <object id="192" gid="8968" x="100" y="322" width="64" height="64" />
  <object id="193" gid="8966" x="189" y="322" width="64" height="64" />
  <object id="194" gid="9018" x="709" y="322" width="64" height="64" />
  <object id="195" gid="8963" x="32" y="323" width="64" height="64" />
  <object id="196" gid="8963" x="752" y="323" width="64" height="64" />
  <object id="197" gid="8968" x="65" y="324" width="64" height="64" />
  <object id="198" gid="8967" x="296" y="327" width="64" height="64" />
  <object id="199" gid="2147492650" x="797" y="329" width="64" height="64" />
  <object id="200" gid="9059" x="363" y="329" width="64" height="64" />
  <object id="201" gid="2147492616" x="157" y="330" width="64" height="64" />
  <object id="202" gid="9025" x="650" y="333" width="64" height="64" />
  <object id="203" gid="2147492611" x="439" y="334" width="64" height="64" />
  <object id="204" gid="2147492616" x="485" y="337" width="64" height="64" />
  <object id="205" gid="8968" x="580" y="337" width="64" height="64" />
  <object id="206" gid="2147492611" x="-42" y="341" width="64" height="64" />
  <object id="207" gid="8968" x="361" y="348" width="64" height="64" />
  <object id="208" gid="9059" x="501" y="348" width="64" height="64" />
  <object id="209" gid="2147492707" x="728" y="349" width="64" height="64" />
  <object id="210" gid="8964" x="37" y="352" width="64" height="64" />
  <object id="211" gid="8965" x="329" y="352" width="64" height="64" />
  <object id="212" gid="2147492611" x="79" y="353" width="64" height="64" />
  <object id="213" gid="2147492616" x="538" y="353" width="64" height="64" />
  <object id="214" gid="8968" x="112" y="354" width="64" height="64" />
  <object id="215" gid="9059" x="442" y="355" width="64" height="64" />
  <object id="216" gid="2147492673" x="166" y="356" width="64" height="64" />
  <object id="217" gid="2147492616" x="207" y="359" width="64" height="64" />
  <object id="218" gid="2147492613" x="29" y="360" width="64" height="64" />
  <object id="219" gid="2147492611" x="593" y="360" width="64" height="64" />
  <object id="220" gid="2147492616" x="630" y="360" width="64" height="64" />
  <object id="221" gid="8968" x="-20" y="362" width="64" height="64" />
  <object id="222" gid="8968" x="475" y="362" width="64" height="64" />
  <object id="223" gid="8967" x="668" y="363" width="64" height="64" />
  <object id="224" gid="2147492614" x="696" y="365" width="64" height="64" />
  <object id="225" gid="8964" x="26" y="374" width="64" height="64" />
  <object id="226" gid="9025" x="548" y="374" width="64" height="64" />
  <object id="227" gid="8968" x="502" y="376" width="64" height="64" />
  <object id="228" gid="8964" x="450" y="379" width="64" height="64" />
  <object id="229" gid="2147492616" x="607" y="379" width="64" height="64" />
  <object id="230" gid="8964" x="726" y="380" width="64" height="64" />
  <object id="231" gid="2147492614" x="82" y="381" width="64" height="64" />
  <object id="232" gid="2147492616" x="702" y="381" width="64" height="64" />
  <object id="233" gid="2147492613" x="137" y="382" width="64" height="64" />
  <object id="234" gid="8965" x="95" y="387" width="64" height="64" />
  <object id="235" gid="2147492673" x="179" y="387" width="64" height="64" />
  <object id="236" gid="8968" x="332" y="387" width="64" height="64" />
  <object id="237" gid="2147492613" x="586" y="387" width="64" height="64" />
  <object id="238" gid="8968" x="309" y="392" width="64" height="64" />
  <object id="239" gid="2147492616" x="647" y="392" width="64" height="64" />
  <object id="240" gid="8963" x="-35" y="394" width="64" height="64" />
  <object id="241" gid="2147492616" x="376" y="394" width="64" height="64" />
  <object id="242" gid="9002" x="779" y="395" width="64" height="64" />
  <object id="243" gid="9059" x="473" y="402" width="64" height="64" />
  <object id="244" gid="2147492612" x="606" y="402" width="64" height="64" />
  <object id="245" gid="8968" x="633" y="402" width="64" height="64" />
  <object id="246" gid="8968" x="89" y="403" width="64" height="64" />
  <object id="247" gid="9018" x="688" y="403" width="64" height="64" />
  <object id="248" gid="9002" x="332" y="409" width="64" height="64" />
  <object id="249" gid="8968" x="515" y="410" width="64" height="64" />
  <object id="250" gid="2147492616" x="640" y="411" width="64" height="64" />
  <object id="251" gid="9002" x="157" y="412" width="64" height="64" />
  <object id="252" gid="8968" x="716" y="412" width="64" height="64" />
  <object id="253" gid="8964" x="238" y="413" width="64" height="64" />
  <object id="254" gid="2147492650" x="43" y="417" width="64" height="64" />
  <object id="255" gid="8965" x="571" y="417" width="64" height="64" />
  <object id="256" gid="2147492650" x="593" y="418" width="64" height="64" />
  <object id="257" gid="8964" x="771" y="418" width="64" height="64" />
  <object id="258" gid="2147492613" x="59" y="419" width="64" height="64" />
  <object id="259" gid="8964" x="119" y="419" width="64" height="64" />
  <object id="260" gid="9002" x="481" y="419" width="64" height="64" />
  <object id="261" gid="8963" x="681" y="421" width="64" height="64" />
  <object id="262" gid="8965" x="270" y="422" width="64" height="64" />
  <object id="263" gid="8965" x="8" y="427" width="64" height="64" />
  <object id="264" gid="2147492650" x="303" y="427" width="64" height="64" />
  <object id="265" gid="9002" x="-16" y="435" width="64" height="64" />
  <object id="266" gid="2147492611" x="25" y="435" width="64" height="64" />
  <object id="267" gid="8968" x="719" y="435" width="64" height="64" />
  <object id="268" gid="2147492612" x="350" y="436" width="64" height="64" />
  <object id="269" gid="2147492616" x="540" y="436" width="64" height="64" />
  <object id="270" gid="8964" x="479" y="437" width="64" height="64" />
  <object id="271" gid="2147492616" x="505" y="437" width="64" height="64" />
  <object id="272" gid="8963" x="36" y="438" width="64" height="64" />
  <object id="273" gid="2147492611" x="611" y="438" width="64" height="64" />
  <object id="274" gid="2147492611" x="233" y="440" width="64" height="64" />
  <object id="275" gid="2147492650" x="751" y="440" width="64" height="64" />
  <object id="276" gid="2147492611" x="601" y="443" width="64" height="64" />
  <object id="277" gid="2147492613" x="93" y="449" width="64" height="64" />
  <object id="278" gid="8968" x="214" y="449" width="64" height="64" />
  <object id="279" gid="2147492650" x="309" y="449" width="64" height="64" />
  <object id="280" gid="8965" x="797" y="451" width="64" height="64" />
  <object id="281" gid="2147492616" x="121" y="452" width="64" height="64" />
  <object id="282" gid="2147492612" x="663" y="452" width="64" height="64" />
  <object id="283" gid="8964" x="290" y="453" width="64" height="64" />
  <object id="284" gid="8963" x="722" y="462" width="64" height="64" />
  <object id="285" gid="9018" x="110" y="467" width="64" height="64" />
  <object id="286" gid="8963" x="542" y="468" width="64" height="64" />
  <object id="287" gid="2147492613" x="-10" y="469" width="64" height="64" />
  <object id="288" gid="2147492612" x="578" y="470" width="64" height="64" />
  <object id="289" gid="2147492613" x="331" y="471" width="64" height="64" />
  <object id="290" gid="2147492611" x="686" y="471" width="64" height="64" />
  <object id="291" gid="8963" x="254" y="473" width="64" height="64" />
  <object id="292" gid="8968" x="26" y="473" width="64" height="64" />
  <object id="293" gid="8965" x="306" y="474" width="64" height="64" />
  <object id="294" gid="2147492613" x="220" y="482" width="64" height="64" />
  <object id="295" gid="8965" x="387" y="483" width="64" height="64" />
  <object id="296" gid="2147492611" x="309" y="492" width="64" height="64" />
  <object id="297" gid="9029" x="131" y="497" width="64" height="64" />
  <object id="298" gid="8963" x="2" y="498" width="64" height="64" />
  <object id="299" gid="2147492650" x="-41" y="499" width="64" height="64" />
  <object id="300" gid="2147492650" x="85" y="499" width="64" height="64" />
  <object id="301" gid="2147492707" x="53" y="502" width="64" height="64" />
  <object id="302" gid="8963" x="278" y="503" width="64" height="64" />
  <object id="303" gid="8965" x="238" y="506" width="64" height="64" />
  <object id="304" gid="2147492650" x="196" y="508" width="64" height="64" />
  <object id="305" gid="2147492611" x="277" y="517" width="64" height="64" />
  <object id="306" gid="8964" x="225" y="519" width="64" height="64" />
  <object id="307" gid="2147492616" x="194" y="522" width="64" height="64" />
  <object id="308" gid="8968" x="131" y="522" width="64" height="64" />
  <object id="309" gid="8965" x="-8" y="523" width="64" height="64" />
  <object id="310" gid="8968" x="25" y="532" width="64" height="64" />
  <object id="311" gid="9002" x="306" y="533" width="64" height="64" />
  <object id="312" gid="2147492707" x="65" y="538" width="64" height="64" />
  <object id="313" gid="9014" x="662.4" y="547.2" width="64" height="64" />
  <object id="314" gid="9019" x="620.8" y="550.4" width="64" height="64" />
  <object id="315" gid="8965" x="252" y="552" width="64" height="64" />
  <object id="316" gid="9065" x="691.2" y="553.6" width="64" height="64" />
  <object id="317" gid="2147492700" x="100" y="556" width="64" height="64" />
  <object id="318" gid="8965" x="-23" y="557" width="64" height="64" />
  <object id="319" gid="9096" x="297.6" y="560" width="64" height="64" />
  <object id="320" gid="2147492700" x="108" y="567" width="64" height="64" />
  <object id="321" gid="8988" x="416" y="569.6" width="64" height="64" />
  <object id="322" gid="8963" x="263" y="572" width="64" height="64" />
  <object id="323" gid="8982" x="505.6" y="572.8" width="64" height="64" />
  <object id="324" gid="8963" x="182" y="574" width="64" height="64" />
  <object id="325" gid="2147492612" x="740" y="578" width="64" height="64" />
  <object id="326" gid="2147492666" x="74" y="579" width="64" height="64" />
  <object id="327" gid="8968" x="759" y="583" width="64" height="64" />
  <object id="328" gid="9095" x="294.4" y="585.6" width="64" height="64" />
  <object id="329" gid="2147492613" x="-11" y="587" width="64" height="64" />
  <object id="330" gid="2147492724" x="17" y="589" width="64" height="64" />
  <object id="331" gid="2147492616" x="783" y="592" width="64" height="64" />
  <object id="332" gid="8963" x="-27" y="599" width="64" height="64" />
  <object id="333" gid="8968" x="795" y="608" width="64" height="64" />
  <object id="334" gid="2147492616" x="266" y="609" width="64" height="64" />
  <object id="335" gid="9027" x="419.2" y="620.8" width="64" height="64" />
  <object id="336" gid="8916" x="330" y="622" width="64" height="64" />
  <object id="337" gid="8917" x="390" y="622" width="64" height="64" />
  <object id="338" gid="9048" x="307.2" y="624" width="64" height="64" />
  <object id="339" gid="8965" x="22" y="626" width="64" height="64" />
  <object id="340" gid="2147492650" x="-18" y="627" width="64" height="64" />
  <object id="341" gid="9076" x="34" y="628" width="64" height="64" />
  <object id="342" gid="9050" x="57" y="628" width="64" height="64" />
  <object id="343" gid="8986" x="752" y="630.4" width="64" height="64" />
  <object id="344" gid="9002" x="784" y="634" width="64" height="64" />
  <object id="345" gid="9059" x="171" y="636" width="64" height="64" />
  <object id="346" gid="2147492611" x="116" y="637" width="64" height="64" />
  <object id="347" gid="8972" x="684.8" y="649.6" width="64" height="64" />
  <object id="348" gid="8969" x="259.2" y="652.8" width="64" height="64" />
  <object id="349" gid="9017" x="633.6" y="652.8" width="64" height="64" />
  <object id="350" gid="8968" x="-39" y="655" width="64" height="64" />
  <object id="351" gid="2147492612" x="7" y="655" width="64" height="64" />
  <object id="352" gid="9033" x="489.6" y="665.6" width="64" height="64" />
  <object id="353" gid="8968" x="180" y="666" width="64" height="64" />
  <object id="354" gid="2147492611" x="55" y="666" width="64" height="64" />
  <object id="355" gid="8968" x="108" y="668" width="64" height="64" />
  <object id="356" gid="9026" x="732.8" y="668.8" width="64" height="64" />
  <object id="357" gid="2147492614" x="155" y="675" width="64" height="64" />
  <object id="358" gid="8978" x="656" y="681.6" width="64" height="64" />
  <object id="359" gid="8964" x="10" y="686" width="64" height="64" />
  <object id="360" gid="9049" x="675.2" y="691.2" width="64" height="64" />
  <object id="361" gid="9031" x="406.4" y="694.4" width="64" height="64" />
  <object id="362" gid="9087" x="281.6" y="694.4" width="64" height="64" />
  <object id="363" gid="9092" x="296" y="697.6" width="64" height="64" />
  <object id="364" gid="2147492616" x="769" y="711" width="64" height="64" />
  <object id="365" gid="2147492611" x="-21" y="713" width="64" height="64" />
  <object id="366" gid="2147492613" x="66" y="713" width="64" height="64" />
  <object id="367" gid="9019" x="726.4" y="713.6" width="64" height="64" />
  <object id="368" gid="9014" x="633.6" y="716.8" width="64" height="64" />
  <object id="369" gid="2147492650" x="149" y="717" width="64" height="64" />
  <object id="370" gid="9031" x="422.4" y="720" width="64" height="64" />
  <object id="371" gid="8965" x="109" y="720" width="64" height="64" />
  <object id="372" gid="8980" x="694.4" y="736" width="64" height="64" />
  <object id="373" gid="8968" x="8" y="736" width="64" height="64" />
  <object id="374" gid="8965" x="52" y="742" width="64" height="64" />
  <object id="375" gid="8965" x="796" y="744" width="64" height="64" />
  <object id="376" gid="8927" x="376" y="746" width="64" height="64" />
  <object id="377" gid="8965" x="208" y="746" width="64" height="64" />
  <object id="378" gid="8925" x="312" y="748" width="64" height="64" />
  <object id="379" gid="2147492611" x="778" y="749" width="64" height="64" />
  <object id="380" gid="8926" x="327" y="752" width="64" height="64" />
  <object id="381" gid="9011" x="400" y="755.2" width="64" height="64" />
  <object id="382" gid="9093" x="284.8" y="758.4" width="64" height="64" />
  <object id="383" gid="2147492612" x="-1" y="766" width="64" height="64" />
  <object id="384" gid="2147492613" x="157" y="767" width="64" height="64" />
  <object id="385" gid="9002" x="-27" y="769" width="64" height="64" />
  <object id="386" gid="2147492611" x="794" y="771" width="64" height="64" />
  <object id="387" gid="9073" x="297.6" y="771.2" width="64" height="64" />
  <object id="388" gid="2147492611" x="30" y="779" width="64" height="64" />
  <object id="389" gid="9042" x="225" y="784" width="64" height="64" />
  <object id="390" gid="9037" x="83.2" y="787.2" width="64" height="64" />
  <object id="391" gid="2147492611" x="-21" y="788" width="64" height="64" />
  <object id="392" gid="2147492616" x="15" y="788" width="64" height="64" />
  <object id="393" gid="2147492613" x="698" y="792" width="64" height="64" />
  <object id="394" gid="8971" x="556.8" y="793.6" width="64" height="64" />
  <object id="395" gid="2147492647" x="124.8" y="796.8" width="64" height="64" />
  <object id="396" gid="2147492616" x="756" y="799" width="64" height="64" />
  <object id="397" gid="8968" x="706" y="800" width="64" height="64" />
  <object id="398" gid="8999" x="41.6" y="806.4" width="64" height="64" />
  <object id="399" gid="9042" x="587" y="811" width="64" height="64" />
  <object id="400" gid="2147492612" x="797" y="817" width="64" height="64" />
  <object id="401" gid="2147492666" x="262" y="821" width="64" height="64" />
  <object id="402" gid="2147492616" x="-27" y="822" width="64" height="64" />
  <object id="403" gid="9033" x="419.2" y="822.4" width="64" height="64" />
  <object id="404" gid="8973" x="502.4" y="822.4" width="64" height="64" />
  <object id="405" gid="8968" x="670" y="823" width="64" height="64" />
  <object id="406" gid="8990" x="153.6" y="825.6" width="64" height="64" />
  <object id="407" gid="8963" x="743" y="826" width="64" height="64" />
  <object id="408" gid="2147492612" x="611" y="827" width="64" height="64" />
  <object id="409" gid="9029" x="9.6" y="828.8" width="64" height="64" />
  <object id="410" gid="8965" x="252" y="830" width="64" height="64" />
  <object id="411" gid="8963" x="707" y="836" width="64" height="64" />
  <object id="412" gid="8983" x="83.2" y="841.6" width="64" height="64" />
  <object id="413" gid="8963" x="376" y="844" width="64" height="64" />
  <object id="414" gid="2147492613" x="302" y="853" width="64" height="64" />
  <object id="415" gid="8963" x="345" y="854" width="64" height="64" />
  <object id="416" gid="9002" x="749" y="854" width="64" height="64" />
  <object id="417" gid="9005" x="22.4" y="854.4" width="64" height="64" />
  <object id="418" gid="2147492616" x="568" y="855" width="64" height="64" />
  <object id="419" gid="8964" x="600" y="855" width="64" height="64" />
  <object id="420" gid="8965" x="262" y="857" width="64" height="64" />
  <object id="421" gid="2147492611" x="721" y="857" width="64" height="64" />
  <object id="422" gid="9036" x="137.6" y="857.6" width="64" height="64" />
  <object id="423" gid="9045" x="44.8" y="860.8" width="64" height="64" />
  <object id="424" gid="8965" x="643" y="861" width="64" height="64" />
  <object id="425" gid="2147492612" x="696" y="863" width="64" height="64" />
  <object id="426" gid="2147492616" x="298" y="870" width="64" height="64" />
  <object id="427" gid="2147492616" x="206" y="872" width="64" height="64" />
  <object id="428" gid="8964" x="639" y="874" width="64" height="64" />
  <object id="429" gid="9068" x="60.8" y="876.8" width="64" height="64" />
  <object id="430" gid="2147492650" x="675" y="877" width="64" height="64" />
  <object id="431" gid="9002" x="519" y="878" width="64" height="64" />
  <object id="432" gid="2147492611" x="689" y="881" width="64" height="64" />
  <object id="433" gid="8965" x="360" y="882" width="64" height="64" />
  <object id="434" gid="2147492616" x="548" y="883" width="64" height="64" />
  <object id="435" gid="8965" x="795" y="883" width="64" height="64" />
  <object id="436" gid="2147492611" x="240" y="885" width="64" height="64" />
  <object id="437" gid="9002" x="306" y="886" width="64" height="64" />
  <object id="438" gid="9002" x="735" y="887" width="64" height="64" />
  <object id="439" gid="2147492611" x="591" y="888" width="64" height="64" />
  <object id="440" gid="9083" x="105.6" y="896" width="64" height="64" />
  <object id="441" gid="2147492612" x="300" y="898" width="64" height="64" />
  <object id="442" gid="2147492613" x="323" y="899" width="64" height="64" />
  <object id="443" gid="8968" x="262" y="900" width="64" height="64" />
  <object id="444" gid="8965" x="534" y="900" width="64" height="64" />
  <object id="445" gid="2147492650" x="184" y="901" width="64" height="64" />
  <object id="446" gid="8964" x="641" y="902" width="64" height="64" />
  <object id="447" gid="8968" x="583" y="906" width="64" height="64" />
  <object id="448" gid="8965" x="718" y="906" width="64" height="64" />
  <object id="449" gid="8965" x="387" y="909" width="64" height="64" />
  <object id="450" gid="2147492613" x="601" y="913" width="64" height="64" />
  <object id="451" gid="2147492666" x="63" y="913" width="64" height="64" />
  <object id="452" gid="8965" x="700" y="914" width="64" height="64" />
  <object id="453" gid="2147492616" x="9" y="915" width="64" height="64" />
  <object id="454" gid="2147492612" x="751" y="916" width="64" height="64" />
  <object id="455" gid="9002" x="24" y="917" width="64" height="64" />
  <object id="456" gid="8964" x="716" y="925" width="64" height="64" />
  <object id="457" gid="2147492616" x="383" y="927" width="64" height="64" />
  <object id="458" gid="9010" x="147.2" y="928" width="64" height="64" />
  <object id="459" gid="9002" x="-24" y="930" width="64" height="64" />
  <object id="460" gid="8965" x="777" y="930" width="64" height="64" />
  <object id="461" gid="8965" x="657" y="934" width="64" height="64" />
  <object id="462" gid="9058" x="591" y="934" width="64" height="64" />
  <object id="463" gid="2147492613" x="728" y="938" width="64" height="64" />
  <object id="464" gid="8964" x="697" y="940" width="64" height="64" />
  <object id="465" gid="2147492616" x="81" y="956" width="64" height="64" />
  <object id="466" gid="9058" x="710" y="959" width="64" height="64" />
  <object id="467" gid="8968" x="29" y="961" width="64" height="64" />
  <object id="468" gid="8963" x="772" y="962" width="64" height="64" />
  <object id="469" gid="2147492616" x="719" y="968" width="64" height="64" />
  <object id="470" gid="8964" x="3" y="971" width="64" height="64" />
  <object id="471" gid="9049" x="489.6" y="974.4" width="64" height="64" />
  <object id="472" gid="9071" x="568" y="976" width="64" height="64" />
  <object id="473" gid="9010" x="294.4" y="976" width="64" height="64" />
  <object id="474" gid="8964" x="-15" y="982" width="64" height="64" />
  <object id="475" gid="9068" x="265.6" y="982.4" width="64" height="64" />
  <object id="476" gid="2147492616" x="773" y="984" width="64" height="64" />
  <object id="477" gid="8965" x="70" y="987" width="64" height="64" />
  <object id="478" gid="9061" x="537.6" y="992" width="64" height="64" />
  <object id="479" gid="2147492650" x="15" y="994" width="64" height="64" />
  <object id="480" gid="8991" x="590.4" y="1008" width="64" height="64" />
  <object id="481" gid="2147492611" x="105" y="1018" width="64" height="64" />
  <object id="482" gid="2147492611" x="53" y="1021" width="64" height="64" />
  <object id="483" gid="8965" x="-16" y="1022" width="64" height="64" />
  <object id="484" gid="2147492616" x="15" y="1023" width="64" height="64" />
  <object id="485" gid="2147492650" x="282" y="1035" width="64" height="64" />
  <object id="486" gid="2147492677" x="159" y="1036" width="64" height="64" />
  <object id="487" gid="9005" x="761.6" y="1036.8" width="64" height="64" />
  <object id="488" gid="9059" x="26" y="1037" width="64" height="64" />
  <object id="489" gid="8968" x="46" y="1042" width="64" height="64" />
  <object id="490" gid="2147492650" x="-13" y="1043" width="64" height="64" />
  <object id="491" gid="8961" x="743" y="1045" width="64" height="64" />
  <object id="492" gid="2147492611" x="307" y="1045" width="64" height="64" />
  <object id="493" gid="9002" x="232" y="1047" width="64" height="64" />
  <object id="494" gid="8968" x="197" y="1049" width="64" height="64" />
  <object id="495" gid="8960" x="730" y="1051" width="64" height="64" />
  <object id="496" gid="8959" x="704" y="1054" width="64" height="64" />
  <object id="497" gid="8958" x="691" y="1056" width="64" height="64" />
  <object id="498" gid="2147492616" x="-11" y="1060" width="64" height="64" />
  <object id="499" gid="8964" x="796" y="1060" width="64" height="64" />
  <object id="500" gid="2147492611" x="274" y="1061" width="64" height="64" />
  <object id="501" gid="2147492650" x="223" y="1062" width="64" height="64" />
  <object id="502" gid="8963" x="377.6" y="1062.4" width="64" height="64" />
  <object id="503" gid="2147492666" x="42" y="1066" width="64" height="64" />
  <object id="504" gid="2147492616" x="71" y="1066" width="64" height="64" />
  <object id="505" gid="2147492613" x="198" y="1068" width="64" height="64" />
  <object id="506" gid="2147492650" x="287" y="1080" width="64" height="64" />
  <object id="507" gid="9018" x="127" y="1080" width="64" height="64" />
  <object id="508" gid="9011" x="374.4" y="1088" width="64" height="64" />
  <object id="509" gid="8968" x="184" y="1088" width="64" height="64" />
  <object id="510" gid="2147492616" x="284" y="1089" width="64" height="64" />
  <object id="511" gid="8963" x="16" y="1094" width="64" height="64" />
  <object id="512" gid="2147492612" x="191" y="1094" width="64" height="64" />
  <object id="513" gid="8965" x="166" y="1095" width="64" height="64" />
  <object id="514" gid="8965" x="-24" y="1099" width="64" height="64" />
  <object id="515" gid="8968" x="71" y="1104" width="64" height="64" />
  <object id="516" gid="8963" x="234" y="1107" width="64" height="64" />
  <object id="517" gid="2147492613" x="772" y="1108" width="64" height="64" />
  <object id="518" gid="8984" x="611.2" y="1113.6" width="64" height="64" />
  <object id="519" gid="8963" x="-4" y="1115" width="64" height="64" />
  <object id="520" gid="9027" x="697.6" y="1116.8" width="64" height="64" />
  <object id="521" gid="2147492616" x="256" y="1121" width="64" height="64" />
  <object id="522" gid="8963" x="192" y="1126" width="64" height="64" />
  <object id="523" gid="2147492612" x="795" y="1129" width="64" height="64" />
  <object id="524" gid="8963" x="169" y="1132" width="64" height="64" />
  <object id="525" gid="9030" x="560" y="1134.4" width="64" height="64" />
  <object id="526" gid="9030" x="592" y="1134.4" width="64" height="64" />
  <object id="527" gid="9030" x="624" y="1134.4" width="64" height="64" />
  <object id="528" gid="9030" x="688" y="1134.4" width="64" height="64" />
  <object id="529" gid="9030" x="720" y="1134.4" width="64" height="64" />
  <object id="530" gid="8963" x="215" y="1135" width="64" height="64" />
  <object id="531" gid="2147492616" x="119" y="1139" width="64" height="64" />
  <object id="532" gid="2147492650" x="168" y="1144" width="64" height="64" />
  <object id="533" gid="8964" x="134" y="1146" width="64" height="64" />
  <object id="534" gid="8963" x="767" y="1150" width="64" height="64" />
  <object id="535" gid="2147492613" x="194" y="1151" width="64" height="64" />
  <object id="536" gid="8965" x="295" y="1152" width="64" height="64" />
  <object id="537" gid="9042" x="534.4" y="1155.2" width="64" height="64" />
  <object id="538" gid="8964" x="245" y="1162" width="64" height="64" />
  <object id="539" gid="9066" x="560" y="1164.8" width="64" height="64" />
  <object id="540" gid="2147492693" x="585.6" y="1164.8" width="64" height="64" />
  <object id="541" gid="2147492714" x="656" y="1164.8" width="64" height="64" />
  <object id="542" gid="9067" x="681.6" y="1164.8" width="64" height="64" />
  <object id="543" gid="2147492693" x="707.2" y="1164.8" width="64" height="64" />
  <object id="544" gid="8970" x="332.8" y="1168" width="64" height="64" />
  <object id="545" gid="8963" x="799" y="1169" width="64" height="64" />
  <object id="546" gid="8968" x="275" y="1171" width="64" height="64" />
  <object id="547" gid="8968" x="27" y="1174" width="64" height="64" />
  <object id="548" gid="2147492613" x="235" y="1174" width="64" height="64" />
  <object id="549" gid="9058" x="534.4" y="1174.4" width="64" height="64" />
  <object id="550" gid="8980" x="745.6" y="1174.4" width="64" height="64" />
  <object id="551" gid="8968" x="95" y="1180" width="64" height="64" />
  <object id="552" gid="8968" x="131" y="1186" width="64" height="64" />
  <object id="553" gid="8987" x="390.4" y="1187.2" width="64" height="64" />
  <object id="554" gid="2147492650" x="1" y="1188" width="64" height="64" />
  <object id="555" gid="2147492611" x="62" y="1189" width="64" height="64" />
  <object id="556" gid="2147492611" x="197" y="1190" width="64" height="64" />
  <object id="557" gid="9068" x="585.6" y="1193.6" width="64" height="64" />
  <object id="558" gid="2147492693" x="611.2" y="1193.6" width="64" height="64" />
  <object id="559" gid="9066" x="656" y="1193.6" width="64" height="64" />
  <object id="560" gid="9068" x="707.2" y="1193.6" width="64" height="64" />
  <object id="561" gid="9060" x="534.4" y="1193.6" width="64" height="64" />
  <object id="562" gid="8968" x="182" y="1197" width="64" height="64" />
  <object id="563" gid="8964" x="216" y="1202" width="64" height="64" />
  <object id="564" gid="2147492611" x="132" y="1204" width="64" height="64" />
  <object id="565" gid="2147492613" x="284" y="1206" width="64" height="64" />
  <object id="566" gid="9036" x="748.8" y="1206.4" width="64" height="64" />
  <object id="567" gid="2147492650" x="13" y="1211" width="64" height="64" />
  <object id="568" gid="8964" x="792" y="1212" width="64" height="64" />
  <object id="569" gid="9042" x="534.4" y="1212.8" width="64" height="64" />
  <object id="570" gid="8963" x="-11" y="1213" width="64" height="64" />
  <object id="571" gid="8963" x="107" y="1213" width="64" height="64" />
  <object id="572" gid="2147492613" x="256" y="1214" width="64" height="64" />
  <object id="573" gid="8968" x="58" y="1215" width="64" height="64" />
  <object id="574" gid="9016" x="633.6" y="1219.2" width="64" height="64" />
  <object id="575" gid="9066" x="560" y="1222.4" width="64" height="64" />
  <object id="576" gid="9045" x="611.2" y="1222.4" width="64" height="64" />
  <object id="577" gid="2147492714" x="656" y="1222.4" width="64" height="64" />
  <object id="578" gid="9068" x="681.6" y="1222.4" width="64" height="64" />
  <object id="579" gid="2147492693" x="707.2" y="1222.4" width="64" height="64" />
  <object id="580" gid="2147492612" x="120" y="1223" width="64" height="64" />
  <object id="581" gid="9002" x="285" y="1225" width="64" height="64" />
  <object id="582" gid="8968" x="171" y="1226" width="64" height="64" />
  <object id="583" gid="8968" x="225" y="1227" width="64" height="64" />
  <object id="584" gid="2147492611" x="34" y="1230" width="64" height="64" />
  <object id="585" gid="9058" x="534.4" y="1232" width="64" height="64" />
  <object id="586" gid="2147492613" x="278" y="1234" width="64" height="64" />
  <object id="587" gid="8965" x="343" y="1235" width="64" height="64" />
  <object id="588" gid="2147492613" x="4" y="1240" width="64" height="64" />
  <object id="589" gid="2147492611" x="138" y="1240" width="64" height="64" />
  <object id="590" gid="2147492616" x="75" y="1244" width="64" height="64" />
  <object id="591" gid="8968" x="362" y="1244" width="64" height="64" />
  <object id="592" gid="8963" x="216" y="1250" width="64" height="64" />
  <object id="593" gid="2147492650" x="-39" y="1251" width="64" height="64" />
  <object id="594" gid="9060" x="534.4" y="1251.2" width="64" height="64" />
  <object id="595" gid="2147492714" x="560" y="1251.2" width="64" height="64" />
  <object id="596" gid="9045" x="585.6" y="1251.2" width="64" height="64" />
  <object id="597" gid="2147492716" x="611.2" y="1251.2" width="64" height="64" />
  <object id="598" gid="2147492715" x="681.6" y="1251.2" width="64" height="64" />
  <object id="599" gid="8964" x="244" y="1254" width="64" height="64" />
  <object id="600" gid="8968" x="370" y="1257" width="64" height="64" />
  <object id="601" gid="8965" x="88" y="1260" width="64" height="64" />
  <object id="602" gid="8963" x="276" y="1260" width="64" height="64" />
  <object id="603" gid="8963" x="178" y="1262" width="64" height="64" />
  <object id="604" gid="2147492613" x="2" y="1263" width="64" height="64" />
  <object id="605" gid="2147492613" x="36" y="1264" width="64" height="64" />
  <object id="606" gid="8965" x="144" y="1266" width="64" height="64" />
  <object id="607" gid="9002" x="774" y="1266" width="64" height="64" />
  <object id="608" gid="9002" x="327" y="1267" width="64" height="64" />
  <object id="609" gid="9042" x="534.4" y="1270.4" width="64" height="64" />
  <object id="610" gid="2147492612" x="388" y="1271" width="64" height="64" />
  <object id="611" gid="9030" x="560" y="1273.6" width="64" height="64" />
  <object id="612" gid="9030" x="592" y="1273.6" width="64" height="64" />
  <object id="613" gid="9030" x="624" y="1273.6" width="64" height="64" />
  <object id="614" gid="9030" x="656" y="1273.6" width="64" height="64" />
  <object id="615" gid="9030" x="688" y="1273.6" width="64" height="64" />
  <object id="616" gid="9030" x="720" y="1273.6" width="64" height="64" />
  <object id="617" gid="9002" x="4" y="1279" width="64" height="64" />
  <object id="618" gid="2147492613" x="209" y="1280" width="64" height="64" />
  <object id="619" gid="2147492611" x="15" y="1281" width="64" height="64" />
  <object id="620" gid="2147492611" x="789" y="1282" width="64" height="64" />
  <object id="621" gid="2147492613" x="80" y="1284" width="64" height="64" />
  <object id="622" gid="2147492650" x="344" y="1287" width="64" height="64" />
  <object id="623" gid="8965" x="246" y="1289" width="64" height="64" />
  <object id="624" gid="2147492616" x="147" y="1290" width="64" height="64" />
  <object id="625" gid="2147492613" x="124" y="1292" width="64" height="64" />
  <object id="626" gid="8965" x="187" y="1292" width="64" height="64" />
  <object id="627" gid="8968" x="383" y="1294" width="64" height="64" />
  <object id="628" gid="9002" x="777" y="1297" width="64" height="64" />
  <object id="629" gid="2147492613" x="313" y="1299" width="64" height="64" />
  <object id="630" gid="2147492612" x="20" y="1305" width="64" height="64" />
  <object id="631" gid="2147492611" x="135" y="1305" width="64" height="64" />
  <object id="632" gid="2147492613" x="244" y="1305" width="64" height="64" />
  <object id="633" gid="2147492612" x="174" y="1307" width="64" height="64" />
  <object id="634" gid="2147492650" x="557" y="1310" width="64" height="64" />
  <object id="635" gid="8965" x="408" y="1312" width="64" height="64" />
  <object id="636" gid="2147492611" x="61" y="1313" width="64" height="64" />
  <object id="637" gid="8968" x="-25" y="1314" width="64" height="64" />
  <object id="638" gid="8963" x="278" y="1314" width="64" height="64" />
  <object id="639" gid="8965" x="764" y="1315" width="64" height="64" />
  <object id="640" gid="8963" x="355" y="1316" width="64" height="64" />
  <object id="641" gid="2147492613" x="190" y="1317" width="64" height="64" />
  <object id="642" gid="2147492616" x="79" y="1319" width="64" height="64" />
  <object id="643" gid="8964" x="111" y="1333" width="64" height="64" />
  <object id="644" gid="8963" x="42" y="1334" width="64" height="64" />
  <object id="645" gid="2147492611" x="161" y="1334" width="64" height="64" />
  <object id="646" gid="8964" x="539" y="1334" width="64" height="64" />
  <object id="647" gid="8968" x="214" y="1335" width="64" height="64" />
  <object id="648" gid="8963" x="60" y="1339" width="64" height="64" />
  <object id="649" gid="9002" x="272" y="1339" width="64" height="64" />
  <object id="650" gid="8965" x="555" y="1339" width="64" height="64" />
  <object id="651" gid="2147492616" x="659" y="1339" width="64" height="64" />
  <object id="652" gid="2147492611" x="776" y="1339" width="64" height="64" />
  <object id="653" gid="2147492613" x="428" y="1343" width="64" height="64" />
  <object id="654" gid="2147492616" x="709" y="1343" width="64" height="64" />
  <object id="655" gid="2147492612" x="195" y="1344" width="64" height="64" />
  <object id="656" gid="8965" x="-24" y="1347" width="64" height="64" />
  <object id="657" gid="8965" x="795" y="1347" width="64" height="64" />
  <object id="658" gid="2147492613" x="620" y="1349" width="64" height="64" />
  <object id="659" gid="8968" x="681" y="1349" width="64" height="64" />
  <object id="660" gid="2147492650" x="339" y="1350" width="64" height="64" />
  <object id="661" gid="2147492616" x="285" y="1352" width="64" height="64" />
  <object id="662" gid="8963" x="372" y="1352" width="64" height="64" />
 </objectgroup>
 <objectgroup id="8" name="Objects">
  <object id="663" x="504" y="1304" name="start" type="start">
   <point />
  </object>
  <object id="664" x="688" y="1040" name="barn-doors" type="warp" width="32" height="16">
   <properties>
    <property name="goto" value="AmberwoodBarn,8,11.5" />
   </properties>
  </object>
  <object id="665" x="736" y="1040" name="stable-door" type="warp" width="16" height="16">
   <properties>
    <property name="goto" value="AmberwoodBarn,18,11.5" />
   </properties>
  </object>
  <object id="666" x="368" y="736" name="woodsman-cabin" type="warp" width="16" height="16">
   <properties>
    <property name="goto" value="AmberwoodCabin,8,9.5" />
   </properties>
  </object>
  <object id="667" x="480" y="1312" name="bloomvale-road" type="warp" width="48" height="32">
   <properties>
    <property name="goto" value="Bloomvale,34.5,2.5" />
   </properties>
  </object>
  <object id="668" x="800" y="480" name="frostmere-road" type="warp" width="32" height="48">
   <properties>
    <property name="goto" value="Frostmere,2.5,21" />
   </properties>
  </object>
  <object id="669" x="712" y="712" name="lumber-yard" type="marker">
   <point />
  </object>
  <object id="670" x="392" y="208" name="felling-site" type="marker">
   <point />
  </object>
  <object id="671" x="120" y="857.6" name="goblin-camp" type="marker">
   <point />
  </object>
  <object id="672" x="0" y="0" name="bear-woods" type="marker" width="832" height="400" />
  <object id="673" x="0" y="480" name="goblin-woods" type="marker" width="208" height="640" />
  <object id="674" x="272" y="432" type="safe-zone" width="560" height="912" />
  <object id="675" x="0" y="0" name="amberwood" type="soundscape" width="832" height="1344">
   <properties>
    <property name="channel1" value="audio/music/forest.flac, 0.25" />
    <property name="channel2" value="audio/ambient/forest_air.flac, 0.3" />
   </properties>
  </object>
  <object id="676" x="192" y="416" name="brook" type="soundscape" width="112" height="576">
   <properties>
    <property name="channel4" value="audio/ambient/lapping_water.flac, 0.3" />
    <property name="emit" value="2.0" type="float" />
   </properties>
  </object>
  <object id="677" x="240" y="80" name="spring" type="soundscape" width="96" height="80">
   <properties>
    <property name="channel4" value="audio/ambient/lapping_water.flac, 0.3" />
    <property name="emit" value="2.0" type="float" />
   </properties>
  </object>
  <object id="678" x="96" y="816" name="goblin-fire" type="soundscape" width="48" height="48">
   <properties>
    <property name="channel3" value="audio/ambient/campfire.flac, 0.29" />
    <property name="emit" value="2.0" type="float" />
   </properties>
  </object>
 </objectgroup>
</map>