<?xml version='1.0' encoding='UTF-8'?>
<map version="1.10" tiledversion="1.11.0" orientation="orthogonal" renderorder="right-down" width="16" height="12" tilewidth="16" tileheight="16" infinite="0" nextlayerid="9" nextobjectid="8">
 <tileset firstgid="1" source="../tilesets/amberwood-cabin-terrain.tsx" />
 <tileset firstgid="41" source="../tilesets/amberwood-cabin-decor.tsx" />
 <tileset firstgid="51" source="../tilesets/amberwood-cabin-furniture.tsx" />
 <tileset firstgid="442" source="../tilesets/collision.tsx" />
 <tileset firstgid="444" source="../tilesets/amberwood-cabin-props.tsx" />
 <layer id="1" name="Floor" width="16" height="12">
  <data encoding="csv">
1,1,1,1,1,1,1,1,1,1,1,1,1,1,1,1,
1,1,1,1,1,1,1,1,1,1,1,1,1,1,1,1,
1,1,1,1,1,1,1,1,1,1,1,1,1,1,1,1,
1,1,1,1,1,1,1,1,1,1,1,1,1,1,1,1,
1,1,1,1,1,1,1,1,1,1,1,1,1,1,1,1,
1,1,1,1,1,1,1,1,1,1,1,1,1,1,1,1,
1,1,1,1,1,1,1,1,1,1,1,1,1,1,1,1,
1,1,1,1,1,1,1,1,1,1,1,1,1,1,1,1,
1,1,1,1,1,1,1,1,1,1,1,1,1,1,1,1,
1,1,1,1,1,1,1,1,1,1,1,1,1,1,1,1,
1,1,1,1,1,1,1,1,1,1,1,1,1,1,1,1,
1,1,1,1,1,1,1,1,1,1,1,1,1,1,1,1
</data>
 </layer>
 <layer id="2" name="Walls" width="16" height="12">
  <data encoding="csv">
7,7,7,7,7,7,7,7,7,7,7,7,7,7,7,7,
12,13,13,13,13,13,13,13,13,13,13,13,13,13,13,19,
15,16,16,16,16,16,16,16,16,16,16,16,16,16,16,22,
9,0,0,0,0,0,0,0,0,0,0,0,0,0,0,6,
9,0,0,0,0,0,0,0,0,0,0,0,0,0,0,6,
9,0,0,0,0,0,0,0,0,0,0,0,0,0,0,6,
9,0,0,0,0,0,0,0,0,0,0,0,0,0,0,6,
9,0,0,0,0,0,0,0,0,0,0,0,0,0,0,6,
9,0,0,0,0,0,0,0,0,0,0,0,0,0,0,6,
9,0,0,0,0,0,0,0,0,0,0,0,0,0,0,6,
10,3,3,3,3,3,4,0,0,2,3,3,3,3,3,11,
7,7,7,7,7,7,9,0,0,5,7,7,7,7,7,7
</data>
 </layer>
 <layer id="3" name="Rug" width="16" height="12">
  <data encoding="csv">
0,0,0,0,0,0,0,0,0,0,0,0,0,0,0,0,
0,0,0,0,0,0,0,0,0,0,0,0,0,0,0,0,
0,0,0,0,0,0,0,0,0,0,0,0,0,0,0,0,
0,0,0,0,0,0,0,0,0,0,0,0,0,0,0,0,
0,0,0,0,0,0,0,0,0,0,0,0,0,0,0,0,
0,0,0,0,0,0,0,0,0,0,0,0,0,0,0,0,
0,0,0,0,0,0,0,0,0,0,0,0,0,0,0,0,
0,0,0,0,0,0,0,0,0,0,0,0,0,0,0,0,
0,0,0,0,0,0,0,0,0,0,0,0,0,0,0,0,
0,0,0,0,0,0,0,0,0,0,0,0,0,0,0,0,
0,0,0,0,0,0,0,0,0,0,0,0,0,0,0,0,
0,0,0,0,0,0,0,0,0,0,0,0,0,0,0,0
</data>
 </layer>
 <layer id="4" name="Decor" width="16" height="12">
  <data encoding="csv">
0,0,0,0,0,0,0,0,0,0,0,0,0,0,0,0,
0,0,0,41,0,0,0,0,0,0,0,43,44,0,0,0,
0,0,0,42,0,0,0,0,0,0,0,45,46,0,0,0,
0,0,0,0,0,0,0,0,0,0,0,0,0,0,0,0,
0,0,0,0,0,0,0,0,0,0,0,0,0,0,0,0,
0,0,0,0,0,0,0,47,48,0,0,0,0,0,0,0,
0,0,0,0,0,0,0,49,50,0,0,0,0,0,0,0,
0,0,0,0,0,0,0,0,0,0,0,0,0,0,0,0,
0,0,0,0,0,0,0,0,0,0,0,0,0,0,0,0,
0,0,0,0,0,0,0,0,0,0,0,0,0,0,0,0,
0,0,0,0,0,0,0,0,0,0,0,0,0,0,0,0,
0,0,0,0,0,0,0,0,0,0,0,0,0,0,0,0
</data>
 </layer>
 <layer id="5" name="Dynamic" width="16" height="12">
  <data encoding="csv">
0,0,0,0,0,0,0,0,0,0,0,0,0,0,0,0,
0,0,0,0,0,0,0,0,0,0,0,0,0,0,0,0,
0,79,80,0,0,255,256,51,52,71,72,0,0,55,56,0,
0,81,82,0,0,257,258,53,54,73,74,0,0,57,58,0,
0,0,0,0,0,0,0,0,0,0,0,0,0,177,178,0,
0,0,59,60,0,83,84,0,0,0,0,0,0,179,180,0,
0,0,61,62,0,85,86,0,0,0,0,0,0,0,0,0,
0,0,0,0,0,0,0,0,0,0,0,0,0,63,64,0,
0,67,68,103,104,0,125,0,0,273,274,0,0,65,66,0,
0,69,70,105,106,0,126,0,0,275,276,0,0,0,0,0,
0,0,0,0,0,0,0,0,0,0,0,0,0,0,0,0,
0,0,0,0,0,0,0,0,0,0,0,0,0,0,0,0
</data>
 </layer>
 <layer id="6" name="Collision" width="16" height="12">
  <data encoding="csv">
443,443,443,443,443,443,443,443,443,443,443,443,443,443,443,443,
443,443,443,443,443,443,443,443,443,443,443,443,443,443,443,443,
443,443,443,443,443,443,443,443,443,443,443,443,443,443,443,443,
443,443,443,442,442,443,443,443,443,443,443,442,442,443,443,443,
443,442,442,442,442,442,442,442,442,442,442,442,442,442,442,443,
443,442,442,442,442,442,442,442,442,442,442,442,442,443,443,443,
443,442,443,443,442,443,443,442,442,442,442,442,442,442,442,443,
443,442,443,442,442,442,442,442,442,442,442,442,442,442,442,443,
443,442,442,442,442,442,442,442,442,442,442,442,442,443,443,443,
443,443,443,443,443,442,443,442,442,443,443,443,443,442,442,443,
443,443,443,443,443,443,443,442,442,443,443,443,443,443,443,443,
443,443,443,443,443,443,443,442,442,443,443,443,443,443,443,443
</data>
 </layer>
 <objectgroup id="7" name="Scenery">
  <object id="1" gid="508" x="8" y="126" width="64" height="64" />
  <object id="2" gid="514" x="152" y="158" width="64" height="64" />
  <object id="3" gid="557" x="168" y="158" width="64" height="64" />
 </objectgroup>
 <objectgroup id="8" name="Objects">
  <object id="4" x="128" y="152" name="start" type="start">
   <point />
  </object>
  <object id="5" x="112" y="160" name="front-door" type="warp" width="32" height="32">
   <properties>
    <property name="goto" value="Amberwood,23.5,47.5" />
   </properties>
  </object>
  <object id="6" x="88" y="120" name="woodsman-chair" type="marker">
   <point />
  </object>
  <object id="7" x="80" y="32" name="hearth" type="soundscape" width="96" height="64">
   <properties>
    <property name="channel3" value="audio/ambient/campfire.flac, 0.29" />
    <property name="emit" value="3.0" type="float" />
   </properties>
  </object>
 </objectgroup>
</map>