<?xml version='1.0' encoding='UTF-8'?>
<map version="1.10" tiledversion="1.11.0" orientation="orthogonal" renderorder="right-down" width="24" height="14" tilewidth="16" tileheight="16" infinite="0" nextlayerid="9" nextobjectid="8">
 <tileset firstgid="1" source="../tilesets/amberwood-barn-terrain.tsx" />
 <tileset firstgid="41" source="../tilesets/amberwood-barn-overlay.tsx" />
 <tileset firstgid="80" source="../tilesets/amberwood-barn-rug.tsx" />
 <tileset firstgid="1680" source="../tilesets/amberwood-barn-decor.tsx" />
 <tileset firstgid="1684" source="../tilesets/amberwood-barn-furniture.tsx" />
 <tileset firstgid="2410" source="../tilesets/collision.tsx" />
 <tileset firstgid="2412" source="../tilesets/amberwood-barn-props.tsx" />
 <layer id="1" name="Floor" width="24" height="14">
  <data encoding="csv">
1,1,1,1,1,1,1,1,1,1,1,1,1,1,1,1,1,1,1,1,1,1,1,1,
1,1,1,1,1,1,1,1,1,1,1,1,1,1,1,1,1,1,1,1,1,1,1,1,
1,1,1,1,1,1,1,1,1,1,1,1,1,1,1,1,1,1,1,1,1,1,1,1,
1,1,1,1,1,1,1,1,1,1,1,1,1,1,1,1,1,1,1,1,1,1,1,1,
1,1,1,1,1,1,1,1,1,1,1,1,1,1,1,1,1,1,1,1,1,1,1,1,
1,1,1,1,1,1,1,1,1,1,1,1,1,1,1,1,1,1,1,1,1,1,1,1,
1,1,1,1,1,1,1,1,1,1,1,1,1,1,1,1,1,1,1,1,1,1,1,1,
1,1,1,1,1,1,1,1,1,1,1,1,1,1,1,1,1,1,1,1,1,1,1,1,
1,1,1,1,1,1,1,1,1,1,1,1,1,1,1,1,1,1,1,1,1,1,1,1,
1,1,1,1,1,1,1,1,1,1,1,1,1,1,1,1,1,1,1,1,1,1,1,1,
1,1,1,1,1,1,1,1,1,1,1,1,1,1,1,1,1,1,1,1,1,1,1,1,
1,1,1,1,1,1,1,1,1,1,1,1,1,1,1,1,1,1,1,1,1,1,1,1,
1,1,1,1,1,1,1,1,1,1,1,1,1,1,1,1,1,1,1,1,1,1,1,1,
1,1,1,1,1,1,1,1,1,1,1,1,1,1,1,1,1,1,1,1,1,1,1,1
</data>
 </layer>
 <layer id="2" name="Walls" width="24" height="14">
  <data encoding="csv">
7,7,7,7,7,7,7,7,7,7,7,7,7,7,7,7,7,7,7,7,7,7,7,7,
12,13,13,13,13,13,13,13,13,13,13,13,13,13,19,12,13,13,13,13,13,13,13,19,
15,16,16,16,16,16,16,16,16,16,16,16,16,16,22,15,16,16,16,16,16,16,16,22,
9,0,0,0,0,0,0,0,0,0,0,0,0,0,6,9,0,0,0,0,0,0,0,6,
9,0,0,0,0,0,0,0,0,0,0,0,0,0,18,14,0,0,0,0,0,0,0,6,
9,0,0,0,0,0,0,0,0,0,0,0,0,0,21,17,0,0,0,0,0,0,0,6,
9,0,0,0,0,0,0,0,0,0,0,0,0,0,0,0,0,0,0,0,0,0,0,6,
9,0,0,0,0,0,0,0,0,0,0,0,0,0,0,0,0,0,0,0,0,0,0,6,
9,0,0,0,0,0,0,0,0,0,0,0,0,0,2,4,0,0,0,0,0,0,0,6,
9,0,0,0,0,0,0,0,0,0,0,0,0,0,5,9,0,0,0,0,0,0,0,6,
9,0,0,0,0,0,0,0,0,0,0,0,0,0,6,9,0,0,0,0,0,0,0,6,
9,0,0,0,0,0,0,0,0,0,0,0,0,0,6,9,0,0,0,0,0,0,0,6,
10,3,3,3,3,3,4,0,0,2,3,3,3,3,11,10,4,0,0,2,3,3,3,11,
7,7,7,7,7,7,9,0,0,5,7,7,7,7,7,7,9,0,0,5,7,7,7,7
</data>
 </layer>
 <layer id="3" name="Rug" width="24" height="14">
  <data encoding="csv">
0,0,0,0,0,0,0,0,0,0,0,0,0,0,0,0,0,0,0,0,0,0,0,0,
0,0,0,0,0,0,0,0,0,0,0,0,0,0,0,0,0,0,0,0,0,0,0,0,
0,0,0,0,0,0,0,0,0,0,0,0,0,0,0,0,0,0,0,0,0,0,0,0,
0,0,0,0,0,0,0,0,0,0,0,0,0,0,0,0,41,42,43,44,45,46,0,0,
0,0,0,0,0,0,0,0,0,0,0,0,0,0,0,0,256,257,258,259,260,47,0,0,
0,0,0,0,0,0,0,0,0,0,0,0,0,0,0,0,296,297,298,299,300,48,0,0,
0,0,0,49,50,51,52,53,54,55,56,0,0,0,0,57,336,337,338,339,340,58,0,0,
0,0,0,59,364,365,366,367,368,369,60,0,0,0,0,61,62,63,64,65,66,67,0,0,
0,0,0,68,404,405,406,407,408,409,69,0,0,0,0,0,0,0,0,0,0,0,0,0,
0,0,0,70,444,445,446,447,448,449,71,0,0,0,0,0,0,0,0,0,0,0,0,0,
0,0,0,72,73,74,75,76,77,78,79,0,0,0,0,0,0,0,0,0,0,0,0,0,
0,0,0,0,0,0,0,0,0,0,0,0,0,0,0,0,0,0,0,0,0,0,0,0,
0,0,0,0,0,0,0,0,0,0,0,0,0,0,0,0,0,0,0,0,0,0,0,0,
0,0,0,0,0,0,0,0,0,0,0,0,0,0,0,0,0,0,0,0,0,0,0,0
</data>
 </layer>
 <layer id="4" name="Decor" width="24" height="14">
  <data encoding="csv">
0,0,0,0,0,0,0,0,0,0,0,0,0,0,0,0,0,0,0,0,0,0,0,0,
0,0,0,0,0,0,0,0,0,0,0,0,0,0,0,0,0,0,0,0,1680,1681,0,0,
0,0,0,0,0,0,0,0,0,0,0,0,0,0,0,0,0,0,0,0,1682,1683,0,0,
0,0,0,0,0,0,0,0,0,0,0,0,0,0,0,0,0,0,0,0,0,0,0,0,
0,0,0,0,0,0,0,0,0,0,0,0,0,0,0,0,0,0,0,0,0,0,0,0,
0,0,0,0,0,0,0,0,0,0,0,0,0,0,0,0,0,0,0,0,0,0,0,0,
0,0,0,0,0,0,0,0,0,0,0,0,0,0,0,0,0,0,0,0,0,0,0,0,
0,0,0,0,0,0,0,0,0,0,0,0,0,0,0,0,0,0,0,0,0,0,0,0,
0,0,0,0,0,0,0,0,0,0,0,0,0,0,0,0,0,0,0,0,0,0,0,0,
0,0,0,0,0,0,0,0,0,0,0,0,0,0,0,0,0,0,0,0,0,0,0,0,
0,0,0,0,0,0,0,0,0,0,0,0,0,0,0,0,0,0,0,0,0,0,0,0,
0,0,0,0,0,0,0,0,0,0,0,0,0,0,0,0,0,0,0,0,0,0,0,0,
0,0,0,0,0,0,0,0,0,0,0,0,0,0,0,0,0,0,0,0,0,0,0,0,
0,0,0,0,0,0,0,0,0,0,0,0,0,0,0,0,0,0,0,0,0,0,0,0
</data>
 </layer>
 <layer id="5" name="Dynamic" width="24" height="14">
  <data encoding="csv">
0,0,0,0,0,0,0,0,0,0,0,0,0,0,0,0,0,0,0,0,0,0,0,0,
0,0,0,0,0,0,0,0,0,0,0,0,0,0,0,0,0,0,0,0,0,0,0,0,
0,1684,1685,1684,1685,1698,1776,1777,0,1704,1705,1752,1753,0,0,0,1688,1689,1688,1689,0,0,0,0,
0,1686,1687,1686,1687,1699,1778,1779,0,1706,1707,1754,1755,0,0,0,1690,1691,1690,1691,1696,1697,0,0,
0,0,0,0,0,0,0,0,0,0,0,0,0,0,0,0,0,0,0,0,0,0,0,0,
0,1700,1703,0,0,0,0,0,0,0,0,0,0,0,0,0,0,0,1776,1777,0,1716,1717,0,
0,1701,1702,0,0,0,0,0,0,0,0,0,1744,1745,0,0,0,0,1778,1779,0,1718,1719,0,
0,0,0,0,0,0,0,0,0,0,0,0,1746,1747,0,0,0,0,0,0,0,0,0,0,
0,1772,1773,0,0,0,0,0,0,0,0,0,0,0,0,0,1708,1709,0,0,1974,0,2068,0,
0,1774,1775,1692,1693,0,0,0,0,0,0,0,1820,1821,0,0,1710,1711,0,0,1975,0,2069,0,
0,1712,1713,1694,1695,0,1736,0,0,0,0,0,1822,1823,0,0,0,0,0,0,0,2168,2169,0,
0,1714,1715,0,0,0,1737,0,0,0,0,0,0,0,0,0,0,0,0,2084,2085,2170,2171,0,
0,0,0,0,0,0,0,0,0,0,0,0,0,0,0,0,0,0,0,0,0,0,0,0,
0,0,0,0,0,0,0,0,0,0,0,0,0,0,0,0,0,0,0,0,0,0,0,0
</data>
 </layer>
 <layer id="6" name="Collision" width="24" height="14">
  <data encoding="csv">
2411,2411,2411,2411,2411,2411,2411,2411,2411,2411,2411,2411,2411,2411,2411,2411,2411,2411,2411,2411,2411,2411,2411,2411,
2411,2411,2411,2411,2411,2411,2411,2411,2411,2411,2411,2411,2411,2411,2411,2411,2411,2411,2411,2411,2411,2411,2411,2411,
2411,2411,2411,2411,2411,2411,2411,2411,2411,2411,2411,2411,2411,2411,2411,2411,2411,2411,2411,2411,2411,2411,2411,2411,
2411,2411,2411,2411,2411,2411,2411,2411,2410,2411,2411,2411,2411,2410,2411,2411,2411,2411,2411,2411,2411,2411,2411,2411,
2411,2410,2410,2410,2410,2410,2410,2410,2410,2410,2410,2410,2410,2410,2411,2411,2410,2410,2410,2410,2410,2410,2410,2411,
2411,2410,2410,2410,2410,2410,2410,2410,2410,2410,2410,2410,2410,2410,2411,2411,2410,2410,2410,2410,2410,2410,2410,2411,
2411,2411,2411,2410,2410,2410,2410,2410,2410,2410,2410,2410,2410,2410,2410,2410,2410,2410,2411,2411,2410,2411,2411,2411,
2411,2410,2410,2410,2410,2410,2410,2410,2410,2410,2410,2410,2411,2411,2410,2410,2410,2410,2410,2410,2410,2410,2410,2411,
2411,2410,2410,2410,2410,2410,2410,2410,2410,2410,2410,2410,2410,2410,2411,2411,2410,2410,2410,2410,2410,2410,2410,2411,
2411,2411,2411,2410,2410,2410,2410,2410,2410,2410,2410,2410,2410,2410,2411,2411,2411,2411,2410,2410,2411,2410,2411,2411,
2411,2410,2410,2411,2411,2410,2410,2410,2410,2410,2410,2410,2411,2411,2411,2411,2410,2410,2410,2410,2410,2410,2410,2411,
2411,2411,2411,2410,2410,2410,2411,2410,2410,2411,2410,2411,2410,2410,2411,2411,2410,2410,2410,2411,2411,2411,2411,2411,
2411,2411,2411,2411,2411,2411,2411,2410,2410,2411,2411,2411,2411,2411,2411,2411,2411,2410,2410,2411,2411,2411,2411,2411,
2411,2411,2411,2411,2411,2411,2411,2410,2410,2411,2411,2411,2411,2411,2411,2411,2411,2410,2410,2411,2411,2411,2411,2411
</data>
 </layer>
 <objectgroup id="7" name="Scenery">
  <object id="1" gid="2478" x="328" y="62" width="64" height="64" />
  <object id="2" gid="2488" x="152" y="190" width="64" height="64" />
  <object id="3" gid="2424" x="120" y="190" width="64" height="64" />
 </objectgroup>
 <objectgroup id="8" name="Objects">
  <object id="4" x="128" y="184" name="start" type="start">
   <point />
  </object>
  <object id="5" x="112" y="192" name="barn-doors" type="warp" width="32" height="32">
   <properties>
    <property name="goto" value="Amberwood,44,66.5" />
   </properties>
  </object>
  <object id="6" x="272" y="192" name="stable-door" type="warp" width="32" height="32">
   <properties>
    <property name="goto" value="Amberwood,46.5,66.5" />
   </properties>
  </object>
  <object id="7" x="312" y="136" name="farmhand-stall" type="marker">
   <point />
  </object>
 </objectgroup>
</map>