<?xml version='1.0' encoding='UTF-8'?>
<map version="1.10" tiledversion="1.11.0" orientation="orthogonal" renderorder="right-down" width="18" height="13" tilewidth="16" tileheight="16" infinite="0" nextlayerid="9" nextobjectid="11">
 <tileset firstgid="1" source="../tilesets/bloomvale-cottage-terrain.tsx" />
 <tileset firstgid="41" source="../tilesets/bloomvale-cottage-decor.tsx" />
 <tileset firstgid="45" source="../tilesets/bloomvale-cottage-furniture.tsx" />
 <tileset firstgid="480" source="../tilesets/collision.tsx" />
 <tileset firstgid="482" source="../tilesets/bloomvale-cottage-props.tsx" />
 <layer id="1" name="Floor" width="18" height="13">
  <data encoding="csv">
1,1,1,1,1,1,1,1,1,1,1,1,1,1,1,1,1,1,
1,1,1,1,1,1,1,1,1,1,1,1,1,1,1,1,1,1,
1,1,1,1,1,1,1,1,1,1,1,1,1,1,1,1,1,1,
1,1,1,1,1,1,1,1,1,1,1,1,1,1,1,1,1,1,
1,1,1,1,1,1,1,1,1,1,1,1,1,1,1,1,1,1,
1,1,1,1,1,1,1,1,1,1,1,1,1,1,1,1,1,1,
1,1,1,1,1,1,1,1,1,1,1,1,1,1,1,1,1,1,
1,1,1,1,1,1,1,1,1,1,1,1,1,1,1,1,1,1,
1,1,1,1,1,1,1,1,1,1,1,1,1,1,1,1,1,1,
1,1,1,1,1,1,1,1,1,1,1,1,1,1,1,1,1,1,
1,1,1,1,1,1,1,1,1,1,1,1,1,1,1,1,1,1,
1,1,1,1,1,1,1,1,1,1,1,1,1,1,1,1,1,1,
1,1,1,1,1,1,1,1,1,1,1,1,1,1,1,1,1,1
</data>
 </layer>
 <layer id="2" name="Walls" width="18" height="13">
  <data encoding="csv">
7,7,7,7,7,7,7,7,7,7,7,7,7,7,7,7,7,7,
12,13,13,13,13,13,13,13,13,13,13,19,12,13,13,13,13,19,
15,16,16,16,16,16,16,16,16,16,16,22,15,16,16,16,16,22,
9,0,0,0,0,0,0,0,0,0,0,6,9,0,0,0,0,6,
9,0,0,0,0,0,0,0,0,0,0,6,9,0,0,0,0,6,
9,0,0,0,0,0,0,0,0,0,0,18,14,0,0,0,0,6,
9,0,0,0,0,0,0,0,0,0,0,21,17,0,0,0,0,6,
9,0,0,0,0,0,0,0,0,0,0,0,0,0,0,0,0,6,
9,0,0,0,0,0,0,0,0,0,0,0,0,0,0,0,0,6,
9,0,0,0,0,0,0,0,0,0,0,2,4,0,0,0,0,6,
9,0,0,0,0,0,0,0,0,0,0,5,9,0,0,0,0,6,
10,3,3,3,3,3,3,4,0,0,2,11,10,3,3,3,3,11,
7,7,7,7,7,7,7,9,0,0,5,7,7,7,7,7,7,7
</data>
 </layer>
 <layer id="3" name="Rug" width="18" height="13">
  <data encoding="csv">
0,0,0,0,0,0,0,0,0,0,0,0,0,0,0,0,0,0,
0,0,0,0,0,0,0,0,0,0,0,0,0,0,0,0,0,0,
0,0,0,0,0,0,0,0,0,0,0,0,0,0,0,0,0,0,
0,0,0,0,0,0,0,0,0,0,0,0,0,0,0,0,0,0,
0,0,0,0,0,0,0,0,0,0,0,0,0,0,0,0,0,0,
0,0,0,0,0,0,0,0,0,0,0,0,0,0,0,0,0,0,
0,0,0,0,0,0,0,0,0,0,0,0,0,34,34,34,35,0,
0,0,0,0,0,0,0,0,0,0,0,0,36,37,37,37,27,0,
0,0,0,0,0,0,0,0,0,0,0,0,36,37,37,37,27,0,
0,0,0,0,0,0,0,0,0,0,0,0,0,37,37,37,27,0,
0,0,0,0,0,0,0,0,0,0,0,0,0,29,29,29,31,0,
0,0,0,0,0,0,0,0,0,0,0,0,0,0,0,0,0,0,
0,0,0,0,0,0,0,0,0,0,0,0,0,0,0,0,0,0
</data>
 </layer>
 <layer id="4" name="Decor" width="18" height="13">
  <data encoding="csv">
0,0,0,0,0,0,0,0,0,0,0,0,0,0,0,0,0,0,
0,0,0,0,0,0,41,42,0,0,0,0,0,0,0,0,0,0,
0,0,0,0,0,0,43,44,0,0,0,0,0,0,0,0,0,0,
0,0,0,0,0,0,0,0,0,0,0,0,0,0,0,0,0,0,
0,0,0,0,0,0,0,0,0,0,0,0,0,0,0,0,0,0,
0,0,0,0,0,0,0,0,0,0,0,0,0,0,0,0,0,0,
0,0,0,0,0,0,0,0,0,0,0,0,0,0,0,0,0,0,
0,0,0,0,0,0,0,0,0,0,0,0,0,0,0,0,0,0,
0,0,0,0,0,0,0,0,0,0,0,0,0,0,0,0,0,0,
0,0,0,0,0,0,0,0,0,0,0,0,0,0,0,0,0,0,
0,0,0,0,0,0,0,0,0,0,0,0,0,0,0,0,0,0,
0,0,0,0,0,0,0,0,0,0,0,0,0,0,0,0,0,0,
0,0,0,0,0,0,0,0,0,0,0,0,0,0,0,0,0,0
</data>
 </layer>
 <layer id="5" name="Dynamic" width="18" height="13">
  <data encoding="csv">
0,0,0,0,0,0,0,0,0,0,0,0,0,0,0,0,0,0,
0,0,0,0,0,0,0,0,0,0,0,0,0,0,0,0,0,0,
0,45,46,113,114,129,130,0,65,66,0,0,0,57,58,53,54,0,
0,47,48,115,116,131,132,0,67,68,0,0,0,59,60,55,56,0,
0,0,0,0,0,0,0,0,0,0,0,0,0,0,0,0,0,0,
0,0,0,0,0,0,0,0,0,0,105,0,0,197,198,0,73,0,
0,117,118,0,49,50,219,220,0,0,106,0,0,199,200,0,74,0,
0,119,120,0,51,52,221,222,0,0,0,0,0,0,0,0,0,0,
0,0,0,0,0,0,0,0,0,0,0,0,0,0,0,61,62,0,
0,125,126,0,0,0,0,0,0,0,0,0,0,0,0,63,64,0,
0,127,128,0,0,0,0,0,0,0,0,0,0,0,0,0,0,0,
0,0,0,0,0,0,0,0,0,0,0,0,0,0,0,0,0,0,
0,0,0,0,0,0,0,0,0,0,0,0,0,0,0,0,0,0
</data>
 </layer>
 <layer id="6" name="Collision" width="18" height="13">
  <data encoding="csv">
481,481,481,481,481,481,481,481,481,481,481,481,481,481,481,481,481,481,
481,481,481,481,481,481,481,481,481,481,481,481,481,481,481,481,481,481,
481,481,481,481,481,481,481,481,481,481,481,481,481,481,481,481,481,481,
481,481,481,481,481,481,481,481,481,481,481,481,481,481,481,481,481,481,
481,480,480,480,480,480,480,480,480,480,480,481,481,480,480,480,480,481,
481,480,480,480,480,480,480,480,480,480,480,481,481,480,480,480,480,481,
481,480,480,480,480,480,480,480,480,480,481,481,481,481,481,480,481,481,
481,481,481,480,481,481,481,481,480,480,480,480,480,480,480,480,480,481,
481,480,480,480,480,480,480,480,480,480,480,480,480,480,480,480,480,481,
481,480,480,480,480,480,480,480,480,480,480,481,481,480,480,481,481,481,
481,481,481,480,480,480,481,481,480,480,481,481,481,481,480,480,480,481,
481,481,481,481,481,481,481,481,480,480,481,481,481,481,481,481,481,481,
481,481,481,481,481,481,481,481,480,480,481,481,481,481,481,481,481,481
</data>
 </layer>
 <objectgroup id="7" name="Scenery">
  <object id="1" gid="553" x="88" y="62" width="64" height="64" />
  <object id="2" gid="604" x="136" y="62" width="64" height="64" />
  <object id="3" gid="601" x="72" y="174" width="64" height="64" />
  <object id="4" gid="588" x="88" y="174" width="64" height="64" />
  <object id="5" gid="551" x="136" y="174" width="64" height="64" />
  <object id="6" gid="594" x="184" y="174" width="64" height="64" />
 </objectgroup>
 <objectgroup id="8" name="Objects">
  <object id="7" x="144" y="168" name="start" type="start">
   <point />
  </object>
  <object id="8" x="128" y="176" name="front-door" type="warp" width="32" height="32">
   <properties>
    <property name="goto" value="Bloomvale,26.5,30.5" />
   </properties>
  </object>
  <object id="9" x="80" y="136" name="baker-table" type="marker">
   <point />
  </object>
  <object id="10" x="16" y="32" name="oven" type="soundscape" width="64" height="48">
   <properties>
    <property name="channel3" value="audio/ambient/campfire.flac, 0.29" />
    <property name="emit" value="3.0" type="float" />
   </properties>
  </object>
 </objectgroup>
</map>