<?xml version='1.0' encoding='UTF-8'?>
<map version="1.10" tiledversion="1.11.0" orientation="orthogonal" renderorder="right-down" width="88" height="64" tilewidth="16" tileheight="16" infinite="0" nextlayerid="9" nextobjectid="579">
 <tileset firstgid="1" source="../tilesets/bloomvale-ground.tsx" />
 <tileset firstgid="1601" source="../tilesets/bloomvale-overlay.tsx" />
 <tileset firstgid="2546" source="../tilesets/bloomvale-water.tsx" />
 <tileset firstgid="4146" source="../tilesets/bloomvale-patch.tsx" />
 <tileset firstgid="5746" source="../tilesets/bloomvale-path.tsx" />
 <tileset firstgid="7346" source="../tilesets/buildings.tsx" />
 <tileset firstgid="9089" source="../tilesets/bloomvale-decor.tsx" />
 <tileset firstgid="9153" source="../tilesets/collision.tsx" />
 <tileset firstgid="9155" source="../tilesets/embellishments.tsx" />
 <tileset firstgid="9203" source="../tilesets/bloomvale-props.tsx" />
 <layer id="1" name="Ground" width="88" height="64">
  <data encoding="csv">
1,2,3,4,5,6,7,8,9,10,11,12,13,14,15,16,17,18,19,20,21,22,23,24,25,26,27,28,29,30,31,32,33,34,35,36,37,38,39,40,1,2,3,4,5,6,7,8,9,10,11,12,13,14,15,16,17,18,19,20,21,22,23,24,25,26,27,28,29,30,31,32,33,34,35,36,37,38,39,40,1,2,3,4,5,6,7,8,
41,42,43,44,45,46,47,48,49,50,51,52,53,54,55,56,57,58,59,60,61,62,63,64,65,66,67,68,69,70,71,72,73,74,75,76,77,78,79,80,41,42,43,44,45,46,47,48,49,50,51,52,53,54,55,56,57,58,59,60,61,62,63,64,65,66,67,68,69,70,71,72,73,74,75,76,77,78,79,80,41,42,43,44,45,46,47,48,
81,82,83,84,85,86,87,88,89,90,91,92,93,94,95,96,97,98,99,100,101,102,103,104,105,106,107,108,109,110,111,112,113,114,115,116,117,118,119,120,81,82,83,84,85,86,87,88,89,90,91,92,93,94,95,96,97,98,99,100,101,102,103,104,105,106,107,108,109,110,111,112,113,114,115,116,117,118,119,120,81,82,83,84,85,86,87,88,
121,122,123,124,125,126,127,128,129,130,131,132,133,134,135,136,137,138,139,140,141,142,143,144,145,146,147,148,149,150,151,152,153,154,155,156,157,158,159,160,121,122,123,124,125,126,127,128,129,130,131,132,133,134,135,136,137,138,139,140,141,142,143,144,145,146,147,148,149,150,151,152,153,154,155,156,157,158,159,160,121,122,123,124,125,126,127,128,
161,162,163,164,165,166,167,168,169,170,171,172,173,174,175,176,177,178,179,180,181,182,183,184,185,186,187,188,189,190,191,192,193,194,195,196,197,198,199,200,161,162,163,164,165,166,167,168,169,170,171,172,173,174,175,176,177,178,179,180,181,182,183,184,185,186,187,188,189,190,191,192,193,194,195,196,197,198,199,200,161,162,163,164,165,166,167,168,
201,202,203,204,205,206,207,208,209,210,211,212,213,214,215,216,217,218,219,220,221,222,223,224,225,226,227,228,229,230,231,232,233,234,235,236,237,238,239,240,201,202,203,204,205,206,207,208,209,210,211,212,213,214,215,216,217,218,219,220,221,222,223,224,225,226,227,228,229,230,231,232,233,234,235,236,237,238,239,240,201,202,203,204,205,206,207,208,
241,242,243,244,245,246,247,248,249,250,251,252,253,254,255,256,257,258,259,260,261,262,263,264,265,266,267,268,269,270,271,272,273,274,275,276,277,278,279,280,241,242,243,244,245,246,247,248,249,250,251,252,253,254,255,256,257,258,259,260,261,262,263,264,265,266,267,268,269,270,271,272,273,274,275,276,277,278,279,280,241,242,243,244,245,246,247,248,
281,282,283,284,285,286,287,288,289,290,291,292,293,294,295,296,297,298,299,300,301,302,303,304,305,306,307,308,309,310,311,312,313,314,315,316,317,318,319,320,281,282,283,284,285,286,287,288,289,290,291,292,293,294,295,296,297,298,299,300,301,302,303,304,305,306,307,308,309,310,311,312,313,314,315,316,317,318,319,320,281,282,283,284,285,286,287,288,
321,322,323,324,325,326,327,328,329,330,331,332,333,334,335,336,337,338,339,340,341,342,343,344,345,346,347,348,349,350,351,352,353,354,355,356,357,358,359,360,321,322,323,324,325,326,327,328,329,330,331,332,333,334,335,336,337,338,339,340,341,342,343,344,345,346,347,348,349,350,351,352,353,354,355,356,357,358,359,360,321,322,323,324,325,326,327,328,
361,362,363,364,365,366,367,368,369,370,371,372,373,374,375,376,377,378,379,380,381,382,383,384,385,386,387,388,389,390,391,392,393,394,395,396,397,398,399,400,361,362,363,364,365,366,367,368,369,370,371,372,373,374,375,376,377,378,379,380,381,382,383,384,385,386,387,388,389,390,391,392,393,394,395,396,397,398,399,400,361,362,363,364,365,366,367,368,
401,402,403,404,405,406,407,408,409,410,411,412,413,414,415,416,417,418,419,420,421,422,423,424,425,426,427,428,429,430,431,432,433,434,435,436,437,438,439,440,401,402,403,404,405,406,407,408,409,410,411,412,413,414,415,416,417,418,419,420,421,422,423,424,425,426,427,428,429,430,431,432,433,434,435,436,437,438,439,440,401,402,403,404,405,406,407,408,
441,442,443,444,445,446,447,448,449,450,451,452,453,454,455,456,457,458,459,460,461,462,463,464,465,466,467,468,469,470,471,472,473,474,475,476,477,478,479,480,441,442,443,444,445,446,447,448,449,450,451,452,453,454,455,456,457,458,459,460,461,462,463,464,465,466,467,468,469,470,471,472,473,474,475,476,477,478,479,480,441,442,443,444,445,446,447,448,
481,482,483,484,485,486,487,488,489,490,491,492,493,494,495,496,497,498,499,500,501,502,503,504,505,506,507,508,509,510,511,512,513,514,515,516,517,518,519,520,481,482,483,484,485,486,487,488,489,490,491,492,493,494,495,496,497,498,499,500,501,502,503,504,505,506,507,508,509,510,511,512,513,514,515,516,517,518,519,520,481,482,483,484,485,486,487,488,
521,522,523,524,525,526,527,528,529,530,531,532,533,534,535,536,537,538,539,540,541,542,543,544,545,546,547,548,549,550,551,552,553,554,555,556,557,558,559,560,521,522,523,524,525,526,527,528,529,530,531,532,533,534,535,536,537,538,539,540,541,542,543,544,545,546,547,548,549,550,551,552,553,554,555,556,557,558,559,560,521,522,523,524,525,526,527,528,
561,562,563,564,565,566,567,568,569,570,571,572,573,574,575,576,577,578,579,580,581,582,583,584,585,586,587,588,589,590,591,592,593,594,595,596,597,598,599,600,561,562,563,564,565,566,567,568,569,570,571,572,573,574,575,576,577,578,579,580,581,582,583,584,585,586,587,588,589,590,591,592,593,594,595,596,597,598,599,600,561,562,563,564,565,566,567,568,
601,602,603,604,605,606,607,608,609,610,611,612,613,614,615,616,617,618,619,620,621,622,623,624,625,626,627,628,629,630,631,632,633,634,635,636,637,638,639,640,601,602,603,604,605,606,607,608,609,610,611,612,613,614,615,616,617,618,619,620,621,622,623,624,625,626,627,628,629,630,631,632,633,634,635,636,637,638,639,640,601,602,603,604,605,606,607,608,
641,642,643,644,645,646,647,648,649,650,651,652,653,654,655,656,657,658,659,660,661,662,663,664,665,666,667,668,669,670,671,672,673,674,675,676,677,678,679,680,641,642,643,644,645,646,647,648,649,650,651,652,653,654,655,656,657,658,659,660,661,662,663,664,665,666,667,668,669,670,671,672,673,674,675,676,677,678,679,680,641,642,643,644,645,646,647,648,
681,682,683,684,685,686,687,688,689,690,691,692,693,694,695,696,697,698,699,700,701,702,703,704,705,706,707,708,709,710,711,712,713,714,715,716,717,718,719,720,681,682,683,684,685,686,687,688,689,690,691,692,693,694,695,696,697,698,699,700,701,702,703,704,705,706,707,708,709,710,711,712,713,714,715,716,717,718,719,720,681,682,683,684,685,686,687,688,
721,722,723,724,725,726,727,728,729,730,731,732,733,734,735,736,737,738,739,740,741,742,743,744,745,746,747,748,749,750,751,752,753,754,755,756,757,758,759,760,721,722,723,724,725,726,727,728,729,730,731,732,733,734,735,736,737,738,739,740,741,742,743,744,745,746,747,748,749,750,751,752,753,754,755,756,757,758,759,760,721,722,723,724,725,726,727,728,
761,762,763,764,765,766,767,768,769,770,771,772,773,774,775,776,777,778,779,780,781,782,783,784,785,786,787,788,789,790,791,792,793,794,795,796,797,798,799,800,761,762,763,764,765,766,767,768,769,770,771,772,773,774,775,776,777,778,779,780,781,782,783,784,785,786,787,788,789,790,791,792,793,794,795,796,797,798,799,800,761,762,763,764,765,766,767,768,
801,802,803,804,805,806,807,808,809,810,811,812,813,814,815,816,817,818,819,820,821,822,823,824,825,826,827,828,829,830,831,832,833,834,835,836,837,838,839,840,801,802,803,804,805,806,807,808,809,810,811,812,813,814,815,816,817,818,819,820,821,822,823,824,825,826,827,828,829,830,831,832,833,834,835,836,837,838,839,840,801,802,803,804,805,806,807,808,
841,842,843,844,845,846,847,848,849,850,851,852,853,854,855,856,857,858,859,860,861,862,863,864,865,866,867,868,869,870,871,872,873,874,875,876,877,878,879,880,841,842,843,844,845,846,847,848,849,850,851,852,853,854,855,856,857,858,859,860,861,862,863,864,865,866,867,868,869,870,871,872,873,874,875,876,877,878,879,880,841,842,843,844,845,846,847,848,
881,882,883,884,885,886,887,888,889,890,891,892,893,894,895,896,897,898,899,900,901,902,903,904,905,906,907,908,909,910,911,912,913,914,915,916,917,918,919,920,881,882,883,884,885,886,887,888,889,890,891,892,893,894,895,896,897,898,899,900,901,902,903,904,905,906,907,908,909,910,911,912,913,914,915,916,917,918,919,920,881,882,883,884,885,886,887,888,
921,922,923,924,925,926,927,928,929,930,931,932,933,934,935,936,937,938,939,940,941,942,943,944,945,946,947,948,949,950,951,952,953,954,955,956,957,958,959,960,921,922,923,924,925,926,927,928,929,930,931,932,933,934,935,936,937,938,939,940,941,942,943,944,945,946,947,948,949,950,951,952,953,954,955,956,957,958,959,960,921,922,923,924,925,926,927,928,
961,962,963,964,965,966,967,968,969,970,971,972,973,974,975,976,977,978,979,980,981,982,983,984,985,986,987,988,989,990,991,992,993,994,995,996,997,998,999,1000,961,962,963,964,965,966,967,968,969,970,971,972,973,974,975,976,977,978,979,980,981,982,983,984,985,986,987,988,989,990,991,992,993,994,995,996,997,998,999,1000,961,962,963,964,965,966,967,968,
1001,1002,1003,1004,1005,1006,1007,1008,1009,1010,1011,1012,1013,1014,1015,1016,1017,1018,1019,1020,1021,1022,1023,1024,1025,1026,1027,1028,1029,1030,1031,1032,1033,1034,1035,1036,1037,1038,1039,1040,1001,1002,1003,1004,1005,1006,1007,1008,1009,1010,1011,1012,1013,1014,1015,1016,1017,1018,1019,1020,1021,1022,1023,1024,1025,1026,1027,1028,1029,1030,1031,1032,1033,1034,1035,1036,1037,1038,1039,1040,1001,1002,1003,1004,1005,1006,1007,1008,
1041,1042,1043,1044,1045,1046,1047,1048,1049,1050,1051,1052,1053,1054,1055,1056,1057,1058,1059,1060,1061,1062,1063,1064,1065,1066,1067,1068,1069,1070,1071,1072,1073,1074,1075,1076,1077,1078,1079,1080,1041,1042,1043,1044,1045,1046,1047,1048,1049,1050,1051,1052,1053,1054,1055,1056,1057,1058,1059,1060,1061,1062,1063,1064,1065,1066,1067,1068,1069,1070,1071,1072,1073,1074,1075,1076,1077,1078,1079,1080,1041,1042,1043,1044,1045,1046,1047,1048,
1081,1082,1083,1084,1085,1086,1087,1088,1089,1090,1091,1092,1093,1094,1095,1096,1097,1098,1099,1100,1101,1102,1103,1104,1105,1106,1107,1108,1109,1110,1111,1112,1113,1114,1115,1116,1117,1118,1119,1120,1081,1082,1083,1084,1085,1086,1087,1088,1089,1090,1091,1092,1093,1094,1095,1096,1097,1098,1099,1100,1101,1102,1103,1104,1105,1106,1107,1108,1109,1110,1111,1112,1113,1114,1115,1116,1117,1118,1119,1120,1081,1082,1083,1084,1085,1086,1087,1088,
1121,1122,1123,1124,1125,1126,1127,1128,1129,1130,1131,1132,1133,1134,1135,1136,1137,1138,1139,1140,1141,1142,1143,1144,1145,1146,1147,1148,1149,1150,1151,1152,1153,1154,1155,1156,1157,1158,1159,1160,1121,1122,1123,1124,1125,1126,1127,1128,1129,1130,1131,1132,1133,1134,1135,1136,1137,1138,1139,1140,1141,1142,1143,1144,1145,1146,1147,1148,1149,1150,1151,1152,1153,1154,1155,1156,1157,1158,1159,1160,1121,1122,1123,1124,1125,1126,1127,1128,
1161,1162,1163,1164,1165,1166,1167,1168,1169,1170,1171,1172,1173,1174,1175,1176,1177,1178,1179,1180,1181,1182,1183,1184,1185,1186,1187,1188,1189,1190,1191,1192,1193,1194,1195,1196,1197,1198,1199,1200,1161,1162,1163,1164,1165,1166,1167,1168,1169,1170,1171,1172,1173,1174,1175,1176,1177,1178,1179,1180,1181,1182,1183,1184,1185,1186,1187,1188,1189,1190,1191,1192,1193,1194,1195,1196,1197,1198,1199,1200,1161,1162,1163,1164,1165,1166,1167,1168,
1201,1202,1203,1204,1205,1206,1207,1208,1209,1210,1211,1212,1213,1214,1215,1216,1217,1218,1219,1220,1221,1222,1223,1224,1225,1226,1227,1228,1229,1230,1231,1232,1233,1234,1235,1236,1237,1238,1239,1240,1201,1202,1203,1204,1205,1206,1207,1208,1209,1210,1211,1212,1213,1214,1215,1216,1217,1218,1219,1220,1221,1222,1223,1224,1225,1226,1227,1228,1229,1230,1231,1232,1233,1234,1235,1236,1237,1238,1239,1240,1201,1202,1203,1204,1205,1206,1207,1208,
1241,1242,1243,1244,1245,1246,1247,1248,1249,1250,1251,1252,1253,1254,1255,1256,1257,1258,1259,1260,1261,1262,1263,1264,1265,1266,1267,1268,1269,1270,1271,1272,1273,1274,1275,1276,1277,1278,1279,1280,1241,1242,1243,1244,1245,1246,1247,1248,1249,1250,1251,1252,1253,1254,1255,1256,1257,1258,1259,1260,1261,1262,1263,1264,1265,1266,1267,1268,1269,1270,1271,1272,1273,1274,1275,1276,1277,1278,1279,1280,1241,1242,1243,1244,1245,1246,1247,1248,
1281,1282,1283,1284,1285,1286,1287,1288,1289,1290,1291,1292,1293,1294,1295,1296,1297,1298,1299,1300,1301,1302,1303,1304,1305,1306,1307,1308,1309,1310,1311,1312,1313,1314,1315,1316,1317,1318,1319,1320,1281,1282,1283,1284,1285,1286,1287,1288,1289,1290,1291,1292,1293,1294,1295,1296,1297,1298,1299,1300,1301,1302,1303,1304,1305,1306,1307,1308,1309,1310,1311,1312,1313,1314,1315,1316,1317,1318,1319,1320,1281,1282,1283,1284,1285,1286,1287,1288,
1321,1322,1323,1324,1325,1326,1327,1328,1329,1330,1331,1332,1333,1334,1335,1336,1337,1338,1339,1340,1341,1342,1343,1344,1345,1346,1347,1348,1349,1350,1351,1352,1353,1354,1355,1356,1357,1358,1359,1360,1321,1322,1323,1324,1325,1326,1327,1328,1329,1330,1331,1332,1333,1334,1335,1336,1337,1338,1339,1340,1341,1342,1343,1344,1345,1346,1347,1348,1349,1350,1351,1352,1353,1354,1355,1356,1357,1358,1359,1360,1321,1322,1323,1324,1325,1326,1327,1328,
1361,1362,1363,1364,1365,1366,1367,1368,1369,1370,1371,1372,1373,1374,1375,1376,1377,1378,1379,1380,1381,1382,1383,1384,1385,1386,1387,1388,1389,1390,1391,1392,1393,1394,1395,1396,1397,1398,1399,1400,1361,1362,1363,1364,1365,1366,1367,1368,1369,1370,1371,1372,1373,1374,1375,1376,1377,1378,1379,1380,1381,1382,1383,1384,1385,1386,1387,1388,1389,1390,1391,1392,1393,1394,1395,1396,1397,1398,1399,1400,1361,1362,1363,1364,1365,1366,1367,1368,
1401,1402,1403,1404,1405,1406,1407,1408,1409,1410,1411,1412,1413,1414,1415,1416,1417,1418,1419,1420,1421,1422,1423,1424,1425,1426,1427,1428,1429,1430,1431,1432,1433,1434,1435,1436,1437,1438,1439,1440,1401,1402,1403,1404,1405,1406,1407,1408,1409,1410,1411,1412,1413,1414,1415,1416,1417,1418,1419,1420,1421,1422,1423,1424,1425,1426,1427,1428,1429,1430,1431,1432,1433,1434,1435,1436,1437,1438,1439,1440,1401,1402,1403,1404,1405,1406,1407,1408,
1441,1442,1443,1444,1445,1446,1447,1448,1449,1450,1451,1452,1453,1454,1455,1456,1457,1458,1459,1460,1461,1462,1463,1464,1465,1466,1467,1468,1469,1470,1471,1472,1473,1474,1475,1476,1477,1478,1479,1480,1441,1442,1443,1444,1445,1446,1447,1448,1449,1450,1451,1452,1453,1454,1455,1456,1457,1458,1459,1460,1461,1462,1463,1464,1465,1466,1467,1468,1469,1470,1471,1472,1473,1474,1475,1476,1477,1478,1479,1480,1441,1442,1443,1444,1445,1446,1447,1448,
1481,1482,1483,1484,1485,1486,1487,1488,1489,1490,1491,1492,1493,1494,1495,1496,1497,1498,1499,1500,1501,1502,1503,1504,1505,1506,1507,1508,1509,1510,1511,1512,1513,1514,1515,1516,1517,1518,1519,1520,1481,1482,1483,1484,1485,1486,1487,1488,1489,1490,1491,1492,1493,1494,1495,1496,1497,1498,1499,1500,1501,1502,1503,1504,1505,1506,1507,1508,1509,1510,1511,1512,1513,1514,1515,1516,1517,1518,1519,1520,1481,1482,1483,1484,1485,1486,1487,1488,
1521,1522,1523,1524,1525,1526,1527,1528,1529,1530,1531,1532,1533,1534,1535,1536,1537,1538,1539,1540,1541,1542,1543,1544,1545,1546,1547,1548,1549,1550,1551,1552,1553,1554,1555,1556,1557,1558,1559,1560,1521,1522,1523,1524,1525,1526,1527,1528,1529,1530,1531,1532,1533,1534,1535,1536,1537,1538,1539,1540,1541,1542,1543,1544,1545,1546,1547,1548,1549,1550,1551,1552,1553,1554,1555,1556,1557,1558,1559,1560,1521,1522,1523,1524,1525,1526,1527,1528,
1561,1562,1563,1564,1565,1566,1567,1568,1569,1570,1571,1572,1573,1574,1575,1576,1577,1578,1579,1580,1581,1582,1583,1584,1585,1586,1587,1588,1589,1590,1591,1592,1593,1594,1595,1596,1597,1598,1599,1600,1561,1562,1563,1564,1565,1566,1567,1568,1569,1570,1571,1572,1573,1574,1575,1576,1577,1578,1579,1580,1581,1582,1583,1584,1585,1586,1587,1588,1589,1590,1591,1592,1593,1594,1595,1596,1597,1598,1599,1600,1561,1562,1563,1564,1565,1566,1567,1568,
1,2,3,4,5,6,7,8,9,10,11,12,13,14,15,16,17,18,19,20,21,22,23,24,25,26,27,28,29,30,31,32,33,34,35,36,37,38,39,40,1,2,3,4,5,6,7,8,9,10,11,12,13,14,15,16,17,18,19,20,21,22,23,24,25,26,27,28,29,30,31,32,33,34,35,36,37,38,39,40,1,2,3,4,5,6,7,8,
41,42,43,44,45,46,47,48,49,50,51,52,53,54,55,56,57,58,59,60,61,62,63,64,65,66,67,68,69,70,71,72,73,74,75,76,77,78,79,80,41,42,43,44,45,46,47,48,49,50,51,52,53,54,55,56,57,58,59,60,61,62,63,64,65,66,67,68,69,70,71,72,73,74,75,76,77,78,79,80,41,42,43,44,45,46,47,48,
81,82,83,84,85,86,87,88,89,90,91,92,93,94,95,96,97,98,99,100,101,102,103,104,105,106,107,108,109,110,111,112,113,114,115,116,117,118,119,120,81,82,83,84,85,86,87,88,89,90,91,92,93,94,95,96,97,98,99,100,101,102,103,104,105,106,107,108,109,110,111,112,113,114,115,116,117,118,119,120,81,82,83,84,85,86,87,88,
121,122,123,124,125,126,127,128,129,130,131,132,133,134,135,136,137,138,139,140,141,142,143,144,145,146,147,148,149,150,151,152,153,154,155,156,157,158,159,160,121,122,123,124,125,126,127,128,129,130,131,132,133,134,135,136,137,138,139,140,141,142,143,144,145,146,147,148,149,150,151,152,153,154,155,156,157,158,159,160,121,122,123,124,125,126,127,128,
161,162,163,164,165,166,167,168,169,170,171,172,173,174,175,176,177,178,179,180,181,182,183,184,185,186,187,188,189,190,191,192,193,194,195,196,197,198,199,200,161,162,163,164,165,166,167,168,169,170,171,172,173,174,175,176,177,178,179,180,181,182,183,184,185,186,187,188,189,190,191,192,193,194,195,196,197,198,199,200,161,162,163,164,165,166,167,168,
201,202,203,204,205,206,207,208,209,210,211,212,213,214,215,216,217,218,219,220,221,222,223,224,225,226,227,228,229,230,231,232,233,234,235,236,237,238,239,240,201,202,203,204,205,206,207,208,209,210,211,212,213,214,215,216,217,218,219,220,221,222,223,224,225,226,227,228,229,230,231,232,233,234,235,236,237,238,239,240,201,202,203,204,205,206,207,208,
241,242,243,244,245,246,247,248,249,250,251,252,253,254,255,256,257,258,259,260,261,262,263,264,265,266,267,268,269,270,271,272,273,274,275,276,277,278,279,280,241,242,243,244,245,246,247,248,249,250,251,252,253,254,255,256,257,258,259,260,261,262,263,264,265,266,267,268,269,270,271,272,273,274,275,276,277,278,279,280,241,242,243,244,245,246,247,248,
281,282,283,284,285,286,287,288,289,290,291,292,293,294,295,296,297,298,299,300,301,302,303,304,305,306,307,308,309,310,311,312,313,314,315,316,317,318,319,320,281,282,283,284,285,286,287,288,289,290,291,292,293,294,295,296,297,298,299,300,301,302,303,304,305,306,307,308,309,310,311,312,313,314,315,316,317,318,319,320,281,282,283,284,285,286,287,288,
321,322,323,324,325,326,327,328,329,330,331,332,333,334,335,336,337,338,339,340,341,342,343,344,345,346,347,348,349,350,351,352,353,354,355,356,357,358,359,360,321,322,323,324,325,326,327,328,329,330,331,332,333,334,335,336,337,338,339,340,341,342,343,344,345,346,347,348,349,350,351,352,353,354,355,356,357,358,359,360,321,322,323,324,325,326,327,328,
361,362,363,364,365,366,367,368,369,370,371,372,373,374,375,376,377,378,379,380,381,382,383,384,385,386,387,388,389,390,391,392,393,394,395,396,397,398,399,400,361,362,363,364,365,366,367,368,369,370,371,372,373,374,375,376,377,378,379,380,381,382,383,384,385,386,387,388,389,390,391,392,393,394,395,396,397,398,399,400,361,362,363,364,365,366,367,368,
401,402,403,404,405,406,407,408,409,410,411,412,413,414,415,416,417,418,419,420,421,422,423,424,425,426,427,428,429,430,431,432,433,434,435,436,437,438,439,440,401,402,403,404,405,406,407,408,409,410,411,412,413,414,415,416,417,418,419,420,421,422,423,424,425,426,427,428,429,430,431,432,433,434,435,436,437,438,439,440,401,402,403,404,405,406,407,408,
441,442,443,444,445,446,447,448,449,450,451,452,453,454,455,456,457,458,459,460,461,462,463,464,465,466,467,468,469,470,471,472,473,474,475,476,477,478,479,480,441,442,443,444,445,446,447,448,449,450,451,452,453,454,455,456,457,458,459,460,461,462,463,464,465,466,467,468,469,470,471,472,473,474,475,476,477,478,479,480,441,442,443,444,445,446,447,448,
481,482,483,484,485,486,487,488,489,490,491,492,493,494,495,496,497,498,499,500,501,502,503,504,505,506,507,508,509,510,511,512,513,514,515,516,517,518,519,520,481,482,483,484,485,486,487,488,489,490,491,492,493,494,495,496,497,498,499,500,501,502,503,504,505,506,507,508,509,510,511,512,513,514,515,516,517,518,519,520,481,482,483,484,485,486,487,488,
521,522,523,524,525,526,527,528,529,530,531,532,533,534,535,536,537,538,539,540,541,542,543,544,545,546,547,548,549,550,551,552,553,554,555,556,557,558,559,560,521,522,523,524,525,526,527,528,529,530,531,532,533,534,535,536,537,538,539,540,541,542,543,544,545,546,547,548,549,550,551,552,553,554,555,556,557,558,559,560,521,522,523,524,525,526,527,528,
561,562,563,564,565,566,567,568,569,570,571,572,573,574,575,576,577,578,579,580,581,582,583,584,585,586,587,588,589,590,591,592,593,594,595,596,597,598,599,600,561,562,563,564,565,566,567,568,569,570,571,572,573,574,575,576,577,578,579,580,581,582,583,584,585,586,587,588,589,590,591,592,593,594,595,596,597,598,599,600,561,562,563,564,565,566,567,568,
601,602,603,604,605,606,607,608,609,610,611,612,613,614,615,616,617,618,619,620,621,622,623,624,625,626,627,628,629,630,631,632,633,634,635,636,637,638,639,640,601,602,603,604,605,606,607,608,609,610,611,612,613,614,615,616,617,618,619,620,621,622,623,624,625,626,627,628,629,630,631,632,633,634,635,636,637,638,639,640,601,602,603,604,605,606,607,608,
641,642,643,644,645,646,647,648,649,650,651,652,653,654,655,656,657,658,659,660,661,662,663,664,665,666,667,668,669,670,671,672,673,674,675,676,677,678,679,680,641,642,643,644,645,646,647,648,649,650,651,652,653,654,655,656,657,658,659,660,661,662,663,664,665,666,667,668,669,670,671,672,673,674,675,676,677,678,679,680,641,642,643,644,645,646,647,648,
681,682,683,684,685,686,687,688,689,690,691,692,693,694,695,696,697,698,699,700,701,702,703,704,705,706,707,708,709,710,711,712,713,714,715,716,717,718,719,720,681,682,683,684,685,686,687,688,689,690,691,692,693,694,695,696,697,698,699,700,701,702,703,704,705,706,707,708,709,710,711,712,713,714,715,716,717,718,719,720,681,682,683,684,685,686,687,688,
721,722,723,724,725,726,727,728,729,730,731,732,733,734,735,736,737,738,739,740,741,742,743,744,745,746,747,748,749,750,751,752,753,754,755,756,757,758,759,760,721,722,723,724,725,726,727,728,729,730,731,732,733,734,735,736,737,738,739,740,741,742,743,744,745,746,747,748,749,750,751,752,753,754,755,756,757,758,759,760,721,722,723,724,725,726,727,728,
761,762,763,764,765,766,767,768,769,770,771,772,773,774,775,776,777,778,779,780,781,782,783,784,785,786,787,788,789,790,791,792,793,794,795,796,797,798,799,800,761,762,763,764,765,766,767,768,769,770,771,772,773,774,775,776,777,778,779,780,781,782,783,784,785,786,787,788,789,790,791,792,793,794,795,796,797,798,799,800,761,762,763,764,765,766,767,768,
801,802,803,804,805,806,807,808,809,810,811,812,813,814,815,816,817,818,819,820,821,822,823,824,825,826,827,828,829,830,831,832,833,834,835,836,837,838,839,840,801,802,803,804,805,806,807,808,809,810,811,812,813,814,815,816,817,818,819,820,821,822,823,824,825,826,827,828,829,830,831,832,833,834,835,836,837,838,839,840,801,802,803,804,805,806,807,808,
841,842,843,844,845,846,847,848,849,850,851,852,853,854,855,856,857,858,859,860,861,862,863,864,865,866,867,868,869,870,871,872,873,874,875,876,877,878,879,880,841,842,843,844,845,846,847,848,849,850,851,852,853,854,855,856,857,858,859,860,861,862,863,864,865,866,867,868,869,870,871,872,873,874,875,876,877,878,879,880,841,842,843,844,845,846,847,848,
881,882,883,884,885,886,887,888,889,890,891,892,893,894,895,896,897,898,899,900,901,902,903,904,905,906,907,908,909,910,911,912,913,914,915,916,917,918,919,920,881,882,883,884,885,886,887,888,889,890,891,892,893,894,895,896,897,898,899,900,901,902,903,904,905,906,907,908,909,910,911,912,913,914,915,916,917,918,919,920,881,882,883,884,885,886,887,888,
921,922,923,924,925,926,927,928,929,930,931,932,933,934,935,936,937,938,939,940,941,942,943,944,945,946,947,948,949,950,951,952,953,954,955,956,957,958,959,960,921,922,923,924,925,926,927,928,929,930,931,932,933,934,935,936,937,938,939,940,941,942,943,944,945,946,947,948,949,950,951,952,953,954,955,956,957,958,959,960,921,922,923,924,925,926,927,928
</data>
 </layer>
 <layer id="2" name="Terrain" width="88" height="64">
  <data encoding="csv">
0,0,0,0,0,0,0,0,0,0,0,0,0,0,0,0,0,0,0,0,0,0,0,0,0,0,0,0,0,0,0,0,0,0,0,0,0,0,0,0,0,0,0,0,0,0,0,0,0,0,0,0,0,0,0,0,0,0,0,0,0,0,0,0,0,1601,1602,2573,1603,0,0,0,0,0,0,0,0,0,0,0,0,0,0,0,0,0,0,0,
0,0,0,0,0,0,0,0,0,0,0,0,0,0,0,0,0,0,0,0,0,0,0,0,0,0,0,0,0,0,0,0,0,0,0,0,0,0,0,0,0,0,0,0,0,0,0,0,0,0,0,0,0,0,0,0,0,0,0,0,0,0,0,0,0,1604,2612,2613,1605,0,0,0,0,0,0,0,0,0,0,0,0,0,0,0,0,0,0,0,
0,0,0,0,0,0,0,0,0,0,0,0,0,0,0,0,0,0,0,0,0,0,0,0,0,0,0,0,0,0,0,0,0,0,0,0,0,0,0,0,0,0,0,0,0,0,0,0,0,0,0,0,0,0,0,0,0,0,0,0,0,0,0,0,0,1606,2652,2653,1607,0,0,0,0,0,0,0,0,0,0,0,0,0,0,0,0,0,0,0,
0,0,0,0,0,0,0,0,0,0,0,0,0,0,0,0,0,0,0,0,0,0,0,0,0,0,0,0,0,0,0,0,0,0,0,0,0,0,0,0,0,0,0,0,0,0,0,0,0,0,0,0,0,0,0,0,0,0,0,0,0,0,0,0,0,1608,2692,2693,1609,0,0,0,0,0,0,0,0,0,0,0,0,0,0,0,0,0,0,0,
0,0,0,0,0,0,0,0,0,0,0,0,0,0,0,0,0,0,0,0,0,0,0,0,0,0,0,0,0,0,0,0,0,0,0,0,0,0,0,0,0,0,0,0,0,0,0,0,0,0,0,0,0,0,0,0,0,0,0,0,0,0,0,0,0,1610,2732,2733,1611,0,0,0,0,0,0,0,0,0,0,0,0,0,0,0,0,0,0,0,
0,0,0,0,0,0,0,0,0,0,0,0,0,0,0,0,0,0,0,0,0,0,0,0,0,0,0,0,0,0,0,0,0,0,0,0,0,0,0,0,0,0,0,0,0,0,0,0,0,0,0,0,0,0,0,0,0,0,0,0,0,0,0,0,0,1612,2772,2773,1613,0,0,0,0,0,0,0,0,0,0,0,0,0,0,0,0,0,0,0,
0,0,0,0,0,0,0,0,0,0,0,0,0,0,0,0,0,0,0,0,0,0,0,0,0,0,0,0,0,0,0,0,0,0,0,0,0,0,0,0,0,0,0,0,0,0,0,0,0,0,0,0,0,0,0,0,0,0,0,0,0,0,0,0,0,1614,1615,2813,1616,1617,0,0,0,0,0,0,0,0,0,0,0,0,0,0,0,0,0,0,
0,0,0,0,0,0,0,0,0,0,0,0,0,0,0,0,0,0,0,0,0,0,0,0,0,0,0,0,0,0,0,0,0,0,0,0,0,0,0,0,0,0,0,0,0,0,0,0,0,0,0,0,0,0,0,0,0,0,0,0,0,0,0,0,0,0,1618,2853,1619,1620,0,0,0,0,0,0,0,0,0,0,0,0,0,0,0,0,0,0,
0,0,0,0,0,0,1621,1622,1623,1624,1625,1626,1627,1628,1629,1630,0,0,0,0,0,0,0,0,0,0,0,0,0,0,0,0,0,0,0,0,0,0,0,0,0,0,0,0,0,0,0,0,0,0,0,0,0,0,0,0,0,0,0,0,0,0,0,0,0,0,1631,2893,2894,1632,0,0,0,0,0,0,0,0,0,0,0,0,0,0,0,0,0,0,
0,0,0,0,0,1633,1634,4513,4514,4515,4516,4517,4518,4519,4520,1635,1636,0,0,0,0,0,0,0,1637,1638,1639,1640,1641,1642,1643,1644,0,0,0,0,0,0,0,0,0,0,0,0,0,0,0,0,0,0,0,0,0,0,0,0,0,0,0,0,0,0,0,0,0,0,1645,2933,2934,1646,0,0,0,0,0,0,0,0,0,0,0,0,0,0,0,0,0,0,
0,0,0,0,0,1647,4552,4553,4554,4555,4556,4557,4558,4559,4560,4561,1648,0,0,0,0,0,0,1649,1650,4571,4572,4573,4574,4575,4576,1651,1652,0,0,0,0,0,0,0,0,0,0,0,0,0,0,0,0,0,0,0,0,0,0,0,0,0,0,0,0,0,0,0,0,0,1653,2973,2974,1654,1655,0,0,0,0,0,0,0,0,0,0,0,0,0,0,0,0,0,
0,0,0,0,0,1656,4592,4593,4594,4595,4596,4597,4598,4599,4600,4601,1657,0,0,0,0,0,0,1658,4610,4611,4612,4613,4614,4615,4616,4617,1659,0,0,0,0,0,0,0,0,0,0,0,0,0,0,0,0,0,0,0,0,0,0,0,0,0,0,0,0,0,0,0,0,0,1660,3013,3014,1661,1662,0,0,0,0,0,0,0,0,0,0,0,0,0,0,0,0,0,
0,0,0,0,0,1663,4632,4633,4634,4635,4636,4637,4638,4639,4640,4641,1664,0,0,0,0,0,0,1665,4650,4651,4652,4653,4654,4655,4656,4657,1666,0,0,0,0,0,0,0,0,0,0,0,0,0,0,0,0,0,0,0,0,0,0,0,0,0,0,0,0,0,0,0,0,0,1667,3053,3054,1668,0,0,0,0,0,0,0,0,0,0,0,0,0,0,0,0,0,0,
0,0,0,0,0,1669,4672,4673,4674,4675,4676,4677,4678,4679,4680,4681,1670,0,0,0,0,0,0,1671,4690,4691,4692,4693,4694,4695,4696,4697,1672,0,0,0,0,0,0,0,0,0,0,0,0,0,0,0,0,0,0,0,0,0,0,0,0,0,0,0,0,0,0,0,0,0,1673,3093,3094,1674,0,0,0,0,0,0,0,0,0,0,0,0,0,0,0,0,0,0,
0,0,0,0,0,1675,4712,4713,4714,4715,4716,4717,4718,4719,4720,4721,1664,0,0,0,0,0,0,1676,4730,4731,4732,4733,4734,4735,4736,4737,1677,0,0,0,0,0,0,0,0,0,0,0,0,0,0,0,0,0,0,0,0,0,0,0,0,0,0,0,0,0,0,0,0,0,1678,3133,3134,1679,0,0,0,0,0,0,0,0,0,0,0,0,0,0,0,0,0,0,
0,0,0,0,0,1680,4752,4753,4754,4755,4756,4757,4758,4759,4760,4761,1681,0,0,0,0,0,0,1682,4770,4771,4772,4773,4774,4775,4776,4777,1664,0,0,0,0,0,0,0,0,0,0,0,0,0,0,0,0,0,0,0,0,0,0,0,0,0,0,0,0,0,0,0,0,1683,1684,3173,1685,1686,0,0,0,0,0,0,0,0,0,0,0,0,0,0,0,0,0,0,
0,0,0,0,0,1656,4792,4793,4794,4795,4796,4797,4798,4799,4800,4801,1687,0,0,0,0,0,0,1656,4810,4811,4812,4813,4814,4815,4816,4817,1664,0,0,0,0,0,0,0,0,0,0,0,0,0,0,0,0,0,0,0,0,0,0,0,0,0,0,0,0,0,0,0,0,1688,3212,3213,1689,0,0,0,0,0,0,0,0,0,0,0,0,0,0,0,0,0,0,0,
0,0,0,0,0,1690,4832,4833,4834,4835,4836,4837,4838,4839,4840,4841,1691,0,0,0,0,0,0,1656,4850,4851,4852,4853,4854,4855,4856,4857,1692,0,0,0,0,0,0,0,0,0,0,0,0,0,0,0,0,0,0,0,0,0,0,0,0,0,0,0,0,0,0,0,0,1693,3252,3253,1694,0,0,0,0,0,0,0,0,0,0,0,0,0,0,0,0,0,0,0,
0,0,0,0,0,1695,4872,4873,4874,4875,4876,4877,4878,4879,4880,4881,1696,0,0,0,0,0,0,1697,4890,4891,4892,4893,4894,4895,4896,4897,1698,0,0,0,0,0,0,0,0,0,0,0,0,0,0,0,0,0,0,0,0,0,0,0,0,0,0,0,0,0,0,0,1699,1700,3292,1701,1702,0,0,0,0,0,0,0,0,0,0,0,0,0,0,0,0,0,0,0,
0,0,0,0,0,1703,4912,4913,4914,4915,4916,4917,4918,4919,4920,4921,1704,0,0,0,0,0,0,1705,4930,4931,4932,4933,4934,4935,4936,4937,1706,0,0,0,0,0,0,0,0,0,0,0,0,0,0,0,0,0,0,0,0,0,0,0,0,0,0,0,0,0,0,0,1707,1708,3332,1709,0,0,0,0,0,0,0,0,0,0,0,0,0,0,0,0,0,0,0,0,
0,0,0,0,0,1710,1711,4953,4954,4955,4956,4957,4958,4959,4960,1712,1713,0,0,0,0,0,0,1714,1715,4971,4972,4973,4974,4975,4976,1716,1717,0,0,0,0,0,0,0,0,0,0,0,0,0,0,0,0,0,0,0,0,0,0,0,0,0,0,0,0,0,0,0,1718,3371,3372,1719,0,0,0,0,0,0,0,0,0,0,0,0,0,0,0,0,0,0,0,0,
0,0,0,0,0,0,1720,1721,1722,1723,1724,1725,1726,1727,1728,1729,0,0,0,0,0,0,0,0,1730,1731,1732,1733,1734,1735,1736,1737,0,0,0,0,0,0,0,0,0,0,0,0,0,0,0,0,0,0,0,0,0,0,0,0,0,0,0,0,0,0,0,1738,1739,3411,1740,1741,0,0,0,0,0,0,0,0,0,0,0,0,0,0,0,0,0,0,0,0,
0,0,0,0,0,0,0,0,0,0,0,0,0,0,0,0,0,0,0,0,0,0,0,0,0,0,0,0,0,0,0,0,0,0,0,0,0,0,0,0,0,0,0,0,0,0,0,0,0,0,0,0,0,0,0,0,0,0,0,0,0,0,0,1742,3450,3451,1743,0,0,0,0,0,0,0,0,0,0,0,0,0,0,0,0,0,0,0,0,0,
0,0,0,0,0,0,0,0,0,0,0,0,0,0,0,0,0,0,0,0,0,0,0,0,0,0,0,0,0,0,0,0,0,0,0,0,0,0,0,0,0,0,0,0,0,0,0,0,0,0,0,0,0,0,0,0,0,0,0,0,0,0,0,1744,3490,3491,1745,0,0,0,0,0,0,0,0,0,0,0,0,0,0,0,0,0,0,0,0,0,
0,0,0,0,0,0,0,0,0,0,0,0,0,0,0,0,0,0,0,0,0,0,0,0,0,0,0,0,0,0,0,0,0,0,0,0,0,0,0,0,0,0,0,0,0,0,0,0,0,0,0,0,0,0,0,0,0,0,0,0,0,0,0,1746,3530,3531,1747,0,0,0,0,0,0,0,0,0,0,0,0,0,0,0,0,0,0,0,0,0,
0,0,0,0,0,0,0,0,0,0,0,0,0,0,0,0,0,0,0,0,0,0,0,0,0,0,0,0,0,0,0,0,0,0,0,0,0,0,0,0,0,0,0,0,0,0,0,0,0,0,0,0,0,0,0,0,0,0,0,0,0,0,0,1748,3570,3571,1749,0,0,0,0,0,0,0,0,0,0,0,0,0,0,0,0,0,0,0,0,0,
0,0,0,0,0,0,0,0,0,0,0,0,0,0,0,0,0,0,0,0,0,0,0,0,0,0,0,0,0,0,0,0,0,0,0,0,0,0,0,0,0,0,0,0,0,0,0,0,0,0,0,0,0,0,0,0,0,0,0,0,0,0,0,1750,3610,3611,1751,0,0,0,0,0,0,0,0,0,0,0,0,0,0,0,0,0,0,0,0,0,
0,0,0,0,0,0,0,0,0,0,0,0,0,0,0,0,0,0,0,0,0,0,0,0,0,0,0,0,0,0,0,0,0,0,0,0,0,0,0,0,0,0,0,0,0,0,0,0,0,0,0,0,0,0,0,0,0,0,0,0,0,0,0,1752,3650,3651,1753,0,0,0,0,0,0,0,0,0,0,0,0,0,0,0,0,0,0,0,0,0,
0,0,0,0,0,0,0,0,0,0,0,0,0,0,0,0,0,0,0,0,0,0,0,0,0,0,0,0,0,0,0,0,0,0,0,0,0,0,0,0,0,0,0,0,0,0,0,0,0,0,0,0,0,0,0,0,0,0,0,0,0,0,0,1754,3690,3691,1755,0,0,0,0,0,0,0,0,0,0,0,0,0,0,0,0,0,0,0,0,0,
0,0,0,0,0,0,0,0,0,0,0,0,0,0,0,0,0,0,0,0,0,0,0,0,0,0,0,0,0,0,0,0,0,0,0,0,0,0,0,0,0,0,0,0,0,0,0,0,0,0,0,0,0,0,0,0,0,0,0,0,0,0,0,1756,3730,3731,1757,0,0,0,0,0,0,0,0,0,0,0,0,0,0,0,0,0,0,0,0,0,
0,0,0,0,0,0,0,0,0,0,0,0,0,0,0,0,0,0,0,0,0,0,0,0,0,0,0,0,0,0,0,0,0,0,0,0,0,0,0,0,0,0,0,0,0,0,0,0,0,0,0,0,0,0,0,0,0,0,0,0,0,0,0,1758,3770,1759,1760,0,0,0,0,0,0,0,0,0,0,0,0,0,0,0,0,0,0,0,0,0,
0,0,0,0,0,0,0,0,0,0,0,0,0,0,0,0,0,0,0,0,0,0,0,0,0,0,0,0,0,0,0,0,0,0,0,0,0,0,0,0,0,0,0,0,0,0,0,0,0,0,0,0,0,0,0,0,0,0,0,0,0,0,1761,1762,3810,1763,0,0,0,0,0,0,0,0,0,0,0,0,0,0,0,0,0,0,0,0,0,0,
0,0,0,0,0,0,0,0,0,0,0,0,0,0,0,0,0,0,0,0,0,0,0,0,0,0,0,0,0,0,0,0,0,0,0,0,0,0,0,0,0,0,0,0,0,0,0,0,0,0,0,0,0,0,0,0,0,0,0,0,0,0,1764,1765,3850,1766,0,0,0,0,0,0,0,0,0,0,0,0,0,0,0,0,0,0,0,0,0,0,
0,0,0,0,0,0,0,0,0,0,0,0,0,0,0,0,0,0,0,0,0,0,0,0,0,0,0,0,0,0,0,0,0,0,0,0,0,0,0,0,0,0,0,0,0,0,0,0,0,0,0,0,0,0,0,0,0,0,0,0,0,0,1767,3889,3890,1768,0,0,0,0,0,0,0,0,0,0,0,0,0,0,0,0,0,0,0,0,0,0,
0,0,0,0,1769,1770,1771,1772,1773,1774,1775,1776,1777,0,0,0,0,0,1778,1779,1780,1780,1781,1782,1783,1780,1643,1777,0,0,0,0,0,0,0,0,0,0,0,0,0,0,0,0,0,0,0,0,0,0,0,0,0,0,0,0,0,0,0,0,0,0,1784,3929,3930,1785,0,0,0,0,0,0,0,0,0,0,0,0,0,0,0,0,0,0,0,0,0,0,
0,0,0,1786,1787,5551,5552,5553,5554,5555,5556,5557,1788,1636,0,0,0,1789,1790,5565,5566,5567,5568,5569,5570,5571,5572,1791,1792,1637,1793,1794,1795,1796,1797,0,0,0,0,0,0,0,0,0,0,0,0,0,0,0,0,0,0,0,0,0,0,0,0,0,0,1798,1799,3969,1800,1801,0,0,0,0,0,0,0,0,0,0,0,0,0,0,0,0,0,0,0,0,0,0,
0,0,0,1802,5590,5591,5592,5593,5594,5595,5596,5597,5598,1803,0,0,0,1804,5604,5605,5606,5607,5608,5609,5610,5611,5612,5613,1805,1806,5616,5617,5618,5619,1807,1808,0,0,0,0,0,0,0,0,0,0,0,0,0,0,0,0,0,0,0,0,0,0,0,0,0,1809,4008,4009,1810,0,0,0,0,0,0,0,0,0,0,0,0,0,0,0,0,0,0,0,0,0,0,0,
0,0,0,1811,5630,5631,5632,5633,5634,5635,5636,5637,5638,1812,0,0,0,1813,5644,5645,5646,5647,5648,5649,5650,5651,5652,5653,5654,5655,5656,5657,5658,5659,5660,1814,0,0,0,0,0,0,0,0,0,0,0,0,0,0,0,0,0,0,0,0,0,0,0,0,0,1815,4048,4049,1816,0,0,0,0,0,0,0,0,0,0,0,0,0,0,0,0,0,0,0,0,0,0,0,
0,0,0,1817,5670,5671,5672,5673,5674,5675,5676,5677,5678,1818,0,0,0,1819,5684,5685,5686,5687,5688,5689,5690,5691,5692,5693,5694,5695,5696,5697,5698,5699,5700,1820,0,0,0,0,0,0,0,0,0,0,0,0,0,0,0,0,0,0,0,0,0,0,0,0,1821,1822,4088,1823,1824,0,0,0,0,0,0,0,0,0,0,0,0,0,0,0,0,0,0,0,0,0,0,0,
0,0,0,1825,5710,5711,5712,5713,5714,5715,5716,5717,5718,1826,0,0,0,1827,5724,5725,5726,5727,5728,5729,5730,5731,5732,5733,5734,5735,5736,5737,5738,5739,5740,1828,0,0,0,0,0,0,0,0,0,0,0,0,0,0,0,0,0,0,0,0,0,0,0,0,1829,4127,4128,1830,0,0,0,0,0,0,0,0,0,0,0,0,0,0,0,0,0,0,0,0,0,0,0,0,
0,0,0,1831,4150,4151,4152,4153,4154,4155,4156,4157,4158,1832,0,0,0,1833,4164,4165,4166,4167,4168,4169,4170,4171,4172,4173,4174,4175,4176,4177,4178,4179,4180,1834,0,0,0,0,0,0,0,0,0,0,0,0,0,0,0,0,0,0,0,0,0,0,0,0,1835,2567,2568,1836,0,0,0,0,0,0,0,1837,1838,1839,1840,1841,1842,0,0,0,0,0,0,0,0,0,0,0,
0,0,0,1843,1844,4191,4192,4193,4194,4195,4196,4197,1845,1846,0,0,0,1843,1847,4205,4206,4207,4208,4209,4210,4211,4212,1848,1849,1850,4216,4217,4218,4219,1851,1852,0,0,0,0,0,0,0,0,0,0,0,0,0,0,0,0,0,0,0,0,0,0,0,1853,1854,2607,1855,1856,0,0,0,0,0,0,1857,1858,2618,2619,2620,2621,1859,1860,0,0,0,0,0,0,0,0,0,0,
0,0,0,0,1861,1862,1863,1864,1863,1863,1865,1866,1867,0,0,0,0,0,1868,1862,1869,1870,1871,1872,1873,1874,1875,1876,0,1868,1877,1878,1879,1880,1881,0,0,0,0,0,0,0,0,0,0,0,0,0,0,0,0,0,0,0,0,0,0,0,0,1882,2646,2647,1883,0,0,0,0,0,0,1884,1885,1886,2658,2659,2660,2661,2662,1887,1888,1889,1890,0,0,0,0,0,0,0,
0,0,0,0,0,0,0,0,0,0,0,0,0,0,0,0,0,0,0,0,0,0,0,0,0,0,0,0,0,0,0,0,0,0,0,0,0,0,0,0,0,0,0,0,0,0,0,0,0,0,0,0,0,0,0,0,0,0,0,1891,2686,2687,1892,0,0,0,0,0,1893,1894,1895,2697,2698,2699,2700,2701,2702,2703,2704,1896,1897,1898,0,0,0,0,0,0,
0,0,0,0,0,0,0,0,0,0,0,0,0,0,0,0,0,0,0,0,0,0,0,0,0,0,0,0,0,0,0,0,0,0,0,0,0,0,0,0,0,0,0,0,0,0,0,0,0,0,0,0,0,0,0,0,0,0,0,1899,2726,2727,1900,0,0,0,0,0,1901,1902,2736,2737,2738,2739,2740,2741,2742,2743,2744,2745,2706,1903,0,0,0,0,0,0,
0,0,0,0,0,0,0,0,0,0,0,0,0,0,0,0,0,0,0,0,0,0,0,0,0,0,0,0,0,0,0,0,0,0,0,0,0,0,0,0,0,0,0,0,0,0,0,0,0,0,0,0,0,0,0,0,0,0,0,1904,2766,2767,1905,0,0,0,0,0,0,1906,2776,2777,2778,2779,2780,2781,2782,2783,2784,2785,1907,1908,0,0,0,0,0,0,
0,0,0,0,0,0,0,0,0,0,0,0,0,0,0,0,0,0,0,0,0,0,0,0,0,0,0,0,0,0,0,0,0,0,0,0,0,0,0,0,0,0,0,0,0,0,0,0,0,0,0,0,0,0,0,0,0,0,0,1909,2806,2807,1910,0,0,0,0,0,0,1911,2816,2817,2818,2819,2820,2821,2822,2823,2824,1912,1913,0,0,0,0,0,0,0,
0,0,0,0,0,0,0,0,0,0,0,0,0,0,0,0,0,0,0,0,0,0,0,0,0,0,0,0,0,0,0,0,0,0,0,0,0,0,0,0,0,0,0,0,0,0,0,0,0,0,0,0,0,0,0,0,0,0,0,1914,2846,2847,1915,0,0,0,0,0,0,1916,1917,2857,2858,2859,2860,2861,2862,2863,1918,1919,0,0,0,0,0,0,0,0,
0,0,0,0,0,0,0,0,0,0,0,0,0,0,0,0,0,0,0,0,0,0,0,0,0,0,0,0,0,0,0,0,0,0,0,0,0,0,0,0,0,0,0,0,0,0,0,0,0,0,0,0,0,0,0,0,0,0,0,1920,2886,2887,1921,0,0,0,0,0,0,1922,1923,2897,2898,2899,2900,2901,2902,1924,1925,0,0,0,0,0,0,0,0,0,
0,0,0,0,0,0,0,0,0,0,0,0,0,0,0,0,0,0,0,0,0,0,0,0,0,0,0,0,0,0,0,0,0,0,0,0,0,0,0,0,0,0,0,0,0,0,0,0,0,0,0,0,0,0,0,0,0,0,0,1926,2926,2927,1927,0,0,0,0,0,0,0,1928,1929,1930,1931,1932,1933,1934,1935,0,0,0,0,0,0,0,0,0,0,
0,0,0,0,0,0,0,0,0,0,0,0,0,0,0,0,0,0,0,0,0,0,0,0,0,0,0,0,0,0,0,0,0,0,0,0,0,0,0,0,0,0,0,0,0,0,0,0,0,0,0,0,0,0,0,0,0,0,0,1936,2966,2967,1937,1938,0,0,0,0,0,0,0,0,0,0,1939,1940,0,0,0,0,0,0,0,0,0,0,0,0,
0,0,0,0,0,0,0,0,0,0,0,0,0,0,0,0,0,0,0,0,0,0,0,0,0,0,0,0,0,0,0,0,0,0,0,0,0,0,0,0,0,0,0,0,0,0,0,0,0,0,0,0,0,0,0,0,0,0,0,1941,3006,3007,1942,1943,0,0,0,0,0,0,0,0,0,0,0,0,0,0,0,0,0,0,0,0,0,0,0,0,
0,0,0,0,0,0,0,0,0,0,0,0,0,0,0,0,0,0,0,0,0,0,0,0,0,0,0,0,0,0,0,0,0,0,0,0,0,0,0,0,0,0,0,0,0,0,0,0,0,0,0,0,0,0,0,0,0,0,0,1944,3046,3047,1945,0,0,0,0,0,0,0,0,0,0,0,0,0,0,0,0,0,0,0,0,0,0,0,0,0,
0,0,0,0,0,0,0,0,0,0,0,0,0,0,0,0,0,0,0,0,0,0,0,0,0,0,0,0,0,0,0,0,0,0,0,0,0,0,0,0,0,0,0,0,0,0,0,0,0,0,0,0,0,0,0,0,0,0,0,1946,3086,3087,1947,0,0,0,0,0,0,0,0,0,0,0,0,0,0,0,0,0,0,0,0,0,0,0,0,0,
0,0,0,0,0,0,0,0,0,0,0,0,0,0,0,0,0,0,0,0,0,0,0,0,0,0,0,0,0,0,0,0,0,0,0,0,0,0,0,0,0,0,0,0,0,0,0,0,0,0,0,0,0,0,0,0,0,0,1948,1949,3126,1950,1951,0,0,0,0,0,0,0,0,0,0,0,0,0,0,0,0,0,0,0,0,0,0,0,0,0,
0,0,0,0,0,0,0,0,0,0,0,0,0,0,0,0,0,0,0,0,0,0,0,0,0,0,0,0,0,0,0,0,0,0,0,0,0,0,0,0,0,0,0,0,0,0,0,0,0,0,0,0,0,0,0,0,0,0,1952,3165,3166,1953,0,0,0,0,0,0,0,0,0,0,0,0,0,0,0,0,0,0,0,0,0,0,0,0,0,0,
0,0,0,0,0,0,0,0,0,0,0,0,0,0,0,0,0,0,0,0,0,0,0,0,0,0,0,0,0,0,0,0,0,0,0,0,0,0,0,0,0,0,0,0,0,0,0,0,0,0,0,0,0,0,0,0,0,0,1954,3205,3206,1955,0,0,0,0,0,0,0,0,0,0,0,0,0,0,0,0,0,0,0,0,0,0,0,0,0,0,
0,0,0,0,0,0,0,0,0,0,0,0,0,0,0,0,0,0,0,0,0,0,0,0,0,0,0,0,0,0,0,0,0,0,0,0,0,0,0,0,0,0,0,0,0,0,0,0,0,0,0,0,0,0,0,0,0,0,1956,3245,3246,1957,0,0,0,0,0,0,0,0,0,0,0,0,0,0,0,0,0,0,0,0,0,0,0,0,0,0,
0,0,0,0,0,0,0,0,0,0,0,0,0,0,0,0,0,0,0,0,0,0,0,0,0,0,0,0,0,0,0,0,0,0,0,0,0,0,0,0,0,0,0,0,0,0,0,0,0,0,0,0,0,0,0,0,0,0,1958,3285,3286,1959,0,0,0,0,0,0,0,0,0,0,0,0,0,0,0,0,0,0,0,0,0,0,0,0,0,0,
0,0,0,0,0,0,0,0,0,0,0,0,0,0,0,0,0,0,0,0,0,0,0,0,0,0,0,0,0,0,0,0,0,0,0,0,0,0,0,0,0,0,0,0,0,0,0,0,0,0,0,0,0,0,0,0,0,0,1960,3325,3326,1961,0,0,0,0,0,0,0,0,0,0,0,0,0,0,0,0,0,0,0,0,0,0,0,0,0,0,
0,0,0,0,0,0,0,0,0,0,0,0,0,0,0,0,0,0,0,0,0,0,0,0,0,0,0,0,0,0,0,0,0,0,0,0,0,0,0,0,0,0,0,0,0,0,0,0,0,0,0,0,0,0,0,0,0,0,1962,3365,3366,1963,0,0,0,0,0,0,0,0,0,0,0,0,0,0,0,0,0,0,0,0,0,0,0,0,0,0,
0,0,0,0,0,0,0,0,0,0,0,0,0,0,0,0,0,0,0,0,0,0,0,0,0,0,0,0,0,0,0,0,0,0,0,0,0,0,0,0,0,0,0,0,0,0,0,0,0,0,0,0,0,0,0,0,0,0,1964,3405,3406,1965,0,0,0,0,0,0,0,0,0,0,0,0,0,0,0,0,0,0,0,0,0,0,0,0,0,0,
0,0,0,0,0,0,0,0,0,0,0,0,0,0,0,0,0,0,0,0,0,0,0,0,0,0,0,0,0,0,0,0,0,0,0,0,0,0,0,0,0,0,0,0,0,0,0,0,0,0,0,0,0,0,0,0,0,0,1966,3445,3446,1967,0,0,0,0,0,0,0,0,0,0,0,0,0,0,0,0,0,0,0,0,0,0,0,0,0,0,
0,0,0,0,0,0,0,0,0,0,0,0,0,0,0,0,0,0,0,0,0,0,0,0,0,0,0,0,0,0,0,0,0,0,0,0,0,0,0,0,0,0,0,0,0,0,0,0,0,0,0,0,0,0,0,0,0,0,1968,1969,1970,1971,0,0,0,0,0,0,0,0,0,0,0,0,0,0,0,0,0,0,0,0,0,0,0,0,0,0
</data>
 </layer>
 <layer id="3" name="Overlay" width="88" height="64">
  <data encoding="csv">
0,0,0,0,0,0,0,0,0,0,0,0,0,0,0,0,0,0,0,0,0,0,0,0,0,0,0,0,0,0,0,0,0,2063,5780,2064,0,0,0,0,0,0,0,0,0,0,0,0,0,0,0,0,0,0,0,0,0,0,0,0,0,0,0,0,0,0,0,0,0,0,0,0,0,0,0,0,0,0,0,0,0,0,0,0,0,0,0,0,
0,0,0,0,0,0,0,0,0,0,0,0,0,0,0,0,0,0,0,0,0,0,0,0,0,0,0,0,0,0,0,0,0,2065,2066,2067,0,0,0,0,0,0,0,0,0,0,0,0,0,0,0,0,0,0,0,0,0,0,0,0,0,0,0,0,0,0,0,0,0,0,0,0,0,0,0,0,0,0,0,0,0,0,0,0,0,0,0,0,
0,0,0,0,0,0,0,0,0,0,0,0,0,0,0,0,0,0,0,0,0,0,0,0,0,0,0,0,0,0,0,0,0,2068,5860,2069,0,0,0,0,0,0,0,0,0,0,0,0,0,0,0,0,0,0,0,0,0,0,0,0,0,0,0,0,0,0,0,0,0,0,0,0,0,0,0,0,0,0,0,0,0,0,0,0,0,0,0,0,
0,0,0,0,0,0,0,0,0,0,0,0,0,0,0,0,0,0,0,0,0,0,0,0,0,0,0,0,0,0,0,0,2070,2071,2072,2073,0,0,0,0,0,0,0,0,0,0,0,0,0,0,0,0,0,0,0,0,0,0,0,0,0,0,0,0,0,0,0,0,0,0,0,0,0,0,0,0,0,0,0,0,0,0,0,0,0,0,0,0,
0,0,0,0,0,0,0,0,0,0,0,0,0,0,0,0,0,0,0,0,0,0,0,0,0,0,0,0,0,0,0,0,2074,5939,5940,2075,0,0,0,0,0,0,0,0,0,0,0,0,0,0,0,0,0,0,0,0,0,0,0,0,0,0,0,0,0,0,0,0,0,0,0,0,0,0,0,0,0,0,0,0,0,0,0,0,0,0,0,0,
0,0,0,0,0,0,0,0,0,0,0,0,0,0,0,0,0,0,0,0,0,0,0,0,0,0,0,0,0,0,0,0,2076,2077,5980,2078,0,0,0,0,0,0,0,0,0,0,0,0,0,0,0,0,0,0,0,0,0,0,0,0,0,0,0,0,0,0,0,0,0,0,0,0,0,0,0,0,0,0,0,0,0,0,0,0,0,0,0,0,
0,0,0,0,0,0,0,0,0,0,0,0,0,0,0,0,0,0,0,0,0,0,0,0,0,0,0,0,0,0,0,0,2079,2080,6020,2081,0,0,0,0,0,0,0,0,0,0,0,0,0,0,0,0,0,0,0,0,0,0,0,0,0,0,0,0,0,0,0,0,0,0,0,0,0,0,0,0,0,0,0,0,0,0,0,0,0,0,0,0,
0,0,0,0,0,0,0,0,0,0,0,0,0,0,0,0,0,0,0,0,0,0,0,0,0,0,0,0,0,0,0,0,0,2082,6060,2083,0,0,0,0,0,0,0,0,0,0,0,0,0,0,0,0,0,0,0,0,0,0,0,0,0,0,0,0,0,0,0,0,0,0,0,0,0,0,0,0,0,0,0,0,0,0,0,0,0,0,0,0,
0,0,0,0,0,0,0,0,0,0,0,0,0,0,0,0,0,0,0,0,0,0,0,0,0,0,0,0,0,0,0,0,0,2084,6100,2085,0,0,0,0,0,0,0,0,0,0,0,0,0,0,0,0,0,0,0,0,0,0,0,0,0,0,0,0,0,0,0,0,0,0,0,0,0,0,0,0,0,0,0,0,0,0,0,0,0,0,0,0,
0,0,0,0,0,0,0,0,0,0,0,0,0,0,0,0,0,0,0,0,0,0,0,0,0,0,0,0,0,0,0,0,0,2086,6140,2087,0,0,0,0,0,0,0,0,0,0,0,0,0,0,0,0,0,0,0,0,0,0,0,0,0,0,0,0,0,0,0,0,0,0,0,0,0,0,0,0,0,0,0,0,0,0,0,0,0,0,0,0,
0,0,0,0,0,0,0,0,0,0,0,0,0,0,0,0,0,0,0,0,0,0,0,0,0,0,0,0,0,0,0,0,0,2088,6180,2089,0,0,0,0,0,0,0,0,0,0,0,0,0,0,0,0,0,0,0,0,0,0,0,0,0,0,0,0,0,0,0,0,0,0,0,0,0,0,0,0,0,0,0,0,0,0,0,0,0,0,0,0,
0,0,0,0,0,0,0,0,0,0,0,0,0,0,0,0,0,0,0,0,0,0,0,0,0,0,0,0,0,0,0,0,0,2090,6220,2091,0,0,0,0,0,0,0,0,0,0,0,0,0,0,0,0,0,0,0,0,0,0,0,0,0,0,0,0,0,0,0,0,0,0,0,0,0,0,0,0,0,0,0,0,0,0,0,0,0,0,0,0,
0,0,0,0,0,0,0,0,0,0,0,0,0,0,0,0,0,0,0,0,0,0,0,0,0,0,0,0,0,0,0,0,0,2092,2093,2094,0,0,0,0,0,0,0,0,0,0,0,0,0,0,0,0,0,0,0,0,0,0,0,0,0,0,0,0,0,0,0,0,0,0,0,0,0,0,0,0,0,0,0,0,0,0,0,0,0,0,0,0,
0,0,0,0,0,0,0,0,0,0,0,0,0,0,0,0,0,0,0,0,0,0,0,0,0,0,0,0,0,0,0,0,2095,2096,2097,0,0,0,0,0,0,0,0,0,0,0,0,0,0,0,0,0,0,0,0,0,0,0,0,0,0,0,0,0,0,0,0,0,0,0,0,0,0,0,0,0,0,0,0,0,0,0,0,0,0,0,0,0,
0,0,0,0,0,0,0,0,0,0,0,0,0,0,0,0,0,0,0,0,0,0,0,0,0,0,0,0,0,0,0,0,2098,6339,2099,0,0,0,0,0,0,0,0,0,0,0,0,0,0,0,0,0,0,0,0,0,0,0,0,0,0,0,0,0,0,0,0,0,0,0,0,0,0,0,0,0,0,0,0,0,0,0,0,0,0,0,0,0,
0,0,0,0,0,0,0,0,0,0,0,0,0,0,0,0,0,0,0,0,0,0,0,0,0,0,0,0,0,0,0,0,2100,6379,2101,0,0,0,0,0,0,0,0,0,0,0,0,0,0,0,0,0,0,0,0,0,0,0,0,0,0,0,0,0,0,0,0,0,0,0,0,0,0,0,0,0,0,0,0,0,0,0,0,0,0,0,0,0,
0,0,0,0,0,0,0,0,0,0,0,0,0,0,0,0,0,0,0,0,0,0,0,0,0,0,0,0,0,0,0,0,2102,6419,2103,0,0,0,0,0,0,0,0,0,0,0,0,0,0,0,0,0,0,0,0,0,0,0,0,0,0,0,0,0,0,0,0,0,0,0,0,0,0,0,0,0,0,0,0,0,0,0,0,0,0,0,0,0,
0,0,0,0,0,0,0,0,0,0,0,0,0,0,0,0,0,0,0,0,0,0,0,0,0,0,0,0,0,0,0,0,2104,6459,2105,0,0,0,0,0,0,0,0,0,0,0,0,0,0,0,0,0,0,0,0,0,0,0,0,0,0,0,0,0,0,0,0,0,0,0,0,0,0,0,0,0,0,0,0,0,0,0,0,0,0,0,0,0,
0,0,0,0,0,0,0,0,0,0,0,0,0,0,0,0,0,0,0,0,0,0,0,0,0,0,0,0,0,0,0,0,2106,6499,2107,0,0,0,0,0,0,0,0,0,0,0,0,0,0,0,0,0,0,0,0,0,0,0,0,0,0,0,0,0,0,0,0,0,0,0,0,0,0,0,0,0,0,0,0,0,0,0,0,0,0,0,0,0,
0,0,0,0,0,0,0,0,0,0,0,0,0,0,0,0,0,0,0,0,0,0,0,0,0,0,0,0,0,0,0,0,2108,6539,2109,2110,0,0,0,0,0,0,0,0,0,0,0,0,0,0,0,0,0,0,0,0,0,0,0,0,0,0,0,0,0,0,0,0,0,0,0,0,0,0,0,0,0,0,0,0,0,0,0,0,0,0,0,0,
0,0,0,0,0,0,0,0,0,0,0,0,0,0,0,0,0,0,0,2111,2112,0,0,0,0,0,0,0,0,0,0,0,2113,2114,2115,2116,0,0,0,0,0,0,0,0,0,0,0,0,0,0,0,0,0,0,0,0,0,0,0,0,0,0,0,0,0,0,0,0,0,0,0,0,0,0,0,0,0,0,0,0,0,0,0,0,0,0,0,0,
0,0,0,0,0,0,0,0,0,0,0,0,0,0,0,0,0,0,0,2117,2118,0,0,0,0,0,0,0,0,0,0,0,0,2119,2120,2121,0,0,0,0,0,0,0,0,0,0,0,0,0,0,0,0,0,0,0,0,0,0,0,0,0,0,0,0,0,0,0,0,0,0,0,0,0,0,0,0,0,0,0,0,0,0,0,0,0,0,0,0,
0,0,0,0,0,0,0,0,0,0,0,0,0,0,0,0,0,0,0,2122,2123,0,0,0,0,0,0,0,0,0,0,0,0,2124,2125,2126,0,0,0,0,0,0,0,0,0,0,0,0,0,0,0,0,0,0,0,0,0,0,0,0,0,0,0,0,0,0,0,0,0,0,0,0,0,0,0,0,0,0,0,0,0,0,0,0,0,0,0,0,
0,0,0,0,0,0,0,0,0,0,0,0,0,0,0,0,0,0,0,2127,2128,0,0,0,0,0,0,0,0,0,0,0,0,2129,2130,2131,0,0,0,0,0,0,0,0,0,0,0,0,0,0,0,0,0,0,0,0,0,0,0,0,0,0,0,0,0,0,0,0,0,0,0,0,0,0,0,0,0,0,0,0,0,0,0,0,0,0,0,0,
0,0,0,0,0,0,0,0,0,0,0,0,0,0,0,0,0,0,0,2132,2133,0,0,0,0,0,0,0,0,0,0,0,2134,2135,2136,2137,0,0,0,0,0,0,0,0,0,0,0,0,0,0,0,0,0,0,0,0,0,0,0,0,0,0,0,0,0,0,0,0,0,0,0,2138,2139,0,0,0,0,0,0,0,0,0,0,0,0,0,0,0,
0,0,0,0,0,0,0,0,0,0,0,0,0,0,0,0,0,0,0,2140,2141,0,0,0,0,0,0,0,0,0,0,0,2142,2143,2144,0,0,0,0,0,0,0,0,0,0,0,0,0,0,0,0,0,0,0,0,0,0,0,0,0,0,0,0,0,0,0,0,0,0,0,0,2145,2146,0,0,0,0,0,0,0,0,0,0,0,0,0,0,0,
0,0,0,0,0,0,0,0,0,0,0,0,0,0,0,0,0,0,2147,2148,2149,0,0,0,0,0,0,0,0,0,0,0,2150,2151,2152,0,0,0,0,0,0,0,0,0,2153,2154,2155,2156,0,0,0,0,0,0,2157,2158,2159,0,0,0,0,0,0,0,0,0,0,0,0,0,2160,2161,2162,2163,2164,2165,2166,2167,2168,2169,2170,2171,2172,2173,2174,2175,2176,2177,
0,0,0,0,0,2178,2179,2180,0,0,1972,1973,2181,2182,0,0,0,0,2183,2184,2185,0,0,0,0,0,0,0,0,0,0,0,2186,2187,2188,0,0,0,0,0,2189,2190,0,0,2191,2192,2193,2194,2195,2196,2197,2198,0,0,2199,2200,2201,0,2202,2203,2204,2205,2206,2207,2208,2209,2210,2211,2212,2213,2214,2215,6858,6859,6860,6861,6862,6863,6864,6865,6826,6827,6828,6829,6830,6831,6832,6833,
0,0,0,0,0,2216,1974,1975,1976,1977,1978,1979,1980,2217,0,0,0,0,2218,2219,2220,0,0,0,0,2221,2222,2223,0,0,0,0,2224,2225,2226,0,0,2227,2228,2229,2230,2231,2232,2233,2234,2235,2236,2237,2238,6875,6876,2239,2240,0,2241,2242,2243,2244,2245,6885,6886,6887,6888,6889,2246,2247,6892,6893,6894,6895,6896,2248,2249,2250,2251,2252,2253,2254,2255,2256,2257,2258,2259,2260,2261,2262,2263,2264,
0,0,0,0,0,1981,1982,1983,5314,5315,5316,1984,1985,2265,2266,0,0,0,2267,2268,2269,0,0,0,0,2270,2271,2272,0,0,0,0,0,2273,2274,2275,2276,2277,2278,6945,6906,6907,6908,6909,6910,6911,6912,6913,2279,6915,6916,2280,2281,2282,2283,2284,6922,6923,6924,6925,2285,2286,2287,2288,2289,2290,2291,2292,2293,2294,2295,2296,0,2297,2298,2299,0,0,0,0,0,0,0,0,0,0,0,0,
2300,2301,2302,2303,2304,1986,1987,1988,1989,5355,5356,1990,1991,1992,2305,2306,2307,2308,2309,2310,2311,0,0,0,0,2312,2313,2314,2315,2316,2317,2318,2319,2320,2321,2322,6982,6983,6984,6985,6946,6947,6948,6949,6950,6951,6952,6953,2323,2324,2325,2326,2327,6959,6960,2328,2329,2330,2331,2332,2333,2334,0,0,0,0,0,0,0,0,0,0,0,2335,2336,2337,0,0,0,0,0,0,0,0,0,0,0,0,
6986,6987,6988,6989,6990,6991,6992,2338,1993,1994,1995,1996,1997,2339,2340,2341,1998,1999,7004,7005,2342,2343,2344,2345,2346,2347,2348,2349,2350,2351,7016,7017,7018,2352,7020,7021,7022,7023,7024,7025,6986,6987,6988,6989,6990,6991,6992,6993,6994,6995,6996,6997,2353,2354,2355,2356,0,0,0,0,0,0,0,0,0,0,0,0,0,0,0,0,0,0,2357,2358,0,0,0,0,0,0,0,0,0,0,0,0,
2359,2360,2361,2362,2363,2364,2365,2366,2367,7035,7036,7037,7038,7039,2368,2000,2001,1974,2369,7045,7046,7047,7048,7049,7050,1974,2370,2371,2372,2373,2374,7057,7058,7059,7060,7061,7062,7063,7064,7065,7026,7027,7028,7029,7030,7031,7032,7033,2375,2376,2377,2378,2379,0,0,0,0,0,0,0,0,0,0,0,0,0,0,0,0,0,0,0,0,0,2380,2381,0,0,0,0,0,0,0,0,0,0,0,0,
2382,0,0,0,2383,2384,2385,2386,2387,2388,2389,2390,2391,2392,2393,2002,5482,2003,2394,2395,2396,2397,2398,2399,2400,2401,2402,2403,0,2404,2405,2406,2407,2408,2409,2410,2411,2412,2413,2414,7066,7067,7068,7069,7070,2415,2416,2417,2418,0,0,0,0,0,0,0,0,0,0,0,0,0,0,0,0,0,0,0,0,0,0,0,0,0,2419,2420,0,0,0,0,0,0,0,0,0,0,0,0,
0,0,0,0,0,0,0,0,0,0,0,0,0,0,0,2004,5522,2005,0,0,0,0,0,0,0,0,0,0,0,0,0,0,0,0,0,0,0,0,0,2421,2422,2423,2424,2425,2426,2427,2428,0,0,0,0,0,0,0,0,0,0,0,0,0,0,0,0,0,0,0,0,0,0,0,0,0,0,0,2429,2430,0,0,0,0,0,0,0,0,0,0,0,0,
0,0,0,0,0,0,0,0,0,0,0,0,0,0,0,2006,5562,2007,0,0,0,0,0,0,0,0,0,0,0,0,0,0,0,0,0,0,0,0,0,0,0,0,0,0,2431,2432,2433,0,0,0,0,0,0,0,0,0,0,0,0,0,0,0,0,0,0,0,0,0,0,0,0,0,0,0,2434,2435,2436,0,0,0,0,0,0,0,0,0,0,0,
0,0,0,0,0,0,0,0,0,0,0,0,0,0,0,2008,5602,2009,0,0,0,0,0,0,0,0,0,0,0,0,0,0,0,0,0,0,0,0,0,0,0,0,0,0,2437,7191,2438,0,0,0,0,0,0,0,0,0,0,0,0,0,0,0,0,0,0,0,0,0,0,0,0,0,0,0,2439,2440,2441,0,0,0,0,0,0,0,0,0,0,0,
0,0,0,0,0,0,0,0,0,0,0,0,0,0,0,2010,5642,2011,0,0,0,0,0,0,0,0,0,0,0,0,0,0,0,0,0,0,0,0,0,0,0,0,0,0,2442,7231,2443,0,0,0,0,0,0,0,0,0,0,0,0,0,0,0,0,0,0,0,0,0,0,0,0,0,0,0,0,2444,2445,0,0,0,0,0,0,0,0,0,0,0,
0,0,0,0,0,0,0,0,0,0,0,0,0,0,0,2012,5682,2013,0,0,0,0,0,0,0,0,0,0,0,0,0,0,0,0,0,0,0,0,0,0,0,0,0,0,2446,2447,2448,0,0,0,0,0,0,0,0,0,0,0,0,0,0,0,0,0,0,0,0,0,0,0,0,0,0,0,0,0,0,0,0,0,0,0,0,0,0,0,0,0,
0,0,0,0,0,0,0,0,0,0,0,0,0,0,0,2014,2015,2016,0,0,0,0,0,0,0,0,0,0,0,0,0,0,0,0,0,0,0,0,0,0,0,0,0,0,0,2449,2450,2451,0,0,0,0,0,0,0,0,0,0,0,0,0,0,0,0,0,0,0,0,0,0,0,0,0,0,0,0,0,0,0,0,0,0,0,0,0,0,0,0,
0,0,0,0,0,0,0,0,0,0,0,0,0,0,0,2017,2018,2019,0,0,0,0,0,0,0,0,0,0,0,0,0,0,0,0,0,0,0,0,0,0,0,0,0,0,0,2452,5752,2453,0,0,0,0,0,0,0,0,0,0,0,0,0,0,0,0,0,0,0,0,0,0,0,0,0,0,0,0,0,0,0,0,0,0,0,0,0,0,0,0,
0,0,0,0,0,0,0,0,0,0,0,0,0,0,0,2020,2021,2022,0,0,0,0,0,0,0,0,0,0,0,0,0,0,0,0,0,0,0,0,2454,0,0,0,0,0,0,2455,2456,2457,0,0,0,0,0,0,0,0,0,0,0,0,0,0,0,0,0,0,0,0,0,0,0,0,0,0,0,0,0,0,0,0,0,0,0,0,0,0,0,0,
0,0,0,0,0,0,0,0,0,0,0,0,0,0,0,2023,2024,2025,0,0,0,0,0,0,0,0,0,0,0,0,0,0,0,0,0,0,0,2458,2459,2460,0,0,0,0,0,2461,2462,2463,0,0,0,0,0,0,0,0,0,0,0,0,0,0,0,0,0,0,0,0,0,0,0,0,0,0,0,0,0,0,0,0,0,0,0,0,0,0,0,0,
0,0,0,0,0,0,0,0,0,0,0,0,0,0,0,2026,2027,2028,0,0,0,0,0,0,0,0,0,0,0,0,0,0,0,0,0,0,0,2464,2465,2466,2467,2468,2469,2470,2471,2472,5872,2473,0,0,0,0,0,0,0,0,0,0,0,0,0,0,0,0,0,0,0,0,0,0,0,0,0,0,0,0,0,0,0,0,0,0,0,0,0,0,0,0,
0,0,0,0,0,0,0,0,0,0,0,0,0,0,0,2029,2030,2031,0,0,0,0,0,0,0,0,0,0,0,0,0,0,0,0,0,0,0,2474,2475,2476,2477,2478,2479,2480,2481,2482,2483,2484,0,0,0,0,0,0,0,0,0,0,0,0,0,0,0,0,0,0,0,0,0,0,0,0,0,0,0,0,0,0,0,0,0,0,0,0,0,0,0,0,
0,0,0,0,0,0,0,0,0,0,0,0,0,0,0,2032,2033,2034,0,0,0,0,0,0,0,0,0,0,0,0,0,0,0,0,0,0,0,2485,2486,2487,0,0,0,0,0,2488,2489,0,0,0,0,0,0,0,0,0,0,0,0,0,0,0,0,0,0,0,0,0,0,0,0,0,0,0,0,0,0,0,0,0,0,0,0,0,0,0,0,0,
0,0,0,0,0,0,0,0,0,0,0,0,0,0,2035,2036,2037,0,0,0,0,0,0,0,0,0,0,0,0,0,0,0,0,0,0,0,0,2490,2491,2492,0,0,0,0,0,2493,2494,0,0,0,0,0,0,0,0,0,0,0,0,0,0,0,0,0,0,0,0,0,0,0,0,0,0,0,0,0,0,0,0,0,0,0,0,0,0,0,0,0,
0,0,0,0,0,0,0,0,0,0,0,0,0,0,2038,4441,2039,0,0,0,0,0,0,0,0,0,0,0,0,0,0,0,0,0,0,0,0,2495,2496,0,0,0,0,0,0,2497,2498,0,0,0,0,0,0,0,0,0,0,0,0,0,0,0,0,0,0,0,0,0,0,0,0,0,0,0,0,0,0,0,0,0,0,0,0,0,0,0,0,0,
0,0,0,0,0,0,0,0,0,0,0,0,0,0,2040,2041,2042,0,0,0,0,0,0,0,0,0,0,0,0,0,0,0,0,0,0,0,2499,2500,2501,0,0,0,0,0,0,2502,2503,2504,0,0,0,0,0,0,0,0,0,0,0,0,0,0,0,0,0,0,0,0,0,0,0,0,0,0,0,0,0,0,0,0,0,0,0,0,0,0,0,0,
0,0,0,0,0,0,0,0,0,0,0,0,0,0,0,0,0,0,0,0,0,0,0,0,0,0,0,0,0,0,0,0,0,0,2505,2506,2507,2508,0,0,0,0,0,0,0,2509,6112,2510,0,0,0,0,0,0,0,0,0,0,0,0,0,0,0,0,0,0,0,0,0,0,0,0,0,0,0,0,0,0,0,0,0,0,0,0,0,0,0,0,
0,0,0,0,0,0,0,0,0,0,0,0,0,0,0,0,0,0,0,0,0,0,0,0,0,0,0,0,0,0,0,0,0,0,2511,2512,2513,0,0,0,0,0,0,0,0,2514,6152,2515,0,0,0,0,0,0,0,0,0,0,0,0,0,0,0,0,0,0,0,0,0,0,0,0,0,0,0,0,0,0,0,0,0,0,0,0,0,0,0,0,
0,0,0,0,0,0,0,0,0,0,0,0,2043,0,0,0,0,0,0,0,0,0,0,0,0,0,0,0,0,0,0,0,0,0,0,0,0,0,0,0,0,0,0,0,0,2516,2517,2518,0,0,0,0,0,0,0,0,0,0,0,0,0,0,0,0,0,0,0,0,0,0,0,0,0,0,0,0,0,0,0,0,0,0,0,0,0,0,0,0,
0,0,0,0,0,0,0,0,0,0,2044,2045,2046,2047,0,0,0,0,0,0,0,0,0,0,0,0,0,0,0,0,0,0,0,0,0,0,0,0,0,0,0,0,0,0,0,0,2519,2520,0,0,0,0,0,0,0,0,0,0,0,0,0,0,0,0,0,0,0,0,0,0,0,0,0,0,0,0,0,0,0,0,0,0,0,0,0,0,0,0,
0,0,0,0,0,0,0,0,0,2048,2049,4677,4678,2050,2051,0,0,0,0,0,0,0,0,0,0,0,0,0,0,0,0,0,0,0,0,0,0,0,0,0,0,0,0,0,0,2521,2522,2523,0,0,0,0,0,0,0,0,0,0,0,0,0,0,0,0,0,0,0,0,0,0,0,0,0,0,0,0,0,0,0,0,0,0,0,0,0,0,0,0,
0,0,0,0,0,0,0,0,2052,2053,4716,2054,4718,2055,2056,0,0,0,0,0,0,0,0,0,0,0,0,0,0,0,0,0,0,0,0,0,0,0,0,0,0,0,0,0,0,2524,6312,2525,0,0,0,0,0,0,0,0,0,0,0,0,0,0,0,0,0,0,0,0,0,0,0,0,0,0,0,0,0,0,0,0,0,0,0,0,0,0,0,0,
0,0,0,0,0,0,0,0,0,2057,2058,2059,2060,2061,2062,0,0,0,0,0,0,0,0,0,0,0,0,0,0,0,0,0,0,0,0,0,0,0,0,0,0,0,0,0,0,2526,2527,2528,0,0,0,0,0,0,0,0,0,0,0,0,0,0,0,0,0,0,0,0,0,0,0,0,0,0,0,0,0,0,0,0,0,0,0,0,0,0,0,0,
0,0,0,0,0,0,0,0,0,0,0,0,0,0,0,0,0,0,0,0,0,0,0,0,0,0,0,0,0,0,0,0,0,0,0,0,0,0,0,0,0,0,0,0,0,2529,2530,0,0,0,0,0,0,0,0,0,0,0,0,0,0,0,0,0,0,0,0,0,0,0,0,0,0,0,0,0,0,0,0,0,0,0,0,0,0,0,0,0,
0,0,0,0,0,0,0,0,0,0,0,0,0,0,0,0,0,0,0,0,0,0,0,0,0,0,0,0,0,0,0,0,0,0,0,0,0,0,0,0,0,0,0,0,0,2531,2532,0,0,0,0,0,0,0,0,0,0,0,0,0,0,0,0,0,0,0,0,0,0,0,0,0,0,0,0,0,0,0,0,0,0,0,0,0,0,0,0,0,
0,0,0,0,0,0,0,0,0,0,0,0,0,0,0,0,0,0,0,0,0,0,0,0,0,0,0,0,0,0,0,0,0,0,0,0,0,0,0,0,0,0,0,0,0,2533,2534,0,0,0,0,0,0,0,0,0,0,0,0,0,0,0,0,0,0,0,0,0,0,0,0,0,0,0,0,0,0,0,0,0,0,0,0,0,0,0,0,0,
0,0,0,0,0,0,0,0,0,0,0,0,0,0,0,0,0,0,0,0,0,0,0,0,0,0,0,0,0,0,0,0,0,0,0,0,0,0,0,0,0,0,0,0,0,2535,2536,0,0,0,0,0,0,0,0,0,0,0,0,0,0,0,0,0,0,0,0,0,0,0,0,0,0,0,0,0,0,0,0,0,0,0,0,0,0,0,0,0,
0,0,0,0,0,0,0,0,0,0,0,0,0,0,0,0,0,0,0,0,0,0,0,0,0,0,0,0,0,0,0,0,0,0,0,0,0,0,0,0,0,0,0,0,0,2537,2538,0,0,0,0,0,0,0,0,0,0,0,0,0,0,0,0,0,0,0,0,0,0,0,0,0,0,0,0,0,0,0,0,0,0,0,0,0,0,0,0,0,
0,0,0,0,0,0,0,0,0,0,0,0,0,0,0,0,0,0,0,0,0,0,0,0,0,0,0,0,0,0,0,0,0,0,0,0,0,0,0,0,0,0,0,0,0,2539,2540,2541,0,0,0,0,0,0,0,0,0,0,0,0,0,0,0,0,0,0,0,0,0,0,0,0,0,0,0,0,0,0,0,0,0,0,0,0,0,0,0,0,
0,0,0,0,0,0,0,0,0,0,0,0,0,0,0,0,0,0,0,0,0,0,0,0,0,0,0,0,0,0,0,0,0,0,0,0,0,0,0,0,0,0,0,0,0,2542,6632,2543,0,0,0,0,0,0,0,0,0,0,0,0,0,0,0,0,0,0,0,0,0,0,0,0,0,0,0,0,0,0,0,0,0,0,0,0,0,0,0,0,
0,0,0,0,0,0,0,0,0,0,0,0,0,0,0,0,0,0,0,0,0,0,0,0,0,0,0,0,0,0,0,0,0,0,0,0,0,0,0,0,0,0,0,0,0,2544,6672,2545,0,0,0,0,0,0,0,0,0,0,0,0,0,0,0,0,0,0,0,0,0,0,0,0,0,0,0,0,0,0,0,0,0,0,0,0,0,0,0,0
</data>
 </layer>
 <layer id="4" name="Decor" width="88" height="64">
  <data encoding="csv">
0,0,0,9099,0,0,9128,0,0,0,0,0,0,0,0,0,0,0,0,0,9091,0,9119,0,0,0,0,0,0,0,0,0,0,0,0,0,0,0,0,0,0,0,0,9090,9119,0,0,0,0,0,0,0,0,0,0,0,0,0,0,0,0,0,9119,9090,0,0,0,0,0,0,0,0,0,0,0,0,0,0,9152,0,0,0,0,0,0,0,0,0,
0,9119,0,0,9152,0,0,0,0,0,0,0,0,0,0,9119,0,0,0,0,9091,0,0,0,0,0,0,0,0,0,0,0,0,0,0,0,0,0,0,0,0,0,0,0,0,0,0,0,0,0,0,0,0,0,0,0,0,0,0,0,0,0,9089,0,0,0,0,0,0,0,0,0,0,0,0,0,0,0,0,0,0,0,0,0,0,0,0,0,
0,0,0,0,0,0,0,0,0,0,0,0,0,0,0,0,0,0,0,0,0,0,0,0,0,0,0,0,0,0,0,0,0,0,0,0,0,0,0,0,9090,0,0,0,0,0,0,0,0,0,0,0,0,0,9089,0,0,0,0,0,0,0,0,9112,0,0,0,0,0,0,0,0,9096,9099,0,0,0,0,0,0,0,0,0,0,0,0,0,0,
0,0,0,0,0,0,0,0,0,0,0,0,0,0,9090,0,0,0,0,0,0,0,0,0,0,0,0,0,0,0,0,0,0,9093,0,0,0,0,0,0,0,0,0,0,0,0,0,0,0,0,0,0,0,0,9094,9092,0,0,0,0,9119,0,0,0,0,0,0,0,0,0,0,9099,0,0,0,0,0,0,0,0,0,0,0,0,0,0,0,9099,
0,0,0,0,0,0,0,0,0,0,0,0,0,0,0,0,0,0,0,0,0,0,0,0,0,0,0,0,0,0,0,0,0,0,0,9099,0,0,0,0,9096,0,0,0,0,0,0,0,0,0,0,0,0,0,9092,0,0,0,0,9091,0,0,0,0,0,0,0,0,0,0,0,0,0,0,0,0,0,0,0,0,0,0,0,0,0,0,0,0,
0,0,0,0,9092,0,0,0,0,0,0,0,0,0,0,0,0,0,0,0,0,0,0,0,0,0,0,0,0,0,0,0,0,0,0,0,0,0,0,0,0,0,0,0,0,0,0,0,9112,0,0,0,0,0,0,0,0,0,0,0,0,0,0,0,0,0,0,0,0,0,0,0,0,0,0,0,0,0,0,0,0,0,0,0,0,0,0,0,
0,0,9152,0,0,0,0,0,0,0,0,0,0,0,0,0,0,9099,0,0,0,0,0,0,0,0,0,0,0,0,0,0,0,0,0,0,0,0,0,0,0,0,9152,0,0,0,0,0,0,0,0,0,0,0,0,9107,0,0,9089,9091,0,0,0,0,0,0,0,0,0,0,0,0,9112,0,0,0,0,0,0,0,0,0,0,0,0,0,0,0,
0,0,0,0,0,0,0,0,0,0,0,0,0,0,0,0,0,0,0,0,0,9099,0,0,0,0,0,0,9096,0,0,0,0,0,0,0,0,9091,0,0,0,0,0,0,0,0,0,0,0,0,0,9107,0,0,9096,0,0,0,0,0,0,0,0,9152,0,0,0,0,0,0,0,0,0,0,0,0,0,0,0,0,0,0,0,0,0,0,0,0,
0,0,0,0,0,0,0,0,0,0,0,0,0,0,0,9099,9090,0,0,0,0,0,0,0,0,9099,0,0,0,0,0,0,0,0,0,0,0,0,0,9119,0,0,0,0,0,0,0,9152,0,0,0,0,0,0,0,0,0,0,0,0,0,0,9128,0,0,0,0,0,0,0,0,0,0,0,0,0,0,0,0,9107,0,0,0,0,0,0,9128,0,
0,0,0,0,0,0,0,0,0,0,0,0,0,0,0,0,0,0,0,0,9092,0,0,0,0,9090,0,0,0,0,0,0,0,0,0,0,0,0,0,0,0,0,0,9152,0,0,0,9089,0,0,0,0,0,0,9092,0,0,0,0,0,0,0,0,0,0,0,0,0,0,0,0,0,0,0,0,0,0,0,0,0,0,0,0,0,0,0,0,0,
0,0,0,0,0,0,0,0,0,0,0,0,0,0,0,0,9092,0,0,0,0,0,0,0,0,0,0,0,0,0,0,0,0,0,0,0,0,0,0,0,0,0,0,9096,0,0,0,0,0,0,0,9152,0,0,0,0,0,0,0,0,9152,0,0,0,0,0,0,0,0,0,0,0,0,9091,0,0,0,9112,0,0,0,0,0,0,0,0,0,0,
0,0,0,0,9128,0,0,0,0,0,0,0,0,0,0,0,0,0,9090,0,0,0,0,0,0,0,0,0,0,0,0,0,0,0,0,0,0,0,0,0,0,0,0,0,0,0,0,0,0,0,9112,0,0,0,0,0,0,0,0,0,0,0,0,0,0,0,0,0,0,0,0,0,0,0,0,0,9089,0,9096,0,0,0,0,0,0,0,0,0,
0,0,9089,0,0,0,0,0,0,0,0,0,0,0,0,0,0,0,0,0,0,0,0,0,0,0,0,0,0,0,0,0,0,0,0,0,9107,9128,0,0,0,0,9099,0,0,0,0,0,0,0,0,0,0,9128,0,0,0,0,0,0,0,0,0,0,0,0,0,0,0,0,0,0,0,9094,0,0,9152,0,0,9152,0,0,0,0,0,0,0,0,
0,0,0,9092,0,0,0,0,0,0,0,0,0,0,0,0,0,0,9090,0,0,0,0,0,0,0,0,0,0,0,0,0,0,0,0,0,0,0,0,0,0,0,0,0,0,0,9099,0,0,0,0,0,0,0,0,9119,0,0,0,0,0,0,0,0,0,9099,0,0,0,0,0,0,0,0,0,0,0,0,0,0,0,0,0,0,0,0,0,0,
9091,0,0,0,0,0,0,0,0,0,0,0,0,0,0,0,0,0,0,0,0,9090,0,0,0,0,0,0,0,0,0,0,0,0,0,0,0,0,0,0,0,0,0,0,0,0,0,0,0,0,0,0,0,0,0,0,0,0,0,0,0,9089,0,0,0,0,0,0,0,0,0,0,0,0,0,0,0,0,0,0,0,0,0,0,0,0,0,0,
0,0,0,0,0,0,0,0,0,0,0,0,0,0,0,0,0,0,9152,0,0,0,0,0,0,0,0,0,0,0,0,0,0,0,0,0,0,0,0,0,0,0,0,0,0,0,0,0,0,0,0,0,0,0,0,0,9152,0,0,0,0,0,0,0,0,0,0,0,0,0,0,0,0,0,0,0,0,0,0,0,0,0,0,0,0,0,0,9128,
0,0,0,0,0,0,0,0,0,0,0,0,0,0,0,0,0,0,0,0,0,0,0,0,0,0,0,0,0,0,0,0,0,0,0,0,0,0,0,0,0,0,0,0,9107,0,0,0,0,0,0,0,0,0,0,0,0,0,9092,0,0,0,0,0,0,0,0,0,0,0,0,0,0,0,0,0,0,0,0,0,0,0,0,0,0,0,0,0,
0,0,0,0,0,0,0,0,0,0,0,0,0,0,0,0,0,0,0,0,0,0,0,0,0,0,0,0,0,0,0,0,0,0,0,0,9119,0,0,0,0,0,9096,0,0,0,0,0,0,0,0,0,9112,0,0,0,0,0,0,0,0,0,0,0,0,0,0,0,0,0,0,0,0,0,0,0,0,0,0,0,0,0,0,0,0,0,0,9090,
0,9089,0,0,0,0,0,0,0,0,0,0,0,0,0,0,0,0,0,0,0,0,0,9152,0,0,0,0,0,0,0,0,0,0,0,9089,0,0,0,0,0,0,0,9091,0,0,0,9099,0,0,0,0,0,9094,0,0,0,0,0,0,9090,0,0,0,0,0,0,0,0,0,9112,0,0,0,0,0,0,0,0,0,0,0,0,0,0,0,0,0,
0,0,0,0,0,0,0,0,0,0,0,0,0,0,0,0,0,9099,0,0,0,0,0,0,0,0,0,0,0,0,0,0,0,0,9093,0,0,0,0,0,0,0,0,0,0,0,0,0,0,0,0,0,0,0,0,0,9112,0,0,0,0,0,0,0,0,0,0,0,0,9112,0,0,0,0,0,0,0,9094,0,0,0,0,0,0,9094,0,0,0,
0,0,0,0,0,0,0,0,0,0,0,0,0,0,0,0,0,0,0,0,0,0,0,0,0,0,0,0,0,0,0,0,0,0,0,0,0,0,0,0,0,0,0,0,0,0,0,0,0,0,0,0,0,0,0,0,0,0,0,0,0,0,0,0,0,0,0,0,0,0,0,0,0,0,0,0,0,0,0,0,0,0,0,0,0,0,0,0,
0,0,9112,0,0,0,0,0,0,0,0,0,9094,0,0,9119,0,0,0,0,0,0,0,0,0,0,0,0,0,0,0,0,0,0,0,0,0,0,0,0,0,0,0,0,0,0,0,0,0,0,0,0,0,0,0,0,0,0,0,0,0,0,0,0,0,0,0,0,0,0,0,0,0,9091,0,0,9092,0,0,0,0,0,0,0,0,0,0,9112,
0,0,0,0,0,0,0,9128,0,0,0,0,0,9128,9152,0,0,9094,9091,9096,0,0,0,0,0,0,0,0,0,0,0,0,0,0,0,0,0,0,0,0,0,0,0,0,0,0,0,0,0,0,0,0,0,0,0,0,0,0,0,0,0,0,0,0,0,0,0,0,0,0,0,0,0,0,9096,0,0,0,0,0,0,9107,9094,0,9152,0,0,0,
0,0,0,0,0,0,0,0,0,0,0,0,0,0,9091,0,0,0,0,0,0,0,0,0,9119,0,0,0,0,0,0,0,0,0,0,0,9094,0,0,0,0,0,0,0,0,0,0,0,0,0,0,0,0,0,0,0,9089,0,0,0,0,0,0,0,0,0,0,0,0,0,0,0,0,0,0,0,0,0,9099,0,0,0,0,0,0,0,0,0,
0,0,0,0,0,0,0,0,0,0,0,0,0,0,0,0,0,0,0,0,0,9152,0,0,0,0,0,0,0,0,0,0,0,0,0,0,0,0,0,0,0,0,0,0,0,0,0,0,0,0,0,0,0,0,0,0,0,0,0,0,0,0,0,0,0,0,0,0,0,0,0,0,0,0,0,0,0,0,0,0,0,0,0,0,0,0,9094,0,
0,0,0,0,0,0,0,0,0,0,0,0,0,0,0,0,0,0,0,0,0,0,0,0,0,0,0,0,0,0,0,0,0,0,0,0,0,0,0,0,0,0,0,0,0,0,0,0,0,0,0,0,0,0,0,0,0,0,0,0,0,0,0,0,0,0,0,0,0,0,0,0,0,0,0,0,9094,0,0,0,9099,0,0,0,0,0,0,0,
0,0,0,0,0,0,0,0,0,0,0,0,0,0,0,0,0,0,0,0,0,0,0,0,0,0,0,0,0,0,9091,0,0,0,0,0,0,0,0,0,0,0,0,0,0,0,0,0,0,0,0,0,0,0,0,0,0,0,0,0,0,0,0,0,0,0,0,0,0,0,0,0,0,0,0,0,0,0,0,0,0,9152,0,0,0,0,0,0,
0,0,0,0,0,0,0,0,0,0,0,0,0,0,0,0,0,0,0,0,0,0,0,0,0,0,0,0,0,0,0,0,0,0,0,0,0,0,0,0,0,0,0,0,0,0,0,0,0,0,0,0,0,0,0,0,0,0,0,0,0,0,0,9052,9053,9054,9055,0,0,0,0,0,0,0,0,0,0,0,0,0,0,0,0,0,0,0,0,0,
0,0,0,0,0,0,0,0,0,0,0,0,0,0,0,0,0,0,0,0,0,0,0,0,0,0,0,0,0,0,0,0,0,0,0,0,0,0,0,0,0,0,0,0,0,0,0,0,0,0,0,0,0,0,0,0,0,0,0,0,0,0,0,9056,9057,9058,9059,0,0,0,0,0,0,0,0,0,0,0,0,0,0,0,0,0,0,0,0,0,
0,9128,0,9096,0,0,0,0,0,0,0,0,0,0,0,0,9090,0,0,0,0,0,0,0,0,0,0,0,0,9096,0,0,0,0,0,0,0,0,0,0,0,0,0,0,0,0,0,0,0,0,0,9096,0,9096,9093,0,0,0,9152,0,0,0,0,9060,9061,9062,9063,0,0,0,0,0,0,0,9152,0,0,0,0,9112,9090,0,0,0,0,0,0,0,
0,0,0,0,0,0,0,0,0,0,0,0,0,0,0,9092,0,0,0,0,0,0,0,0,0,0,0,0,0,0,0,0,0,0,0,0,0,0,0,0,0,0,0,0,0,0,0,0,0,0,0,0,0,0,9096,0,0,0,0,0,0,0,0,0,0,0,0,0,0,0,0,0,0,0,0,0,9152,0,0,0,0,0,0,0,0,0,0,0,
0,0,0,0,0,0,0,0,0,0,0,0,0,0,0,0,0,0,0,0,0,0,0,0,0,9096,0,0,0,0,0,0,0,0,0,0,0,0,0,0,0,0,0,0,0,0,0,0,0,0,0,0,0,0,0,0,0,0,0,0,0,0,0,0,0,0,0,0,0,0,0,0,0,0,0,0,0,0,0,0,0,0,0,0,0,0,0,0,
0,0,0,0,0,0,0,0,0,0,0,0,0,0,0,0,0,0,0,0,0,0,0,0,0,0,0,0,0,0,0,0,0,0,0,0,0,0,0,0,0,0,0,0,0,9096,9152,0,0,0,0,0,0,0,0,0,0,0,0,9107,0,0,0,0,0,0,0,9099,0,0,0,0,0,0,0,0,0,0,0,0,0,0,0,0,0,0,9119,0,
0,0,0,9090,0,0,0,0,0,0,0,0,0,0,0,0,0,0,0,0,0,0,0,0,0,0,0,0,0,0,0,0,0,0,0,0,0,0,0,0,0,0,0,0,0,9152,0,0,0,0,0,0,0,9089,0,0,0,0,0,0,0,0,0,0,0,0,0,0,0,0,0,0,0,0,0,0,0,0,0,0,0,0,0,0,9090,0,0,0,
9089,9099,0,0,0,0,0,0,0,0,0,0,0,0,0,0,0,0,0,0,0,0,0,0,0,0,0,0,0,0,0,0,0,0,0,0,0,0,0,0,0,0,0,0,0,0,0,0,0,0,0,0,0,0,0,0,0,0,0,0,0,0,0,0,0,0,0,9099,0,0,0,0,0,9099,0,0,9099,0,0,0,0,0,0,0,0,0,0,0,
0,0,0,0,0,0,0,0,0,0,0,0,0,0,0,0,0,0,0,0,0,0,0,0,0,0,0,0,0,0,0,0,0,0,0,0,0,0,0,0,0,0,9094,0,0,0,0,0,0,0,0,0,0,0,0,0,9119,0,0,0,9090,0,0,0,0,0,0,0,0,0,0,0,0,0,0,0,0,0,0,0,0,0,0,0,0,0,0,0,
0,0,0,0,0,0,0,0,0,0,0,0,0,0,0,0,0,0,0,0,0,0,0,0,0,0,0,0,0,0,0,0,0,0,0,0,0,0,0,0,0,0,0,0,0,0,0,0,0,0,0,0,0,0,0,0,0,0,9094,0,0,0,0,0,0,0,0,9094,0,0,0,0,9092,0,0,0,0,0,0,0,0,0,0,9119,0,0,0,0,
0,0,0,0,0,0,0,0,0,0,0,0,0,0,0,0,0,0,0,0,0,0,0,0,0,0,0,0,0,0,0,0,0,0,0,0,9119,0,0,0,0,0,0,0,0,0,0,0,0,0,0,0,0,0,0,0,0,0,0,0,0,0,0,0,0,0,0,0,0,0,0,0,9091,0,0,0,0,0,0,0,9152,0,0,0,0,0,0,0,
0,0,0,0,0,0,0,0,0,0,0,0,0,0,0,0,0,0,0,0,0,0,0,0,0,0,0,0,0,0,0,0,0,0,0,0,0,0,0,0,0,0,0,0,0,0,0,0,0,0,0,0,0,0,0,0,0,0,0,0,0,0,0,0,0,0,0,0,0,0,9094,9099,9091,0,0,0,0,0,0,0,0,0,0,0,0,0,0,0,
0,9090,0,0,0,0,0,0,0,0,0,0,0,0,0,0,0,0,0,0,0,0,0,0,0,0,0,0,9107,0,0,0,0,0,0,0,0,0,0,0,0,0,0,0,0,0,0,0,0,0,0,0,0,0,0,0,0,0,0,0,0,0,0,0,0,0,9089,0,0,0,0,0,0,0,0,0,0,0,0,0,0,0,0,0,0,9152,0,0,
0,0,0,0,0,0,0,0,0,0,0,0,0,0,0,9099,0,0,0,0,0,0,0,0,0,0,0,0,0,0,0,0,0,0,0,0,0,0,0,0,0,0,0,0,0,9093,0,0,0,0,0,0,0,0,0,0,0,0,0,0,0,0,0,0,0,9090,0,0,0,0,0,0,0,0,0,0,0,0,0,9090,0,0,0,0,0,0,9091,0,
9112,0,0,0,0,0,0,0,0,0,0,0,0,0,0,0,0,0,0,0,0,0,0,0,0,0,0,0,0,0,0,0,0,0,0,0,0,0,0,0,0,0,0,9094,0,0,0,9096,0,0,0,0,0,0,0,0,0,0,0,0,0,0,0,0,0,0,0,0,0,0,0,0,0,0,0,0,0,0,0,0,0,0,0,0,9128,0,0,0,
9119,0,0,0,0,0,0,0,0,9090,0,0,0,0,9091,0,0,0,9092,0,0,0,0,0,0,0,0,0,0,0,0,0,0,9107,0,0,0,0,0,0,0,0,0,0,0,0,0,0,0,0,0,0,0,0,0,0,0,0,0,0,0,0,0,0,0,0,0,0,9094,0,0,0,0,0,0,0,0,0,0,0,0,0,0,0,0,0,9112,0,
9096,0,0,0,0,0,0,0,0,0,0,0,0,0,0,0,0,0,0,0,0,0,0,0,0,9099,9096,0,0,9089,0,0,0,0,0,0,0,0,0,0,0,0,0,0,0,0,0,0,0,0,0,0,0,0,9119,0,0,0,9096,0,0,0,0,0,0,0,0,0,0,0,0,0,0,0,0,0,0,0,0,0,0,0,0,0,0,0,0,0,
0,0,0,0,0,0,0,0,0,0,0,0,0,0,0,0,0,0,0,0,0,0,0,0,0,0,0,0,0,0,0,0,0,0,0,0,0,0,0,0,0,0,0,0,0,0,0,0,9091,0,0,0,9112,0,0,0,9094,0,0,0,0,0,0,0,9089,0,0,9112,0,0,0,0,0,0,0,0,0,0,0,0,0,0,0,0,9089,0,0,0,
0,0,0,9128,0,0,0,0,0,0,0,0,0,0,0,0,0,0,0,0,0,9089,0,0,0,0,0,0,0,0,0,0,0,0,0,0,0,0,0,0,0,0,0,0,0,0,0,0,0,0,0,0,0,0,0,0,0,0,0,0,0,0,0,0,0,0,0,0,0,0,0,0,0,0,0,0,0,0,0,0,0,0,0,0,0,0,0,0,
9094,0,9128,0,0,0,0,0,0,0,0,0,0,0,0,0,0,0,0,0,0,0,0,0,0,0,0,0,0,0,0,0,9089,0,0,0,0,0,0,0,0,0,0,0,0,0,0,0,0,0,0,0,0,0,0,0,0,9119,0,0,0,0,0,0,0,0,0,0,0,0,0,0,0,0,0,0,0,0,0,0,0,0,0,0,0,0,0,0,
0,0,0,0,0,0,0,0,0,0,0,0,0,9091,0,0,0,0,0,9091,9128,0,0,0,0,0,0,0,0,9107,9128,0,0,0,0,0,0,0,0,9112,0,0,0,0,0,0,0,0,0,0,0,0,0,0,0,0,9090,0,0,0,0,0,0,0,0,0,0,0,0,0,0,0,0,0,0,0,0,0,0,0,0,0,0,0,0,0,0,0,
0,0,0,0,0,0,0,0,0,0,0,0,0,0,0,0,0,0,0,0,0,9107,0,0,0,0,0,0,0,0,0,0,0,9112,9099,0,0,0,0,0,0,0,0,0,0,0,0,0,0,0,0,0,0,0,0,0,0,0,0,0,0,0,0,0,0,0,0,0,0,0,0,0,0,0,0,0,0,0,0,9090,0,0,0,0,0,0,0,0,
0,0,9119,0,0,0,0,0,0,0,0,0,0,0,0,0,0,0,0,0,0,9128,0,0,0,0,0,0,0,0,0,0,0,0,9112,0,0,0,0,0,0,0,0,0,0,9152,0,0,0,9128,0,0,0,0,0,0,0,0,0,0,0,0,0,0,0,0,0,9094,0,0,0,0,0,0,0,0,0,0,0,0,0,0,0,0,0,0,0,0,
0,0,0,9096,0,9095,0,0,0,0,0,0,9095,0,0,0,0,0,0,0,0,0,0,0,0,0,0,9150,0,9099,0,0,0,0,9119,0,0,0,0,0,0,0,0,0,0,0,0,0,0,0,0,0,0,0,0,0,0,0,0,0,0,0,0,0,0,0,0,0,0,0,0,0,0,9099,0,0,0,0,0,0,0,0,0,0,0,0,0,9128,
0,0,9095,0,0,0,0,0,0,0,0,0,0,0,0,0,0,0,0,0,0,0,0,0,0,9092,0,0,0,9099,0,0,0,9089,0,9150,0,0,0,0,0,0,0,9094,0,0,0,9093,0,0,0,0,0,0,0,0,0,0,0,0,0,0,0,0,0,0,0,0,0,0,0,0,9096,0,0,0,0,0,0,0,0,0,0,0,0,0,0,0,
0,0,0,0,0,0,0,0,0,0,0,0,0,0,0,0,0,9152,0,0,0,0,0,0,0,0,9119,0,0,0,0,0,0,0,0,0,0,0,0,0,0,0,0,0,0,0,0,0,0,0,0,0,0,0,9099,0,0,0,0,0,0,0,0,0,0,0,0,9128,0,0,0,0,0,0,0,0,0,0,0,0,0,0,0,0,0,0,0,0,
0,0,0,0,0,0,0,0,0,0,0,0,0,0,0,0,0,0,0,0,0,0,0,0,0,0,0,0,0,0,0,0,0,0,0,9119,0,9092,0,0,0,0,0,0,0,0,0,9152,0,0,0,0,0,0,0,0,9152,0,0,0,0,0,0,0,9152,9091,0,0,0,0,0,0,0,9107,0,0,0,0,0,0,0,0,0,0,0,0,0,0,
0,9099,0,0,0,9096,0,0,0,0,0,0,0,0,0,0,0,0,0,9091,0,0,0,9119,0,0,9099,0,0,0,0,9119,9128,0,0,0,0,9099,0,0,0,0,0,0,0,0,0,0,0,0,0,0,0,0,0,0,0,0,0,0,0,0,0,0,0,0,0,0,0,0,0,0,0,0,0,9107,0,0,0,0,0,0,0,0,0,0,0,0,
0,0,0,0,0,0,0,9091,9096,0,9095,9152,0,0,0,9096,0,0,0,0,0,0,0,0,9092,0,0,0,0,9089,0,0,0,0,0,0,0,0,0,0,0,0,0,0,0,0,0,0,0,0,0,0,0,0,0,0,0,0,0,0,0,0,0,0,0,0,0,0,0,0,0,0,0,0,0,0,0,0,0,0,0,0,0,0,0,0,0,0,
9107,0,0,0,0,0,0,0,0,0,0,0,0,0,0,0,0,0,0,0,0,0,0,0,0,0,9112,0,9128,0,9128,0,9107,0,0,0,0,0,0,0,0,0,0,0,0,0,0,0,0,0,0,0,0,0,9092,0,0,0,0,0,0,0,0,0,0,0,0,0,0,0,9096,0,0,9089,0,0,0,0,0,0,0,0,0,0,0,0,0,0,
0,0,0,0,0,0,0,9091,0,0,0,0,0,0,0,9095,9152,0,0,0,0,0,0,9089,0,0,0,0,9128,0,0,9119,9089,9119,0,0,9128,9112,0,0,0,0,0,0,0,0,0,0,0,0,0,0,9096,0,0,9128,0,0,0,0,0,0,0,0,0,0,0,0,0,0,0,0,0,0,0,0,0,0,0,0,0,0,0,0,9119,0,9119,0,
0,0,9091,0,0,0,9091,9091,0,0,0,0,0,0,0,0,0,0,0,9096,0,0,0,0,0,0,0,0,0,9150,9092,0,9099,9119,0,0,0,0,0,9099,0,0,0,0,0,0,0,0,0,0,0,0,0,0,0,0,0,0,0,0,0,0,0,0,0,9128,0,0,0,0,0,0,0,0,0,0,0,0,0,0,0,0,0,0,0,0,0,0,
0,0,0,0,0,0,9095,0,9091,9152,0,0,9096,0,0,0,0,9095,0,9152,0,0,0,0,0,9128,0,0,0,0,0,0,0,0,0,0,0,9094,0,0,0,0,0,0,0,0,0,9096,0,0,0,0,0,0,0,0,9128,0,0,0,0,0,0,0,0,0,0,0,9107,9096,0,0,0,0,0,0,0,0,0,0,0,0,0,0,0,0,0,0,
0,0,0,0,0,0,0,0,0,0,0,0,0,0,0,0,0,0,9095,0,0,0,0,0,0,9099,9090,9092,0,0,9119,9112,0,0,9092,0,0,9128,0,9090,0,0,0,0,0,0,0,9090,0,0,0,0,0,0,0,0,0,0,0,0,0,0,0,9128,0,0,0,0,0,0,0,0,0,0,0,0,0,0,0,0,0,0,0,0,0,9112,0,0,
0,0,0,0,0,0,0,0,0,0,0,0,0,0,0,0,0,0,0,0,0,0,0,0,0,0,0,0,0,0,0,0,0,0,0,0,0,0,0,0,0,0,9107,0,0,0,0,0,0,0,0,0,0,0,0,9090,0,0,0,0,0,0,0,0,0,0,0,0,0,0,0,0,0,0,0,0,0,0,0,0,0,0,9128,0,0,0,0,0,
0,0,9092,0,0,0,0,9152,0,0,0,0,0,0,0,0,0,0,9112,0,0,0,0,0,0,0,0,0,0,0,0,0,0,0,0,9090,0,0,9112,0,9092,0,0,9107,0,0,0,0,0,0,0,0,0,0,0,9128,0,0,0,0,0,0,0,0,0,0,0,0,0,9092,0,0,0,0,0,0,0,0,0,0,0,0,0,0,0,0,0,0,
0,0,0,9112,0,0,0,0,0,0,0,0,0,0,0,0,0,0,0,0,0,0,0,0,0,0,0,0,0,0,0,0,0,0,0,0,0,0,0,0,0,0,9091,0,0,9096,0,0,0,0,0,0,0,0,0,0,0,0,0,0,0,0,0,0,0,0,0,0,0,0,0,9096,0,0,0,0,0,9107,0,0,0,0,0,0,0,0,0,0
</data>
 </layer>
 <layer id="5" name="Dynamic" width="88" height="64">
  <data encoding="csv">
0,0,0,0,0,0,0,0,0,0,0,0,0,0,0,0,0,0,0,0,0,0,0,0,0,0,0,0,0,0,0,0,0,0,0,0,0,0,0,0,0,0,0,0,0,0,0,0,0,0,0,0,0,0,0,0,0,0,0,0,0,0,0,0,0,0,0,0,0,0,0,0,0,0,0,0,0,0,0,0,0,0,0,0,0,0,0,0,
0,0,0,0,0,0,0,0,0,0,0,0,0,0,0,0,0,0,0,0,0,0,0,0,0,0,0,0,0,0,0,0,0,0,0,0,0,0,0,0,0,0,0,0,0,0,0,0,0,0,0,0,0,0,0,0,0,0,0,0,0,0,0,0,0,0,0,0,0,0,0,0,0,0,0,0,0,0,0,0,0,0,0,0,0,0,0,0,
0,0,0,0,0,0,0,0,0,0,0,0,0,0,0,0,0,0,0,0,0,0,0,0,0,0,0,0,0,0,0,0,0,0,0,0,0,0,0,0,0,0,0,0,0,0,0,0,0,0,0,0,0,0,0,0,0,0,0,0,0,0,0,0,0,0,0,0,0,0,0,0,0,0,0,0,0,0,0,0,0,0,0,0,0,0,0,0,
0,0,0,0,0,0,0,0,0,0,0,0,0,0,0,0,0,0,0,0,0,0,0,0,0,0,0,0,0,0,0,0,0,0,0,0,0,0,0,0,0,0,0,0,0,0,0,0,0,0,0,0,0,0,0,0,0,0,0,0,0,0,0,0,0,0,0,0,0,0,0,0,0,0,0,0,0,0,0,0,0,0,0,0,0,0,0,0,
0,0,0,0,0,0,0,0,0,0,0,0,0,0,0,0,0,0,0,0,0,0,0,0,0,0,0,0,0,0,0,0,0,0,0,0,0,0,0,0,0,0,0,0,0,0,0,0,0,0,0,0,0,0,0,0,0,0,0,0,0,0,0,0,0,0,0,0,0,0,0,0,0,0,0,0,0,0,0,0,0,0,0,0,0,0,0,0,
0,0,0,0,0,0,0,0,0,0,0,0,0,0,0,0,0,0,0,0,0,0,0,0,0,0,0,0,0,0,0,0,0,0,0,0,0,0,0,0,0,0,0,0,0,0,0,0,0,0,0,0,0,0,0,0,0,0,0,0,0,0,0,0,0,0,0,0,0,0,0,0,0,0,0,0,0,0,0,0,0,0,0,0,0,0,0,0,
0,0,0,0,0,0,0,0,0,0,0,0,0,0,0,0,0,0,0,0,0,0,0,0,0,0,0,0,0,0,0,0,0,0,0,0,0,0,0,0,0,0,0,0,0,0,0,0,0,0,0,0,0,0,0,0,0,0,0,0,0,0,0,0,0,0,0,0,0,0,0,0,0,0,0,0,0,0,0,0,0,0,0,0,0,0,0,0,
0,0,0,0,0,0,0,0,0,0,0,0,0,0,0,0,0,0,0,0,0,0,0,0,0,0,0,0,0,0,0,0,0,0,0,0,0,0,0,0,0,0,0,0,0,0,0,0,0,0,0,0,0,0,0,0,0,0,0,0,0,0,0,0,0,0,0,0,0,0,0,0,0,0,0,0,0,0,0,0,0,0,0,0,0,0,0,0,
0,0,0,0,0,0,0,0,0,0,0,0,0,0,0,0,0,0,0,0,0,0,0,0,0,0,0,0,0,0,0,0,0,0,0,0,0,0,0,0,0,0,0,0,0,0,0,0,0,0,0,0,0,0,0,0,0,0,0,0,0,0,0,0,0,0,0,0,0,0,0,0,0,0,0,0,0,0,0,0,0,0,0,0,0,0,0,0,
0,0,0,0,0,0,0,0,0,0,0,0,0,0,0,0,0,0,0,0,0,0,0,0,0,0,0,0,0,0,0,0,0,0,0,0,0,0,0,0,0,0,0,0,0,0,0,0,0,0,0,0,0,0,0,0,0,0,0,0,0,0,0,0,0,0,0,0,0,0,0,0,0,0,0,0,0,0,0,0,0,0,0,0,0,0,0,0,
0,0,0,0,0,0,0,0,0,0,0,0,0,0,0,0,0,0,0,0,0,0,0,0,0,0,0,0,0,0,0,0,0,0,0,0,0,0,0,0,0,0,0,0,0,0,0,0,0,0,0,0,0,0,0,0,0,0,0,0,0,0,0,0,0,0,0,0,0,0,0,0,0,0,0,0,0,0,0,0,0,0,0,0,0,0,0,0,
0,0,0,0,0,0,0,0,0,0,0,0,0,0,0,0,0,0,0,0,0,0,0,0,0,0,0,0,0,0,0,0,0,0,0,0,0,0,0,0,0,0,0,0,0,0,0,0,0,0,0,0,0,0,0,0,0,0,0,0,0,0,0,0,0,0,0,0,0,0,0,0,0,0,0,0,0,0,0,0,0,0,0,0,0,0,0,0,
0,0,0,0,0,0,0,0,0,0,0,0,0,0,0,0,0,0,0,0,0,0,0,0,0,0,0,0,0,0,0,0,0,0,0,0,0,0,0,0,0,0,0,0,0,0,0,0,0,0,0,0,0,0,0,0,0,0,0,0,0,0,0,0,0,0,0,0,0,0,0,0,0,0,0,0,0,0,0,0,0,0,0,0,0,0,0,0,
0,0,0,0,0,0,0,0,0,0,0,0,0,0,0,0,0,0,0,0,0,0,0,0,0,0,0,0,0,0,0,0,0,0,0,0,0,0,0,0,0,0,0,0,0,0,0,0,0,0,0,0,0,0,0,0,0,0,0,0,0,0,0,0,0,0,0,0,0,0,0,0,0,0,0,0,0,0,0,0,0,0,0,0,0,0,0,0,
0,0,0,0,0,0,0,0,0,0,0,0,0,0,0,0,0,0,0,0,0,0,0,0,0,0,0,0,0,0,0,0,0,0,0,0,0,0,0,0,0,0,0,0,0,0,0,0,0,0,0,0,0,0,0,0,0,0,0,0,0,0,0,0,0,0,0,0,0,0,0,0,0,0,0,0,0,0,0,0,0,0,0,0,0,0,0,0,
0,0,0,0,0,0,0,0,0,0,0,0,0,0,0,0,0,0,0,0,0,0,0,0,0,0,0,0,0,0,0,0,0,0,0,0,0,0,0,0,0,0,0,0,0,0,0,0,0,0,0,0,0,0,0,0,0,0,0,0,0,0,0,0,0,0,0,0,0,0,0,0,0,0,0,0,0,0,0,0,0,0,0,0,0,0,0,0,
0,0,0,0,0,0,0,0,0,0,0,0,0,0,0,0,0,0,0,0,0,0,0,0,0,0,0,0,0,0,0,0,0,0,0,0,0,0,0,0,0,0,0,0,0,0,0,0,0,0,0,0,0,0,0,0,0,0,0,0,0,0,0,0,0,0,0,0,0,0,0,0,0,0,0,0,0,0,0,0,0,0,0,0,0,0,0,0,
0,0,0,0,0,0,0,0,0,0,0,0,0,0,0,0,0,0,7744,7745,7746,7747,0,0,0,0,0,0,0,0,0,0,0,0,0,0,0,0,0,0,0,0,0,0,0,0,0,0,0,0,0,0,0,0,0,0,0,0,0,0,0,0,0,0,0,0,0,0,0,0,0,0,0,0,0,0,0,0,0,0,0,0,0,0,0,0,0,0,
0,0,0,0,0,0,0,0,0,0,0,0,0,0,0,0,0,0,7748,7749,7750,7751,0,0,0,0,0,0,0,0,0,0,0,0,0,0,0,0,0,0,0,0,0,0,0,0,0,0,0,0,0,0,0,0,0,0,0,0,0,0,0,0,0,0,0,0,0,0,0,0,0,0,0,0,0,0,0,0,0,0,0,0,0,0,0,0,0,0,
0,0,0,0,0,0,0,0,0,0,0,0,0,0,0,0,0,0,7752,7753,7754,7755,0,0,0,0,0,0,0,0,0,0,0,0,0,0,0,8599,8600,8601,8602,8603,8604,8605,8606,8607,8608,8609,8610,8611,8734,7993,7994,7995,7996,8012,0,0,0,0,0,0,0,0,0,0,0,0,0,0,0,0,0,0,0,0,0,0,0,0,0,0,0,0,0,0,0,0,
0,0,0,0,0,0,0,0,0,0,0,0,0,0,0,0,0,0,7756,7757,7758,7759,0,0,0,0,0,0,0,0,0,0,0,0,0,0,0,8612,8613,8614,8615,8616,8617,8618,8619,8620,8621,8622,8623,8624,8625,7997,7998,7999,8000,8001,0,0,0,0,0,0,0,0,0,0,0,0,0,0,0,0,0,0,0,0,0,0,0,0,0,0,0,0,0,0,0,0,
0,0,0,0,0,0,0,0,0,0,0,0,0,0,0,0,0,0,7760,7761,7762,7763,0,0,0,0,0,0,0,0,0,0,0,0,0,0,0,8626,8627,8628,8629,8630,8631,8632,8633,8634,8635,8636,8637,8638,8639,8002,8003,8004,8005,8006,0,0,0,0,0,0,0,0,0,0,0,0,0,0,0,0,0,0,0,0,0,0,0,0,0,0,0,0,0,0,0,0,
0,0,0,0,0,0,0,0,0,0,0,0,0,0,0,0,0,0,0,0,0,0,0,0,0,0,0,0,0,0,0,0,0,0,0,0,0,8640,8641,8642,8643,8644,8645,8646,8647,8648,8649,8650,8651,8652,8653,8007,8008,8009,8010,8011,0,0,0,0,0,0,0,0,0,0,0,0,0,0,7965,7966,7967,7968,0,0,0,0,0,0,0,0,0,0,0,0,0,0,
0,0,0,0,0,0,0,0,0,0,0,0,0,0,0,0,0,0,0,0,0,0,0,0,0,0,0,0,0,0,0,0,0,0,0,0,0,8654,8655,8656,8657,8658,8659,8660,8661,8662,8663,8664,8665,8666,8667,0,0,0,0,0,0,0,0,0,0,0,0,0,0,0,0,0,0,0,7969,7970,7971,7972,0,0,0,0,0,0,0,0,0,0,0,0,0,0,
0,0,0,0,7560,7537,7538,7539,7560,0,0,0,0,0,0,0,0,0,0,0,0,0,0,0,0,0,0,0,0,0,0,0,0,0,0,0,0,8668,8669,8670,8671,8672,8673,8674,8675,8676,8677,8678,8679,8680,8681,0,0,7605,7606,7607,7608,7609,0,0,0,0,0,0,0,0,0,0,0,0,7973,7974,7975,7976,0,0,0,0,0,0,0,0,0,0,0,0,0,0,
0,0,0,0,7540,7541,7542,7543,7544,0,0,7808,7809,7810,7811,0,0,0,0,0,0,0,0,0,7369,7346,7347,7348,7369,0,0,0,0,0,0,0,0,8682,8683,8684,8685,8686,8687,8688,8689,8690,8691,8692,8693,8694,8695,0,0,7610,7611,7612,7613,7614,0,0,0,0,0,0,0,0,0,0,0,0,7977,7978,7979,7980,0,0,0,0,0,0,0,0,0,0,0,0,0,0,
0,0,0,0,7545,7546,7547,7548,7549,0,0,7812,7813,7814,7815,0,0,0,0,0,0,0,0,0,7349,7350,7351,7352,7353,0,0,0,0,0,0,0,0,8696,8697,8698,8699,8700,8701,8702,8703,8704,8705,8706,8707,8708,8709,0,0,7615,7616,7617,7618,7619,0,0,0,0,0,0,0,0,0,0,0,0,0,0,0,0,0,0,0,0,0,0,0,0,0,0,0,0,0,0,
0,0,0,0,7550,7551,7552,7553,7554,0,0,7816,7817,7818,7819,0,0,0,0,0,0,0,0,0,7354,7355,7356,7357,7358,0,0,0,0,0,0,0,0,8710,8711,8712,8713,8714,8715,8716,8717,8718,8719,8720,8721,8722,8723,0,0,7620,7621,7622,7623,7624,0,0,0,0,0,0,0,0,0,0,0,0,0,0,0,0,0,0,0,0,0,0,0,0,0,0,0,0,0,0,
0,0,0,0,7555,7556,7557,7558,7559,0,0,7820,7821,7822,7823,0,0,0,0,0,0,0,0,0,7359,7360,7361,7362,7363,0,0,0,0,0,0,0,0,8724,8725,8726,8727,8728,8729,8730,8731,8734,8734,8734,8732,8733,8734,0,0,0,0,0,0,0,0,0,0,0,0,0,0,0,0,0,0,0,0,0,0,0,0,0,0,0,0,0,0,0,0,0,0,0,0,0,
0,0,0,0,0,0,0,0,0,0,0,0,0,0,0,0,0,0,0,0,0,0,0,0,7364,7365,7366,7367,7368,0,0,0,0,0,0,0,0,0,0,0,0,0,0,0,0,0,0,0,0,0,0,0,0,0,0,0,0,0,0,0,0,0,0,0,0,0,0,0,0,0,0,0,0,0,0,0,0,0,0,0,0,0,0,0,0,0,0,0,
0,0,0,0,0,0,0,0,0,0,0,0,0,0,0,0,0,0,0,0,0,0,0,0,0,0,0,0,0,0,0,0,0,0,0,0,0,0,0,0,0,0,0,0,0,0,0,0,0,0,0,0,0,0,0,0,0,0,0,0,0,0,0,0,0,0,0,0,0,0,0,0,0,0,0,0,0,0,0,0,0,0,0,0,0,0,0,0,
0,0,0,0,0,0,0,0,0,0,0,0,0,0,0,0,0,0,0,0,0,0,0,0,0,0,0,0,0,0,0,0,0,0,0,0,0,0,0,0,0,0,0,0,0,0,0,0,0,0,0,0,0,0,0,0,0,0,0,0,0,0,0,0,0,0,0,0,0,0,0,0,0,0,0,0,0,0,0,0,0,0,0,0,0,0,0,0,
0,0,0,0,0,0,0,0,0,0,0,0,0,0,0,0,0,0,0,0,0,0,0,0,0,0,0,0,0,0,0,0,0,0,0,0,0,0,0,0,0,0,0,0,0,0,0,0,0,0,0,0,0,0,0,0,0,0,0,0,0,0,0,0,0,0,0,0,0,0,0,0,0,0,0,0,0,0,0,0,0,0,0,0,0,0,0,0,
0,0,0,0,0,0,0,0,0,0,0,0,0,0,0,0,0,0,0,0,0,0,0,0,0,0,0,0,0,0,0,0,0,0,0,0,0,0,0,0,0,0,0,0,0,0,0,0,0,0,0,0,0,0,0,0,0,0,0,0,0,0,0,0,0,0,0,0,0,0,0,0,0,0,0,0,0,0,0,0,0,0,0,0,0,0,0,0,
0,0,0,0,0,0,0,0,0,0,0,0,0,0,0,0,0,0,0,0,0,0,0,0,0,0,0,0,0,0,0,0,0,0,0,0,0,0,0,0,0,0,0,0,0,0,0,0,0,0,0,0,0,0,0,0,0,0,0,0,0,0,0,0,0,0,0,0,0,0,0,0,0,0,0,0,0,0,0,0,0,0,0,0,0,0,0,0,
0,0,0,0,0,0,0,0,0,0,0,0,0,0,0,0,0,0,0,0,0,0,0,0,0,0,0,0,0,0,0,0,0,0,0,0,0,0,0,0,0,0,0,0,0,0,0,0,0,0,0,0,0,0,0,0,0,0,0,0,0,0,0,0,0,0,0,0,0,0,0,0,0,0,0,0,0,0,0,0,0,0,0,0,0,0,0,0,
0,0,0,0,0,0,0,0,0,0,0,0,0,0,0,0,0,0,0,0,0,0,0,0,0,0,0,0,0,0,0,0,0,0,0,0,0,0,0,0,0,0,0,0,0,0,0,0,0,0,0,0,0,0,0,0,0,0,0,0,0,0,0,0,0,0,0,0,0,0,0,0,0,0,0,0,0,0,0,0,0,0,0,0,0,0,0,0,
0,0,0,0,0,0,0,0,0,0,0,0,0,0,0,0,0,0,0,0,0,0,0,0,0,0,0,0,0,0,0,0,0,0,0,0,0,0,0,0,0,0,0,0,0,0,0,0,0,0,0,0,0,0,0,0,0,0,0,0,0,0,0,0,0,0,0,0,0,0,0,0,0,0,0,0,0,0,0,0,0,0,0,0,0,0,0,0,
0,0,0,0,0,0,0,0,0,0,0,0,0,0,0,0,0,0,0,0,0,0,0,0,0,0,0,0,0,0,0,0,0,0,0,0,0,0,0,0,0,0,0,0,0,0,0,0,0,0,0,0,0,0,0,0,0,0,0,0,0,0,0,0,0,0,0,0,0,0,0,0,0,0,0,0,0,0,0,0,0,0,0,0,0,0,0,0,
0,0,0,0,0,0,0,0,0,0,0,0,0,0,0,0,0,0,0,0,0,0,0,0,0,0,0,0,0,0,0,0,0,0,0,0,0,0,0,0,0,0,0,0,0,0,0,0,0,0,0,0,0,0,0,0,0,0,0,0,0,0,0,0,0,0,0,0,0,0,0,0,0,0,0,0,0,0,0,0,0,0,0,0,0,0,0,0,
0,0,0,0,0,0,0,0,0,0,0,0,0,0,0,0,0,0,0,0,0,0,0,0,0,0,0,0,0,0,0,0,0,0,0,0,7649,7650,7651,7652,7653,0,0,0,0,0,0,0,0,0,0,0,0,0,0,0,0,0,0,0,0,0,0,0,0,0,0,0,0,0,0,0,0,0,0,0,0,0,0,0,0,0,0,0,0,0,0,0,
0,0,0,0,0,0,0,0,0,0,0,0,0,0,0,0,0,0,0,0,0,0,0,0,0,0,0,0,0,0,0,0,0,0,0,0,7654,7655,7656,7657,7658,0,0,0,0,0,0,0,0,0,0,0,0,0,0,0,0,0,0,0,0,0,0,0,0,0,0,0,0,0,0,0,0,0,0,0,0,0,0,0,0,0,0,0,0,0,0,0,
0,0,0,0,0,0,0,0,0,0,0,0,0,0,0,0,0,0,0,0,0,0,0,0,0,0,0,0,0,0,0,0,0,0,0,0,7659,7660,7661,7662,7663,0,0,0,0,0,0,0,0,0,0,0,0,0,0,0,0,0,0,0,0,0,0,0,0,0,0,0,0,0,0,0,0,0,0,0,0,0,0,0,0,0,0,0,0,0,0,0,
0,0,0,0,0,0,0,0,0,0,0,0,0,0,0,0,0,0,0,0,0,0,0,0,0,0,0,0,0,0,0,0,0,0,0,0,0,0,0,0,0,0,0,0,0,0,0,0,0,0,0,0,0,0,0,0,0,0,0,0,0,0,0,0,0,0,0,0,0,0,0,0,0,0,0,0,0,0,0,0,0,0,0,0,0,0,0,0,
0,0,0,0,0,0,0,0,0,0,0,0,0,0,0,0,0,0,0,0,0,0,0,0,0,0,0,0,0,0,0,0,0,0,0,0,0,0,0,0,0,0,0,0,0,0,0,0,0,0,0,0,0,0,0,0,0,0,0,0,0,0,0,0,0,0,0,0,0,0,0,0,0,0,0,0,0,0,0,0,0,0,0,0,0,0,0,0,
0,0,0,0,0,0,0,0,0,0,0,0,0,0,0,0,0,0,0,0,0,0,0,0,0,0,0,0,0,0,0,0,0,0,0,0,0,0,0,0,0,0,0,0,0,0,0,0,0,0,0,0,0,0,0,0,0,0,0,0,0,0,0,0,0,0,0,0,0,0,0,0,0,0,0,0,0,0,0,0,0,0,0,0,0,0,0,0,
0,0,0,0,0,0,0,0,0,0,0,0,0,0,0,0,0,0,0,0,0,0,0,0,0,0,0,0,0,0,0,0,0,0,0,0,0,0,0,0,0,0,0,0,0,0,0,0,0,0,0,0,0,0,0,0,0,0,0,0,0,0,0,0,0,0,0,0,0,0,0,0,0,0,0,0,0,0,0,0,0,0,0,0,0,0,0,0,
0,0,0,0,0,0,0,0,0,0,0,0,0,0,0,0,0,0,0,0,0,0,0,0,0,0,0,0,0,0,0,0,0,0,0,0,0,0,0,0,0,0,0,0,0,0,0,0,0,0,0,0,0,0,0,0,0,0,0,0,0,0,0,0,0,0,0,0,0,0,0,0,0,0,0,0,0,0,0,0,0,0,0,0,0,0,0,0,
0,0,0,0,0,0,0,0,0,0,0,0,0,0,0,0,0,0,0,0,0,0,0,0,0,0,0,0,0,0,0,0,0,0,0,0,0,0,0,0,0,0,0,0,0,0,0,0,0,0,0,0,0,0,0,0,0,0,0,0,0,0,0,0,0,0,0,0,0,0,0,0,0,0,0,0,0,0,0,0,0,0,0,0,0,0,0,0,
0,0,0,0,0,0,0,0,0,0,0,0,0,0,0,0,0,0,0,0,0,0,0,0,0,0,0,0,0,0,0,0,0,0,0,0,0,0,0,0,0,0,0,0,0,0,0,0,0,0,0,0,0,0,0,0,0,0,0,0,0,0,0,0,0,0,0,0,0,0,0,0,0,0,0,0,0,0,0,0,0,0,0,0,0,0,0,0,
0,0,0,0,0,0,0,0,0,0,0,0,0,0,0,0,0,0,0,0,0,0,0,0,0,0,0,0,0,0,0,0,0,0,0,0,0,0,0,0,0,0,0,0,0,0,0,0,0,0,0,0,0,0,0,0,0,0,0,0,0,0,0,0,0,0,0,0,0,0,0,0,0,0,0,0,0,0,0,0,0,0,0,0,0,0,0,0,
0,0,0,0,0,0,0,0,0,0,0,0,0,0,0,0,0,0,0,0,0,0,0,0,0,0,0,0,0,0,0,0,0,0,0,0,0,0,0,0,0,0,0,0,0,0,0,0,0,0,0,0,0,0,0,0,0,0,0,0,0,0,0,0,0,0,0,0,0,0,0,0,0,0,0,0,0,0,0,0,0,0,0,0,0,0,0,0,
0,0,0,0,0,0,0,0,0,0,0,0,0,0,0,0,0,0,0,0,0,0,0,0,0,0,0,0,0,0,0,0,0,0,0,0,0,0,0,0,0,0,0,0,0,0,0,0,0,0,0,0,0,0,0,0,0,0,0,0,0,0,0,0,0,0,0,0,0,0,0,0,0,0,0,0,0,0,0,0,0,0,0,0,0,0,0,0,
0,0,0,0,0,0,0,0,0,0,0,0,0,0,0,0,0,0,0,0,0,0,0,0,0,0,0,0,0,0,0,0,0,0,0,0,0,0,0,0,0,0,0,0,0,0,0,0,0,0,0,0,0,0,0,0,0,0,0,0,0,0,0,0,0,0,0,0,0,0,0,0,0,0,0,0,0,0,0,0,0,0,0,0,0,0,0,0,
0,0,0,0,0,0,0,0,0,0,0,0,0,0,0,0,0,0,0,0,0,0,0,0,0,0,0,0,0,0,0,0,0,0,0,0,0,0,0,0,0,0,0,0,0,0,0,0,0,0,0,0,0,0,0,0,0,0,0,0,0,0,0,0,0,0,0,0,0,0,0,0,0,0,0,0,0,0,0,0,0,0,0,0,0,0,0,0,
0,0,0,0,0,0,0,0,0,0,0,0,0,0,0,0,0,0,0,0,0,0,0,0,0,0,0,0,0,0,0,0,0,0,0,0,0,0,0,0,0,0,0,0,0,0,0,0,0,0,0,0,0,0,0,0,0,0,0,0,0,0,0,0,0,0,0,0,0,0,0,0,0,0,0,0,0,0,0,0,0,0,0,0,0,0,0,0,
0,0,0,0,0,0,0,0,0,0,0,0,0,0,0,0,0,0,0,0,0,0,0,0,0,0,0,0,0,0,0,0,0,0,0,0,0,0,0,0,0,0,0,0,0,0,0,0,0,0,0,0,0,0,0,0,0,0,0,0,0,0,0,0,0,0,0,0,0,0,0,0,0,0,0,0,0,0,0,0,0,0,0,0,0,0,0,0,
0,0,0,0,0,0,0,0,0,0,0,0,0,0,0,0,0,0,0,0,0,0,0,0,0,0,0,0,0,0,0,0,0,0,0,0,0,0,0,0,0,0,0,0,0,0,0,0,0,0,0,0,0,0,0,0,0,0,0,0,0,0,0,0,0,0,0,0,0,0,0,0,0,0,0,0,0,0,0,0,0,0,0,0,0,0,0,0,
0,0,0,0,0,0,0,0,0,0,0,0,0,0,0,0,0,0,0,0,0,0,0,0,0,0,0,0,0,0,0,0,0,0,0,0,0,0,0,0,0,0,0,0,0,0,0,0,0,0,0,0,0,0,0,0,0,0,0,0,0,0,0,0,0,0,0,0,0,0,0,0,0,0,0,0,0,0,0,0,0,0,0,0,0,0,0,0,
0,0,0,0,0,0,0,0,0,0,0,0,0,0,0,0,0,0,0,0,0,0,0,0,0,0,0,0,0,0,0,0,0,0,0,0,0,0,0,0,0,0,0,0,0,0,0,0,0,0,0,0,0,0,0,0,0,0,0,0,0,0,0,0,0,0,0,0,0,0,0,0,0,0,0,0,0,0,0,0,0,0,0,0,0,0,0,0,
0,0,0,0,0,0,0,0,0,0,0,0,0,0,0,0,0,0,0,0,0,0,0,0,0,0,0,0,0,0,0,0,0,0,0,0,0,0,0,0,0,0,0,0,0,0,0,0,0,0,0,0,0,0,0,0,0,0,0,0,0,0,0,0,0,0,0,0,0,0,0,0,0,0,0,0,0,0,0,0,0,0,0,0,0,0,0,0,
0,0,0,0,0,0,0,0,0,0,0,0,0,0,0,0,0,0,0,0,0,0,0,0,0,0,0,0,0,0,0,0,0,0,0,0,0,0,0,0,0,0,0,0,0,0,0,0,0,0,0,0,0,0,0,0,0,0,0,0,0,0,0,0,0,0,0,0,0,0,0,0,0,0,0,0,0,0,0,0,0,0,0,0,0,0,0,0,
0,0,0,0,0,0,0,0,0,0,0,0,0,0,0,0,0,0,0,0,0,0,0,0,0,0,0,0,0,0,0,0,0,0,0,0,0,0,0,0,0,0,0,0,0,0,0,0,0,0,0,0,0,0,0,0,0,0,0,0,0,0,0,0,0,0,0,0,0,0,0,0,0,0,0,0,0,0,0,0,0,0,0,0,0,0,0,0,
0,0,0,0,0,0,0,0,0,0,0,0,0,0,0,0,0,0,0,0,0,0,0,0,0,0,0,0,0,0,0,0,0,0,0,0,0,0,0,0,0,0,0,0,0,0,0,0,0,0,0,0,0,0,0,0,0,0,0,0,0,0,0,0,0,0,0,0,0,0,0,0,0,0,0,0,0,0,0,0,0,0,0,0,0,0,0,0
</data>
 </layer>
 <layer id="6" name="Collision" width="88" height="64">
  <data encoding="csv">
9153,9153,9153,9153,9154,9153,9153,9153,9153,9154,9153,9153,9154,9153,9153,9154,9153,9154,9153,9153,9153,9153,9153,9153,9153,9154,9153,9153,9153,9153,9154,9153,9153,9153,9153,9153,9153,9154,9153,9153,9153,9153,9154,9153,9153,9153,9154,9153,9153,9153,9154,9153,9153,9153,9153,9153,9154,9154,9153,9154,9153,9153,9153,9153,9153,9154,9154,9154,9153,9153,9154,9153,9153,9153,9154,9154,9154,9153,9153,9153,9153,9154,9154,9153,9153,9153,9153,9153,
9154,9153,9153,9154,9153,9153,9153,9154,9154,9153,9153,9153,9153,9153,9154,9153,9153,9153,9153,9154,9153,9153,9154,9153,9153,9153,9153,9154,9153,9153,9153,9153,9153,9153,9153,9153,9153,9153,9153,9154,9153,9153,9153,9153,9153,9153,9153,9153,9153,9153,9154,9153,9154,9153,9153,9153,9153,9153,9153,9153,9153,9153,9153,9153,9153,9153,9154,9154,9154,9153,9153,9153,9153,9153,9153,9153,9153,9153,9153,9153,9153,9153,9153,9153,9153,9154,9154,9153,
9153,9153,9153,9153,9153,9153,9153,9153,9153,9154,9153,9154,9153,9153,9153,9153,9153,9154,9154,9153,9153,9153,9153,9153,9154,9154,9153,9153,9153,9154,9153,9153,9153,9153,9153,9153,9153,9154,9154,9153,9153,9154,9153,9153,9154,9153,9154,9153,9153,9154,9153,9153,9153,9154,9153,9153,9154,9153,9153,9154,9154,9153,9153,9153,9154,9153,9154,9154,9154,9153,9153,9154,9153,9153,9154,9153,9153,9154,9154,9153,9153,9153,9153,9153,9153,9154,9153,9153,
9153,9154,9154,9153,9153,9154,9153,9153,9153,9153,9154,9153,9153,9153,9153,9153,9153,9153,9154,9153,9153,9154,9153,9153,9154,9153,9153,9153,9153,9153,9154,9153,9153,9153,9153,9153,9153,9153,9153,9153,9153,9153,9153,9153,9153,9153,9153,9153,9153,9153,9153,9153,9153,9153,9153,9153,9153,9153,9153,9153,9153,9153,9153,9153,9153,9153,9154,9154,9154,9154,9153,9153,9153,9153,9153,9153,9153,9153,9154,9153,9153,9153,9154,9153,9153,9153,9153,9153,
9153,9153,9153,9153,9153,9153,9153,9154,9153,9153,9153,9153,9154,9153,9153,9154,9153,9153,9153,9153,9153,9153,9154,9153,9153,9153,9153,9153,9154,9153,9153,9153,9153,9153,9153,9153,9153,9154,9153,9153,9153,9153,9153,9153,9153,9153,9153,9153,9153,9153,9153,9153,9153,9153,9153,9153,9153,9153,9153,9153,9153,9153,9153,9153,9153,9154,9154,9154,9154,9153,9153,9153,9153,9153,9154,9153,9153,9153,9153,9153,9154,9153,9154,9153,9153,9154,9153,9154,
9153,9153,9153,9154,9153,9153,9153,9153,9154,9153,9153,9153,9153,9153,9153,9153,9153,9153,9153,9153,9153,9153,9153,9153,9153,9153,9153,9153,9153,9153,9153,9153,9153,9153,9153,9153,9153,9153,9153,9153,9153,9153,9153,9153,9153,9153,9153,9153,9153,9153,9153,9153,9153,9153,9153,9153,9154,9153,9153,9153,9153,9153,9153,9153,9153,9153,9154,9154,9154,9153,9153,9153,9153,9153,9153,9153,9153,9153,9153,9153,9153,9154,9153,9154,9153,9154,9153,9153,
9153,9154,9153,9153,9153,9153,9153,9154,9153,9153,9153,9153,9153,9153,9153,9153,9153,9153,9153,9153,9153,9153,9153,9153,9153,9153,9153,9153,9153,9153,9153,9153,9153,9153,9153,9153,9153,9153,9153,9153,9153,9153,9153,9153,9153,9153,9153,9153,9153,9153,9153,9153,9153,9153,9153,9153,9153,9153,9153,9153,9153,9153,9153,9153,9153,9153,9154,9154,9154,9153,9153,9153,9153,9153,9153,9153,9154,9153,9153,9154,9153,9153,9153,9153,9153,9153,9153,9153,
9154,9153,9153,9154,9153,9153,9153,9153,9153,9154,9153,9153,9153,9153,9153,9153,9153,9153,9153,9153,9153,9153,9153,9153,9153,9153,9153,9153,9153,9153,9153,9153,9153,9153,9153,9153,9153,9153,9153,9153,9153,9153,9153,9153,9153,9153,9153,9153,9153,9153,9153,9153,9153,9153,9153,9153,9153,9153,9153,9153,9153,9153,9153,9153,9153,9153,9154,9154,9154,9153,9153,9153,9153,9153,9153,9153,9153,9153,9154,9153,9153,9153,9153,9153,9153,9153,9154,9153,
9153,9153,9153,9153,9153,9153,9154,9153,9154,9153,9153,9153,9153,9153,9153,9153,9153,9153,9153,9153,9153,9153,9153,9153,9153,9153,9153,9153,9153,9153,9153,9153,9153,9153,9153,9153,9153,9153,9153,9153,9153,9153,9153,9153,9153,9153,9153,9153,9153,9153,9153,9153,9153,9153,9153,9153,9153,9153,9153,9153,9153,9153,9153,9153,9153,9153,9154,9154,9154,9153,9153,9153,9153,9153,9153,9153,9153,9153,9153,9153,9154,9153,9153,9154,9153,9154,9153,9154,
9153,9154,9153,9153,9154,9153,9153,9153,9153,9153,9153,9153,9153,9153,9153,9153,9153,9153,9153,9153,9153,9153,9153,9153,9153,9153,9153,9153,9153,9153,9153,9153,9153,9153,9153,9153,9153,9154,9154,9154,9153,9154,9153,9153,9153,9153,9153,9153,9153,9153,9153,9153,9153,9153,9153,9153,9153,9153,9153,9153,9153,9153,9153,9153,9153,9153,9154,9154,9154,9154,9154,9154,9153,9153,9154,9154,9153,9153,9153,9153,9153,9154,9153,9153,9153,9154,9153,9153,
9153,9154,9153,9153,9153,9153,9153,9154,9153,9154,9154,9153,9153,9153,9153,9153,9153,9153,9153,9153,9153,9153,9153,9153,9153,9153,9153,9153,9153,9153,9153,9153,9153,9153,9153,9153,9153,9153,9153,9153,9153,9153,9153,9153,9153,9153,9153,9153,9153,9154,9154,9153,9153,9153,9154,9153,9153,9154,9153,9153,9153,9153,9153,9153,9153,9153,9154,9154,9154,9154,9153,9153,9153,9153,9153,9153,9153,9153,9153,9153,9153,9153,9153,9153,9153,9154,9153,9153,
9154,9153,9153,9153,9153,9153,9153,9153,9153,9153,9153,9153,9153,9153,9153,9153,9153,9153,9153,9153,9153,9153,9153,9153,9154,9154,9154,9154,9154,9154,9154,9154,9153,9153,9153,9153,9153,9153,9153,9153,9153,9154,9154,9153,9153,9153,9153,9153,9153,9153,9153,9153,9153,9153,9153,9153,9153,9153,9153,9153,9153,9153,9153,9153,9153,9153,9153,9154,9154,9154,9153,9153,9153,9153,9153,9153,9153,9153,9153,9153,9154,9153,9154,9153,9153,9153,9153,9154,
9153,9154,9153,9153,9154,9153,9153,9154,9153,9154,9154,9153,9154,9153,9154,9153,9153,9153,9153,9153,9153,9153,9153,9153,9153,9153,9153,9153,9153,9153,9153,9153,9153,9153,9153,9153,9153,9153,9153,9153,9153,9153,9153,9153,9153,9153,9153,9153,9153,9153,9153,9153,9153,9153,9153,9153,9153,9153,9153,9153,9153,9153,9153,9153,9153,9153,9153,9154,9154,9153,9153,9153,9153,9153,9153,9153,9153,9153,9153,9153,9153,9153,9153,9153,9153,9154,9154,9153,
9153,9153,9153,9153,9153,9153,9153,9153,9153,9153,9153,9153,9153,9153,9153,9153,9153,9153,9153,9153,9153,9153,9153,9153,9154,9154,9154,9154,9154,9154,9154,9154,9153,9153,9153,9153,9153,9154,9154,9154,9153,9153,9153,9153,9153,9153,9153,9153,9153,9153,9153,9153,9153,9153,9153,9153,9153,9153,9153,9154,9153,9153,9153,9153,9153,9153,9153,9154,9154,9153,9154,9154,9153,9153,9153,9154,9154,9153,9153,9154,9154,9153,9153,9153,9153,9153,9153,9153,
9153,9153,9153,9154,9153,9153,9153,9154,9153,9154,9154,9153,9154,9153,9154,9153,9153,9153,9153,9153,9153,9153,9153,9153,9153,9153,9153,9153,9153,9153,9153,9153,9153,9153,9153,9153,9153,9153,9153,9153,9153,9153,9153,9153,9153,9154,9154,9153,9153,9153,9153,9153,9154,9154,9153,9153,9153,9153,9153,9153,9153,9153,9153,9153,9153,9153,9153,9154,9154,9154,9153,9153,9153,9153,9153,9153,9153,9153,9153,9153,9153,9153,9153,9153,9153,9153,9153,9154,
9154,9153,9153,9153,9153,9153,9153,9153,9153,9153,9153,9153,9153,9153,9153,9153,9153,9153,9153,9153,9153,9153,9153,9153,9154,9154,9154,9154,9154,9154,9154,9154,9153,9153,9153,9153,9153,9153,9153,9153,9153,9153,9153,9153,9153,9153,9153,9153,9153,9153,9153,9153,9153,9153,9153,9153,9153,9153,9153,9153,9153,9153,9153,9153,9153,9153,9154,9154,9154,9153,9153,9153,9153,9153,9153,9153,9153,9153,9153,9153,9153,9153,9153,9153,9153,9153,9154,9153,
9154,9153,9153,9153,9153,9153,9153,9154,9153,9154,9154,9153,9154,9153,9154,9153,9153,9153,9153,9153,9153,9153,9153,9153,9153,9153,9153,9153,9153,9153,9153,9153,9153,9153,9153,9153,9153,9153,9153,9153,9153,9153,9153,9153,9153,9153,9153,9153,9153,9153,9153,9153,9153,9153,9153,9153,9153,9153,9153,9153,9153,9153,9153,9153,9153,9154,9154,9154,9154,9153,9153,9153,9153,9153,9153,9153,9154,9153,9153,9153,9153,9153,9153,9153,9153,9154,9154,9153,
9153,9153,9153,9153,9153,9153,9153,9153,9153,9153,9153,9153,9153,9153,9153,9153,9153,9153,9153,9153,9153,9153,9153,9153,9154,9154,9154,9154,9154,9154,9154,9154,9153,9153,9153,9153,9153,9153,9153,9153,9153,9153,9153,9153,9153,9153,9153,9153,9153,9153,9153,9153,9153,9153,9153,9153,9153,9153,9153,9153,9153,9153,9153,9153,9153,9153,9154,9154,9154,9153,9154,9154,9153,9153,9154,9154,9153,9153,9154,9154,9153,9153,9153,9153,9153,9153,9153,9153,
9153,9153,9153,9153,9153,9153,9153,9154,9153,9154,9154,9153,9154,9153,9154,9153,9153,9153,9153,9153,9153,9153,9153,9153,9153,9153,9153,9153,9153,9153,9153,9153,9153,9153,9153,9153,9153,9153,9153,9153,9153,9153,9153,9153,9153,9153,9153,9153,9153,9153,9153,9153,9153,9153,9153,9153,9153,9153,9153,9153,9153,9153,9153,9153,9154,9154,9154,9154,9154,9153,9153,9153,9153,9153,9153,9153,9153,9153,9153,9153,9153,9153,9153,9153,9153,9153,9153,9153,
9153,9153,9154,9153,9153,9153,9153,9153,9153,9153,9153,9153,9153,9153,9153,9153,9153,9153,9154,9154,9154,9153,9153,9153,9154,9154,9154,9154,9154,9154,9153,9153,9153,9153,9153,9153,9153,9153,9153,9153,9153,9153,9153,9153,9153,9153,9153,9153,9153,9153,9153,9153,9153,9153,9153,9153,9153,9153,9153,9153,9153,9153,9153,9153,9153,9154,9154,9153,9153,9153,9153,9153,9153,9153,9153,9153,9153,9153,9153,9153,9153,9153,9153,9153,9153,9154,9154,9154,
9153,9153,9153,9153,9153,9153,9153,9153,9153,9154,9154,9153,9154,9153,9154,9153,9153,9153,9154,9154,9154,9154,9154,9153,9153,9153,9153,9153,9153,9153,9153,9153,9153,9153,9153,9153,9153,9153,9153,9153,9153,9153,9153,9153,9153,9153,9153,9153,9153,9153,9153,9153,9153,9153,9153,9153,9153,9153,9153,9153,9153,9153,9153,9153,9153,9154,9154,9153,9153,9153,9153,9153,9153,9153,9153,9153,9153,9153,9153,9153,9153,9153,9153,9153,9153,9153,9153,9153,
9154,9153,9153,9154,9153,9153,9153,9153,9153,9153,9153,9153,9153,9153,9153,9153,9153,9154,9154,9153,9153,9154,9153,9153,9153,9153,9153,9153,9153,9153,9153,9153,9153,9153,9153,9153,9153,9153,9153,9153,9153,9153,9153,9153,9153,9153,9153,9153,9153,9153,9153,9154,9154,9154,9154,9153,9153,9153,9153,9153,9153,9153,9153,9153,9154,9154,9154,9153,9153,9153,9153,9153,9153,9153,9153,9153,9153,9153,9153,9153,9153,9153,9153,9153,9153,9154,9153,9153,
9153,9153,9153,9153,9153,9153,9153,9153,9153,9153,9153,9153,9153,9153,9153,9153,9153,9153,9153,9153,9153,9153,9153,9154,9153,9153,9153,9153,9153,9153,9153,9153,9153,9153,9153,9153,9153,9153,9153,9153,9153,9153,9153,9153,9153,9153,9153,9153,9153,9153,9153,9153,9154,9154,9154,9154,9154,9153,9153,9153,9153,9153,9153,9153,9154,9154,9153,9153,9153,9153,9153,9153,9153,9153,9153,9153,9153,9153,9153,9153,9153,9153,9153,9153,9153,9153,9153,9153,
9153,9153,9154,9153,9153,9153,9153,9153,9153,9153,9153,9153,9153,9153,9153,9153,9154,9153,9153,9153,9153,9153,9154,9153,9153,9153,9153,9153,9153,9153,9153,9153,9153,9153,9153,9153,9153,9154,9154,9154,9154,9154,9154,9154,9154,9154,9154,9154,9154,9154,9154,9154,9153,9153,9153,9153,9153,9153,9153,9153,9153,9153,9153,9154,9154,9154,9153,9153,9153,9153,9153,9153,9153,9153,9153,9153,9153,9153,9153,9153,9153,9153,9153,9153,9153,9154,9153,9153,
9153,9153,9153,9153,9153,9153,9153,9153,9153,9153,9153,9153,9153,9153,9153,9153,9153,9153,9153,9153,9153,9153,9153,9153,9153,9153,9153,9153,9153,9153,9153,9153,9153,9153,9153,9153,9153,9154,9154,9154,9154,9154,9154,9154,9154,9154,9154,9154,9154,9154,9154,9153,9153,9153,9153,9153,9153,9153,9153,9153,9154,9154,9153,9154,9154,9154,9153,9153,9153,9154,9154,9154,9154,9154,9154,9153,9153,9153,9153,9153,9153,9153,9153,9153,9153,9153,9153,9153,
9153,9153,9153,9153,9153,9153,9153,9153,9153,9153,9153,9153,9153,9153,9153,9154,9153,9153,9153,9153,9153,9153,9153,9153,9153,9153,9153,9153,9153,9153,9153,9153,9153,9153,9153,9153,9153,9154,9154,9154,9154,9154,9154,9154,9154,9154,9154,9154,9154,9154,9154,9153,9153,9153,9153,9153,9153,9153,9153,9153,9153,9153,9153,9154,9154,9154,9153,9153,9153,9153,9154,9154,9154,9154,9153,9153,9153,9153,9154,9154,9153,9153,9153,9153,9153,9153,9153,9153,
9153,9153,9153,9153,9154,9154,9154,9154,9154,9154,9153,9153,9153,9153,9153,9153,9153,9153,9153,9153,9153,9153,9153,9153,9153,9153,9153,9153,9153,9153,9153,9153,9153,9153,9153,9153,9153,9154,9154,9154,9154,9154,9154,9154,9154,9154,9154,9154,9154,9154,9154,9153,9153,9154,9154,9154,9154,9154,9154,9153,9153,9153,9153,9153,9154,9154,9154,9153,9153,9153,9153,9153,9153,9153,9153,9153,9153,9153,9153,9153,9153,9153,9153,9153,9153,9153,9153,9153,
9153,9153,9153,9154,9154,9154,9154,9154,9154,9153,9153,9154,9154,9154,9154,9153,9153,9153,9153,9153,9153,9153,9153,9153,9154,9154,9154,9154,9154,9154,9153,9153,9153,9153,9153,9154,9153,9154,9154,9154,9154,9154,9154,9154,9153,9153,9153,9153,9154,9154,9154,9153,9153,9154,9154,9154,9154,9154,9153,9153,9153,9153,9153,9153,9154,9154,9154,9153,9153,9153,9153,9153,9153,9153,9153,9153,9153,9153,9153,9153,9153,9153,9153,9153,9153,9153,9153,9153,
9153,9153,9153,9154,9154,9154,9154,9154,9154,9153,9153,9154,9154,9154,9154,9153,9153,9153,9153,9153,9153,9153,9153,9153,9154,9154,9154,9154,9154,9154,9153,9153,9153,9153,9153,9153,9154,9154,9154,9154,9153,9153,9154,9154,9154,9153,9153,9153,9153,9153,9153,9153,9153,9153,9153,9153,9153,9153,9154,9154,9153,9153,9153,9153,9153,9153,9153,9153,9153,9153,9153,9153,9153,9153,9153,9153,9153,9153,9153,9153,9153,9153,9153,9153,9153,9153,9153,9153,
9153,9153,9153,9153,9153,9153,9153,9153,9153,9153,9153,9153,9153,9153,9153,9154,9153,9154,9154,9153,9153,9153,9153,9153,9154,9154,9153,9154,9154,9153,9153,9153,9153,9153,9153,9153,9153,9153,9153,9153,9153,9153,9153,9153,9153,9153,9153,9153,9153,9153,9153,9153,9153,9153,9153,9153,9153,9153,9153,9153,9153,9153,9153,9154,9154,9154,9154,9153,9153,9153,9153,9153,9153,9153,9153,9153,9153,9153,9153,9153,9153,9153,9153,9153,9153,9153,9153,9153,
9153,9153,9153,9153,9153,9153,9153,9153,9154,9153,9154,9153,9153,9153,9153,9153,9153,9153,9153,9153,9153,9153,9153,9154,9153,9153,9153,9153,9153,9153,9154,9154,9154,9153,9153,9153,9153,9153,9153,9153,9153,9153,9153,9153,9153,9153,9153,9153,9153,9153,9153,9153,9153,9153,9153,9153,9153,9153,9153,9153,9153,9153,9153,9154,9154,9154,9153,9153,9153,9153,9153,9153,9153,9153,9153,9153,9153,9153,9153,9153,9153,9153,9154,9154,9153,9153,9153,9153,
9153,9153,9153,9153,9153,9153,9153,9153,9153,9153,9153,9153,9153,9153,9153,9153,9153,9153,9153,9153,9153,9153,9153,9153,9153,9153,9153,9153,9153,9153,9153,9153,9153,9153,9153,9153,9153,9153,9153,9153,9153,9153,9153,9153,9153,9153,9153,9153,9153,9153,9153,9153,9153,9153,9153,9153,9153,9153,9153,9153,9153,9153,9153,9154,9154,9154,9153,9153,9153,9153,9153,9153,9153,9153,9153,9153,9153,9153,9153,9153,9153,9153,9153,9153,9153,9153,9154,9153,
9153,9153,9153,9153,9153,9153,9153,9153,9153,9153,9153,9153,9153,9153,9153,9153,9153,9153,9153,9153,9153,9153,9153,9153,9153,9153,9153,9153,9153,9153,9153,9153,9153,9153,9153,9153,9153,9153,9153,9153,9153,9153,9153,9153,9153,9153,9153,9153,9153,9153,9153,9153,9153,9153,9153,9153,9153,9153,9153,9153,9153,9153,9153,9154,9154,9153,9153,9153,9153,9153,9153,9153,9153,9153,9153,9153,9153,9153,9153,9153,9153,9153,9153,9153,9153,9153,9153,9153,
9153,9153,9153,9153,9153,9153,9153,9153,9153,9153,9153,9153,9153,9153,9153,9153,9153,9153,9153,9153,9153,9153,9153,9153,9153,9153,9153,9153,9153,9153,9153,9153,9153,9153,9153,9153,9153,9153,9153,9153,9153,9153,9153,9153,9153,9153,9153,9153,9153,9153,9153,9153,9153,9153,9153,9153,9153,9153,9153,9153,9153,9153,9153,9154,9154,9153,9153,9154,9154,9153,9153,9153,9153,9153,9153,9153,9153,9153,9153,9154,9153,9153,9153,9153,9153,9153,9153,9153,
9153,9153,9153,9153,9153,9153,9153,9153,9153,9153,9153,9153,9153,9153,9153,9153,9153,9153,9154,9154,9154,9154,9154,9154,9154,9154,9154,9153,9153,9153,9153,9153,9153,9153,9153,9153,9154,9154,9153,9153,9153,9153,9153,9153,9153,9153,9153,9153,9153,9153,9153,9153,9153,9153,9153,9153,9153,9153,9153,9153,9153,9153,9154,9154,9154,9153,9153,9153,9153,9153,9153,9153,9153,9153,9153,9153,9153,9153,9153,9153,9153,9153,9153,9153,9153,9153,9153,9153,
9153,9153,9153,9153,9154,9154,9153,9154,9154,9154,9154,9154,9153,9153,9153,9153,9153,9153,9154,9154,9154,9154,9153,9154,9154,9154,9153,9153,9153,9153,9153,9153,9153,9153,9154,9153,9153,9153,9153,9154,9154,9153,9153,9153,9153,9153,9153,9153,9153,9153,9153,9153,9153,9153,9153,9153,9153,9153,9153,9153,9153,9153,9154,9154,9154,9153,9153,9153,9153,9153,9153,9153,9153,9153,9153,9153,9153,9153,9153,9153,9153,9153,9153,9153,9154,9153,9154,9153,
9153,9153,9153,9153,9153,9153,9153,9153,9153,9153,9153,9153,9153,9153,9153,9153,9153,9153,9153,9153,9153,9153,9153,9153,9153,9153,9153,9153,9153,9154,9153,9154,9153,9153,9153,9153,9153,9153,9153,9153,9153,9153,9153,9153,9153,9153,9153,9153,9153,9153,9153,9153,9153,9153,9153,9153,9153,9153,9153,9153,9153,9154,9154,9154,9153,9153,9153,9153,9153,9153,9153,9153,9153,9153,9153,9153,9153,9153,9153,9153,9154,9153,9153,9153,9153,9153,9154,9153,
9154,9153,9153,9153,9154,9154,9153,9154,9154,9154,9154,9154,9153,9154,9153,9153,9153,9153,9154,9154,9154,9154,9153,9154,9154,9154,9154,9153,9153,9153,9153,9153,9153,9154,9153,9153,9153,9153,9153,9153,9153,9153,9153,9153,9153,9153,9153,9153,9153,9153,9153,9153,9153,9153,9153,9153,9153,9153,9153,9153,9153,9154,9154,9154,9154,9153,9153,9153,9153,9153,9153,9153,9153,9153,9153,9153,9153,9153,9153,9153,9153,9153,9153,9154,9154,9153,9153,9153,
9153,9154,9153,9153,9153,9153,9153,9153,9153,9153,9153,9153,9153,9153,9153,9153,9153,9153,9153,9153,9153,9153,9154,9153,9153,9153,9153,9153,9154,9153,9154,9153,9154,9153,9154,9153,9153,9153,9153,9153,9153,9153,9153,9153,9153,9153,9153,9153,9153,9153,9153,9153,9153,9153,9153,9153,9153,9153,9153,9153,9153,9154,9154,9154,9154,9153,9153,9153,9153,9153,9153,9153,9153,9153,9153,9153,9153,9153,9153,9153,9153,9153,9153,9153,9153,9153,9153,9154,
9154,9153,9153,9153,9154,9154,9153,9154,9154,9154,9153,9153,9153,9153,9153,9153,9153,9153,9154,9154,9154,9154,9153,9154,9154,9154,9154,9153,9153,9153,9153,9153,9153,9153,9153,9153,9153,9153,9153,9153,9153,9153,9153,9153,9153,9153,9153,9153,9153,9153,9153,9153,9153,9153,9153,9153,9153,9153,9153,9153,9153,9154,9154,9153,9153,9153,9153,9153,9153,9153,9153,9153,9153,9153,9153,9154,9154,9154,9153,9153,9153,9154,9153,9153,9153,9153,9153,9153,
9153,9153,9153,9153,9153,9153,9153,9153,9153,9153,9153,9153,9153,9153,9153,9153,9153,9153,9154,9154,9154,9154,9153,9154,9154,9154,9154,9153,9153,9154,9153,9154,9153,9154,9153,9153,9153,9153,9153,9154,9153,9153,9153,9153,9153,9153,9153,9153,9153,9153,9153,9153,9153,9153,9153,9153,9153,9153,9153,9153,9153,9154,9154,9153,9153,9153,9153,9153,9153,9153,9153,9154,9154,9153,9153,9153,9154,9153,9153,9153,9153,9153,9153,9153,9154,9153,9153,9153,
9153,9153,9153,9153,9153,9153,9153,9153,9153,9153,9153,9153,9153,9153,9153,9153,9153,9153,9153,9153,9153,9153,9153,9153,9153,9153,9153,9153,9153,9153,9153,9153,9153,9153,9153,9153,9154,9154,9154,9154,9154,9153,9153,9153,9153,9153,9153,9153,9153,9153,9153,9154,9153,9154,9153,9153,9153,9153,9153,9153,9154,9154,9154,9153,9153,9153,9153,9153,9153,9153,9153,9154,9154,9154,9154,9154,9154,9153,9153,9153,9153,9153,9153,9153,9153,9153,9153,9153,
9153,9154,9153,9153,9153,9153,9153,9153,9153,9153,9153,9153,9153,9153,9153,9153,9153,9153,9153,9153,9153,9153,9153,9153,9153,9153,9153,9153,9153,9153,9153,9153,9153,9153,9153,9153,9154,9154,9154,9154,9154,9153,9153,9153,9153,9153,9153,9153,9153,9153,9153,9153,9153,9153,9153,9153,9153,9153,9153,9154,9154,9154,9153,9153,9153,9153,9153,9153,9153,9153,9154,9154,9154,9154,9154,9154,9154,9154,9153,9153,9153,9153,9153,9153,9153,9154,9153,9153,
9153,9153,9153,9153,9153,9153,9153,9153,9153,9153,9153,9153,9153,9153,9153,9153,9153,9153,9153,9153,9153,9153,9153,9153,9153,9153,9153,9153,9153,9153,9153,9153,9153,9153,9153,9153,9153,9153,9153,9153,9153,9153,9153,9153,9153,9153,9153,9153,9153,9153,9153,9153,9153,9153,9153,9153,9153,9153,9153,9154,9154,9154,9153,9153,9153,9153,9153,9153,9153,9154,9154,9154,9154,9154,9154,9154,9154,9154,9154,9154,9154,9153,9153,9154,9153,9154,9153,9153,
9154,9154,9154,9154,9154,9154,9154,9154,9154,9154,9154,9154,9154,9154,9154,9154,9153,9153,9154,9154,9154,9154,9154,9154,9154,9154,9154,9154,9154,9154,9154,9154,9154,9154,9154,9154,9154,9154,9153,9153,9154,9154,9153,9153,9153,9153,9153,9153,9153,9153,9153,9154,9153,9153,9153,9153,9153,9153,9153,9153,9154,9154,9154,9153,9153,9153,9153,9153,9153,9154,9154,9154,9154,9154,9154,9154,9154,9154,9154,9154,9154,9154,9153,9153,9153,9153,9153,9154,
9153,9153,9153,9153,9153,9153,9153,9153,9153,9153,9153,9153,9153,9153,9153,9153,9153,9153,9153,9153,9153,9153,9153,9153,9153,9153,9153,9153,9153,9153,9153,9153,9153,9153,9153,9153,9153,9153,9153,9153,9153,9154,9153,9153,9153,9153,9153,9153,9153,9153,9153,9153,9153,9153,9153,9153,9153,9153,9153,9153,9154,9154,9154,9153,9153,9153,9153,9153,9153,9153,9154,9154,9154,9154,9154,9154,9154,9154,9154,9154,9154,9153,9153,9154,9153,9153,9154,9153,
9153,9153,9153,9153,9153,9153,9153,9153,9153,9153,9153,9153,9153,9153,9153,9153,9153,9153,9153,9153,9153,9153,9153,9153,9153,9153,9153,9153,9153,9153,9153,9153,9153,9153,9153,9153,9153,9153,9153,9153,9153,9153,9154,9153,9153,9153,9153,9153,9153,9153,9153,9153,9153,9154,9153,9153,9153,9153,9153,9154,9154,9154,9154,9153,9153,9153,9153,9153,9153,9153,9154,9154,9154,9154,9154,9154,9154,9154,9154,9154,9153,9153,9153,9153,9153,9153,9153,9153,
9153,9153,9153,9153,9153,9153,9153,9153,9153,9153,9153,9153,9153,9153,9153,9153,9153,9153,9153,9153,9153,9153,9153,9153,9153,9153,9153,9153,9154,9153,9153,9154,9154,9154,9153,9154,9153,9153,9153,9153,9153,9154,9153,9153,9153,9153,9153,9153,9153,9153,9153,9153,9153,9153,9153,9153,9153,9153,9153,9154,9154,9154,9154,9153,9153,9153,9153,9153,9153,9153,9154,9154,9154,9154,9154,9154,9154,9154,9154,9153,9153,9153,9153,9154,9153,9153,9154,9153,
9153,9154,9153,9153,9153,9153,9153,9153,9153,9153,9153,9153,9153,9153,9153,9153,9153,9153,9153,9153,9153,9153,9153,9153,9153,9153,9153,9153,9153,9153,9153,9153,9153,9153,9153,9154,9153,9153,9153,9153,9153,9153,9154,9153,9153,9153,9153,9153,9153,9153,9153,9153,9154,9154,9153,9153,9153,9153,9153,9154,9154,9154,9154,9153,9153,9153,9153,9153,9153,9153,9154,9154,9154,9154,9154,9154,9154,9154,9153,9153,9153,9153,9153,9153,9153,9153,9153,9153,
9153,9153,9153,9153,9154,9154,9153,9153,9154,9154,9153,9153,9153,9154,9154,9153,9153,9154,9154,9153,9153,9153,9153,9153,9153,9153,9154,9153,9153,9154,9153,9153,9154,9154,9153,9153,9153,9153,9153,9153,9153,9154,9153,9153,9153,9153,9153,9153,9153,9153,9153,9153,9153,9153,9153,9153,9153,9153,9153,9154,9154,9154,9153,9153,9153,9153,9153,9153,9154,9154,9153,9154,9154,9154,9154,9154,9154,9153,9153,9153,9153,9154,9153,9154,9153,9153,9153,9154,
9153,9153,9153,9153,9154,9153,9153,9153,9153,9153,9153,9154,9153,9153,9153,9153,9153,9153,9153,9153,9153,9153,9153,9153,9153,9154,9154,9153,9154,9153,9153,9153,9154,9153,9153,9153,9154,9153,9153,9153,9153,9153,9154,9153,9153,9153,9153,9153,9153,9153,9153,9153,9153,9153,9153,9153,9153,9153,9153,9154,9154,9154,9154,9153,9153,9153,9153,9153,9153,9153,9153,9153,9153,9153,9154,9153,9153,9153,9153,9153,9153,9153,9154,9153,9153,9154,9153,9153,
9153,9153,9153,9153,9153,9153,9153,9153,9153,9153,9153,9153,9153,9153,9153,9153,9153,9153,9153,9153,9153,9153,9153,9153,9153,9153,9153,9154,9153,9153,9154,9153,9153,9153,9153,9153,9153,9153,9153,9153,9153,9154,9153,9153,9153,9153,9153,9153,9153,9153,9153,9153,9153,9153,9153,9153,9153,9153,9153,9154,9154,9154,9154,9153,9153,9153,9153,9153,9153,9153,9153,9153,9153,9153,9153,9153,9153,9153,9153,9154,9153,9153,9153,9153,9153,9153,9153,9153,
9154,9153,9153,9153,9153,9153,9153,9153,9153,9153,9153,9153,9153,9153,9153,9153,9153,9153,9153,9153,9153,9153,9153,9153,9153,9153,9153,9153,9153,9153,9153,9154,9153,9153,9154,9153,9153,9154,9153,9153,9153,9153,9154,9153,9153,9153,9153,9153,9153,9153,9153,9153,9153,9153,9153,9153,9153,9154,9153,9154,9154,9154,9154,9153,9153,9153,9153,9153,9153,9153,9153,9153,9153,9153,9153,9153,9153,9153,9153,9153,9153,9154,9153,9153,9154,9153,9153,9154,
9153,9153,9153,9153,9153,9153,9154,9154,9153,9153,9153,9153,9153,9154,9154,9154,9153,9153,9153,9154,9154,9153,9153,9153,9153,9153,9154,9153,9153,9153,9153,9153,9153,9153,9153,9153,9153,9153,9153,9153,9153,9154,9153,9153,9153,9153,9153,9153,9153,9153,9153,9153,9153,9153,9153,9153,9153,9153,9153,9154,9154,9154,9154,9153,9153,9153,9153,9153,9153,9153,9153,9153,9153,9153,9153,9153,9153,9153,9153,9153,9153,9153,9153,9153,9153,9153,9153,9153,
9153,9153,9153,9153,9153,9153,9153,9153,9153,9153,9154,9153,9153,9153,9153,9153,9153,9153,9153,9153,9153,9153,9153,9153,9153,9153,9153,9153,9153,9154,9153,9153,9153,9153,9153,9154,9153,9153,9154,9153,9153,9153,9154,9153,9153,9153,9153,9153,9153,9153,9153,9153,9153,9153,9153,9153,9153,9153,9153,9154,9154,9154,9153,9153,9153,9153,9153,9153,9153,9153,9153,9153,9153,9153,9153,9153,9153,9153,9154,9153,9154,9153,9153,9154,9153,9153,9154,9154,
9154,9153,9153,9153,9153,9153,9153,9153,9153,9153,9153,9153,9153,9153,9153,9153,9153,9153,9153,9153,9153,9153,9153,9154,9153,9153,9153,9153,9153,9153,9154,9153,9153,9153,9154,9153,9153,9153,9154,9153,9153,9154,9153,9153,9153,9153,9153,9153,9153,9153,9153,9153,9153,9153,9153,9153,9153,9153,9154,9154,9154,9154,9153,9153,9153,9153,9153,9153,9153,9153,9153,9153,9153,9153,9153,9153,9153,9153,9154,9153,9153,9153,9153,9153,9153,9153,9154,9153,
9153,9153,9153,9153,9153,9153,9153,9153,9153,9153,9153,9153,9153,9153,9153,9153,9153,9153,9153,9153,9153,9153,9153,9153,9153,9153,9153,9154,9153,9153,9153,9153,9153,9154,9154,9153,9154,9153,9153,9153,9153,9153,9154,9153,9153,9153,9153,9153,9153,9153,9153,9153,9153,9154,9153,9153,9153,9154,9154,9154,9154,9154,9153,9153,9153,9153,9153,9153,9153,9153,9153,9153,9153,9153,9153,9153,9153,9153,9153,9153,9153,9153,9154,9154,9153,9153,9153,9153,
9153,9153,9154,9153,9153,9154,9154,9153,9153,9153,9153,9153,9153,9153,9153,9153,9153,9154,9154,9153,9153,9153,9153,9153,9153,9153,9153,9154,9153,9154,9154,9153,9153,9153,9153,9153,9153,9153,9153,9153,9153,9154,9153,9153,9153,9153,9153,9153,9153,9153,9153,9153,9153,9153,9153,9153,9153,9153,9154,9154,9154,9154,9153,9153,9153,9153,9153,9153,9153,9153,9153,9153,9153,9153,9153,9153,9153,9153,9154,9153,9153,9153,9153,9153,9153,9153,9153,9153,
9154,9153,9153,9153,9153,9153,9153,9153,9154,9154,9153,9153,9153,9153,9153,9153,9153,9153,9153,9153,9154,9153,9153,9154,9153,9153,9154,9154,9153,9153,9153,9154,9153,9153,9153,9154,9153,9153,9153,9153,9153,9153,9154,9153,9153,9153,9153,9153,9153,9153,9153,9153,9154,9154,9153,9153,9153,9154,9153,9154,9154,9154,9153,9153,9153,9153,9153,9153,9153,9153,9153,9153,9153,9153,9153,9153,9153,9153,9153,9153,9154,9153,9153,9154,9154,9153,9153,9153,
9153,9153,9153,9153,9153,9153,9153,9153,9153,9153,9153,9153,9153,9153,9153,9153,9153,9153,9153,9153,9154,9153,9153,9153,9153,9153,9153,9154,9154,9153,9153,9154,9154,9153,9154,9153,9154,9153,9153,9154,9153,9154,9153,9153,9153,9153,9153,9153,9153,9153,9153,9153,9153,9153,9153,9153,9153,9153,9153,9154,9154,9154,9153,9153,9153,9153,9153,9153,9153,9153,9153,9153,9153,9153,9153,9153,9153,9153,9153,9154,9153,9153,9154,9153,9154,9153,9153,9153,
9153,9154,9153,9154,9153,9153,9153,9153,9153,9153,9153,9153,9153,9153,9153,9153,9153,9153,9153,9153,9153,9153,9153,9153,9154,9153,9153,9153,9154,9153,9153,9153,9154,9153,9153,9154,9154,9153,9153,9153,9153,9153,9154,9153,9153,9153,9153,9153,9153,9153,9153,9153,9154,9153,9153,9153,9153,9153,9153,9154,9154,9154,9154,9153,9153,9153,9153,9153,9153,9153,9153,9153,9153,9153,9153,9153,9153,9153,9153,9153,9153,9153,9153,9153,9153,9153,9153,9154,
9153,9154,9153,9153,9153,9153,9154,9153,9153,9153,9154,9153,9153,9154,9153,9154,9153,9153,9153,9153,9153,9153,9153,9153,9153,9153,9153,9153,9153,9153,9153,9153,9153,9154,9153,9153,9153,9153,9153,9153,9153,9154,9153,9153,9153,9153,9153,9153,9153,9153,9153,9153,9153,9153,9153,9153,9154,9153,9154,9154,9154,9154,9153,9154,9154,9153,9153,9153,9153,9153,9154,9153,9153,9153,9153,9153,9153,9153,9154,9153,9153,9154,9153,9153,9153,9153,9153,9154,
9154,9153,9153,9153,9153,9153,9153,9153,9153,9153,9153,9153,9153,9153,9153,9153,9153,9153,9153,9153,9153,9153,9153,9153,9153,9153,9153,9153,9154,9153,9153,9153,9153,9153,9153,9153,9153,9154,9153,9153,9153,9153,9153,9153,9153,9153,9153,9153,9153,9153,9153,9153,9154,9153,9153,9153,9153,9153,9154,9154,9154,9154,9153,9153,9153,9153,9153,9153,9154,9153,9153,9153,9153,9153,9153,9153,9153,9153,9153,9154,9153,9153,9153,9153,9153,9154,9153,9153,
9153,9153,9153,9153,9154,9153,9153,9154,9153,9153,9153,9154,9153,9153,9153,9153,9153,9154,9153,9154,9154,9153,9153,9154,9153,9153,9154,9153,9153,9153,9153,9154,9153,9153,9153,9153,9153,9153,9154,9153,9153,9153,9153,9153,9153,9153,9153,9153,9153,9153,9153,9153,9153,9153,9154,9154,9153,9153,9153,9154,9154,9153,9154,9153,9154,9153,9153,9153,9154,9153,9153,9153,9154,9153,9154,9153,9153,9153,9154,9153,9153,9153,9154,9153,9154,9154,9153,9153
</data>
 </layer>
 <objectgroup id="7" name="Scenery">
  <object id="1" gid="2147492855" x="28" y="-2" width="64" height="64" />
  <object id="2" gid="9207" x="986" y="-2" width="64" height="64" />
  <object id="3" gid="9205" x="725" y="-1" width="64" height="64" />
  <object id="4" gid="9205" x="343" y="0" width="64" height="64" />
  <object id="5" gid="2147492851" x="124" y="2" width="64" height="64" />
  <object id="6" gid="2147492853" x="642" y="3" width="64" height="64" />
  <object id="7" gid="2147492851" x="1023" y="3" width="64" height="64" />
  <object id="8" gid="9205" x="47" y="4" width="64" height="64" />
  <object id="9" gid="9203" x="214" y="4" width="64" height="64" />
  <object id="10" gid="2147492855" x="868" y="6" width="64" height="64" />
  <object id="11" gid="2147492857" x="1097" y="6" width="64" height="64" />
  <object id="12" gid="2147492855" x="244" y="7" width="64" height="64" />
  <object id="13" gid="2147492851" x="1288" y="7" width="64" height="64" />
  <object id="14" gid="9203" x="1177" y="8" width="64" height="64" />
  <object id="15" gid="2147492857" x="1199" y="8" width="64" height="64" />
  <object id="16" gid="9205" x="175" y="9" width="64" height="64" />
  <object id="17" gid="9203" x="1152" y="10" width="64" height="64" />
  <object id="18" gid="2147492851" x="369" y="12" width="64" height="64" />
  <object id="19" gid="2147492851" x="458" y="13" width="64" height="64" />
  <object id="20" gid="2147492851" x="708" y="13" width="64" height="64" />
  <object id="21" gid="9203" x="564" y="14" width="64" height="64" />
  <object id="22" gid="9205" x="1265" y="14" width="64" height="64" />
  <object id="23" gid="2147492851" x="768" y="15" width="64" height="64" />
  <object id="24" gid="2147492851" x="917" y="15" width="64" height="64" />
  <object id="25" gid="9203" x="895" y="16" width="64" height="64" />
  <object id="26" gid="9209" x="402" y="17" width="64" height="64" />
  <object id="27" gid="2147492853" x="1349" y="17" width="64" height="64" />
  <object id="28" gid="9203" x="286" y="18" width="64" height="64" />
  <object id="29" gid="9203" x="601" y="18" width="64" height="64" />
  <object id="30" gid="2147492851" x="-21" y="19" width="64" height="64" />
  <object id="31" gid="9205" x="801" y="20" width="64" height="64" />
  <object id="32" gid="9205" x="96" y="21" width="64" height="64" />
  <object id="33" gid="9207" x="23" y="28" width="64" height="64" />
  <object id="34" gid="2147492851" x="327" y="28" width="64" height="64" />
  <object id="35" gid="9207" x="83" y="29" width="64" height="64" />
  <object id="36" gid="9203" x="781" y="30" width="64" height="64" />
  <object id="37" gid="2147492857" x="1330" y="30" width="64" height="64" />
  <object id="38" gid="2147492851" x="198" y="31" width="64" height="64" />
  <object id="39" gid="2147492853" x="145" y="33" width="64" height="64" />
  <object id="40" gid="2147492853" x="704" y="33" width="64" height="64" />
  <object id="41" gid="2147492853" x="826" y="34" width="64" height="64" />
  <object id="42" gid="2147492851" x="1162" y="37" width="64" height="64" />
  <object id="43" gid="9207" x="250" y="39" width="64" height="64" />
  <object id="44" gid="2147492851" x="939" y="39" width="64" height="64" />
  <object id="45" gid="9205" x="1207" y="39" width="64" height="64" />
  <object id="46" gid="9207" x="263" y="40" width="64" height="64" />
  <object id="47" gid="2147492851" x="584" y="40" width="64" height="64" />
  <object id="48" gid="9203" x="763" y="40" width="64" height="64" />
  <object id="49" gid="2147492855" x="1343" y="40" width="64" height="64" />
  <object id="50" gid="9207" x="439" y="41" width="64" height="64" />
  <object id="51" gid="2147492851" x="633" y="42" width="64" height="64" />
  <object id="52" gid="9207" x="1111" y="42" width="64" height="64" />
  <object id="53" gid="2147492851" x="996" y="44" width="64" height="64" />
  <object id="54" gid="9203" x="359" y="45" width="64" height="64" />
  <object id="55" gid="9203" x="381" y="45" width="64" height="64" />
  <object id="56" gid="2147492855" x="923" y="45" width="64" height="64" />
  <object id="57" gid="9203" x="680" y="46" width="64" height="64" />
  <object id="58" gid="2147492851" x="1230" y="46" width="64" height="64" />
  <object id="59" gid="9203" x="568" y="47" width="64" height="64" />
  <object id="60" gid="2147492855" x="872" y="47" width="64" height="64" />
  <object id="61" gid="2147492851" x="115" y="48" width="64" height="64" />
  <object id="62" gid="9205" x="-13" y="49" width="64" height="64" />
  <object id="63" gid="9203" x="1082" y="50" width="64" height="64" />
  <object id="64" gid="9207" x="1284" y="50" width="64" height="64" />
  <object id="65" gid="9203" x="13" y="56" width="64" height="64" />
  <object id="66" gid="9203" x="53" y="57" width="64" height="64" />
  <object id="67" gid="2147492851" x="135" y="59" width="64" height="64" />
  <object id="68" gid="9203" x="268" y="60" width="64" height="64" />
  <object id="69" gid="9203" x="310" y="61" width="64" height="64" />
  <object id="70" gid="9203" x="359" y="61" width="64" height="64" />
  <object id="71" gid="2147492851" x="1218" y="61" width="64" height="64" />
  <object id="72" gid="2147492855" x="463" y="63" width="64" height="64" />
  <object id="73" gid="2147492851" x="85" y="65" width="64" height="64" />
  <object id="74" gid="2147492853" x="1158" y="66" width="64" height="64" />
  <object id="75" gid="9209" x="562" y="68" width="64" height="64" />
  <object id="76" gid="2147492855" x="1331" y="69" width="64" height="64" />
  <object id="77" gid="9203" x="215" y="70" width="64" height="64" />
  <object id="78" gid="9207" x="1293" y="70" width="64" height="64" />
  <object id="79" gid="2147492853" x="163" y="71" width="64" height="64" />
  <object id="80" gid="9203" x="426" y="73" width="64" height="64" />
  <object id="81" gid="9205" x="1253" y="73" width="64" height="64" />
  <object id="82" gid="9203" x="1373" y="73" width="64" height="64" />
  <object id="83" gid="9203" x="334" y="77" width="64" height="64" />
  <object id="84" gid="9203" x="1301" y="88" width="64" height="64" />
  <object id="85" gid="9283" x="867" y="88" width="64" height="64" />
  <object id="86" gid="2147492853" x="1337" y="89" width="64" height="64" />
  <object id="87" gid="2147492857" x="107" y="91" width="64" height="64" />
  <object id="88" gid="9205" x="18" y="93" width="64" height="64" />
  <object id="89" gid="9205" x="1272" y="96" width="64" height="64" />
  <object id="90" gid="2147492851" x="80" y="100" width="64" height="64" />
  <object id="91" gid="9203" x="1188" y="102" width="64" height="64" />
  <object id="92" gid="2147492851" x="1239" y="102" width="64" height="64" />
  <object id="93" gid="9205" x="-10" y="104" width="64" height="64" />
  <object id="94" gid="2147492855" x="-27" y="117" width="64" height="64" />
  <object id="95" gid="2147492851" x="1359" y="118" width="64" height="64" />
  <object id="96" gid="9207" x="1227" y="120" width="64" height="64" />
  <object id="97" gid="9207" x="121" y="121" width="64" height="64" />
  <object id="98" gid="2147492855" x="19" y="123" width="64" height="64" />
  <object id="99" gid="2147492851" x="1250" y="130" width="64" height="64" />
  <object id="100" gid="2147492855" x="1311" y="130" width="64" height="64" />
  <object id="101" gid="9209" x="98" y="131" width="64" height="64" />
  <object id="102" gid="2147492851" x="1333" y="133" width="64" height="64" />
  <object id="103" gid="9203" x="70" y="134" width="64" height="64" />
  <object id="104" gid="2147492851" x="1365" y="142" width="64" height="64" />
  <object id="105" gid="2147492851" x="-7" y="147" width="64" height="64" />
  <object id="106" gid="9227" x="630.4" y="150.4" width="64" height="64" />
  <object id="107" gid="9204" x="1104" y="153.6" width="64" height="64" />
  <object id="108" gid="2147492852" x="1171.2" y="153.6" width="64" height="64" />
  <object id="109" gid="9213" x="582.4" y="153.6" width="64" height="64" />
  <object id="110" gid="9203" x="37" y="154" width="64" height="64" />
  <object id="111" gid="2147492851" x="1275" y="159" width="64" height="64" />
  <object id="112" gid="2147492855" x="1332" y="159" width="64" height="64" />
  <object id="113" gid="9284" x="838" y="167" width="64" height="64" />
  <object id="114" gid="9203" x="761.6" y="169.6" width="64" height="64" />
  <object id="115" gid="2147492931" x="884" y="170" width="64" height="64" />
  <object id="116" gid="9302" x="84.8" y="174.4" width="64" height="64" />
  <object id="117" gid="9302" x="113.6" y="174.4" width="64" height="64" />
  <object id="118" gid="9302" x="142.4" y="174.4" width="64" height="64" />
  <object id="119" gid="9207" x="1339" y="175" width="64" height="64" />
  <object id="120" gid="2147492853" x="-2" y="176" width="64" height="64" />
  <object id="121" gid="2147492851" x="1286" y="178" width="64" height="64" />
  <object id="122" gid="2147492851" x="-20" y="183" width="64" height="64" />
  <object id="123" gid="9225" x="640" y="185.6" width="64" height="64" />
  <object id="124" gid="2147492851" x="1257" y="186" width="64" height="64" />
  <object id="125" gid="9203" x="1367" y="186" width="64" height="64" />
  <object id="126" gid="9238" x="368" y="190.4" width="64" height="64" />
  <object id="127" gid="9238" x="400" y="190.4" width="64" height="64" />
  <object id="128" gid="9238" x="432" y="190.4" width="64" height="64" />
  <object id="129" gid="9238" x="464" y="190.4" width="64" height="64" />
  <object id="130" gid="9203" x="1355" y="200" width="64" height="64" />
  <object id="131" gid="2147492851" x="42" y="202" width="64" height="64" />
  <object id="132" gid="9302" x="84.8" y="204.8" width="64" height="64" />
  <object id="133" gid="9302" x="113.6" y="204.8" width="64" height="64" />
  <object id="134" gid="9302" x="142.4" y="204.8" width="64" height="64" />
  <object id="135" gid="9302" x="171.2" y="204.8" width="64" height="64" />
  <object id="136" gid="9302" x="200" y="204.8" width="64" height="64" />
  <object id="137" gid="2147492851" x="1332" y="205" width="64" height="64" />
  <object id="138" gid="2147492853" x="-14" y="208" width="64" height="64" />
  <object id="139" gid="2147492851" x="918" y="214" width="64" height="64" />
  <object id="140" gid="2147492852" x="1108.8" y="214.4" width="64" height="64" />
  <object id="141" gid="9204" x="1176" y="214.4" width="64" height="64" />
  <object id="142" gid="2147492852" x="1243.2" y="214.4" width="64" height="64" />
  <object id="143" gid="2147492861" x="588.8" y="220.8" width="64" height="64" />
  <object id="144" gid="9238" x="368" y="222.4" width="64" height="64" />
  <object id="145" gid="9238" x="400" y="222.4" width="64" height="64" />
  <object id="146" gid="9238" x="432" y="222.4" width="64" height="64" />
  <object id="147" gid="9238" x="464" y="222.4" width="64" height="64" />
  <object id="148" gid="2147492873" x="819.2" y="227.2" width="64" height="64" />
  <object id="149" gid="9207" x="1367" y="231" width="64" height="64" />
  <object id="150" gid="9302" x="84.8" y="235.2" width="64" height="64" />
  <object id="151" gid="9302" x="113.6" y="235.2" width="64" height="64" />
  <object id="152" gid="9302" x="142.4" y="235.2" width="64" height="64" />
  <object id="153" gid="9302" x="171.2" y="235.2" width="64" height="64" />
  <object id="154" gid="9302" x="200" y="235.2" width="64" height="64" />
  <object id="155" gid="9225" x="710.4" y="240" width="64" height="64" />
  <object id="156" gid="9203" x="30" y="240" width="64" height="64" />
  <object id="157" gid="9203" x="1348" y="243" width="64" height="64" />
  <object id="158" gid="2147492851" x="-26" y="248" width="64" height="64" />
  <object id="159" gid="9238" x="368" y="254.4" width="64" height="64" />
  <object id="160" gid="9238" x="400" y="254.4" width="64" height="64" />
  <object id="161" gid="9238" x="432" y="254.4" width="64" height="64" />
  <object id="162" gid="9238" x="464" y="254.4" width="64" height="64" />
  <object id="163" gid="2147492851" x="-18" y="258" width="64" height="64" />
  <object id="164" gid="2147492853" x="1331" y="258" width="64" height="64" />
  <object id="165" gid="2147492851" x="1354" y="258" width="64" height="64" />
  <object id="166" gid="9302" x="84.8" y="265.6" width="64" height="64" />
  <object id="167" gid="9302" x="113.6" y="265.6" width="64" height="64" />
  <object id="168" gid="9302" x="142.4" y="265.6" width="64" height="64" />
  <object id="169" gid="9302" x="171.2" y="265.6" width="64" height="64" />
  <object id="170" gid="9302" x="200" y="265.6" width="64" height="64" />
  <object id="171" gid="2147492931" x="1008" y="269" width="64" height="64" />
  <object id="172" gid="9263" x="1193.6" y="272" width="64" height="64" />
  <object id="173" gid="9204" x="1104" y="275.2" width="64" height="64" />
  <object id="174" gid="2147492852" x="1171.2" y="275.2" width="64" height="64" />
  <object id="175" gid="9204" x="1238.4" y="275.2" width="64" height="64" />
  <object id="176" gid="9238" x="368" y="286.4" width="64" height="64" />
  <object id="177" gid="9238" x="400" y="286.4" width="64" height="64" />
  <object id="178" gid="9238" x="432" y="286.4" width="64" height="64" />
  <object id="179" gid="9238" x="464" y="286.4" width="64" height="64" />
  <object id="180" gid="2147492957" x="1065" y="295" width="64" height="64" />
  <object id="181" gid="9302" x="84.8" y="296" width="64" height="64" />
  <object id="182" gid="9302" x="113.6" y="296" width="64" height="64" />
  <object id="183" gid="9302" x="142.4" y="296" width="64" height="64" />
  <object id="184" gid="9302" x="171.2" y="296" width="64" height="64" />
  <object id="185" gid="9302" x="200" y="296" width="64" height="64" />
  <object id="186" gid="2147492851" x="-33" y="300" width="64" height="64" />
  <object id="187" gid="2147492957" x="996" y="302" width="64" height="64" />
  <object id="188" gid="2147492853" x="1367" y="306" width="64" height="64" />
  <object id="189" gid="9203" x="1334" y="308" width="64" height="64" />
  <object id="190" gid="2147492851" x="5" y="316" width="64" height="64" />
  <object id="191" gid="9207" x="1354" y="316" width="64" height="64" />
  <object id="192" gid="9238" x="368" y="318.4" width="64" height="64" />
  <object id="193" gid="9238" x="400" y="318.4" width="64" height="64" />
  <object id="194" gid="9238" x="432" y="318.4" width="64" height="64" />
  <object id="195" gid="9302" x="113.6" y="326.4" width="64" height="64" />
  <object id="196" gid="9302" x="142.4" y="326.4" width="64" height="64" />
  <object id="197" gid="9302" x="171.2" y="326.4" width="64" height="64" />
  <object id="198" gid="9302" x="200" y="326.4" width="64" height="64" />
  <object id="199" gid="9241" x="332.8" y="336" width="64" height="64" />
  <object id="200" gid="9270" x="243.2" y="339.2" width="64" height="64" />
  <object id="201" gid="2147492851" x="-21" y="345" width="64" height="64" />
  <object id="202" gid="2147492851" x="16" y="345" width="64" height="64" />
  <object id="203" gid="9205" x="1330" y="346" width="64" height="64" />
  <object id="204" gid="9296" x="342.4" y="358.4" width="64" height="64" />
  <object id="205" gid="9285" x="870.4" y="361.6" width="64" height="64" />
  <object id="206" gid="9308" x="790.4" y="377.6" width="64" height="64" />
  <object id="207" gid="9243" x="230.4" y="377.6" width="64" height="64" />
  <object id="208" gid="2147492851" x="4" y="379" width="64" height="64" />
  <object id="209" gid="9207" x="1340" y="383" width="64" height="64" />
  <object id="210" gid="9293" x="329.6" y="384" width="64" height="64" />
  <object id="211" gid="9210" x="944" y="390.4" width="64" height="64" />
  <object id="212" gid="9286" x="1078.4" y="393.6" width="64" height="64" />
  <object id="213" gid="9231" x="1158.4" y="396.8" width="64" height="64" />
  <object id="214" gid="9206" x="1232" y="406.4" width="64" height="64" />
  <object id="215" gid="9331" x="214.4" y="409.6" width="64" height="64" />
  <object id="216" gid="9247" x="908.8" y="422.4" width="64" height="64" />
  <object id="217" gid="9272" x="118.4" y="425.6" width="64" height="64" />
  <object id="218" gid="9298" x="444.8" y="435.2" width="64" height="64" />
  <object id="219" gid="9335" x="537.6" y="438.4" width="64" height="64" />
  <object id="220" gid="9312" x="25.6" y="441.6" width="64" height="64" />
  <object id="221" gid="9184" x="567" y="453" width="64" height="64" />
  <object id="222" gid="9235" x="915.2" y="454.4" width="64" height="64" />
  <object id="223" gid="9191" x="679" y="456" width="64" height="64" />
  <object id="224" gid="9255" x="550.4" y="459.2" width="64" height="64" />
  <object id="225" gid="9273" x="441.6" y="460.8" width="64" height="64" />
  <object id="226" gid="9188" x="595" y="463" width="64" height="64" />
  <object id="227" gid="9189" x="658" y="464" width="64" height="64" />
  <object id="228" gid="9241" x="352" y="464" width="64" height="64" />
  <object id="229" gid="9304" x="22.4" y="464" width="64" height="64" />
  <object id="230" gid="9285" x="220.8" y="473.6" width="64" height="64" />
  <object id="231" gid="9225" x="252.8" y="476.8" width="64" height="64" />
  <object id="232" gid="9218" x="470.4" y="483.2" width="64" height="64" />
  <object id="233" gid="9321" x="336" y="486.4" width="64" height="64" />
  <object id="234" gid="9308" x="99.2" y="486.4" width="64" height="64" />
  <object id="235" gid="9261" x="137.6" y="486.4" width="64" height="64" />
  <object id="236" gid="2147492854" x="1299.2" y="492.8" width="64" height="64" />
  <object id="237" gid="9283" x="1023" y="505" width="64" height="64" />
  <object id="238" gid="2147492851" x="1353" y="507" width="64" height="64" />
  <object id="239" gid="2147492858" x="1059.2" y="537.6" width="64" height="64" />
  <object id="240" gid="2147492935" x="1236" y="542" width="64" height="64" />
  <object id="241" gid="9219" x="270.4" y="552.8" width="64" height="64" />
  <object id="242" gid="9219" x="298.4" y="552.8" width="64" height="64" />
  <object id="243" gid="9219" x="326.4" y="552.8" width="64" height="64" />
  <object id="244" gid="9219" x="354.4" y="552.8" width="64" height="64" />
  <object id="245" gid="9219" x="382.4" y="552.8" width="64" height="64" />
  <object id="246" gid="9212" x="560" y="553.6" width="64" height="64" />
  <object id="247" gid="2147492851" x="1322" y="563" width="64" height="64" />
  <object id="248" gid="2147492855" x="1347" y="564" width="64" height="64" />
  <object id="249" gid="9224" x="604.8" y="569.6" width="64" height="64" />
  <object id="250" gid="9292" x="515.2" y="572.8" width="64" height="64" />
  <object id="251" gid="9326" x="265.6" y="574.4" width="64" height="64" />
  <object id="252" gid="9326" x="283.2" y="574.4" width="64" height="64" />
  <object id="253" gid="9326" x="300.8" y="574.4" width="64" height="64" />
  <object id="254" gid="9326" x="318.4" y="574.4" width="64" height="64" />
  <object id="255" gid="9326" x="336" y="574.4" width="64" height="64" />
  <object id="256" gid="9326" x="353.6" y="574.4" width="64" height="64" />
  <object id="257" gid="9326" x="371.2" y="574.4" width="64" height="64" />
  <object id="258" gid="9303" x="44.8" y="576" width="64" height="64" />
  <object id="259" gid="9303" x="63.2" y="576" width="64" height="64" />
  <object id="260" gid="9303" x="81.6" y="576" width="64" height="64" />
  <object id="261" gid="9303" x="100" y="576" width="64" height="64" />
  <object id="262" gid="9303" x="118.4" y="576" width="64" height="64" />
  <object id="263" gid="9303" x="136.8" y="576" width="64" height="64" />
  <object id="264" gid="9303" x="155.2" y="576" width="64" height="64" />
  <object id="265" gid="2147492851" x="1344" y="585" width="64" height="64" />
  <object id="266" gid="2147492935" x="1249" y="585" width="64" height="64" />
  <object id="267" gid="2147492938" x="470.4" y="588.8" width="64" height="64" />
  <object id="268" gid="9290" x="441.6" y="592" width="64" height="64" />
  <object id="269" gid="9207" x="-27" y="593" width="64" height="64" />
  <object id="270" gid="2147492851" x="1309" y="593" width="64" height="64" />
  <object id="271" gid="9290" x="505.6" y="596.8" width="64" height="64" />
  <object id="272" gid="9319" x="265.6" y="601.6" width="64" height="64" />
  <object id="273" gid="9319" x="283.2" y="601.6" width="64" height="64" />
  <object id="274" gid="9319" x="300.8" y="601.6" width="64" height="64" />
  <object id="275" gid="9319" x="318.4" y="601.6" width="64" height="64" />
  <object id="276" gid="9319" x="336" y="601.6" width="64" height="64" />
  <object id="277" gid="9319" x="353.6" y="601.6" width="64" height="64" />
  <object id="278" gid="9319" x="371.2" y="601.6" width="64" height="64" />
  <object id="279" gid="9319" x="388.8" y="601.6" width="64" height="64" />
  <object id="280" gid="2147492851" x="1327" y="606" width="64" height="64" />
  <object id="281" gid="9303" x="44.8" y="608" width="64" height="64" />
  <object id="282" gid="9303" x="63.2" y="608" width="64" height="64" />
  <object id="283" gid="9303" x="81.6" y="608" width="64" height="64" />
  <object id="284" gid="9303" x="100" y="608" width="64" height="64" />
  <object id="285" gid="9303" x="118.4" y="608" width="64" height="64" />
  <object id="286" gid="9303" x="136.8" y="608" width="64" height="64" />
  <object id="287" gid="9303" x="155.2" y="608" width="64" height="64" />
  <object id="288" gid="9295" x="182.4" y="608" width="64" height="64" />
  <object id="289" gid="9203" x="-13" y="614" width="64" height="64" />
  <object id="290" gid="9309" x="1005" y="615" width="64" height="64" />
  <object id="291" gid="9231" x="422.4" y="617.6" width="64" height="64" />
  <object id="292" gid="9221" x="329.6" y="619.2" width="64" height="64" />
  <object id="293" gid="9205" x="1370" y="620" width="64" height="64" />
  <object id="294" gid="9230" x="521.6" y="620.8" width="64" height="64" />
  <object id="295" gid="2147492938" x="454.4" y="622.4" width="64" height="64" />
  <object id="296" gid="9290" x="489.6" y="624" width="64" height="64" />
  <object id="297" gid="9224" x="1177.6" y="627.2" width="64" height="64" />
  <object id="298" gid="9343" x="265.6" y="628.8" width="64" height="64" />
  <object id="299" gid="9343" x="283.2" y="628.8" width="64" height="64" />
  <object id="300" gid="9343" x="300.8" y="628.8" width="64" height="64" />
  <object id="301" gid="9343" x="318.4" y="628.8" width="64" height="64" />
  <object id="302" gid="9343" x="336" y="628.8" width="64" height="64" />
  <object id="303" gid="9343" x="353.6" y="628.8" width="64" height="64" />
  <object id="304" gid="9343" x="371.2" y="628.8" width="64" height="64" />
  <object id="305" gid="9343" x="388.8" y="628.8" width="64" height="64" />
  <object id="306" gid="9318" x="1212.8" y="633.6" width="64" height="64" />
  <object id="307" gid="2147492853" x="1266" y="637" width="64" height="64" />
  <object id="308" gid="9203" x="-21" y="639" width="64" height="64" />
  <object id="309" gid="9303" x="44.8" y="640" width="64" height="64" />
  <object id="310" gid="9303" x="63.2" y="640" width="64" height="64" />
  <object id="311" gid="9303" x="81.6" y="640" width="64" height="64" />
  <object id="312" gid="9303" x="100" y="640" width="64" height="64" />
  <object id="313" gid="9303" x="118.4" y="640" width="64" height="64" />
  <object id="314" gid="2147492851" x="1324" y="644" width="64" height="64" />
  <object id="315" gid="2147492938" x="510.4" y="649.6" width="64" height="64" />
  <object id="316" gid="9210" x="1123.2" y="649.6" width="64" height="64" />
  <object id="317" gid="2147492931" x="1199" y="650" width="64" height="64" />
  <object id="318" gid="9290" x="476.8" y="654.4" width="64" height="64" />
  <object id="319" gid="9326" x="265.6" y="656" width="64" height="64" />
  <object id="320" gid="9326" x="283.2" y="656" width="64" height="64" />
  <object id="321" gid="9326" x="300.8" y="656" width="64" height="64" />
  <object id="322" gid="9326" x="318.4" y="656" width="64" height="64" />
  <object id="323" gid="9326" x="336" y="656" width="64" height="64" />
  <object id="324" gid="9326" x="353.6" y="656" width="64" height="64" />
  <object id="325" gid="9326" x="371.2" y="656" width="64" height="64" />
  <object id="326" gid="9326" x="388.8" y="656" width="64" height="64" />
  <object id="327" gid="2147492938" x="444.8" y="656" width="64" height="64" />
  <object id="328" gid="9300" x="595.2" y="656" width="64" height="64" />
  <object id="329" gid="9283" x="786" y="671" width="64" height="64" />
  <object id="330" gid="9287" x="825" y="672" width="64" height="64" />
  <object id="331" gid="9205" x="1329" y="676" width="64" height="64" />
  <object id="332" gid="2147492855" x="-11" y="677" width="64" height="64" />
  <object id="333" gid="2147492855" x="1311" y="689" width="64" height="64" />
  <object id="334" gid="9207" x="1338" y="694" width="64" height="64" />
  <object id="335" gid="2147492931" x="791" y="711" width="64" height="64" />
  <object id="336" gid="9205" x="1374" y="712" width="64" height="64" />
  <object id="337" gid="9347" x="-24" y="719.2" width="64" height="64" />
  <object id="338" gid="9347" x="-8" y="719.2" width="64" height="64" />
  <object id="339" gid="9347" x="8" y="719.2" width="64" height="64" />
  <object id="340" gid="9347" x="24" y="719.2" width="64" height="64" />
  <object id="341" gid="9347" x="40" y="719.2" width="64" height="64" />
  <object id="342" gid="9347" x="56" y="719.2" width="64" height="64" />
  <object id="343" gid="9347" x="72" y="719.2" width="64" height="64" />
  <object id="344" gid="9347" x="88" y="719.2" width="64" height="64" />
  <object id="345" gid="9347" x="104" y="719.2" width="64" height="64" />
  <object id="346" gid="9347" x="120" y="719.2" width="64" height="64" />
  <object id="347" gid="9347" x="136" y="719.2" width="64" height="64" />
  <object id="348" gid="9347" x="152" y="719.2" width="64" height="64" />
  <object id="349" gid="9347" x="168" y="719.2" width="64" height="64" />
  <object id="350" gid="9347" x="184" y="719.2" width="64" height="64" />
  <object id="351" gid="9347" x="200" y="719.2" width="64" height="64" />
  <object id="352" gid="9347" x="216" y="719.2" width="64" height="64" />
  <object id="353" gid="9347" x="264" y="719.2" width="64" height="64" />
  <object id="354" gid="9347" x="280" y="719.2" width="64" height="64" />
  <object id="355" gid="9347" x="296" y="719.2" width="64" height="64" />
  <object id="356" gid="9347" x="312" y="719.2" width="64" height="64" />
  <object id="357" gid="9347" x="328" y="719.2" width="64" height="64" />
  <object id="358" gid="9347" x="344" y="719.2" width="64" height="64" />
  <object id="359" gid="9347" x="360" y="719.2" width="64" height="64" />
  <object id="360" gid="9347" x="376" y="719.2" width="64" height="64" />
  <object id="361" gid="9347" x="392" y="719.2" width="64" height="64" />
  <object id="362" gid="9347" x="408" y="719.2" width="64" height="64" />
  <object id="363" gid="9347" x="424" y="719.2" width="64" height="64" />
  <object id="364" gid="9347" x="440" y="719.2" width="64" height="64" />
  <object id="365" gid="9347" x="456" y="719.2" width="64" height="64" />
  <object id="366" gid="9347" x="472" y="719.2" width="64" height="64" />
  <object id="367" gid="9347" x="488" y="719.2" width="64" height="64" />
  <object id="368" gid="9347" x="504" y="719.2" width="64" height="64" />
  <object id="369" gid="9347" x="520" y="719.2" width="64" height="64" />
  <object id="370" gid="9347" x="536" y="719.2" width="64" height="64" />
  <object id="371" gid="9347" x="552" y="719.2" width="64" height="64" />
  <object id="372" gid="9347" x="568" y="719.2" width="64" height="64" />
  <object id="373" gid="9347" x="616" y="719.2" width="64" height="64" />
  <object id="374" gid="9347" x="632" y="719.2" width="64" height="64" />
  <object id="375" gid="9207" x="1359" y="728" width="64" height="64" />
  <object id="376" gid="9203" x="1299" y="729" width="64" height="64" />
  <object id="377" gid="2147492931" x="638.4" y="734.4" width="64" height="64" />
  <object id="378" gid="2147492935" x="826" y="744" width="64" height="64" />
  <object id="379" gid="9284" x="642.4" y="750.4" width="64" height="64" />
  <object id="380" gid="9234" x="534.4" y="755.2" width="64" height="64" />
  <object id="381" gid="9205" x="1350" y="758" width="64" height="64" />
  <object id="382" gid="9289" x="425.6" y="758.4" width="64" height="64" />
  <object id="383" gid="9216" x="480" y="761.6" width="64" height="64" />
  <object id="384" gid="9203" x="1301" y="766" width="64" height="64" />
  <object id="385" gid="9283" x="638.4" y="766.4" width="64" height="64" />
  <object id="386" gid="2147492957" x="529" y="772" width="64" height="64" />
  <object id="387" gid="2147492853" x="811" y="772" width="64" height="64" />
  <object id="388" gid="9207" x="-9" y="782" width="64" height="64" />
  <object id="389" gid="2147492931" x="822" y="782" width="64" height="64" />
  <object id="390" gid="2147492931" x="642.4" y="782.4" width="64" height="64" />
  <object id="391" gid="9284" x="397" y="785" width="64" height="64" />
  <object id="392" gid="2147492957" x="444" y="787" width="64" height="64" />
  <object id="393" gid="9204" x="188.8" y="788.8" width="64" height="64" />
  <object id="394" gid="2147492851" x="1362" y="790" width="64" height="64" />
  <object id="395" gid="9204" x="51.2" y="790.4" width="64" height="64" />
  <object id="396" gid="2147492852" x="249.6" y="792" width="64" height="64" />
  <object id="397" gid="9263" x="201.6" y="793.6" width="64" height="64" />
  <object id="398" gid="2147492855" x="1271" y="794" width="64" height="64" />
  <object id="399" gid="2147492957" x="504" y="794" width="64" height="64" />
  <object id="400" gid="9207" x="1299" y="796" width="64" height="64" />
  <object id="401" gid="2147492858" x="1078.4" y="796.8" width="64" height="64" />
  <object id="402" gid="2147492852" x="110.4" y="796.8" width="64" height="64" />
  <object id="403" gid="9284" x="638.4" y="798.4" width="64" height="64" />
  <object id="404" gid="9309" x="487" y="800" width="64" height="64" />
  <object id="405" gid="9309" x="370" y="802" width="64" height="64" />
  <object id="406" gid="9231" x="153.6" y="806.4" width="64" height="64" />
  <object id="407" gid="9207" x="1328" y="809" width="64" height="64" />
  <object id="408" gid="9205" x="1292" y="810" width="64" height="64" />
  <object id="409" gid="2147492932" x="32" y="811" width="64" height="64" />
  <object id="410" gid="2147492931" x="1164" y="811" width="64" height="64" />
  <object id="411" gid="9309" x="385" y="812" width="64" height="64" />
  <object id="412" gid="9288" x="547.2" y="812.8" width="64" height="64" />
  <object id="413" gid="2147492851" x="-36" y="814" width="64" height="64" />
  <object id="414" gid="9283" x="642.4" y="814.4" width="64" height="64" />
  <object id="415" gid="2147492932" x="490" y="815" width="64" height="64" />
  <object id="416" gid="2147492942" x="423" y="816" width="64" height="64" />
  <object id="417" gid="2147492855" x="1245" y="819" width="64" height="64" />
  <object id="418" gid="2147492939" x="402" y="819" width="64" height="64" />
  <object id="419" gid="9340" x="451" y="820" width="64" height="64" />
  <object id="420" gid="2147492932" x="638.4" y="830.4" width="64" height="64" />
  <object id="421" gid="2147492857" x="1313" y="834" width="64" height="64" />
  <object id="422" gid="2147492957" x="471" y="838" width="64" height="64" />
  <object id="423" gid="9300" x="560" y="838.4" width="64" height="64" />
  <object id="424" gid="9205" x="1264" y="841" width="64" height="64" />
  <object id="425" gid="2147492851" x="1363" y="844" width="64" height="64" />
  <object id="426" gid="9309" x="519" y="844" width="64" height="64" />
  <object id="427" gid="9283" x="642.4" y="846.4" width="64" height="64" />
  <object id="428" gid="2147492853" x="-17" y="847" width="64" height="64" />
  <object id="429" gid="9203" x="883" y="847" width="64" height="64" />
  <object id="430" gid="9287" x="182.4" y="851.2" width="64" height="64" />
  <object id="431" gid="2147492852" x="211.2" y="854.4" width="64" height="64" />
  <object id="432" gid="2147492939" x="395" y="856" width="64" height="64" />
  <object id="433" gid="9204" x="289.6" y="860.8" width="64" height="64" />
  <object id="434" gid="9204" x="80" y="862.4" width="64" height="64" />
  <object id="435" gid="9283" x="638.4" y="862.4" width="64" height="64" />
  <object id="436" gid="2147492857" x="1372" y="866" width="64" height="64" />
  <object id="437" gid="2147492942" x="435" y="867" width="64" height="64" />
  <object id="438" gid="9294" x="581" y="867" width="64" height="64" />
  <object id="439" gid="9284" x="541" y="868" width="64" height="64" />
  <object id="440" gid="2147492851" x="1310" y="871" width="64" height="64" />
  <object id="441" gid="2147492851" x="1346" y="872" width="64" height="64" />
  <object id="442" gid="2147492851" x="1229" y="875" width="64" height="64" />
  <object id="443" gid="9207" x="1253" y="876" width="64" height="64" />
  <object id="444" gid="9287" x="140.8" y="876.8" width="64" height="64" />
  <object id="445" gid="2147492932" x="642.4" y="878.4" width="64" height="64" />
  <object id="446" gid="9294" x="455" y="882" width="64" height="64" />
  <object id="447" gid="2147492851" x="-25" y="883" width="64" height="64" />
  <object id="448" gid="2147492932" x="577" y="884" width="64" height="64" />
  <object id="449" gid="2147492988" x="347" y="885" width="64" height="64" />
  <object id="450" gid="2147492932" x="518" y="889" width="64" height="64" />
  <object id="451" gid="2147492851" x="1359" y="893" width="64" height="64" />
  <object id="452" gid="9283" x="638.4" y="894.4" width="64" height="64" />
  <object id="453" gid="2147492853" x="1226" y="896" width="64" height="64" />
  <object id="454" gid="9309" x="503" y="898" width="64" height="64" />
  <object id="455" gid="9291" x="548" y="898" width="64" height="64" />
  <object id="456" gid="2147492932" x="817" y="901" width="64" height="64" />
  <object id="457" gid="9203" x="1282" y="906" width="64" height="64" />
  <object id="458" gid="2147492851" x="1310" y="906" width="64" height="64" />
  <object id="459" gid="2147492932" x="883" y="907" width="64" height="64" />
  <object id="460" gid="9309" x="415" y="909" width="64" height="64" />
  <object id="461" gid="9284" x="642.4" y="910.4" width="64" height="64" />
  <object id="462" gid="2147492932" x="513" y="911" width="64" height="64" />
  <object id="463" gid="2147492957" x="443" y="914" width="64" height="64" />
  <object id="464" gid="2147492855" x="1" y="918" width="64" height="64" />
  <object id="465" gid="9203" x="1216" y="921" width="64" height="64" />
  <object id="466" gid="2147492988" x="460" y="924" width="64" height="64" />
  <object id="467" gid="2147492852" x="56" y="924.8" width="64" height="64" />
  <object id="468" gid="9294" x="412" y="926" width="64" height="64" />
  <object id="469" gid="2147492852" x="252.8" y="926.4" width="64" height="64" />
  <object id="470" gid="2147492931" x="638.4" y="926.4" width="64" height="64" />
  <object id="471" gid="2147492855" x="1261" y="929" width="64" height="64" />
  <object id="472" gid="2147492851" x="1322" y="929" width="64" height="64" />
  <object id="473" gid="2147492931" x="299" y="931" width="64" height="64" />
  <object id="474" gid="2147492932" x="405" y="931" width="64" height="64" />
  <object id="475" gid="9204" x="118.4" y="934.4" width="64" height="64" />
  <object id="476" gid="2147492855" x="1306" y="935" width="64" height="64" />
  <object id="477" gid="2147492957" x="478" y="935" width="64" height="64" />
  <object id="478" gid="9205" x="894" y="935" width="64" height="64" />
  <object id="479" gid="9309" x="341" y="936" width="64" height="64" />
  <object id="480" gid="2147492957" x="533" y="936" width="64" height="64" />
  <object id="481" gid="2147492853" x="822" y="939" width="64" height="64" />
  <object id="482" gid="2147492931" x="810" y="940" width="64" height="64" />
  <object id="483" gid="2147492851" x="-21" y="942" width="64" height="64" />
  <object id="484" gid="9291" x="386" y="942" width="64" height="64" />
  <object id="485" gid="9283" x="642.4" y="942.4" width="64" height="64" />
  <object id="486" gid="9294" x="431" y="948" width="64" height="64" />
  <object id="487" gid="2147492957" x="555" y="948" width="64" height="64" />
  <object id="488" gid="2147492957" x="489" y="952" width="64" height="64" />
  <object id="489" gid="2147492988" x="592" y="952" width="64" height="64" />
  <object id="490" gid="2147492957" x="521" y="953" width="64" height="64" />
  <object id="491" gid="9294" x="466" y="954" width="64" height="64" />
  <object id="492" gid="9205" x="1237" y="957" width="64" height="64" />
  <object id="493" gid="2147492957" x="404" y="958" width="64" height="64" />
  <object id="494" gid="9284" x="638.4" y="958.4" width="64" height="64" />
  <object id="495" gid="9203" x="1319" y="959" width="64" height="64" />
  <object id="496" gid="9203" x="1282" y="960" width="64" height="64" />
  <object id="497" gid="9283" x="298" y="960" width="64" height="64" />
  <object id="498" gid="9283" x="809" y="966" width="64" height="64" />
  <object id="499" gid="9203" x="18" y="967" width="64" height="64" />
  <object id="500" gid="9284" x="361" y="967" width="64" height="64" />
  <object id="501" gid="2147492853" x="968" y="969" width="64" height="64" />
  <object id="502" gid="9203" x="1362" y="969" width="64" height="64" />
  <object id="503" gid="2147492939" x="531" y="970" width="64" height="64" />
  <object id="504" gid="9203" x="-6" y="971" width="64" height="64" />
  <object id="505" gid="2147492939" x="429" y="971" width="64" height="64" />
  <object id="506" gid="2147492957" x="489" y="972" width="64" height="64" />
  <object id="507" gid="2147492939" x="558" y="973" width="64" height="64" />
  <object id="508" gid="2147492931" x="642.4" y="974.4" width="64" height="64" />
  <object id="509" gid="2147492855" x="1371" y="978" width="64" height="64" />
  <object id="510" gid="2147492851" x="997" y="979" width="64" height="64" />
  <object id="511" gid="2147492853" x="1278" y="982" width="64" height="64" />
  <object id="512" gid="2147492853" x="182" y="984" width="64" height="64" />
  <object id="513" gid="9203" x="989" y="984" width="64" height="64" />
  <object id="514" gid="2147492853" x="1096" y="984" width="64" height="64" />
  <object id="515" gid="2147492853" x="130" y="989" width="64" height="64" />
  <object id="516" gid="2147492851" x="213" y="989" width="64" height="64" />
  <object id="517" gid="2147492857" x="869" y="990" width="64" height="64" />
  <object id="518" gid="9203" x="1219" y="990" width="64" height="64" />
  <object id="519" gid="2147492957" x="498" y="990" width="64" height="64" />
  <object id="520" gid="9284" x="638.4" y="990.4" width="64" height="64" />
  <object id="521" gid="2147492851" x="-1" y="991" width="64" height="64" />
  <object id="522" gid="2147492851" x="71" y="992" width="64" height="64" />
  <object id="523" gid="9205" x="-29" y="993" width="64" height="64" />
  <object id="524" gid="2147492855" x="1061" y="994" width="64" height="64" />
  <object id="525" gid="2147492851" x="1337" y="994" width="64" height="64" />
  <object id="526" gid="2147492853" x="800" y="997" width="64" height="64" />
  <object id="527" gid="9205" x="421" y="1000" width="64" height="64" />
  <object id="528" gid="9203" x="567" y="1000" width="64" height="64" />
  <object id="529" gid="9205" x="1246" y="1000" width="64" height="64" />
  <object id="530" gid="2147492855" x="88" y="1011" width="64" height="64" />
  <object id="531" gid="2147492851" x="246" y="1011" width="64" height="64" />
  <object id="532" gid="9207" x="465" y="1011" width="64" height="64" />
  <object id="533" gid="2147492851" x="1126" y="1011" width="64" height="64" />
  <object id="534" gid="2147492851" x="301" y="1012" width="64" height="64" />
  <object id="535" gid="2147492853" x="1154" y="1013" width="64" height="64" />
  <object id="536" gid="9203" x="146" y="1014" width="64" height="64" />
  <object id="537" gid="9207" x="390" y="1015" width="64" height="64" />
  <object id="538" gid="9203" x="1224" y="1015" width="64" height="64" />
  <object id="539" gid="2147492853" x="1283" y="1015" width="64" height="64" />
  <object id="540" gid="2147492851" x="39" y="1016" width="64" height="64" />
  <object id="541" gid="2147492851" x="992" y="1016" width="64" height="64" />
  <object id="542" gid="2147492851" x="1341" y="1016" width="64" height="64" />
  <object id="543" gid="9203" x="967" y="1017" width="64" height="64" />
  <object id="544" gid="2147492851" x="272" y="1018" width="64" height="64" />
  <object id="545" gid="2147492855" x="863" y="1018" width="64" height="64" />
  <object id="546" gid="9207" x="1326" y="1020" width="64" height="64" />
  <object id="547" gid="9207" x="341" y="1021" width="64" height="64" />
  <object id="548" gid="2147492851" x="841" y="1021" width="64" height="64" />
  <object id="549" gid="9203" x="582" y="1024" width="64" height="64" />
  <object id="550" gid="9205" x="1070" y="1024" width="64" height="64" />
  <object id="551" gid="2147492855" x="526" y="1025" width="64" height="64" />
  <object id="552" gid="9203" x="-21" y="1026" width="64" height="64" />
  <object id="553" gid="9203" x="206" y="1026" width="64" height="64" />
  <object id="554" gid="2147492855" x="434" y="1026" width="64" height="64" />
  <object id="555" gid="9203" x="110" y="1027" width="64" height="64" />
  <object id="556" gid="9209" x="1026" y="1027" width="64" height="64" />
  <object id="557" gid="9203" x="1209" y="1027" width="64" height="64" />
  <object id="558" gid="9207" x="801" y="1028" width="64" height="64" />
 </objectgroup>
 <objectgroup id="8" name="Objects">
  <object id="559" x="40" y="512" name="start" type="start">
   <point />
  </object>
  <object id="560" x="640" y="448" name="inn-taproom" type="warp" width="32" height="16">
   <properties>
    <property name="goto" value="BloomvaleInn,15,19.5" />
   </properties>
  </object>
  <object id="561" x="704" y="432" name="inn-kitchen" type="warp" width="32" height="16">
   <properties>
    <property name="goto" value="BloomvaleInn,28,19.5" />
   </properties>
  </object>
  <object id="562" x="736" y="432" name="inn-stable" type="warp" width="32" height="16">
   <properties>
    <property name="goto" value="BloomvaleInn,36,19.5" />
   </properties>
  </object>
  <object id="563" x="304" y="336" name="mill" type="warp" width="32" height="16">
   <properties>
    <property name="goto" value="BloomvaleMill,7,9.5" />
   </properties>
  </object>
  <object id="564" x="416" y="464" name="baker-cottage" type="warp" width="16" height="16">
   <properties>
    <property name="goto" value="BloomvaleCottage,9,10.5" />
   </properties>
  </object>
  <object id="565" x="0" y="496" name="forest-road" type="warp" width="32" height="32">
   <properties>
    <property name="goto" value="Forest,41.5,7.5" />
   </properties>
  </object>
  <object id="566" x="528" y="0" name="amberwood-road" type="warp" width="48" height="32">
   <properties>
    <property name="goto" value="Amberwood,31.5,81.5" />
   </properties>
  </object>
  <object id="567" x="1376" y="416" name="sakura-road" type="warp" width="32" height="48">
   <properties>
    <property name="goto" value="Sakura,2.5,45" />
   </properties>
  </object>
  <object id="568" x="720" y="992" name="fen-path" type="warp" width="48" height="32">
   <properties>
    <property name="goto" value="Mirefen,28,2.5" />
   </properties>
  </object>
  <object id="569" x="446.4" y="598.4" name="farmer-girl" type="marker">
   <point />
  </object>
  <object id="570" x="16" y="736" name="boar-orchard" type="marker" width="352" height="256" />
  <object id="571" x="400" y="736" name="bee-meadow" type="marker" width="240" height="256" />
  <object id="572" x="0" y="96" type="safe-zone" width="992" height="608" />
  <object id="573" x="448" y="0" type="safe-zone" width="192" height="96" />
  <object id="574" x="992" y="224" type="safe-zone" width="416" height="800" />
  <object id="575" x="656" y="704" type="safe-zone" width="336" height="320" />
  <object id="576" x="0" y="0" name="bloomvale" type="soundscape" width="1408" height="1024">
   <properties>
    <property name="channel1" value="audio/music/forest.flac, 0.24" />
    <property name="channel2" value="audio/ambient/forest_air.flac, 0.3" />
   </properties>
  </object>
  <object id="577" x="928" y="0" name="brook" type="soundscape" width="208" height="1024">
   <properties>
    <property name="channel4" value="audio/ambient/lapping_water.flac, 0.3" />
    <property name="emit" value="2.0" type="float" />
   </properties>
  </object>
  <object id="578" x="1104" y="624" name="pond" type="soundscape" width="224" height="144">
   <properties>
    <property name="channel3" value="audio/ambient/lake.flac, 0.29" />
    <property name="emit" value="2.0" type="float" />
   </properties>
  </object>
 </objectgroup>
</map>