<?xml version='1.0' encoding='UTF-8'?>
<map version="1.10" tiledversion="1.11.0" orientation="orthogonal" renderorder="right-down" width="14" height="12" tilewidth="16" tileheight="16" infinite="0" nextlayerid="9" nextobjectid="27">
 <tileset firstgid="1" source="../tilesets/bloomvale-mill-terrain.tsx" />
 <tileset firstgid="41" source="../tilesets/bloomvale-mill-furniture.tsx" />
 <tileset firstgid="479" source="../tilesets/collision.tsx" />
 <tileset firstgid="481" source="../tilesets/bloomvale-mill-props.tsx" />
 <layer id="1" name="Floor" width="14" height="12">
  <data encoding="csv">
1,1,1,1,1,1,1,1,1,1,1,1,1,1,
1,1,1,1,1,1,1,1,1,1,1,1,1,1,
1,1,1,1,1,1,1,1,1,1,1,1,1,1,
1,1,1,1,1,1,1,1,1,1,1,1,1,1,
1,1,1,1,1,1,1,1,1,1,1,1,1,1,
1,1,1,1,1,1,1,1,1,1,1,1,1,1,
1,1,1,1,1,1,1,1,1,1,1,1,1,1,
1,1,1,1,1,1,1,1,1,1,1,1,1,1,
1,1,1,1,1,1,1,1,1,1,1,1,1,1,
1,1,1,1,1,1,1,1,1,1,1,1,1,1,
1,1,1,1,1,1,1,1,1,1,1,1,1,1,
1,1,1,1,1,1,1,1,1,1,1,1,1,1
</data>
 </layer>
 <layer id="2" name="Walls" width="14" height="12">
  <data encoding="csv">
7,7,7,7,7,7,7,7,7,7,7,7,7,7,
12,13,13,13,13,13,13,13,13,13,13,13,13,19,
15,16,16,16,16,16,16,16,16,16,16,16,16,22,
9,0,0,0,0,0,0,0,0,0,0,0,0,6,
9,0,0,0,0,0,0,0,0,0,0,0,0,6,
9,0,0,0,0,0,0,0,0,0,0,0,0,6,
9,0,0,0,0,0,0,0,0,0,0,0,0,6,
9,0,0,0,0,0,0,0,0,0,0,0,0,6,
9,0,0,0,0,0,0,0,0,0,0,0,0,6,
9,0,0,0,0,0,0,0,0,0,0,0,0,6,
10,3,3,3,3,4,0,0,2,3,3,3,3,11,
7,7,7,7,7,9,0,0,5,7,7,7,7,7
</data>
 </layer>
 <layer id="3" name="Rug" width="14" height="12">
  <data encoding="csv">
0,0,0,0,0,0,0,0,0,0,0,0,0,0,
0,0,0,0,0,0,0,0,0,0,0,0,0,0,
0,0,0,0,0,0,0,0,0,0,0,0,0,0,
0,0,0,0,0,0,0,0,0,0,0,0,0,0,
0,0,0,0,0,0,0,0,0,0,0,0,0,0,
0,0,0,0,0,0,0,0,0,0,0,0,0,0,
0,0,0,0,0,0,0,0,0,0,0,0,0,0,
0,0,0,0,0,0,0,0,0,0,0,0,0,0,
0,0,0,0,0,0,0,0,0,0,0,0,0,0,
0,0,0,0,0,0,0,0,0,0,0,0,0,0,
0,0,0,0,0,0,0,0,0,0,0,0,0,0,
0,0,0,0,0,0,0,0,0,0,0,0,0,0
</data>
 </layer>
 <layer id="4" name="Decor" width="14" height="12">
  <data encoding="csv">
0,0,0,0,0,0,0,0,0,0,0,0,0,0,
0,0,0,0,0,0,0,0,0,0,0,0,0,0,
0,0,0,0,0,0,0,0,0,0,0,0,0,0,
0,0,0,0,0,0,0,0,0,0,0,0,0,0,
0,0,0,0,0,0,0,0,0,0,0,0,0,0,
0,0,0,0,0,0,0,0,0,0,0,0,0,0,
0,0,0,0,0,0,0,0,0,0,0,0,0,0,
0,0,0,0,0,0,0,0,0,0,0,0,0,0,
0,0,0,0,0,0,0,0,0,0,0,0,0,0,
0,0,0,0,0,0,0,0,0,0,0,0,0,0,
0,0,0,0,0,0,0,0,0,0,0,0,0,0,
0,0,0,0,0,0,0,0,0,0,0,0,0,0
</data>
 </layer>
 <layer id="5" name="Dynamic" width="14" height="12">
  <data encoding="csv">
0,0,0,0,0,0,0,0,0,0,0,0,0,0,
0,0,0,0,0,0,0,0,0,0,0,0,0,0,
0,0,0,0,0,0,0,0,0,0,0,57,0,0,
0,0,0,0,0,0,0,0,0,0,0,58,0,0,
0,0,0,0,0,0,67,68,0,0,0,0,0,0,
0,0,0,0,0,0,69,70,0,0,0,0,0,0,
0,0,0,0,0,0,0,0,0,0,0,0,0,0,
0,0,0,0,0,0,0,0,0,0,0,0,0,0,
0,0,0,0,0,0,0,0,0,0,0,0,0,0,
0,0,0,0,0,0,0,0,0,0,0,0,0,0,
0,0,0,0,0,0,0,0,0,0,0,0,0,0,
0,0,0,0,0,0,0,0,0,0,0,0,0,0
</data>
 </layer>
 <layer id="6" name="Collision" width="14" height="12">
  <data encoding="csv">
480,480,480,480,480,480,480,480,480,480,480,480,480,480,
480,480,480,480,480,480,480,480,480,480,480,480,480,480,
480,480,480,480,480,480,480,480,480,480,480,480,480,480,
480,480,480,479,480,479,479,479,480,479,479,480,480,480,
480,479,479,479,479,479,479,479,479,479,479,479,479,480,
480,480,480,479,479,479,480,480,479,479,479,479,480,480,
480,480,479,479,479,480,480,480,479,479,479,480,480,480,
480,479,479,479,479,479,479,479,479,479,479,479,480,480,
480,480,480,480,479,479,479,479,479,479,480,479,479,480,
480,479,479,480,479,479,479,479,479,480,479,479,480,480,
480,480,480,480,480,480,479,479,480,480,480,480,480,480,
480,480,480,480,480,480,479,479,480,480,480,480,480,480
</data>
 </layer>
 <objectgroup id="7" name="Scenery">
  <object id="1" gid="585" x="-8" y="62" width="64" height="64" />
  <object id="2" gid="560" x="8" y="62" width="64" height="64" />
  <object id="3" gid="548" x="40" y="62" width="64" height="64" />
  <object id="4" gid="558" x="104" y="62" width="64" height="64" />
  <object id="5" gid="557" x="168" y="62" width="64" height="64" />
  <object id="6" gid="553" x="-8" y="94" width="64" height="64" />
  <object id="7" gid="587" x="8" y="94" width="64" height="64" />
  <object id="8" gid="545" x="168" y="94" width="64" height="64" />
  <object id="9" gid="607" x="56" y="110" width="64" height="64" />
  <object id="10" gid="555" x="72" y="110" width="64" height="64" />
  <object id="11" gid="563" x="88" y="110" width="64" height="64" />
  <object id="12" gid="553" x="-8" y="110" width="64" height="64" />
  <object id="13" gid="593" x="168" y="110" width="64" height="64" />
  <object id="14" gid="545" x="152" y="110" width="64" height="64" />
  <object id="15" gid="608" x="168" y="126" width="64" height="64" />
  <object id="16" gid="546" x="-8" y="142" width="64" height="64" />
  <object id="17" gid="551" x="8" y="142" width="64" height="64" />
  <object id="18" gid="561" x="136" y="142" width="64" height="64" />
  <object id="19" gid="576" x="24" y="142" width="64" height="64" />
  <object id="20" gid="556" x="24" y="158" width="64" height="64" />
  <object id="21" gid="559" x="120" y="158" width="64" height="64" />
  <object id="22" gid="606" x="168" y="158" width="64" height="64" />
 </objectgroup>
 <objectgroup id="8" name="Objects">
  <object id="23" x="112" y="152" name="start" type="start">
   <point />
  </object>
  <object id="24" x="96" y="160" name="front-door" type="warp" width="32" height="32">
   <properties>
    <property name="goto" value="Bloomvale,20,22.5" />
   </properties>
  </object>
  <object id="25" x="120" y="120" name="miller-stones" type="marker">
   <point />
  </object>
  <object id="26" x="16" y="48" name="mill-works" type="soundscape" width="192" height="112">
   <properties>
    <property name="channel3" value="audio/ambient/timbers.flac, 0.29" />
    <property name="emit" value="3.0" type="float" />
   </properties>
  </object>
 </objectgroup>
</map>