<?xml version='1.0' encoding='UTF-8'?>
<map version="1.10" tiledversion="1.11.0" orientation="orthogonal" renderorder="right-down" width="40" height="22" tilewidth="16" tileheight="16" infinite="0" nextlayerid="9" nextobjectid="46">
 <tileset firstgid="1" source="../tilesets/bloomvale-inn-terrain.tsx" />
 <tileset firstgid="41" source="../tilesets/bloomvale-inn-decor.tsx" />
 <tileset firstgid="61" source="../tilesets/bloomvale-inn-furniture.tsx" />
 <tileset firstgid="934" source="../tilesets/collision.tsx" />
 <tileset firstgid="936" source="../tilesets/bloomvale-inn-props.tsx" />
 <layer id="1" name="Floor" width="40" height="22">
  <data encoding="csv">
1,1,1,1,1,1,1,1,1,1,1,1,1,1,1,1,1,1,1,1,1,1,1,1,1,1,1,1,1,1,1,1,1,1,1,1,1,1,1,1,
1,1,1,1,1,1,1,1,1,1,1,1,1,1,1,1,1,1,1,1,1,1,1,1,1,1,1,1,1,1,1,1,1,1,1,1,1,1,1,1,
1,1,1,1,1,1,1,1,1,1,1,1,1,1,1,1,1,1,1,1,1,1,1,1,1,1,1,1,1,1,1,1,1,1,1,1,1,1,1,1,
1,1,1,1,1,1,1,1,1,1,1,1,1,1,1,1,1,1,1,1,1,1,1,1,1,1,1,1,1,1,1,1,1,1,1,1,1,1,1,1,
1,1,1,1,1,1,1,1,1,1,1,1,1,1,1,1,1,1,1,1,1,1,1,1,1,1,1,1,1,1,1,1,1,1,1,1,1,1,1,1,
1,1,1,1,1,1,1,1,1,1,1,1,1,1,1,1,1,1,1,1,1,1,1,1,1,1,1,1,1,1,1,1,1,1,1,1,1,1,1,1,
1,1,1,1,1,1,1,1,1,1,1,1,1,1,1,1,1,1,1,1,1,1,1,1,1,1,1,1,1,1,1,1,1,1,1,1,1,1,1,1,
1,1,1,1,1,1,1,1,1,1,1,1,1,1,1,1,1,1,1,1,1,1,1,1,1,1,1,1,1,1,1,1,1,1,1,1,1,1,1,1,
1,1,1,1,1,1,1,1,1,1,1,1,1,1,1,1,1,1,1,1,1,1,1,1,1,1,1,1,1,1,1,1,1,1,1,1,1,1,1,1,
1,1,1,1,1,1,1,1,1,1,1,1,1,1,1,1,1,1,1,1,1,1,1,1,1,1,1,1,1,1,1,1,1,1,1,1,1,1,1,1,
1,1,1,1,1,1,1,1,1,1,1,1,1,1,1,1,1,1,1,1,1,1,1,1,1,1,1,1,1,1,1,1,1,1,1,1,1,1,1,1,
1,1,1,1,1,1,1,1,1,1,1,1,1,1,1,1,1,1,1,1,1,1,1,1,1,1,1,1,1,1,1,1,1,1,1,1,1,1,1,1,
1,1,1,1,1,1,1,1,1,1,1,1,1,1,1,1,1,1,1,1,1,1,1,1,1,1,1,1,1,1,1,1,1,1,1,1,1,1,1,1,
1,1,1,1,1,1,1,1,1,1,1,1,1,1,1,1,1,1,1,1,1,1,1,1,1,1,1,1,1,1,1,1,1,1,1,1,1,1,1,1,
1,1,1,1,1,1,1,1,1,1,1,1,1,1,1,1,1,1,1,1,1,1,1,1,1,1,1,1,1,1,1,1,1,1,1,1,1,1,1,1,
1,1,1,1,1,1,1,1,1,1,1,1,1,1,1,1,1,1,1,1,1,1,1,1,1,1,1,1,1,1,1,1,1,1,1,1,1,1,1,1,
1,1,1,1,1,1,1,1,1,1,1,1,1,1,1,1,1,1,1,1,1,1,1,1,1,1,1,1,1,1,1,1,1,1,1,1,1,1,1,1,
1,1,1,1,1,1,1,1,1,1,1,1,1,1,1,1,1,1,1,1,1,1,1,1,1,1,1,1,1,1,1,1,1,1,1,1,1,1,1,1,
1,1,1,1,1,1,1,1,1,1,1,1,1,1,1,1,1,1,1,1,1,1,1,1,1,1,1,1,1,1,1,1,1,1,1,1,1,1,1,1,
1,1,1,1,1,1,1,1,1,1,1,1,1,1,1,1,1,1,1,1,1,1,1,1,1,1,1,1,1,1,1,1,1,1,1,1,1,1,1,1,
1,1,1,1,1,1,1,1,1,1,1,1,1,1,1,1,1,1,1,1,1,1,1,1,1,1,1,1,1,1,1,1,1,1,1,1,1,1,1,1,
1,1,1,1,1,1,1,1,1,1,1,1,1,1,1,1,1,1,1,1,1,1,1,1,1,1,1,1,1,1,1,1,1,1,1,1,1,1,1,1
</data>
 </layer>
 <layer id="2" name="Walls" width="40" height="22">
  <data encoding="csv">
7,7,7,7,7,7,7,7,7,7,7,7,7,7,7,7,7,7,7,7,7,7,7,7,7,7,7,7,7,7,7,7,7,7,7,7,7,7,7,7,
12,13,13,13,13,13,13,19,12,13,13,13,13,13,13,19,12,13,13,13,13,13,19,12,13,13,13,13,13,13,13,19,12,13,13,13,13,13,13,19,
15,16,16,16,16,16,16,22,15,16,16,16,16,16,16,22,15,16,16,16,16,16,22,15,16,16,16,16,16,16,16,22,15,16,16,16,16,16,16,22,
9,0,0,0,0,0,0,6,9,0,0,0,0,0,0,6,9,0,0,0,0,0,6,9,0,0,0,0,0,0,0,6,9,0,0,0,0,0,0,6,
9,0,0,0,0,0,0,6,9,0,0,0,0,0,0,6,9,0,0,0,0,0,6,9,0,0,0,0,0,0,0,6,9,0,0,0,0,0,0,6,
9,0,0,0,0,0,0,6,9,0,0,0,0,0,0,6,9,0,0,0,0,0,6,9,0,0,0,0,0,0,0,6,9,0,0,0,0,0,0,6,
9,0,0,0,0,0,0,6,9,0,0,0,0,0,0,6,9,0,0,0,0,0,6,9,0,0,0,0,0,0,0,6,9,0,0,0,0,0,0,6,
9,0,0,0,0,0,0,6,9,0,0,0,0,0,0,6,9,0,0,0,0,0,6,9,0,0,0,0,0,0,0,6,9,0,0,0,0,0,0,6,
9,0,0,0,0,0,0,6,9,0,0,0,0,0,0,6,9,0,0,0,0,0,6,9,0,0,0,0,0,0,0,6,9,0,0,0,0,0,0,6,
9,0,0,2,3,3,3,11,10,4,0,0,2,3,3,11,9,0,0,2,3,3,11,10,3,4,0,0,2,3,3,11,9,0,0,0,0,0,0,6,
9,0,0,18,13,13,13,13,13,14,0,0,18,13,13,13,14,0,0,18,13,13,19,12,13,14,0,0,18,13,13,19,9,0,0,0,0,0,0,6,
9,0,0,21,16,16,16,16,16,17,0,0,21,16,16,16,17,0,0,21,16,16,22,15,16,17,0,0,21,16,16,22,9,0,0,0,0,0,0,6,
9,0,0,0,0,0,0,0,0,0,0,0,0,0,0,0,0,0,0,0,0,0,6,9,0,0,0,0,0,0,0,6,9,0,0,0,0,0,0,6,
9,0,0,0,0,0,0,0,0,0,0,0,0,0,0,0,0,0,0,0,0,0,18,14,0,0,0,0,0,0,0,18,14,0,0,0,0,0,0,6,
9,0,0,0,0,0,0,0,0,0,0,0,0,0,0,0,0,0,0,0,0,0,21,17,0,0,0,0,0,0,0,21,17,0,0,0,0,0,0,6,
9,0,0,0,0,0,0,0,0,0,0,0,0,0,0,0,0,0,0,0,0,0,0,0,0,0,0,0,0,0,0,0,0,0,0,0,0,0,0,6,
9,0,0,0,0,0,0,0,0,0,0,0,0,0,0,0,0,0,0,0,0,0,0,0,0,0,0,0,0,0,0,0,0,0,0,0,0,0,0,6,
9,0,0,0,0,0,0,0,0,0,0,0,0,0,0,0,0,0,0,0,0,0,2,4,0,0,0,0,0,0,0,2,4,0,0,0,0,0,0,6,
9,0,0,0,0,0,0,0,0,0,0,0,0,0,0,0,0,0,0,0,0,0,5,9,0,0,0,0,0,0,0,5,9,0,0,0,0,0,0,6,
9,0,0,0,0,0,0,0,0,0,0,0,0,0,0,0,0,0,0,0,0,0,6,9,0,0,0,0,0,0,0,6,9,0,0,0,0,0,0,6,
10,3,3,3,3,3,3,3,3,3,3,3,3,4,0,0,2,3,3,3,3,3,11,10,3,3,4,0,0,2,3,11,10,3,4,0,0,2,3,11,
7,7,7,7,7,7,7,7,7,7,7,7,7,9,0,0,5,7,7,7,7,7,7,7,7,7,9,0,0,5,7,7,7,7,9,0,0,5,7,7
</data>
 </layer>
 <layer id="3" name="Rug" width="40" height="22">
  <data encoding="csv">
0,0,0,0,0,0,0,0,0,0,0,0,0,0,0,0,0,0,0,0,0,0,0,0,0,0,0,0,0,0,0,0,0,0,0,0,0,0,0,0,
0,0,0,0,0,0,0,0,0,0,0,0,0,0,0,0,0,0,0,0,0,0,0,0,0,0,0,0,0,0,0,0,0,0,0,0,0,0,0,0,
0,0,0,0,0,0,0,0,0,0,0,0,0,0,0,0,0,0,0,0,0,0,0,0,0,0,0,0,0,0,0,0,0,0,0,0,0,0,0,0,
0,0,0,0,0,0,0,0,0,0,0,0,0,0,0,0,0,0,0,0,0,0,0,0,0,0,0,0,0,0,0,0,0,0,0,0,0,0,0,0,
0,0,32,34,34,34,35,0,0,0,32,34,34,34,35,0,0,0,32,34,34,35,0,0,0,0,0,0,0,0,0,0,0,0,0,0,0,0,0,0,
0,0,36,37,37,37,27,0,0,0,36,37,37,37,27,0,0,0,36,37,37,27,0,0,0,0,0,0,0,0,0,0,0,0,0,0,0,0,0,0,
0,0,36,37,37,37,27,0,0,0,36,37,37,37,27,0,0,0,36,37,37,27,0,0,0,0,0,0,0,0,0,0,0,0,0,0,0,0,0,0,
0,0,36,37,37,37,27,0,0,0,36,37,37,37,27,0,0,0,36,37,37,27,0,0,0,0,0,0,0,0,0,0,0,0,0,0,0,0,0,0,
0,0,28,29,29,29,31,0,0,0,28,29,29,29,31,0,0,0,28,29,29,31,0,0,0,0,0,0,0,0,0,0,0,0,0,0,0,0,0,0,
0,0,0,0,0,0,0,0,0,0,0,0,0,0,0,0,0,0,0,0,0,0,0,0,0,0,0,0,0,0,0,0,0,0,0,0,0,0,0,0,
0,0,0,0,0,0,0,0,0,0,0,0,0,0,0,0,0,0,0,0,0,0,0,0,0,0,0,0,0,0,0,0,0,0,0,0,0,0,0,0,
0,0,0,0,0,0,0,0,0,0,0,0,0,0,0,0,0,0,0,0,0,0,0,0,0,0,0,0,0,0,0,0,0,0,0,0,0,0,0,0,
0,0,0,32,34,34,34,34,34,35,0,0,0,0,0,0,0,0,0,0,0,0,0,0,0,0,0,0,0,0,0,0,0,0,0,0,0,0,0,0,
0,0,0,36,37,37,37,37,37,27,0,0,0,0,0,0,0,0,0,0,0,0,0,0,0,0,0,0,0,0,0,0,0,0,0,0,0,0,0,0,
0,0,0,36,37,37,37,37,37,27,0,0,0,0,0,0,0,0,0,0,0,0,0,0,0,0,0,0,0,0,0,0,0,0,0,0,0,0,0,0,
0,0,0,36,37,37,37,37,37,27,0,0,0,0,0,0,0,0,0,0,0,0,0,0,0,0,0,0,0,0,0,0,0,0,0,0,0,0,0,0,
0,0,0,36,37,37,37,37,37,27,0,0,0,0,0,0,0,0,0,0,0,0,0,0,0,0,0,0,0,0,0,0,0,0,0,0,0,0,0,0,
0,0,0,28,29,29,29,29,29,31,0,0,0,0,0,0,0,0,0,0,0,0,0,0,0,0,0,0,0,0,0,0,0,0,0,0,0,0,0,0,
0,0,0,0,0,0,0,0,0,0,0,0,0,0,0,0,0,0,0,0,0,0,0,0,0,0,0,0,0,0,0,0,0,0,0,0,0,0,0,0,
0,0,0,0,0,0,0,0,0,0,0,0,0,0,0,0,0,0,0,0,0,0,0,0,0,0,0,0,0,0,0,0,0,0,0,0,0,0,0,0,
0,0,0,0,0,0,0,0,0,0,0,0,0,0,0,0,0,0,0,0,0,0,0,0,0,0,0,0,0,0,0,0,0,0,0,0,0,0,0,0,
0,0,0,0,0,0,0,0,0,0,0,0,0,0,0,0,0,0,0,0,0,0,0,0,0,0,0,0,0,0,0,0,0,0,0,0,0,0,0,0
</data>
 </layer>
 <layer id="4" name="Decor" width="40" height="22">
  <data encoding="csv">
0,0,0,0,0,0,0,0,0,0,0,0,0,0,0,0,0,0,0,0,0,0,0,0,0,0,0,0,0,0,0,0,0,0,0,0,0,0,0,0,
0,0,0,0,0,0,0,0,0,0,0,0,0,0,0,0,0,0,0,0,0,0,0,0,0,0,53,55,0,0,0,0,0,0,0,0,0,0,0,0,
0,0,0,0,0,0,0,0,0,0,0,0,0,0,0,0,0,0,0,0,0,0,0,0,0,0,54,56,0,0,0,0,0,0,0,0,0,0,0,0,
0,0,0,0,0,0,0,0,0,0,0,0,0,0,0,0,0,0,0,0,0,0,0,0,0,0,0,0,0,0,0,0,0,0,0,0,0,0,0,0,
0,0,0,0,0,0,0,0,0,0,0,0,0,0,0,0,0,0,0,0,0,0,0,0,0,0,0,0,0,0,0,0,0,0,0,0,0,0,0,0,
0,0,0,0,0,0,0,0,0,0,0,0,0,0,0,0,0,0,0,0,0,0,0,0,0,0,0,0,0,0,0,0,0,0,0,0,0,0,0,0,
0,0,0,0,0,0,0,0,0,0,0,0,0,0,0,0,0,0,0,0,0,0,0,0,0,0,0,0,0,0,0,0,0,0,0,0,0,0,0,0,
0,0,0,0,0,0,0,0,0,0,0,0,0,0,0,0,0,0,0,0,0,0,0,0,0,0,0,0,0,0,0,0,0,0,0,0,0,0,0,0,
0,0,0,0,0,0,0,0,0,0,0,0,0,0,0,0,0,0,0,0,0,0,0,0,0,0,0,0,0,0,0,0,0,0,0,0,0,0,0,0,
0,0,0,0,0,0,0,0,0,0,0,0,0,0,0,0,0,0,0,0,0,0,0,0,0,0,0,0,0,0,0,0,0,0,0,0,0,0,0,0,
0,0,0,0,0,0,0,41,42,0,0,0,45,46,0,49,50,0,0,0,0,0,0,0,0,0,0,0,57,58,0,0,0,0,0,0,0,0,0,0,
0,0,0,0,0,0,0,43,44,0,0,0,47,48,0,51,52,0,0,0,0,0,0,0,0,0,0,0,59,60,0,0,0,0,0,0,0,0,0,0,
0,0,0,0,0,0,0,0,0,0,0,0,0,0,0,0,0,0,0,0,0,0,0,0,0,0,0,0,0,0,0,0,0,0,0,0,0,0,0,0,
0,0,0,0,0,0,0,0,0,0,0,0,0,0,0,0,0,0,0,0,0,0,0,0,0,0,0,0,0,0,0,0,0,0,0,0,0,0,0,0,
0,0,0,0,0,0,0,0,0,0,0,0,0,0,0,0,0,0,0,0,0,0,0,0,0,0,0,0,0,0,0,0,0,0,0,0,0,0,0,0,
0,0,0,0,0,0,0,0,0,0,0,0,0,0,0,0,0,0,0,0,0,0,0,0,0,0,0,0,0,0,0,0,0,0,0,0,0,0,0,0,
0,0,0,0,0,0,0,0,0,0,0,0,0,0,0,0,0,0,0,0,0,0,0,0,0,0,0,0,0,0,0,0,0,0,0,0,0,0,0,0,
0,0,0,0,0,0,0,0,0,0,0,0,0,0,0,0,0,0,0,0,0,0,0,0,0,0,0,0,0,0,0,0,0,0,0,0,0,0,0,0,
0,0,0,0,0,0,0,0,0,0,0,0,0,0,0,0,0,0,0,0,0,0,0,0,0,0,0,0,0,0,0,0,0,0,0,0,0,0,0,0,
0,0,0,0,0,0,0,0,0,0,0,0,0,0,0,0,0,0,0,0,0,0,0,0,0,0,0,0,0,0,0,0,0,0,0,0,0,0,0,0,
0,0,0,0,0,0,0,0,0,0,0,0,0,0,0,0,0,0,0,0,0,0,0,0,0,0,0,0,0,0,0,0,0,0,0,0,0,0,0,0,
0,0,0,0,0,0,0,0,0,0,0,0,0,0,0,0,0,0,0,0,0,0,0,0,0,0,0,0,0,0,0,0,0,0,0,0,0,0,0,0
</data>
 </layer>
 <layer id="5" name="Dynamic" width="40" height="22">
  <data encoding="csv">
0,0,0,0,0,0,0,0,0,0,0,0,0,0,0,0,0,0,0,0,0,0,0,0,0,0,0,0,0,0,0,0,0,0,0,0,0,0,0,0,
0,0,0,0,0,0,0,0,0,0,0,0,0,0,0,0,0,0,0,0,0,0,0,0,0,0,0,0,0,0,0,0,0,0,0,0,0,0,0,0,
0,73,74,0,0,133,134,0,0,133,134,0,0,73,74,0,0,69,70,0,73,74,0,0,169,170,0,0,109,110,0,0,0,0,0,0,0,0,0,0,
0,75,76,0,0,135,136,0,0,135,136,0,0,75,76,0,0,71,72,0,75,76,0,0,171,172,0,0,111,112,0,0,0,0,0,0,0,0,0,0,
0,0,0,0,0,0,0,0,0,0,0,0,0,0,0,0,0,0,0,0,0,0,0,0,0,0,0,0,0,0,0,0,0,0,0,0,0,0,0,0,
0,0,0,0,0,0,0,0,0,0,0,0,0,0,0,0,0,0,0,0,0,0,0,0,217,218,0,0,0,281,282,0,0,0,0,0,0,0,0,0,
0,0,0,0,0,0,0,0,0,0,0,0,0,0,0,0,0,0,0,0,0,0,0,0,219,220,0,0,0,283,284,0,0,0,0,0,0,0,0,0,
0,0,0,0,0,0,0,0,0,0,0,0,0,0,0,0,0,0,0,0,0,0,0,0,231,232,0,0,0,0,0,0,0,0,0,0,0,0,0,0,
0,0,0,0,0,0,0,0,0,0,0,0,0,0,0,0,0,0,0,0,0,0,0,0,233,234,0,0,0,0,0,0,0,0,0,0,0,0,0,0,
0,0,0,0,0,0,0,0,0,0,0,0,0,0,0,0,0,0,0,0,0,0,0,0,0,0,0,0,0,0,0,0,0,0,0,0,0,0,0,0,
0,0,0,0,0,0,0,0,0,0,0,0,0,0,0,0,0,0,0,0,0,0,0,0,0,0,0,0,0,0,0,0,0,0,0,0,0,0,0,0,
0,0,0,129,130,149,150,0,0,0,0,0,0,0,0,0,0,0,0,0,169,170,0,0,209,210,0,0,0,0,0,0,0,0,0,0,0,0,0,0,
0,0,0,131,132,151,152,0,0,0,0,0,0,0,0,0,0,0,0,0,171,172,0,0,211,212,0,0,141,142,0,0,0,0,0,0,0,0,0,0,
0,0,0,0,0,0,0,0,0,0,0,0,0,0,65,66,0,0,271,272,109,110,0,0,0,0,0,0,143,144,0,0,0,0,0,0,0,0,0,0,
0,0,0,0,0,0,0,0,0,0,0,0,0,0,67,68,0,0,0,0,111,112,0,0,0,0,65,66,0,0,0,0,0,0,0,0,0,0,0,0,
0,0,0,0,77,78,0,0,0,0,0,0,0,0,271,272,0,0,0,0,0,0,0,0,0,0,67,68,0,0,0,0,0,0,0,0,0,0,0,0,
0,0,0,0,79,80,0,0,0,0,0,0,0,0,0,0,0,0,0,0,0,0,0,0,0,0,0,0,0,0,0,0,0,0,0,0,0,0,0,0,
0,0,0,0,0,0,0,0,0,0,0,0,0,0,0,0,0,0,0,0,0,0,0,0,0,0,0,0,0,0,0,0,0,0,0,0,0,0,0,0,
0,0,0,0,0,0,0,0,0,0,0,0,0,0,0,0,0,0,0,0,123,124,0,0,145,146,0,0,0,69,70,0,0,0,0,0,0,0,0,0,
0,0,0,0,0,0,0,0,0,0,0,0,0,0,0,0,0,0,0,0,125,126,0,0,147,148,0,0,0,71,72,0,0,0,0,0,0,0,0,0,
0,0,0,0,0,0,0,0,0,0,0,0,0,0,0,0,0,0,0,0,0,0,0,0,0,0,0,0,0,0,0,0,0,0,0,0,0,0,0,0,
0,0,0,0,0,0,0,0,0,0,0,0,0,0,0,0,0,0,0,0,0,0,0,0,0,0,0,0,0,0,0,0,0,0,0,0,0,0,0,0
</data>
 </layer>
 <layer id="6" name="Collision" width="40" height="22">
  <data encoding="csv">
935,935,935,935,935,935,935,935,935,935,935,935,935,935,935,935,935,935,935,935,935,935,935,935,935,935,935,935,935,935,935,935,935,935,935,935,935,935,935,935,
935,935,935,935,935,935,935,935,935,935,935,935,935,935,935,935,935,935,935,935,935,935,935,935,935,935,935,935,935,935,935,935,935,935,935,935,935,935,935,935,
935,935,935,935,935,935,935,935,935,935,935,935,935,935,935,935,935,935,935,935,935,935,935,935,935,935,935,935,935,935,935,935,935,935,935,935,935,935,935,935,
935,935,935,934,935,935,935,935,935,935,935,935,934,935,935,935,935,935,935,935,935,935,935,935,935,935,934,934,935,935,935,935,935,935,934,935,934,935,934,935,
935,934,934,934,934,934,934,935,935,934,934,934,934,934,934,935,935,934,934,934,934,934,935,935,934,934,934,934,934,934,934,935,935,934,934,934,934,934,934,935,
935,934,934,934,934,934,934,935,935,934,934,934,934,934,934,935,935,934,934,934,934,934,935,935,934,934,934,934,934,934,934,935,935,934,934,934,934,934,934,935,
935,934,934,934,934,934,934,935,935,934,934,934,934,934,934,935,935,934,934,934,934,935,935,935,935,935,934,934,934,935,935,935,935,935,934,934,934,934,934,935,
935,934,934,934,934,934,934,935,935,934,934,934,934,934,934,935,935,934,934,934,934,935,935,935,934,934,934,934,934,934,934,935,935,934,934,935,934,934,935,935,
935,934,934,934,934,934,935,935,935,934,934,934,934,934,935,935,935,934,934,934,934,935,935,935,935,935,934,934,934,935,935,935,935,935,934,934,934,934,934,935,
935,934,934,935,935,935,935,935,935,935,934,934,935,935,935,935,935,934,934,935,935,935,935,935,935,935,934,934,935,935,935,935,935,934,934,934,934,934,935,935,
935,934,934,935,935,935,935,935,935,935,934,934,935,935,935,935,935,934,934,935,935,935,935,935,935,935,934,934,935,935,935,935,935,934,934,934,934,934,934,935,
935,934,934,935,935,935,935,935,935,935,934,934,935,935,935,935,935,934,934,935,935,935,935,935,935,935,934,934,935,935,935,935,935,934,934,934,934,934,934,935,
935,934,934,935,935,935,935,934,934,934,934,934,934,934,934,934,934,934,934,934,935,935,935,935,935,935,934,934,934,934,935,935,935,934,935,934,934,934,935,935,
935,934,934,934,934,934,934,934,934,934,934,934,934,934,934,934,934,934,935,935,934,934,935,935,934,934,934,934,935,935,934,935,935,934,934,934,934,934,935,935,
935,934,934,934,934,934,934,934,934,935,935,935,934,934,935,935,934,934,934,934,935,935,935,935,934,934,934,934,934,934,934,935,935,934,934,934,934,934,934,935,
935,934,934,934,934,934,934,934,934,934,934,934,934,934,935,935,934,934,934,934,934,934,934,934,934,934,935,935,934,934,934,934,934,934,934,934,934,934,934,935,
935,934,934,934,935,935,934,934,934,934,934,934,934,934,934,934,934,934,934,934,934,934,934,934,934,934,934,934,934,934,934,934,934,934,934,934,934,934,934,935,
935,934,934,934,934,934,934,934,934,935,935,935,934,934,934,934,934,934,934,934,934,934,935,935,934,934,934,934,934,934,934,935,935,934,934,934,934,934,934,935,
935,934,934,934,934,934,934,934,934,934,934,934,934,934,934,934,935,935,935,934,934,934,935,935,934,934,934,934,934,934,934,935,935,935,934,934,934,935,934,935,
935,935,934,934,934,934,934,934,934,934,934,934,934,934,934,934,934,934,934,934,935,935,935,935,935,935,935,934,934,935,935,935,935,934,935,934,934,934,935,935,
935,935,935,935,935,935,935,935,935,935,935,935,935,935,934,934,935,935,935,935,935,935,935,935,935,935,935,934,934,935,935,935,935,935,935,934,934,935,935,935,
935,935,935,935,935,935,935,935,935,935,935,935,935,935,934,934,935,935,935,935,935,935,935,935,935,935,935,934,934,935,935,935,935,935,935,934,934,935,935,935
</data>
 </layer>
 <objectgroup id="7" name="Scenery">
  <object id="1" gid="1000" x="40" y="62" width="64" height="64" />
  <object id="2" gid="1043" x="152" y="62" width="64" height="64" />
  <object id="3" gid="1038" x="280" y="62" width="64" height="64" />
  <object id="4" gid="1175" x="456" y="62" width="64" height="64" />
  <object id="5" gid="1156" x="504" y="62.4" width="64" height="64" />
  <object id="6" gid="1156" x="528" y="62.4" width="64" height="64" />
  <object id="7" gid="1188" x="566.4" y="62.4" width="64" height="64" />
  <object id="8" gid="1146" x="505.6" y="108.8" width="64" height="64" />
  <object id="9" gid="1159" x="312" y="110" width="64" height="64" />
  <object id="10" gid="1146" x="531.2" y="118.4" width="64" height="64" />
  <object id="11" gid="1139" x="312" y="126" width="64" height="64" />
  <object id="12" gid="1133" x="584" y="126" width="64" height="64" />
  <object id="13" gid="1048" x="72" y="142" width="64" height="64" />
  <object id="14" gid="1048" x="200" y="142" width="64" height="64" />
  <object id="15" gid="1048" x="312" y="142" width="64" height="64" />
  <object id="16" gid="1051" x="440" y="142" width="64" height="64" />
  <object id="17" gid="1024" x="456" y="142" width="64" height="64" />
  <object id="18" gid="1129" x="504" y="144" width="64" height="64" />
  <object id="19" gid="1142" x="584" y="158" width="64" height="64" />
  <object id="20" gid="1054" x="456" y="206" width="64" height="64" />
  <object id="21" gid="1136" x="584" y="206" width="64" height="64" />
  <object id="22" gid="1189" x="520" y="206" width="64" height="64" />
  <object id="23" gid="1136" x="584" y="222" width="64" height="64" />
  <object id="24" gid="1031" x="136" y="238" width="64" height="64" />
  <object id="25" gid="1043" x="120" y="238" width="64" height="64" />
  <object id="26" gid="1000" x="152" y="238" width="64" height="64" />
  <object id="27" gid="1031" x="136" y="286" width="64" height="64" />
  <object id="28" gid="1043" x="120" y="286" width="64" height="64" />
  <object id="29" gid="1000" x="152" y="286" width="64" height="64" />
  <object id="30" gid="1031" x="248" y="302" width="64" height="64" />
  <object id="31" gid="1043" x="232" y="302" width="64" height="64" />
  <object id="32" gid="1000" x="264" y="302" width="64" height="64" />
  <object id="33" gid="1164" x="504" y="302" width="64" height="64" />
  <object id="34" gid="1185" x="568" y="302" width="64" height="64" />
  <object id="35" gid="1028" x="-8" y="318" width="64" height="64" />
  <object id="36" gid="1033" x="392" y="318" width="64" height="64" />
  <object id="37" gid="1140" x="520" y="318" width="64" height="64" />
  <object id="38" gid="1131" x="584" y="318" width="64" height="64" />
 </objectgroup>
 <objectgroup id="8" name="Objects">
  <object id="39" x="240" y="312" name="start" type="start">
   <point />
  </object>
  <object id="40" x="224" y="320" name="taproom-door" type="warp" width="32" height="32">
   <properties>
    <property name="goto" value="Bloomvale,41,29.5" />
   </properties>
  </object>
  <object id="41" x="432" y="320" name="kitchen-door" type="warp" width="32" height="32">
   <properties>
    <property name="goto" value="Bloomvale,45,28.5" />
   </properties>
  </object>
  <object id="42" x="560" y="320" name="stable-door" type="warp" width="32" height="32">
   <properties>
    <property name="goto" value="Bloomvale,47,28.5" />
   </properties>
  </object>
  <object id="43" x="96" y="232" name="inn-hearth" type="marker">
   <point />
  </object>
  <object id="44" x="64" y="176" name="hearth" type="soundscape" width="64" height="48">
   <properties>
    <property name="channel3" value="audio/ambient/campfire.flac, 0.29" />
    <property name="emit" value="3.0" type="float" />
   </properties>
  </object>
  <object id="45" x="384" y="176" name="cooking-fire" type="soundscape" width="48" height="48">
   <properties>
    <property name="channel4" value="audio/ambient/campfire.flac, 0.22" />
    <property name="emit" value="2.0" type="float" />
   </properties>
  </object>
 </objectgroup>
</map>