<?xml version='1.0' encoding='UTF-8'?>
<map version="1.10" tiledversion="1.11.0" orientation="orthogonal" renderorder="right-down" width="18" height="15" tilewidth="16" tileheight="16" infinite="0" nextlayerid="9" nextobjectid="7">
 <tileset firstgid="1" source="../tilesets/emberfall-shrine-terrain.tsx" />
 <tileset firstgid="41" source="../tilesets/emberfall-shrine-decor.tsx" />
 <tileset firstgid="53" source="../tilesets/emberfall-shrine-furniture.tsx" />
 <tileset firstgid="457" source="../tilesets/collision.tsx" />
 <tileset firstgid="459" source="../tilesets/emberfall-shrine-props.tsx" />
 <layer id="1" name="Floor" width="18" height="15">
  <data encoding="csv">
1,1,1,1,1,1,1,1,1,1,1,1,1,1,1,1,1,1,
1,1,1,1,1,1,1,1,1,1,1,1,1,1,1,1,1,1,
1,1,1,1,1,1,1,1,1,1,1,1,1,1,1,1,1,1,
1,1,1,1,1,1,1,1,1,1,1,1,1,1,1,1,1,1,
1,1,1,1,1,1,1,1,1,1,1,1,1,1,1,1,1,1,
1,1,1,1,1,1,1,1,1,1,1,1,1,1,1,1,1,1,
1,1,1,1,1,1,1,1,1,1,1,1,1,1,1,1,1,1,
1,1,1,1,1,1,1,1,1,1,1,1,1,1,1,1,1,1,
1,1,1,1,1,1,1,1,1,1,1,1,1,1,1,1,1,1,
1,1,1,1,1,1,1,1,1,1,1,1,1,1,1,1,1,1,
1,1,1,1,1,1,1,1,1,1,1,1,1,1,1,1,1,1,
1,1,1,1,1,1,1,1,1,1,1,1,1,1,1,1,1,1,
1,1,1,1,1,1,1,1,1,1,1,1,1,1,1,1,1,1,
1,1,1,1,1,1,1,1,1,1,1,1,1,1,1,1,1,1,
1,1,1,1,1,1,1,1,1,1,1,1,1,1,1,1,1,1
</data>
 </layer>
 <layer id="2" name="Walls" width="18" height="15">
  <data encoding="csv">
7,7,7,7,7,7,7,7,7,7,7,7,7,7,7,7,7,7,
12,13,13,13,13,13,13,13,13,13,13,13,13,13,13,13,13,19,
15,16,16,16,16,16,16,16,16,16,16,16,16,16,16,16,16,22,
9,0,0,0,0,0,0,0,0,0,0,0,0,0,0,0,0,6,
9,0,0,0,0,0,0,0,0,0,0,0,0,0,0,0,0,6,
9,0,0,0,0,0,0,0,0,0,0,0,0,0,0,0,0,6,
9,0,0,0,0,0,0,0,0,0,0,0,0,0,0,0,0,6,
9,0,0,0,0,0,0,0,0,0,0,0,0,0,0,0,0,6,
9,0,0,0,0,0,0,0,0,0,0,0,0,0,0,0,0,6,
9,0,0,0,0,0,0,0,0,0,0,0,0,0,0,0,0,6,
9,0,0,0,0,0,0,0,0,0,0,0,0,0,0,0,0,6,
9,0,0,0,0,0,0,0,0,0,0,0,0,0,0,0,0,6,
9,0,0,0,0,0,0,0,0,0,0,0,0,0,0,0,0,6,
10,3,3,3,3,3,3,4,0,0,2,3,3,3,3,3,3,11,
7,7,7,7,7,7,7,9,0,0,5,7,7,7,7,7,7,7
</data>
 </layer>
 <layer id="3" name="Rug" width="18" height="15">
  <data encoding="csv">
0,0,0,0,0,0,0,0,0,0,0,0,0,0,0,0,0,0,
0,0,0,0,0,0,0,0,0,0,0,0,0,0,0,0,0,0,
0,0,0,0,0,0,0,0,0,0,0,0,0,0,0,0,0,0,
0,0,0,0,0,0,0,0,0,0,0,0,0,0,0,0,0,0,
0,0,0,0,0,0,0,32,34,34,35,0,0,0,0,0,0,0,
0,0,0,0,0,0,0,36,37,37,27,0,0,0,0,0,0,0,
0,0,0,0,0,0,0,36,37,37,27,0,0,0,0,0,0,0,
0,0,0,0,0,0,0,36,37,37,27,0,0,0,0,0,0,0,
0,0,0,0,0,0,0,36,37,37,27,0,0,0,0,0,0,0,
0,0,0,0,0,0,0,36,37,37,27,0,0,0,0,0,0,0,
0,0,0,0,0,0,0,36,37,37,27,0,0,0,0,0,0,0,
0,0,0,0,0,0,0,36,37,37,27,0,0,0,0,0,0,0,
0,0,0,0,0,0,0,36,37,37,27,0,0,0,0,0,0,0,
0,0,0,0,0,0,0,0,29,29,0,0,0,0,0,0,0,0,
0,0,0,0,0,0,0,0,0,0,0,0,0,0,0,0,0,0
</data>
 </layer>
 <layer id="4" name="Decor" width="18" height="15">
  <data encoding="csv">
0,0,0,0,0,0,0,0,0,0,0,0,0,0,0,0,0,0,
0,0,0,41,42,0,0,0,0,0,0,0,0,45,46,49,50,0,
0,0,0,43,44,0,0,0,0,0,0,0,0,47,48,51,52,0,
0,0,0,0,0,0,0,0,0,0,0,0,0,0,0,0,0,0,
0,0,0,0,0,0,0,0,0,0,0,0,0,0,0,0,0,0,
0,0,0,0,0,0,0,0,0,0,0,0,0,0,0,0,0,0,
0,0,0,0,0,0,0,0,0,0,0,0,0,0,0,0,0,0,
0,0,0,0,0,0,0,0,0,0,0,0,0,0,0,0,0,0,
0,0,0,0,0,0,0,0,0,0,0,0,0,0,0,0,0,0,
0,0,0,0,0,0,0,0,0,0,0,0,0,0,0,0,0,0,
0,0,0,0,0,0,0,0,0,0,0,0,0,0,0,0,0,0,
0,0,0,0,0,0,0,0,0,0,0,0,0,0,0,0,0,0,
0,0,0,0,0,0,0,0,0,0,0,0,0,0,0,0,0,0,
0,0,0,0,0,0,0,0,0,0,0,0,0,0,0,0,0,0,
0,0,0,0,0,0,0,0,0,0,0,0,0,0,0,0,0,0
</data>
 </layer>
 <layer id="5" name="Dynamic" width="18" height="15">
  <data encoding="csv">
0,0,0,0,0,0,0,0,0,0,0,0,0,0,0,0,0,0,
0,0,0,0,0,0,0,0,0,0,0,0,0,0,0,0,0,0,
0,0,0,0,0,0,0,0,0,0,0,0,0,0,0,0,0,0,
0,0,0,0,57,58,61,0,53,54,0,61,57,58,0,153,154,0,
0,0,0,0,59,60,62,0,55,56,0,62,59,60,0,155,156,0,
0,0,0,0,0,0,0,0,0,0,0,0,0,0,0,0,0,0,
0,0,0,0,0,0,0,0,0,0,0,0,0,0,0,339,340,0,
0,0,0,67,68,0,0,0,0,0,0,0,67,68,0,79,80,0,
0,0,0,69,70,0,0,0,0,0,0,0,69,70,0,81,82,0,
0,281,282,0,0,0,0,0,0,0,0,0,0,0,0,0,0,0,
0,283,284,67,68,0,0,0,0,0,0,0,67,68,0,0,0,0,
0,157,158,69,70,91,92,0,0,0,0,0,69,70,0,0,0,0,
0,159,160,0,0,93,94,0,0,0,0,0,0,0,0,0,0,0,
0,0,0,0,0,0,0,0,0,0,0,0,0,0,0,0,0,0,
0,0,0,0,0,0,0,0,0,0,0,0,0,0,0,0,0,0
</data>
 </layer>
 <layer id="6" name="Collision" width="18" height="15">
  <data encoding="csv">
458,458,458,458,458,458,458,458,458,458,458,458,458,458,458,458,458,458,
458,458,458,458,458,458,458,458,458,458,458,458,458,458,458,458,458,458,
458,458,458,458,458,458,458,458,458,458,458,458,458,458,458,458,458,458,
458,457,457,457,457,457,457,457,457,457,457,457,457,457,457,457,457,458,
458,457,457,457,458,458,458,457,458,458,457,458,458,458,457,458,458,458,
458,457,457,457,457,457,457,458,457,457,458,457,457,457,457,457,457,458,
458,457,457,457,457,457,457,457,457,457,457,457,457,457,457,458,458,458,
458,457,457,457,457,457,457,457,457,457,457,457,457,457,457,457,457,458,
458,457,457,458,458,457,457,457,457,457,457,457,458,458,457,458,458,458,
458,457,457,457,457,457,457,457,457,457,457,457,457,457,457,457,457,458,
458,458,458,457,457,457,457,457,457,457,457,457,457,457,457,457,457,458,
458,457,457,458,458,457,457,457,457,457,457,457,458,458,457,457,457,458,
458,458,458,457,457,458,458,457,457,457,457,457,457,457,457,457,457,458,
458,458,458,458,458,458,458,458,457,457,458,458,458,458,458,458,458,458,
458,458,458,458,458,458,458,458,457,457,458,458,458,458,458,458,458,458
</data>
 </layer>
 <objectgroup id="7" name="Scenery">
  <object id="1" gid="528" x="88" y="94" width="64" height="64" />
  <object id="2" gid="524" x="136" y="94" width="64" height="64" />
 </objectgroup>
 <objectgroup id="8" name="Objects">
  <object id="3" x="144" y="200" name="start" type="start">
   <point />
  </object>
  <object id="4" x="128" y="208" name="front-door" type="warp" width="32" height="32">
   <properties>
    <property name="goto" value="Emberfall,50.5,30.5" />
   </properties>
  </object>
  <object id="5" x="144" y="105.6" name="fire-altar" type="marker">
   <point />
  </object>
  <object id="6" x="96" y="48" name="eternal-flame" type="soundscape" width="96" height="64">
   <properties>
    <property name="channel3" value="audio/ambient/campfire.flac, 0.29" />
    <property name="emit" value="3.0" type="float" />
   </properties>
  </object>
 </objectgroup>
</map>