<?xml version='1.0' encoding='UTF-8'?>
<map version="1.10" tiledversion="1.11.0" orientation="orthogonal" renderorder="right-down" width="86" height="60" tilewidth="16" tileheight="16" infinite="0" nextlayerid="9" nextobjectid="681">
 <tileset firstgid="1" source="../tilesets/emberfall-ground.tsx" />
 <tileset firstgid="1601" source="../tilesets/emberfall-overlay.tsx" />
 <tileset firstgid="2213" source="../tilesets/emberfall-patch.tsx" />
 <tileset firstgid="3813" source="../tilesets/emberfall-path.tsx" />
 <tileset firstgid="5413" source="../tilesets/buildings.tsx" />
 <tileset firstgid="7156" source="../tilesets/emberfall-decor.tsx" />
 <tileset firstgid="7224" source="../tilesets/collision.tsx" />
 <tileset firstgid="7226" source="../tilesets/embellishments.tsx" />
 <tileset firstgid="7274" source="../tilesets/emberfall-props.tsx" />
 <layer id="1" name="Ground" width="86" height="60">
  <data encoding="csv">
1,2,3,4,5,6,7,8,9,10,11,12,13,14,15,16,17,18,19,20,21,22,23,24,25,26,27,28,29,30,31,32,33,34,35,36,37,38,39,40,1,2,3,4,5,6,7,8,9,10,11,12,13,14,15,16,17,18,19,20,21,22,23,24,25,26,27,28,29,30,31,32,33,34,35,36,37,38,39,40,1,2,3,4,5,6,
41,42,43,44,45,46,47,48,49,50,51,52,53,54,55,56,57,58,59,60,61,62,63,64,65,66,67,68,69,70,71,72,73,74,75,76,77,78,79,80,41,42,43,44,45,46,47,48,49,50,51,52,53,54,55,56,57,58,59,60,61,62,63,64,65,66,67,68,69,70,71,72,73,74,75,76,77,78,79,80,41,42,43,44,45,46,
81,82,83,84,85,86,87,88,89,90,91,92,93,94,95,96,97,98,99,100,101,102,103,104,105,106,107,108,109,110,111,112,113,114,115,116,117,118,119,120,81,82,83,84,85,86,87,88,89,90,91,92,93,94,95,96,97,98,99,100,101,102,103,104,105,106,107,108,109,110,111,112,113,114,115,116,117,118,119,120,81,82,83,84,85,86,
121,122,123,124,125,126,127,128,129,130,131,132,133,134,135,136,137,138,139,140,141,142,143,144,145,146,147,148,149,150,151,152,153,154,155,156,157,158,159,160,121,122,123,124,125,126,127,128,129,130,131,132,133,134,135,136,137,138,139,140,141,142,143,144,145,146,147,148,149,150,151,152,153,154,155,156,157,158,159,160,121,122,123,124,125,126,
161,162,163,164,165,166,167,168,169,170,171,172,173,174,175,176,177,178,179,180,181,182,183,184,185,186,187,188,189,190,191,192,193,194,195,196,197,198,199,200,161,162,163,164,165,166,167,168,169,170,171,172,173,174,175,176,177,178,179,180,181,182,183,184,185,186,187,188,189,190,191,192,193,194,195,196,197,198,199,200,161,162,163,164,165,166,
201,202,203,204,205,206,207,208,209,210,211,212,213,214,215,216,217,218,219,220,221,222,223,224,225,226,227,228,229,230,231,232,233,234,235,236,237,238,239,240,201,202,203,204,205,206,207,208,209,210,211,212,213,214,215,216,217,218,219,220,221,222,223,224,225,226,227,228,229,230,231,232,233,234,235,236,237,238,239,240,201,202,203,204,205,206,
241,242,243,244,245,246,247,248,249,250,251,252,253,254,255,256,257,258,259,260,261,262,263,264,265,266,267,268,269,270,271,272,273,274,275,276,277,278,279,280,241,242,243,244,245,246,247,248,249,250,251,252,253,254,255,256,257,258,259,260,261,262,263,264,265,266,267,268,269,270,271,272,273,274,275,276,277,278,279,280,241,242,243,244,245,246,
281,282,283,284,285,286,287,288,289,290,291,292,293,294,295,296,297,298,299,300,301,302,303,304,305,306,307,308,309,310,311,312,313,314,315,316,317,318,319,320,281,282,283,284,285,286,287,288,289,290,291,292,293,294,295,296,297,298,299,300,301,302,303,304,305,306,307,308,309,310,311,312,313,314,315,316,317,318,319,320,281,282,283,284,285,286,
321,322,323,324,325,326,327,328,329,330,331,332,333,334,335,336,337,338,339,340,341,342,343,344,345,346,347,348,349,350,351,352,353,354,355,356,357,358,359,360,321,322,323,324,325,326,327,328,329,330,331,332,333,334,335,336,337,338,339,340,341,342,343,344,345,346,347,348,349,350,351,352,353,354,355,356,357,358,359,360,321,322,323,324,325,326,
361,362,363,364,365,366,367,368,369,370,371,372,373,374,375,376,377,378,379,380,381,382,383,384,385,386,387,388,389,390,391,392,393,394,395,396,397,398,399,400,361,362,363,364,365,366,367,368,369,370,371,372,373,374,375,376,377,378,379,380,381,382,383,384,385,386,387,388,389,390,391,392,393,394,395,396,397,398,399,400,361,362,363,364,365,366,
401,402,403,404,405,406,407,408,409,410,411,412,413,414,415,416,417,418,419,420,421,422,423,424,425,426,427,428,429,430,431,432,433,434,435,436,437,438,439,440,401,402,403,404,405,406,407,408,409,410,411,412,413,414,415,416,417,418,419,420,421,422,423,424,425,426,427,428,429,430,431,432,433,434,435,436,437,438,439,440,401,402,403,404,405,406,
441,442,443,444,445,446,447,448,449,450,451,452,453,454,455,456,457,458,459,460,461,462,463,464,465,466,467,468,469,470,471,472,473,474,475,476,477,478,479,480,441,442,443,444,445,446,447,448,449,450,451,452,453,454,455,456,457,458,459,460,461,462,463,464,465,466,467,468,469,470,471,472,473,474,475,476,477,478,479,480,441,442,443,444,445,446,
481,482,483,484,485,486,487,488,489,490,491,492,493,494,495,496,497,498,499,500,501,502,503,504,505,506,507,508,509,510,511,512,513,514,515,516,517,518,519,520,481,482,483,484,485,486,487,488,489,490,491,492,493,494,495,496,497,498,499,500,501,502,503,504,505,506,507,508,509,510,511,512,513,514,515,516,517,518,519,520,481,482,483,484,485,486,
521,522,523,524,525,526,527,528,529,530,531,532,533,534,535,536,537,538,539,540,541,542,543,544,545,546,547,548,549,550,551,552,553,554,555,556,557,558,559,560,521,522,523,524,525,526,527,528,529,530,531,532,533,534,535,536,537,538,539,540,541,542,543,544,545,546,547,548,549,550,551,552,553,554,555,556,557,558,559,560,521,522,523,524,525,526,
561,562,563,564,565,566,567,568,569,570,571,572,573,574,575,576,577,578,579,580,581,582,583,584,585,586,587,588,589,590,591,592,593,594,595,596,597,598,599,600,561,562,563,564,565,566,567,568,569,570,571,572,573,574,575,576,577,578,579,580,581,582,583,584,585,586,587,588,589,590,591,592,593,594,595,596,597,598,599,600,561,562,563,564,565,566,
601,602,603,604,605,606,607,608,609,610,611,612,613,614,615,616,617,618,619,620,621,622,623,624,625,626,627,628,629,630,631,632,633,634,635,636,637,638,639,640,601,602,603,604,605,606,607,608,609,610,611,612,613,614,615,616,617,618,619,620,621,622,623,624,625,626,627,628,629,630,631,632,633,634,635,636,637,638,639,640,601,602,603,604,605,606,
641,642,643,644,645,646,647,648,649,650,651,652,653,654,655,656,657,658,659,660,661,662,663,664,665,666,667,668,669,670,671,672,673,674,675,676,677,678,679,680,641,642,643,644,645,646,647,648,649,650,651,652,653,654,655,656,657,658,659,660,661,662,663,664,665,666,667,668,669,670,671,672,673,674,675,676,677,678,679,680,641,642,643,644,645,646,
681,682,683,684,685,686,687,688,689,690,691,692,693,694,695,696,697,698,699,700,701,702,703,704,705,706,707,708,709,710,711,712,713,714,715,716,717,718,719,720,681,682,683,684,685,686,687,688,689,690,691,692,693,694,695,696,697,698,699,700,701,702,703,704,705,706,707,708,709,710,711,712,713,714,715,716,717,718,719,720,681,682,683,684,685,686,
721,722,723,724,725,726,727,728,729,730,731,732,733,734,735,736,737,738,739,740,741,742,743,744,745,746,747,748,749,750,751,752,753,754,755,756,757,758,759,760,721,722,723,724,725,726,727,728,729,730,731,732,733,734,735,736,737,738,739,740,741,742,743,744,745,746,747,748,749,750,751,752,753,754,755,756,757,758,759,760,721,722,723,724,725,726,
761,762,763,764,765,766,767,768,769,770,771,772,773,774,775,776,777,778,779,780,781,782,783,784,785,786,787,788,789,790,791,792,793,794,795,796,797,798,799,800,761,762,763,764,765,766,767,768,769,770,771,772,773,774,775,776,777,778,779,780,781,782,783,784,785,786,787,788,789,790,791,792,793,794,795,796,797,798,799,800,761,762,763,764,765,766,
801,802,803,804,805,806,807,808,809,810,811,812,813,814,815,816,817,818,819,820,821,822,823,824,825,826,827,828,829,830,831,832,833,834,835,836,837,838,839,840,801,802,803,804,805,806,807,808,809,810,811,812,813,814,815,816,817,818,819,820,821,822,823,824,825,826,827,828,829,830,831,832,833,834,835,836,837,838,839,840,801,802,803,804,805,806,
841,842,843,844,845,846,847,848,849,850,851,852,853,854,855,856,857,858,859,860,861,862,863,864,865,866,867,868,869,870,871,872,873,874,875,876,877,878,879,880,841,842,843,844,845,846,847,848,849,850,851,852,853,854,855,856,857,858,859,860,861,862,863,864,865,866,867,868,869,870,871,872,873,874,875,876,877,878,879,880,841,842,843,844,845,846,
881,882,883,884,885,886,887,888,889,890,891,892,893,894,895,896,897,898,899,900,901,902,903,904,905,906,907,908,909,910,911,912,913,914,915,916,917,918,919,920,881,882,883,884,885,886,887,888,889,890,891,892,893,894,895,896,897,898,899,900,901,902,903,904,905,906,907,908,909,910,911,912,913,914,915,916,917,918,919,920,881,882,883,884,885,886,
921,922,923,924,925,926,927,928,929,930,931,932,933,934,935,936,937,938,939,940,941,942,943,944,945,946,947,948,949,950,951,952,953,954,955,956,957,958,959,960,921,922,923,924,925,926,927,928,929,930,931,932,933,934,935,936,937,938,939,940,941,942,943,944,945,946,947,948,949,950,951,952,953,954,955,956,957,958,959,960,921,922,923,924,925,926,
961,962,963,964,965,966,967,968,969,970,971,972,973,974,975,976,977,978,979,980,981,982,983,984,985,986,987,988,989,990,991,992,993,994,995,996,997,998,999,1000,961,962,963,964,965,966,967,968,969,970,971,972,973,974,975,976,977,978,979,980,981,982,983,984,985,986,987,988,989,990,991,992,993,994,995,996,997,998,999,1000,961,962,963,964,965,966,
1001,1002,1003,1004,1005,1006,1007,1008,1009,1010,1011,1012,1013,1014,1015,1016,1017,1018,1019,1020,1021,1022,1023,1024,1025,1026,1027,1028,1029,1030,1031,1032,1033,1034,1035,1036,1037,1038,1039,1040,1001,1002,1003,1004,1005,1006,1007,1008,1009,1010,1011,1012,1013,1014,1015,1016,1017,1018,1019,1020,1021,1022,1023,1024,1025,1026,1027,1028,1029,1030,1031,1032,1033,1034,1035,1036,1037,1038,1039,1040,1001,1002,1003,1004,1005,1006,
1041,1042,1043,1044,1045,1046,1047,1048,1049,1050,1051,1052,1053,1054,1055,1056,1057,1058,1059,1060,1061,1062,1063,1064,1065,1066,1067,1068,1069,1070,1071,1072,1073,1074,1075,1076,1077,1078,1079,1080,1041,1042,1043,1044,1045,1046,1047,1048,1049,1050,1051,1052,1053,1054,1055,1056,1057,1058,1059,1060,1061,1062,1063,1064,1065,1066,1067,1068,1069,1070,1071,1072,1073,1074,1075,1076,1077,1078,1079,1080,1041,1042,1043,1044,1045,1046,
1081,1082,1083,1084,1085,1086,1087,1088,1089,1090,1091,1092,1093,1094,1095,1096,1097,1098,1099,1100,1101,1102,1103,1104,1105,1106,1107,1108,1109,1110,1111,1112,1113,1114,1115,1116,1117,1118,1119,1120,1081,1082,1083,1084,1085,1086,1087,1088,1089,1090,1091,1092,1093,1094,1095,1096,1097,1098,1099,1100,1101,1102,1103,1104,1105,1106,1107,1108,1109,1110,1111,1112,1113,1114,1115,1116,1117,1118,1119,1120,1081,1082,1083,1084,1085,1086,
1121,1122,1123,1124,1125,1126,1127,1128,1129,1130,1131,1132,1133,1134,1135,1136,1137,1138,1139,1140,1141,1142,1143,1144,1145,1146,1147,1148,1149,1150,1151,1152,1153,1154,1155,1156,1157,1158,1159,1160,1121,1122,1123,1124,1125,1126,1127,1128,1129,1130,1131,1132,1133,1134,1135,1136,1137,1138,1139,1140,1141,1142,1143,1144,1145,1146,1147,1148,1149,1150,1151,1152,1153,1154,1155,1156,1157,1158,1159,1160,1121,1122,1123,1124,1125,1126,
1161,1162,1163,1164,1165,1166,1167,1168,1169,1170,1171,1172,1173,1174,1175,1176,1177,1178,1179,1180,1181,1182,1183,1184,1185,1186,1187,1188,1189,1190,1191,1192,1193,1194,1195,1196,1197,1198,1199,1200,1161,1162,1163,1164,1165,1166,1167,1168,1169,1170,1171,1172,1173,1174,1175,1176,1177,1178,1179,1180,1181,1182,1183,1184,1185,1186,1187,1188,1189,1190,1191,1192,1193,1194,1195,1196,1197,1198,1199,1200,1161,1162,1163,1164,1165,1166,
1201,1202,1203,1204,1205,1206,1207,1208,1209,1210,1211,1212,1213,1214,1215,1216,1217,1218,1219,1220,1221,1222,1223,1224,1225,1226,1227,1228,1229,1230,1231,1232,1233,1234,1235,1236,1237,1238,1239,1240,1201,1202,1203,1204,1205,1206,1207,1208,1209,1210,1211,1212,1213,1214,1215,1216,1217,1218,1219,1220,1221,1222,1223,1224,1225,1226,1227,1228,1229,1230,1231,1232,1233,1234,1235,1236,1237,1238,1239,1240,1201,1202,1203,1204,1205,1206,
1241,1242,1243,1244,1245,1246,1247,1248,1249,1250,1251,1252,1253,1254,1255,1256,1257,1258,1259,1260,1261,1262,1263,1264,1265,1266,1267,1268,1269,1270,1271,1272,1273,1274,1275,1276,1277,1278,1279,1280,1241,1242,1243,1244,1245,1246,1247,1248,1249,1250,1251,1252,1253,1254,1255,1256,1257,1258,1259,1260,1261,1262,1263,1264,1265,1266,1267,1268,1269,1270,1271,1272,1273,1274,1275,1276,1277,1278,1279,1280,1241,1242,1243,1244,1245,1246,
1281,1282,1283,1284,1285,1286,1287,1288,1289,1290,1291,1292,1293,1294,1295,1296,1297,1298,1299,1300,1301,1302,1303,1304,1305,1306,1307,1308,1309,1310,1311,1312,1313,1314,1315,1316,1317,1318,1319,1320,1281,1282,1283,1284,1285,1286,1287,1288,1289,1290,1291,1292,1293,1294,1295,1296,1297,1298,1299,1300,1301,1302,1303,1304,1305,1306,1307,1308,1309,1310,1311,1312,1313,1314,1315,1316,1317,1318,1319,1320,1281,1282,1283,1284,1285,1286,
1321,1322,1323,1324,1325,1326,1327,1328,1329,1330,1331,1332,1333,1334,1335,1336,1337,1338,1339,1340,1341,1342,1343,1344,1345,1346,1347,1348,1349,1350,1351,1352,1353,1354,1355,1356,1357,1358,1359,1360,1321,1322,1323,1324,1325,1326,1327,1328,1329,1330,1331,1332,1333,1334,1335,1336,1337,1338,1339,1340,1341,1342,1343,1344,1345,1346,1347,1348,1349,1350,1351,1352,1353,1354,1355,1356,1357,1358,1359,1360,1321,1322,1323,1324,1325,1326,
1361,1362,1363,1364,1365,1366,1367,1368,1369,1370,1371,1372,1373,1374,1375,1376,1377,1378,1379,1380,1381,1382,1383,1384,1385,1386,1387,1388,1389,1390,1391,1392,1393,1394,1395,1396,1397,1398,1399,1400,1361,1362,1363,1364,1365,1366,1367,1368,1369,1370,1371,1372,1373,1374,1375,1376,1377,1378,1379,1380,1381,1382,1383,1384,1385,1386,1387,1388,1389,1390,1391,1392,1393,1394,1395,1396,1397,1398,1399,1400,1361,1362,1363,1364,1365,1366,
1401,1402,1403,1404,1405,1406,1407,1408,1409,1410,1411,1412,1413,1414,1415,1416,1417,1418,1419,1420,1421,1422,1423,1424,1425,1426,1427,1428,1429,1430,1431,1432,1433,1434,1435,1436,1437,1438,1439,1440,1401,1402,1403,1404,1405,1406,1407,1408,1409,1410,1411,1412,1413,1414,1415,1416,1417,1418,1419,1420,1421,1422,1423,1424,1425,1426,1427,1428,1429,1430,1431,1432,1433,1434,1435,1436,1437,1438,1439,1440,1401,1402,1403,1404,1405,1406,
1441,1442,1443,1444,1445,1446,1447,1448,1449,1450,1451,1452,1453,1454,1455,1456,1457,1458,1459,1460,1461,1462,1463,1464,1465,1466,1467,1468,1469,1470,1471,1472,1473,1474,1475,1476,1477,1478,1479,1480,1441,1442,1443,1444,1445,1446,1447,1448,1449,1450,1451,1452,1453,1454,1455,1456,1457,1458,1459,1460,1461,1462,1463,1464,1465,1466,1467,1468,1469,1470,1471,1472,1473,1474,1475,1476,1477,1478,1479,1480,1441,1442,1443,1444,1445,1446,
1481,1482,1483,1484,1485,1486,1487,1488,1489,1490,1491,1492,1493,1494,1495,1496,1497,1498,1499,1500,1501,1502,1503,1504,1505,1506,1507,1508,1509,1510,1511,1512,1513,1514,1515,1516,1517,1518,1519,1520,1481,1482,1483,1484,1485,1486,1487,1488,1489,1490,1491,1492,1493,1494,1495,1496,1497,1498,1499,1500,1501,1502,1503,1504,1505,1506,1507,1508,1509,1510,1511,1512,1513,1514,1515,1516,1517,1518,1519,1520,1481,1482,1483,1484,1485,1486,
1521,1522,1523,1524,1525,1526,1527,1528,1529,1530,1531,1532,1533,1534,1535,1536,1537,1538,1539,1540,1541,1542,1543,1544,1545,1546,1547,1548,1549,1550,1551,1552,1553,1554,1555,1556,1557,1558,1559,1560,1521,1522,1523,1524,1525,1526,1527,1528,1529,1530,1531,1532,1533,1534,1535,1536,1537,1538,1539,1540,1541,1542,1543,1544,1545,1546,1547,1548,1549,1550,1551,1552,1553,1554,1555,1556,1557,1558,1559,1560,1521,1522,1523,1524,1525,1526,
1561,1562,1563,1564,1565,1566,1567,1568,1569,1570,1571,1572,1573,1574,1575,1576,1577,1578,1579,1580,1581,1582,1583,1584,1585,1586,1587,1588,1589,1590,1591,1592,1593,1594,1595,1596,1597,1598,1599,1600,1561,1562,1563,1564,1565,1566,1567,1568,1569,1570,1571,1572,1573,1574,1575,1576,1577,1578,1579,1580,1581,1582,1583,1584,1585,1586,1587,1588,1589,1590,1591,1592,1593,1594,1595,1596,1597,1598,1599,1600,1561,1562,1563,1564,1565,1566,
1,2,3,4,5,6,7,8,9,10,11,12,13,14,15,16,17,18,19,20,21,22,23,24,25,26,27,28,29,30,31,32,33,34,35,36,37,38,39,40,1,2,3,4,5,6,7,8,9,10,11,12,13,14,15,16,17,18,19,20,21,22,23,24,25,26,27,28,29,30,31,32,33,34,35,36,37,38,39,40,1,2,3,4,5,6,
41,42,43,44,45,46,47,48,49,50,51,52,53,54,55,56,57,58,59,60,61,62,63,64,65,66,67,68,69,70,71,72,73,74,75,76,77,78,79,80,41,42,43,44,45,46,47,48,49,50,51,52,53,54,55,56,57,58,59,60,61,62,63,64,65,66,67,68,69,70,71,72,73,74,75,76,77,78,79,80,41,42,43,44,45,46,
81,82,83,84,85,86,87,88,89,90,91,92,93,94,95,96,97,98,99,100,101,102,103,104,105,106,107,108,109,110,111,112,113,114,115,116,117,118,119,120,81,82,83,84,85,86,87,88,89,90,91,92,93,94,95,96,97,98,99,100,101,102,103,104,105,106,107,108,109,110,111,112,113,114,115,116,117,118,119,120,81,82,83,84,85,86,
121,122,123,124,125,126,127,128,129,130,131,132,133,134,135,136,137,138,139,140,141,142,143,144,145,146,147,148,149,150,151,152,153,154,155,156,157,158,159,160,121,122,123,124,125,126,127,128,129,130,131,132,133,134,135,136,137,138,139,140,141,142,143,144,145,146,147,148,149,150,151,152,153,154,155,156,157,158,159,160,121,122,123,124,125,126,
161,162,163,164,165,166,167,168,169,170,171,172,173,174,175,176,177,178,179,180,181,182,183,184,185,186,187,188,189,190,191,192,193,194,195,196,197,198,199,200,161,162,163,164,165,166,167,168,169,170,171,172,173,174,175,176,177,178,179,180,181,182,183,184,185,186,187,188,189,190,191,192,193,194,195,196,197,198,199,200,161,162,163,164,165,166,
201,202,203,204,205,206,207,208,209,210,211,212,213,214,215,216,217,218,219,220,221,222,223,224,225,226,227,228,229,230,231,232,233,234,235,236,237,238,239,240,201,202,203,204,205,206,207,208,209,210,211,212,213,214,215,216,217,218,219,220,221,222,223,224,225,226,227,228,229,230,231,232,233,234,235,236,237,238,239,240,201,202,203,204,205,206,
241,242,243,244,245,246,247,248,249,250,251,252,253,254,255,256,257,258,259,260,261,262,263,264,265,266,267,268,269,270,271,272,273,274,275,276,277,278,279,280,241,242,243,244,245,246,247,248,249,250,251,252,253,254,255,256,257,258,259,260,261,262,263,264,265,266,267,268,269,270,271,272,273,274,275,276,277,278,279,280,241,242,243,244,245,246,
281,282,283,284,285,286,287,288,289,290,291,292,293,294,295,296,297,298,299,300,301,302,303,304,305,306,307,308,309,310,311,312,313,314,315,316,317,318,319,320,281,282,283,284,285,286,287,288,289,290,291,292,293,294,295,296,297,298,299,300,301,302,303,304,305,306,307,308,309,310,311,312,313,314,315,316,317,318,319,320,281,282,283,284,285,286,
321,322,323,324,325,326,327,328,329,330,331,332,333,334,335,336,337,338,339,340,341,342,343,344,345,346,347,348,349,350,351,352,353,354,355,356,357,358,359,360,321,322,323,324,325,326,327,328,329,330,331,332,333,334,335,336,337,338,339,340,341,342,343,344,345,346,347,348,349,350,351,352,353,354,355,356,357,358,359,360,321,322,323,324,325,326,
361,362,363,364,365,366,367,368,369,370,371,372,373,374,375,376,377,378,379,380,381,382,383,384,385,386,387,388,389,390,391,392,393,394,395,396,397,398,399,400,361,362,363,364,365,366,367,368,369,370,371,372,373,374,375,376,377,378,379,380,381,382,383,384,385,386,387,388,389,390,391,392,393,394,395,396,397,398,399,400,361,362,363,364,365,366,
401,402,403,404,405,406,407,408,409,410,411,412,413,414,415,416,417,418,419,420,421,422,423,424,425,426,427,428,429,430,431,432,433,434,435,436,437,438,439,440,401,402,403,404,405,406,407,408,409,410,411,412,413,414,415,416,417,418,419,420,421,422,423,424,425,426,427,428,429,430,431,432,433,434,435,436,437,438,439,440,401,402,403,404,405,406,
441,442,443,444,445,446,447,448,449,450,451,452,453,454,455,456,457,458,459,460,461,462,463,464,465,466,467,468,469,470,471,472,473,474,475,476,477,478,479,480,441,442,443,444,445,446,447,448,449,450,451,452,453,454,455,456,457,458,459,460,461,462,463,464,465,466,467,468,469,470,471,472,473,474,475,476,477,478,479,480,441,442,443,444,445,446,
481,482,483,484,485,486,487,488,489,490,491,492,493,494,495,496,497,498,499,500,501,502,503,504,505,506,507,508,509,510,511,512,513,514,515,516,517,518,519,520,481,482,483,484,485,486,487,488,489,490,491,492,493,494,495,496,497,498,499,500,501,502,503,504,505,506,507,508,509,510,511,512,513,514,515,516,517,518,519,520,481,482,483,484,485,486,
521,522,523,524,525,526,527,528,529,530,531,532,533,534,535,536,537,538,539,540,541,542,543,544,545,546,547,548,549,550,551,552,553,554,555,556,557,558,559,560,521,522,523,524,525,526,527,528,529,530,531,532,533,534,535,536,537,538,539,540,541,542,543,544,545,546,547,548,549,550,551,552,553,554,555,556,557,558,559,560,521,522,523,524,525,526,
561,562,563,564,565,566,567,568,569,570,571,572,573,574,575,576,577,578,579,580,581,582,583,584,585,586,587,588,589,590,591,592,593,594,595,596,597,598,599,600,561,562,563,564,565,566,567,568,569,570,571,572,573,574,575,576,577,578,579,580,581,582,583,584,585,586,587,588,589,590,591,592,593,594,595,596,597,598,599,600,561,562,563,564,565,566,
601,602,603,604,605,606,607,608,609,610,611,612,613,614,615,616,617,618,619,620,621,622,623,624,625,626,627,628,629,630,631,632,633,634,635,636,637,638,639,640,601,602,603,604,605,606,607,608,609,610,611,612,613,614,615,616,617,618,619,620,621,622,623,624,625,626,627,628,629,630,631,632,633,634,635,636,637,638,639,640,601,602,603,604,605,606,
641,642,643,644,645,646,647,648,649,650,651,652,653,654,655,656,657,658,659,660,661,662,663,664,665,666,667,668,669,670,671,672,673,674,675,676,677,678,679,680,641,642,643,644,645,646,647,648,649,650,651,652,653,654,655,656,657,658,659,660,661,662,663,664,665,666,667,668,669,670,671,672,673,674,675,676,677,678,679,680,641,642,643,644,645,646,
681,682,683,684,685,686,687,688,689,690,691,692,693,694,695,696,697,698,699,700,701,702,703,704,705,706,707,708,709,710,711,712,713,714,715,716,717,718,719,720,681,682,683,684,685,686,687,688,689,690,691,692,693,694,695,696,697,698,699,700,701,702,703,704,705,706,707,708,709,710,711,712,713,714,715,716,717,718,719,720,681,682,683,684,685,686,
721,722,723,724,725,726,727,728,729,730,731,732,733,734,735,736,737,738,739,740,741,742,743,744,745,746,747,748,749,750,751,752,753,754,755,756,757,758,759,760,721,722,723,724,725,726,727,728,729,730,731,732,733,734,735,736,737,738,739,740,741,742,743,744,745,746,747,748,749,750,751,752,753,754,755,756,757,758,759,760,721,722,723,724,725,726,
761,762,763,764,765,766,767,768,769,770,771,772,773,774,775,776,777,778,779,780,781,782,783,784,785,786,787,788,789,790,791,792,793,794,795,796,797,798,799,800,761,762,763,764,765,766,767,768,769,770,771,772,773,774,775,776,777,778,779,780,781,782,783,784,785,786,787,788,789,790,791,792,793,794,795,796,797,798,799,800,761,762,763,764,765,766
</data>
 </layer>
 <layer id="2" name="Terrain" width="86" height="60">
  <data encoding="csv">
0,0,0,0,0,0,0,0,0,0,0,0,0,0,0,0,0,0,0,0,0,0,0,0,0,0,0,0,0,0,0,0,0,0,0,0,0,0,0,0,0,0,0,0,0,0,0,0,0,0,0,0,0,0,0,0,0,0,0,0,0,0,0,0,0,0,0,0,0,0,0,0,0,0,0,0,0,0,0,0,0,0,0,0,0,0,
0,0,0,0,0,0,0,0,0,0,0,0,0,0,0,0,0,0,0,0,0,0,0,0,0,0,0,0,0,0,0,0,0,0,0,0,0,0,0,0,0,0,0,0,0,0,0,0,0,0,0,0,0,0,0,0,0,0,0,0,0,0,0,0,0,0,0,0,0,0,0,0,0,0,0,0,0,0,0,0,0,0,0,0,0,0,
0,0,0,0,0,0,0,0,0,0,0,0,0,0,0,0,0,0,0,0,0,0,0,0,0,0,0,0,0,0,0,0,0,0,0,0,0,0,0,0,0,0,0,0,0,0,0,0,0,0,0,0,0,0,0,0,0,0,0,0,0,0,0,0,0,0,0,0,0,0,0,0,0,0,0,0,0,0,0,0,0,0,0,0,0,0,
0,0,0,0,0,0,0,0,0,0,0,0,0,0,0,0,0,0,0,0,0,0,0,0,0,0,0,0,0,0,0,0,0,0,0,0,0,0,0,0,0,0,0,0,0,0,0,0,0,0,0,0,0,0,0,0,0,0,0,0,0,0,0,0,0,0,0,0,0,0,0,0,0,0,0,0,0,0,0,0,0,0,0,0,0,0,
0,0,0,0,0,0,0,0,0,0,0,0,0,0,0,0,0,0,0,0,0,0,0,0,0,0,0,0,0,0,0,0,0,0,0,0,0,0,0,0,0,0,0,0,0,0,0,0,0,0,0,0,0,0,0,0,0,0,0,0,0,0,0,0,0,0,0,0,0,0,0,0,0,0,0,0,0,0,0,0,0,0,0,0,0,0,
0,0,0,0,0,0,0,0,0,0,0,0,0,0,0,0,0,0,0,0,0,0,0,0,0,0,0,0,0,0,0,0,0,0,0,0,0,0,0,0,0,0,0,0,0,0,0,0,0,0,0,0,0,0,0,0,0,0,0,0,0,0,0,0,0,0,0,0,0,0,0,0,0,0,0,0,0,0,0,0,0,0,0,0,0,0,
0,0,0,0,0,0,0,0,0,0,0,0,0,0,0,0,0,0,0,0,0,0,0,0,0,0,0,0,0,0,0,0,0,0,0,0,0,0,0,0,0,0,0,0,0,0,0,0,0,0,0,0,0,0,0,0,0,0,0,0,0,0,0,0,0,0,0,0,0,0,0,0,0,0,0,0,0,0,0,0,0,0,0,0,0,0,
0,0,0,0,0,0,0,0,0,0,0,0,0,0,0,0,0,0,0,0,0,0,0,0,0,0,0,0,0,0,0,0,0,0,0,0,0,0,0,0,0,0,0,0,0,0,0,0,0,0,0,0,0,0,0,0,0,0,0,0,0,0,0,0,0,0,0,0,0,0,0,0,0,0,0,0,0,0,0,0,0,0,0,0,0,0,
0,0,0,0,0,0,0,0,0,0,0,0,0,0,0,0,0,0,0,0,0,0,0,0,0,0,0,0,0,0,0,0,0,0,0,0,0,0,0,0,0,0,0,0,0,0,0,0,0,0,0,0,0,0,0,0,0,0,0,0,0,0,0,0,0,0,0,0,0,0,0,0,0,0,0,0,0,0,0,0,0,0,0,0,0,0,
0,0,0,0,0,0,0,0,0,0,0,0,0,0,0,0,0,0,0,0,0,0,0,0,0,0,0,0,0,0,0,0,0,0,0,0,0,0,0,0,0,0,0,0,0,0,0,0,0,0,0,0,0,0,0,0,0,0,0,0,0,0,0,0,0,0,0,0,0,0,0,0,0,0,0,0,0,0,0,0,0,0,0,0,0,0,
0,0,0,0,0,0,0,0,0,0,0,0,0,0,0,0,0,0,0,0,0,0,0,0,0,0,0,0,0,0,0,0,0,0,0,0,0,0,0,0,0,0,0,0,0,0,0,0,0,0,0,0,0,0,0,0,0,0,0,0,0,0,0,0,0,0,0,0,0,0,0,0,0,0,0,0,0,0,0,0,0,0,0,0,0,0,
0,0,0,0,0,0,0,0,0,0,0,0,0,0,0,0,0,0,0,0,0,0,0,0,0,0,0,0,0,0,0,0,0,0,0,0,0,0,0,0,0,0,0,0,0,0,0,0,0,0,0,0,0,0,0,0,0,0,0,0,0,0,0,0,0,0,0,0,0,0,0,0,0,0,0,0,0,0,0,0,0,0,0,0,0,0,
0,0,0,0,0,0,0,0,0,0,0,0,0,0,0,0,0,0,0,0,0,0,0,0,0,0,0,0,0,0,0,0,0,0,0,0,0,0,0,0,0,0,0,0,0,0,0,0,0,0,0,0,0,0,0,0,0,0,0,0,0,0,0,0,0,0,0,0,0,0,0,0,0,0,0,0,0,0,0,0,0,0,0,0,0,0,
0,0,0,0,0,0,0,0,0,0,0,0,0,0,0,0,0,0,0,0,0,0,0,0,0,0,0,0,0,0,0,0,0,0,0,0,0,0,0,0,0,0,0,0,0,0,0,0,0,0,0,0,0,0,0,0,0,0,0,0,0,0,0,0,0,0,0,0,0,0,0,0,0,0,0,0,0,0,0,0,0,0,0,0,0,0,
0,0,0,0,0,0,0,0,0,0,0,0,0,0,0,0,0,0,0,0,0,0,0,0,0,0,0,0,0,0,0,0,0,0,0,0,0,0,0,0,0,0,0,0,0,0,0,0,0,0,0,0,0,0,0,0,0,0,0,0,0,0,0,0,0,0,0,0,0,0,0,0,0,0,0,0,0,0,0,0,0,0,0,0,0,0,
0,0,0,0,0,0,0,0,0,0,0,0,0,0,0,0,0,0,0,0,0,0,0,0,0,0,0,0,0,0,0,0,0,0,0,0,0,0,0,0,0,0,0,0,0,0,0,0,0,0,0,0,0,0,0,0,0,0,0,0,0,0,0,0,0,0,0,0,0,0,0,0,0,0,0,0,0,0,0,0,0,0,0,0,0,0,
0,0,0,0,0,0,0,0,0,0,0,0,0,0,0,0,0,0,0,0,0,0,0,0,0,0,0,0,0,0,0,0,0,0,0,0,0,0,0,0,0,0,0,0,0,0,0,0,0,0,0,0,0,0,0,0,0,0,0,0,0,0,0,0,0,0,0,0,0,0,0,0,0,0,0,0,0,0,0,0,0,0,0,0,0,0,
0,0,0,0,0,0,0,0,0,0,0,0,0,0,0,0,0,0,0,0,0,0,0,0,0,0,0,0,0,0,0,0,0,0,0,0,0,0,0,0,0,0,0,0,0,0,0,0,0,0,0,0,0,0,0,0,0,0,0,0,0,0,0,0,0,0,0,0,0,0,0,0,0,0,0,0,0,0,0,0,0,0,0,0,0,0,
0,0,0,0,0,0,0,0,0,0,0,0,0,0,0,0,0,0,0,0,0,0,0,0,0,0,0,0,0,0,0,0,0,0,0,0,0,0,0,0,0,0,0,0,0,0,0,0,0,0,0,0,0,0,0,0,0,0,0,0,0,0,0,0,0,0,0,0,0,0,0,0,0,0,0,0,0,0,0,0,0,0,0,0,0,0,
0,0,0,0,0,0,0,0,0,0,0,0,0,0,0,0,0,0,0,0,0,0,0,0,0,0,0,0,0,0,0,0,0,0,0,0,0,0,0,0,0,0,0,0,0,0,0,0,0,0,0,0,0,0,0,0,0,0,0,0,0,0,0,0,0,0,0,0,0,0,0,0,0,0,0,0,0,0,0,0,0,0,0,0,0,0,
0,0,0,0,0,0,0,0,0,0,0,0,0,0,0,0,0,0,0,0,0,0,0,0,0,0,0,0,0,0,0,0,0,0,0,0,0,0,0,0,0,0,0,0,0,0,0,0,0,0,0,0,0,0,0,0,0,0,0,0,0,0,0,0,0,0,0,0,0,0,0,0,0,0,0,0,0,0,0,0,0,0,0,0,0,0,
0,0,0,0,0,0,0,0,0,0,0,0,0,0,0,0,0,0,0,0,0,0,0,0,0,0,0,0,0,0,0,0,0,0,0,0,0,0,0,0,0,0,0,0,0,0,0,0,0,0,0,0,0,0,0,0,0,0,0,0,0,0,0,0,0,0,0,0,0,0,0,0,0,0,0,0,0,0,0,0,0,0,0,0,0,0,
0,0,0,0,0,0,0,0,0,0,0,0,0,0,0,0,0,0,0,0,0,0,0,0,0,0,0,0,0,0,0,0,0,0,0,0,0,0,0,0,0,0,0,0,0,0,0,0,0,0,0,0,0,0,0,0,0,0,0,0,0,0,0,0,0,0,0,0,0,0,0,0,0,0,0,0,0,0,0,0,0,0,0,0,0,0,
0,0,0,0,0,0,0,0,0,0,0,0,0,0,0,0,0,0,0,0,0,0,0,0,0,0,0,0,0,0,0,0,0,0,0,0,0,0,0,0,0,0,0,0,0,0,0,0,0,0,0,0,0,0,0,0,0,0,0,0,0,0,0,0,0,0,0,0,0,0,0,0,0,0,0,0,0,0,0,0,0,0,0,0,0,0,
0,0,0,0,0,0,0,0,0,0,0,0,0,0,0,0,0,0,0,0,0,0,0,0,0,0,0,0,0,0,0,0,0,0,0,0,0,0,0,0,0,0,0,0,0,0,0,0,0,0,0,0,0,0,0,0,0,0,0,0,0,0,0,0,0,0,0,0,0,0,0,0,0,0,0,0,0,0,0,0,0,0,0,0,0,0,
0,0,0,0,0,0,0,0,0,0,0,0,0,0,0,0,0,0,0,0,0,0,0,0,0,0,0,0,0,0,0,0,0,0,0,0,0,0,0,0,0,0,0,0,0,0,0,0,0,0,0,0,0,0,0,0,0,0,0,0,0,0,0,0,0,0,0,0,0,0,0,0,0,0,0,0,0,0,0,0,0,0,0,0,0,0,
0,0,0,0,0,0,0,0,0,0,0,0,0,0,0,0,0,0,0,0,0,0,0,0,0,0,0,0,0,0,0,0,0,0,0,0,0,0,0,0,0,0,0,0,0,0,0,0,0,0,0,0,0,0,0,0,0,0,0,0,0,0,0,0,0,0,0,0,0,0,0,0,0,0,0,0,0,0,0,0,0,0,0,0,0,0,
0,0,0,0,0,0,0,0,0,0,0,0,0,0,0,0,0,0,0,0,0,0,0,0,0,0,0,0,0,0,0,0,0,0,0,0,0,0,0,0,0,0,0,0,0,0,0,0,0,0,0,0,0,0,0,0,0,0,0,0,0,0,0,0,0,0,0,0,0,0,0,0,0,0,0,0,0,0,0,0,0,0,0,0,0,0,
0,0,0,0,0,0,0,0,0,0,0,0,0,0,0,0,0,0,0,0,0,0,0,0,0,0,0,0,0,0,0,0,0,0,0,0,0,0,0,0,0,0,0,0,0,0,0,0,0,0,0,0,0,0,0,0,0,0,0,0,0,0,0,0,0,0,0,0,0,0,0,0,0,0,0,0,0,0,0,0,0,0,0,0,0,0,
0,0,0,0,0,0,0,0,0,0,0,0,0,0,0,0,0,0,0,0,0,0,0,0,0,0,0,0,0,0,0,0,0,0,0,0,0,0,0,0,0,0,0,0,0,0,0,0,0,0,0,0,0,0,0,0,0,0,0,0,0,0,0,0,0,0,0,0,0,0,0,0,0,0,0,0,0,0,0,0,0,0,0,0,0,0,
0,0,0,0,0,0,0,0,0,0,0,0,0,0,0,0,0,0,0,0,0,0,0,0,0,0,0,0,0,0,0,0,0,0,0,0,0,0,0,0,0,0,0,0,0,0,0,0,0,0,0,0,0,0,0,0,0,0,0,0,0,0,0,0,0,0,0,0,0,0,0,0,0,0,0,0,0,0,0,0,0,0,0,0,0,0,
0,0,0,0,0,0,0,0,0,0,0,0,0,0,0,0,0,0,0,0,0,0,0,0,0,0,0,0,0,0,0,0,0,0,0,0,0,0,0,0,0,0,0,0,0,0,0,0,0,0,0,0,0,0,0,0,0,0,0,0,0,0,0,0,0,0,0,0,0,0,0,0,0,0,0,0,0,0,0,0,0,0,0,0,0,0,
0,0,0,0,0,0,0,0,0,0,0,0,0,0,0,0,0,0,0,0,0,0,0,0,0,0,0,0,0,0,0,0,0,0,0,0,0,0,0,0,0,0,0,0,0,0,0,0,0,0,0,0,0,0,0,0,0,0,0,0,0,0,0,0,0,0,0,0,0,0,0,0,0,0,0,0,0,0,0,0,0,0,0,0,0,0,
0,0,0,0,0,0,0,0,0,0,0,0,0,0,0,0,0,0,0,0,0,0,0,0,0,0,0,0,0,0,0,0,0,0,0,0,0,0,0,0,0,0,0,0,0,0,0,0,0,0,0,0,0,0,0,0,0,0,0,0,0,0,0,0,0,0,0,0,0,0,0,0,0,0,0,0,0,0,0,0,0,0,0,0,0,0,
0,0,0,0,0,0,0,0,0,0,0,0,0,0,0,0,0,0,0,0,0,0,0,0,0,0,0,0,0,0,0,0,0,0,0,0,0,0,0,0,0,0,0,0,0,0,0,0,0,0,0,0,0,0,0,0,0,0,0,0,0,0,0,0,0,0,0,0,0,0,0,0,0,0,0,0,0,0,0,0,0,0,0,0,0,0,
0,0,0,0,0,0,0,0,0,0,0,0,0,0,0,0,0,0,0,0,0,0,0,0,0,0,0,0,0,0,0,0,0,0,0,0,0,0,0,0,0,0,0,0,0,0,0,0,0,0,0,0,0,0,0,0,0,0,0,0,0,0,0,0,0,0,0,0,0,0,0,0,0,0,0,0,0,0,0,0,0,0,0,0,0,0,
0,0,0,0,0,0,0,0,0,0,0,0,0,0,0,0,0,0,0,0,0,0,0,0,0,0,0,0,0,0,0,0,0,0,0,0,0,0,0,0,0,0,0,0,0,0,0,0,0,0,0,0,0,0,0,0,0,0,0,0,0,0,0,0,0,0,0,0,0,0,0,0,0,0,0,0,0,0,0,0,0,0,0,0,0,0,
0,0,0,0,0,0,0,0,0,0,0,0,0,0,0,0,0,0,0,0,0,0,0,0,0,0,0,0,0,0,0,0,0,0,0,0,0,0,0,0,0,0,0,0,0,0,0,0,0,0,0,0,0,0,0,0,0,0,0,0,0,0,0,0,0,0,0,0,0,0,0,0,0,0,0,0,0,0,0,0,0,0,0,0,0,0,
0,0,0,0,0,0,0,0,0,0,0,0,0,0,0,0,0,0,0,0,0,0,0,0,0,0,0,0,0,0,0,0,0,0,0,0,0,0,0,0,0,0,0,0,0,0,0,0,0,0,0,0,0,0,0,0,0,0,0,0,0,0,0,0,0,0,0,0,0,0,0,0,0,0,0,0,0,0,0,0,0,0,0,0,0,0,
0,0,0,0,0,0,0,0,0,0,0,0,0,0,0,0,0,0,0,0,0,0,0,0,0,0,0,0,0,0,0,0,0,0,0,0,0,0,0,0,0,0,0,0,0,0,0,0,0,0,0,0,0,0,0,0,0,0,0,0,0,0,0,0,0,0,0,0,0,0,0,0,0,0,0,0,0,0,0,0,0,0,0,0,0,0,
0,0,0,0,0,0,0,0,0,0,0,0,0,0,0,0,0,0,0,0,0,0,0,0,0,0,0,0,0,0,0,0,0,0,0,0,0,0,0,0,0,0,0,0,0,0,0,0,0,0,0,0,0,0,0,0,0,0,0,0,0,0,0,0,0,0,0,0,0,0,0,0,0,0,0,0,0,0,0,0,0,0,0,0,0,0,
0,0,0,0,0,0,0,0,0,0,0,0,0,0,0,0,0,0,0,0,0,0,0,0,0,0,0,0,0,0,0,0,0,0,0,0,0,0,0,0,0,0,0,0,0,0,0,0,0,0,0,0,0,0,0,0,0,0,0,0,0,0,0,0,0,0,0,0,0,0,0,0,0,0,0,0,0,0,0,0,0,0,0,0,0,0,
0,0,0,0,0,0,0,0,0,0,0,0,0,0,0,0,0,0,0,0,0,0,0,0,0,0,0,0,0,0,0,0,0,0,0,0,0,0,0,0,0,0,0,0,0,0,0,0,0,0,0,0,0,0,0,0,0,0,0,0,0,0,0,0,0,0,0,0,0,0,0,0,0,0,0,0,0,0,0,0,0,0,0,0,0,0,
0,0,0,0,0,0,0,0,0,0,0,0,0,0,0,0,0,0,0,0,0,0,0,0,0,0,0,0,0,0,0,0,0,0,0,0,0,0,0,0,0,0,0,0,0,0,0,0,0,0,0,0,0,0,0,0,0,0,0,0,0,0,0,0,0,0,0,0,0,0,0,0,0,0,0,0,0,0,0,0,0,0,0,0,0,0,
0,0,0,0,0,0,0,0,0,0,0,0,0,0,0,0,0,0,0,0,0,0,0,0,0,0,0,0,0,0,0,0,0,0,0,0,0,0,0,0,0,0,0,0,0,0,0,0,0,0,0,0,0,0,0,0,0,0,0,0,0,0,0,0,0,0,0,0,0,0,0,0,0,0,0,0,0,0,0,0,0,0,0,0,0,0,
0,0,0,0,0,0,0,0,0,0,0,0,0,0,0,0,0,0,0,0,0,0,0,0,0,0,0,0,0,0,0,0,0,0,0,0,0,0,0,0,0,0,0,0,0,0,0,0,0,0,0,0,0,0,0,0,0,0,0,0,0,0,0,0,0,0,0,0,0,0,0,0,0,0,0,0,0,0,0,0,0,0,0,0,0,0,
0,0,0,0,0,0,0,0,0,0,0,0,0,0,0,0,0,0,0,0,0,0,0,0,0,0,0,0,0,0,0,0,0,0,0,0,0,0,0,0,0,0,0,0,0,0,0,0,0,0,0,0,0,0,0,0,0,0,0,0,0,0,0,0,0,0,0,0,0,0,0,0,0,0,0,0,0,0,0,0,0,0,0,0,0,0,
0,0,0,0,0,0,0,0,0,0,0,0,0,0,0,0,0,0,0,0,0,0,0,0,0,0,0,0,0,0,0,0,0,0,0,0,0,0,0,0,0,0,0,0,0,0,0,0,0,0,0,0,0,0,0,0,0,0,0,0,0,0,0,0,0,0,0,0,0,0,0,0,0,0,0,0,0,0,0,0,0,0,0,0,0,0,
0,0,0,0,0,0,0,0,0,0,0,0,0,0,0,0,0,0,0,0,0,0,0,0,0,0,0,0,0,0,0,0,0,0,0,0,0,0,0,0,0,0,0,0,0,0,0,0,0,0,0,0,0,0,0,0,0,0,0,0,0,0,0,0,0,0,0,0,0,0,0,0,0,0,0,0,0,0,0,0,0,0,0,0,0,0,
0,0,0,0,0,0,0,0,0,0,0,0,0,0,0,0,0,0,0,0,0,0,0,0,0,0,0,0,0,0,0,0,0,0,0,0,0,0,0,0,0,0,0,0,0,0,0,0,0,0,0,0,0,0,0,0,0,0,0,0,0,0,0,0,0,0,0,0,0,0,0,0,0,0,0,0,0,0,0,0,0,0,0,0,0,0,
0,0,0,0,0,0,0,0,0,0,0,0,0,0,0,0,0,0,0,0,0,0,0,0,0,0,0,0,0,0,0,0,0,0,0,0,0,0,0,0,0,0,0,0,0,0,0,0,0,0,0,0,0,0,0,0,0,0,0,0,0,0,0,0,0,0,0,0,0,0,0,0,0,0,0,0,0,0,0,0,0,0,0,0,0,0,
0,0,0,0,0,0,0,0,0,0,0,0,0,0,0,0,0,0,0,0,0,0,0,0,0,0,0,0,0,0,0,0,0,0,0,0,0,0,0,0,0,0,0,0,0,0,0,0,0,0,0,0,0,0,0,0,0,0,0,0,0,0,0,0,0,0,0,0,0,0,0,0,0,0,0,0,0,0,0,0,0,0,0,0,0,0,
0,0,0,0,0,0,0,0,0,0,0,0,0,0,0,0,0,0,0,0,0,0,0,0,0,0,0,0,0,0,0,0,0,0,0,0,0,0,0,0,0,0,0,0,0,0,0,0,0,0,0,0,0,0,0,0,0,0,0,0,0,0,0,0,0,0,0,0,0,0,0,0,0,0,0,0,0,0,0,0,0,0,0,0,0,0,
0,0,0,0,0,0,0,0,0,0,0,0,0,0,0,0,0,0,0,0,0,0,0,0,0,0,0,0,0,0,0,0,0,0,0,0,0,0,0,0,0,0,0,0,0,0,0,0,0,0,0,0,0,0,0,0,0,0,0,0,0,0,0,0,0,0,0,0,0,0,0,0,0,0,0,0,0,0,0,0,0,0,0,0,0,0,
0,0,0,0,0,0,0,0,0,0,0,0,0,0,0,0,0,0,0,0,0,0,0,0,0,0,0,0,0,0,0,0,0,0,0,0,0,0,0,0,0,0,0,0,0,0,0,0,0,0,0,0,0,0,0,0,0,0,0,0,0,0,0,0,0,0,0,0,0,0,0,0,0,0,0,0,0,0,0,0,0,0,0,0,0,0,
0,0,0,0,0,0,0,0,0,0,0,0,0,0,0,0,0,0,0,0,0,0,0,0,0,0,0,0,0,0,0,0,0,0,0,0,0,0,0,0,0,0,0,0,0,0,0,0,0,0,0,0,0,0,0,0,0,0,0,0,0,0,0,0,0,0,0,0,0,0,0,0,0,0,0,0,0,0,0,0,0,0,0,0,0,0,
0,0,0,0,0,0,0,0,0,0,0,0,0,0,0,0,0,0,0,0,0,0,0,0,0,0,0,0,0,0,0,0,0,0,0,0,0,0,0,0,0,0,0,0,0,0,0,0,0,0,0,0,0,0,0,0,0,0,0,0,0,0,0,0,0,0,0,0,0,0,0,0,0,0,0,0,0,0,0,0,0,0,0,0,0,0,
0,0,0,0,0,0,0,0,0,0,0,0,0,0,0,0,0,0,0,0,0,0,0,0,0,0,0,0,0,0,0,0,0,0,0,0,0,0,0,0,0,0,0,0,0,0,0,0,0,0,0,0,0,0,0,0,0,0,0,0,0,0,0,0,0,0,0,0,0,0,0,0,0,0,0,0,0,0,0,0,0,0,0,0,0,0,
0,0,0,0,0,0,0,0,0,0,0,0,0,0,0,0,0,0,0,0,0,0,0,0,0,0,0,0,0,0,0,0,0,0,0,0,0,0,0,0,0,0,0,0,0,0,0,0,0,0,0,0,0,0,0,0,0,0,0,0,0,0,0,0,0,0,0,0,0,0,0,0,0,0,0,0,0,0,0,0,0,0,0,0,0,0,
0,0,0,0,0,0,0,0,0,0,0,0,0,0,0,0,0,0,0,0,0,0,0,0,0,0,0,0,0,0,0,0,0,0,0,0,0,0,0,0,0,0,0,0,0,0,0,0,0,0,0,0,0,0,0,0,0,0,0,0,0,0,0,0,0,0,0,0,0,0,0,0,0,0,0,0,0,0,0,0,0,0,0,0,0,0
</data>
 </layer>
 <layer id="3" name="Overlay" width="86" height="60">
  <data encoding="csv">
0,0,0,0,0,0,0,0,0,0,0,0,0,0,0,0,0,0,0,0,0,0,0,0,0,0,0,0,0,0,0,0,0,0,0,0,0,0,0,0,0,0,0,0,0,0,0,0,0,0,0,0,0,0,0,0,0,0,0,0,1601,1602,2235,1603,0,0,0,0,0,0,0,0,0,0,0,0,0,0,0,0,0,0,0,0,0,0,
0,0,0,0,0,0,0,0,0,0,0,0,0,0,0,0,0,0,0,0,0,0,0,0,0,0,0,0,0,0,0,0,0,0,0,0,0,0,0,0,0,0,0,0,0,0,0,0,0,0,0,0,0,0,0,0,0,0,0,0,1604,1605,2275,1606,0,0,0,0,0,0,0,0,0,0,0,0,0,0,0,0,0,0,0,0,0,0,
0,0,0,0,0,0,0,0,0,0,0,0,0,0,0,0,0,0,0,0,0,0,0,0,0,0,0,0,0,0,0,0,0,0,0,0,0,0,0,0,0,0,0,0,0,0,0,0,0,0,0,0,0,0,0,0,0,0,0,0,1607,2314,2315,1608,0,0,0,0,0,0,0,0,0,0,0,0,0,0,0,0,0,0,0,0,0,0,
0,0,0,0,0,0,0,0,0,0,0,0,0,0,0,0,0,0,0,0,0,0,0,0,0,0,0,0,0,0,0,0,0,0,0,0,0,0,0,0,0,0,0,0,0,0,0,0,0,0,0,0,0,0,0,0,0,0,0,0,1609,2354,2355,1610,0,0,0,0,0,0,0,0,0,0,0,0,0,0,0,0,0,0,0,0,0,0,
0,0,0,0,0,0,0,0,0,0,0,0,0,0,0,0,0,0,0,0,0,0,0,0,0,0,0,0,0,0,0,0,0,0,0,0,0,0,0,0,0,0,0,0,0,0,0,0,0,0,0,0,0,0,0,0,0,0,0,0,1611,2394,2395,1612,0,0,0,0,0,0,0,0,0,0,0,0,0,0,0,0,0,0,0,0,0,0,
0,0,0,0,0,0,0,0,0,0,0,0,0,0,0,0,0,0,0,0,0,0,0,0,0,0,0,0,0,0,0,0,0,0,0,0,0,0,0,0,0,0,0,0,0,0,0,0,0,0,0,0,0,0,0,0,0,0,0,1613,1614,2434,1615,1616,0,0,0,0,0,0,0,0,0,0,0,0,0,0,0,0,0,0,0,0,0,0,
0,0,0,0,0,0,0,0,0,0,0,0,0,0,0,0,0,0,0,0,0,0,0,0,0,0,0,0,0,0,0,0,0,0,0,0,0,0,0,0,0,0,0,0,0,0,0,0,0,0,0,0,0,0,0,0,0,0,0,1617,2473,2474,1618,1619,0,0,0,0,0,0,0,0,0,0,0,0,0,0,0,0,0,0,0,0,0,0,
0,0,0,0,0,0,0,0,0,0,0,0,0,0,0,0,0,0,0,0,0,0,0,0,0,0,0,0,0,0,0,0,0,0,0,0,0,0,0,0,0,0,0,0,0,0,0,0,0,0,0,0,0,0,0,0,0,0,0,1620,2513,2514,1621,0,0,0,0,0,0,0,0,0,0,0,0,0,0,0,0,0,0,0,0,0,0,0,
0,0,0,0,0,0,0,0,0,0,0,0,0,0,0,0,0,0,0,0,0,0,0,0,0,0,0,0,0,0,0,0,0,0,0,0,0,0,0,0,0,0,0,0,0,0,0,0,1622,1623,1624,1625,1626,0,0,0,0,0,0,1627,2553,1628,1629,0,0,0,0,0,0,0,0,0,0,0,0,0,0,0,0,0,0,0,0,0,0,0,
0,0,0,0,0,0,0,0,0,0,0,0,0,0,0,0,0,0,0,0,0,0,0,0,0,0,0,0,0,0,0,0,0,0,0,0,0,0,0,0,0,0,0,0,0,0,0,0,1630,1631,2583,1632,1633,0,0,0,0,0,0,1634,2593,1635,1636,0,0,0,0,0,0,0,0,0,0,0,0,0,0,0,0,0,0,0,0,0,0,0,
0,0,0,0,0,0,0,0,0,0,0,0,0,0,0,0,0,0,0,0,0,0,0,0,0,0,0,0,0,0,0,0,0,0,0,0,0,0,0,0,0,0,0,0,0,0,0,0,1637,1638,1639,1640,1641,0,0,0,0,0,0,1642,2633,1643,0,0,0,0,0,0,0,0,0,0,0,0,0,0,0,0,0,0,0,0,0,0,0,0,
0,0,0,0,0,0,0,0,0,0,0,0,0,0,0,0,0,0,0,0,0,0,0,0,0,0,0,0,0,0,0,0,0,0,0,0,0,0,0,0,0,0,0,0,0,1909,1910,1911,0,1644,1645,0,0,0,0,0,0,0,0,1646,2673,1647,1648,0,0,0,0,0,0,0,0,0,0,0,0,0,0,0,0,0,0,0,0,0,0,0,
0,0,0,0,0,0,0,0,0,0,0,0,0,0,0,0,0,0,0,0,0,0,0,0,0,0,0,0,0,0,0,0,0,0,0,0,0,0,0,0,0,0,0,0,0,1912,1913,1914,0,0,0,0,0,0,0,0,0,0,0,1649,2713,1650,1651,0,0,0,0,0,0,0,0,0,0,0,0,0,0,0,0,0,0,0,0,0,0,0,
0,0,0,0,0,0,0,0,0,0,0,0,0,0,0,0,0,0,0,0,0,0,0,0,0,0,0,0,0,0,0,0,0,0,0,0,0,0,0,0,0,0,0,0,0,1915,1916,1917,0,0,0,0,0,0,0,0,0,0,0,1652,2753,1653,1654,0,0,0,0,0,0,0,0,0,0,0,0,0,0,0,0,0,0,0,0,0,0,0,
0,0,0,0,0,0,0,0,0,0,0,0,0,0,0,0,0,0,0,0,0,0,0,0,0,0,0,0,0,0,0,0,0,0,0,0,0,0,0,0,0,0,0,0,0,1918,1919,1920,0,0,0,0,0,0,0,0,0,0,1655,1656,2793,1657,0,0,0,0,0,0,0,0,0,0,0,0,0,0,0,0,0,0,0,0,0,0,0,0,
0,0,0,0,0,0,0,0,0,0,0,0,0,0,0,0,0,0,0,0,0,0,0,0,0,0,0,0,0,0,0,0,0,0,0,0,0,0,0,0,0,0,0,0,1921,1922,1923,0,0,0,0,0,0,0,0,0,0,0,1658,2832,2833,1659,0,0,0,0,0,0,0,0,0,0,0,0,0,0,0,0,0,0,0,0,0,0,0,0,
0,0,0,0,0,0,0,0,0,0,0,0,0,0,0,0,0,0,0,0,0,0,0,0,0,0,0,0,0,0,0,0,0,0,0,0,0,0,0,0,0,0,0,0,1924,4458,1925,0,0,0,0,0,0,0,0,0,0,0,1660,2872,2873,1661,0,0,0,0,0,0,0,0,0,0,0,0,0,0,0,0,0,0,0,0,0,0,0,0,
0,0,0,0,0,0,0,0,0,0,0,0,0,0,0,0,0,0,0,0,0,0,0,0,0,0,0,0,0,0,0,0,0,0,0,0,0,0,0,0,0,0,0,1926,1927,4498,1928,0,0,0,0,0,0,0,0,0,0,1662,1663,2912,1664,1665,0,0,0,0,0,0,0,0,0,0,0,0,0,0,0,0,0,0,0,0,0,0,0,0,
0,0,0,0,0,0,0,0,0,0,0,0,0,0,0,0,0,0,0,0,0,0,0,0,0,0,0,0,0,0,0,0,0,0,0,0,0,0,0,0,0,0,0,1929,1930,1931,1932,0,0,0,0,0,0,0,0,0,0,1666,1667,2952,1668,0,0,0,0,0,0,0,0,0,0,0,0,0,0,0,0,0,0,0,0,0,0,0,0,0,
0,0,0,0,0,0,0,0,0,0,0,0,0,0,0,0,0,0,0,0,0,0,0,0,0,0,0,0,0,0,0,0,0,0,0,0,0,0,0,0,0,0,0,1933,4577,1934,0,0,0,0,0,0,0,0,0,0,0,1669,1670,2992,1671,1672,0,0,0,0,0,0,0,0,0,0,0,0,0,0,0,0,0,0,0,0,0,0,0,0,
0,0,0,0,0,0,0,0,0,0,0,0,0,0,0,0,0,0,0,0,0,0,0,0,0,0,0,0,0,0,0,0,0,0,0,0,0,0,0,0,0,0,1935,1936,1937,1938,0,0,0,0,0,0,0,0,0,0,0,1673,1674,3032,1675,1676,0,0,0,0,0,0,0,0,0,0,0,0,0,0,0,0,0,0,0,0,0,0,0,0,
0,0,0,0,0,0,0,0,0,0,0,0,0,0,0,0,0,0,0,0,0,0,0,0,0,0,0,0,0,0,0,0,0,0,0,0,0,0,0,0,0,0,1939,1940,1941,0,0,0,0,0,0,0,0,0,0,0,0,1677,1678,3072,3073,1679,0,0,0,0,0,0,0,1680,1681,1682,1683,0,0,0,0,0,0,0,0,0,0,0,0,0,
0,0,0,0,0,0,0,0,0,0,0,0,0,0,0,0,0,0,0,0,0,0,0,0,0,0,0,0,0,0,0,0,0,0,0,0,0,0,0,0,0,1942,1943,1944,0,0,0,0,0,0,1945,1946,0,0,0,0,0,1684,1685,3112,1686,1687,0,0,0,0,1688,1689,1690,1691,3123,3124,1692,1693,0,0,0,0,0,0,0,0,0,0,0,0,
0,0,0,0,0,0,0,0,0,0,0,0,0,0,0,0,0,0,0,0,0,0,0,0,0,0,0,0,0,0,0,0,0,0,0,0,0,0,0,0,1947,1948,1949,1950,1926,1951,1952,1953,1954,1955,1956,1957,0,0,0,0,0,1694,1695,3152,1696,1697,0,0,0,0,1698,1699,1700,3162,3163,3164,1701,1702,1703,0,0,0,0,0,0,0,0,0,0,0,
0,0,0,0,0,0,0,0,0,0,0,0,0,0,0,0,0,0,0,0,0,0,0,0,0,0,0,0,0,0,0,0,0,0,0,0,0,0,0,0,1958,1959,1960,1961,1962,1963,1964,1965,1966,1967,1968,0,0,0,0,0,0,1704,3191,3192,1705,0,0,0,0,0,0,1706,1707,1708,3203,3204,1709,1710,1711,0,0,0,0,0,0,0,0,0,0,0,
0,0,0,0,0,0,0,0,0,0,0,0,0,0,0,0,0,0,0,0,0,0,0,0,0,0,0,0,0,0,0,0,0,0,1969,1970,0,0,0,1971,1972,1973,1974,1975,1976,1977,1978,0,0,0,0,0,0,0,0,0,0,1712,3231,1713,1714,0,0,0,0,0,0,0,1715,1716,1717,1718,1719,1720,1721,0,0,0,0,0,0,0,0,0,0,0,
0,0,0,0,0,0,0,0,0,0,0,0,0,0,0,0,0,0,0,0,0,0,0,0,0,0,0,0,0,0,0,0,0,0,1979,1980,0,0,0,1981,1982,1983,1984,0,0,0,0,0,0,0,0,0,0,0,0,0,0,1722,3271,1723,0,0,0,0,0,0,0,0,0,0,0,1724,1725,0,0,0,0,0,0,0,0,0,0,0,0,0,
0,0,0,0,0,0,0,0,0,0,0,0,1985,1986,0,0,0,0,0,0,0,0,0,0,0,0,0,0,0,0,0,0,0,0,1987,1988,1989,0,1990,1991,1992,0,0,0,0,0,0,0,0,0,0,0,0,0,0,0,1726,1727,3311,1728,0,0,0,0,0,0,0,0,0,0,0,0,0,0,0,0,0,0,0,0,0,0,0,0,0,0,
1993,1994,1995,0,0,0,0,0,0,0,0,0,1996,1997,0,0,0,0,0,0,0,0,1998,1999,0,2000,2001,0,0,0,0,0,0,0,2002,2003,2004,2005,2006,4972,2007,0,0,0,0,0,0,0,0,2008,2009,0,0,0,0,0,1729,1730,3351,1731,0,0,0,0,0,0,0,0,0,0,0,0,0,0,0,0,0,0,0,0,0,0,0,0,0,0,
2010,2011,2012,2013,2014,2015,2016,2017,2018,2019,2020,2021,2022,2023,2024,1989,0,0,0,0,0,0,2025,2026,0,2027,2028,0,0,0,0,0,0,0,0,2029,2030,2031,2032,2033,2034,0,0,0,0,0,0,0,0,2035,2036,2037,0,0,0,0,1732,3390,3391,1733,0,0,0,0,0,0,0,0,0,0,0,0,0,0,0,0,0,0,0,0,0,0,0,0,0,0,
5013,5014,5015,5016,5017,5018,5019,5020,5021,5022,2038,2039,2040,2041,2042,2043,2044,2045,2046,2047,2048,2049,2050,2051,2052,2053,2054,2055,2056,0,0,0,0,0,0,0,0,2057,2058,2059,2060,0,0,0,0,0,0,0,0,2061,2062,2063,0,0,0,0,1734,3430,3431,1735,0,0,0,0,0,0,0,0,0,0,0,0,0,0,0,0,0,0,0,0,0,0,0,0,0,0,
2064,2065,2066,2067,2068,2069,2070,2071,2072,2073,2074,2075,2076,5066,5067,5068,5069,5070,5071,5072,5073,5074,5075,2077,2078,2079,2080,2081,2082,2083,2084,2085,2086,2087,2088,2089,2090,2091,5091,2092,2093,2094,0,0,0,0,0,0,0,2095,2096,2097,0,0,0,0,1736,3470,3471,1737,0,0,0,0,0,0,0,0,0,0,0,0,0,0,0,0,0,0,0,0,0,0,0,0,0,0,
0,0,0,0,0,0,0,0,0,0,0,0,2098,2099,2100,2101,2102,2103,2104,2105,2106,2107,2108,2109,2110,2111,2112,5120,5121,5122,5123,5124,5125,5126,5127,5128,5129,5130,5131,2113,2114,2115,2116,2117,2118,2119,2120,2121,2122,2123,2124,2125,2126,2127,2128,2129,1738,1739,1740,1741,2130,2131,2132,2133,2134,2135,2136,2137,0,0,0,0,0,0,0,0,0,0,0,0,0,0,0,0,0,0,
0,0,0,0,0,0,0,0,0,0,0,0,0,0,0,0,0,0,2138,2139,2140,2141,2142,0,0,2143,2144,2145,2146,2147,2148,2149,2150,5166,5167,5168,5169,5170,5171,5172,5133,5134,5135,5136,5137,5138,5139,5140,5141,5142,5143,5144,5145,5146,5147,5148,1742,1743,1744,1745,5153,5154,5155,5156,2151,2152,2153,2154,0,0,0,0,0,0,0,0,0,0,0,0,0,0,0,0,0,0,
0,0,0,0,0,0,0,0,0,0,0,0,0,0,0,0,0,0,0,0,0,0,0,0,0,0,0,0,0,0,0,0,2155,2156,2157,5208,5209,5210,5211,5212,5173,2158,2159,2160,2161,2162,2163,2164,2165,2166,2167,2168,2169,2170,2171,2172,1746,1747,1748,1749,2173,2174,2175,2176,2177,2178,0,0,0,0,0,0,0,0,0,0,0,0,0,0,0,0,0,0,0,0,
0,0,0,0,0,0,0,0,0,0,0,0,0,0,0,0,0,0,0,0,0,0,0,0,0,0,0,0,0,0,0,0,2179,2180,2181,2182,2183,2184,2185,2186,2187,2188,0,0,0,0,0,2189,2190,2191,0,0,0,0,0,0,1750,3630,3631,1751,0,0,0,0,0,0,0,0,0,0,0,0,0,0,0,0,0,0,0,0,0,0,0,0,0,0,
0,0,0,0,0,0,0,0,0,0,0,0,0,0,0,0,0,0,0,0,0,0,0,0,0,0,0,0,0,0,0,0,2192,2193,0,0,2194,2195,0,0,0,0,0,0,0,0,0,0,0,0,0,0,0,0,0,0,1752,3670,3671,1753,0,0,0,0,0,0,0,0,0,0,0,1754,1755,1756,1757,1758,1759,1760,1761,0,0,0,0,0,0,0,
0,0,0,0,0,0,0,0,0,0,0,0,0,0,0,0,0,0,0,0,0,0,0,0,0,0,0,0,0,0,0,0,2196,2197,0,0,0,0,0,0,0,0,0,0,0,0,0,0,0,0,0,0,0,0,0,0,1762,1763,3711,1764,0,0,0,0,0,0,0,0,0,0,1765,1766,3725,1767,1768,3728,3729,1769,1770,0,0,0,0,0,0,0,
0,0,0,0,0,0,0,0,0,0,0,0,0,0,0,0,0,0,0,0,0,0,0,0,0,0,0,0,0,0,0,2198,2199,2200,0,0,0,0,0,0,0,0,0,0,0,0,0,0,0,0,0,0,0,0,0,0,1771,1772,3751,1773,0,0,0,0,0,0,0,0,0,0,1774,1775,3765,3766,3767,3768,3769,1776,1777,0,0,0,0,0,0,0,
0,0,0,0,0,0,0,0,0,0,0,0,0,0,0,0,0,0,0,0,0,0,0,0,0,0,0,0,0,0,0,2201,2202,2203,0,0,0,0,0,0,0,0,0,0,0,0,0,0,0,0,0,0,0,0,0,0,0,1778,3791,1779,1780,0,0,0,0,0,0,0,1781,1782,1783,3804,3805,3806,3807,3808,3809,1784,1785,0,0,0,0,0,0,0,
0,0,0,0,0,0,0,0,0,0,0,0,0,0,0,0,0,0,0,0,0,0,0,0,0,0,0,0,0,0,0,2204,2205,0,0,0,0,0,0,0,0,0,0,0,0,0,0,0,0,0,0,0,0,0,0,0,0,1786,2231,1787,1788,0,0,0,0,0,0,0,1789,2242,2243,2244,2245,2246,2247,2248,2249,1790,1791,1792,1793,0,0,0,0,0,
0,0,0,0,0,0,0,0,0,0,0,0,0,0,0,0,0,0,0,0,0,0,0,0,0,0,0,0,0,0,0,2206,2207,0,0,0,0,0,0,0,0,0,0,0,0,0,0,0,0,0,0,0,0,0,0,0,0,1794,2271,2272,1795,0,0,0,0,0,0,1796,1797,1798,2283,2284,2285,1799,1800,2288,2289,2290,2291,2292,1801,0,0,0,0,0,
0,0,0,0,0,0,0,0,0,0,0,0,0,0,0,0,0,0,0,0,0,0,0,0,0,0,0,0,0,0,2208,2209,2210,0,0,0,0,0,0,0,0,0,0,0,0,0,0,0,0,0,0,0,0,0,0,0,0,1802,1803,2312,1804,0,0,0,0,0,0,1805,1806,2322,2323,2324,1807,1808,1809,1810,2329,2330,2331,1811,1812,0,0,0,0,0,
0,0,0,0,0,0,0,0,0,0,0,0,0,0,0,0,0,0,0,0,0,0,0,0,0,0,0,0,0,0,2211,2212,0,0,0,0,0,0,0,0,0,0,0,0,0,0,0,0,0,0,0,0,0,0,0,0,0,1813,1814,2352,1815,1816,0,0,0,0,0,1817,1818,1819,1820,1821,1822,1823,1824,1825,1826,1827,1828,1829,0,0,0,0,0,0,
0,0,0,0,0,0,0,0,0,0,0,0,0,0,0,0,0,0,0,0,0,0,0,0,0,0,0,0,0,0,0,0,0,0,0,0,0,0,0,0,0,0,0,0,0,0,0,0,0,0,0,0,0,0,0,0,0,0,1830,2392,1831,1832,0,0,0,0,0,0,0,0,1833,0,0,0,0,1834,1835,0,0,0,0,0,0,0,0,0,
0,0,0,0,0,0,0,0,0,0,0,0,0,0,0,0,0,0,0,0,0,0,0,0,0,0,0,0,0,0,0,0,0,0,0,0,0,0,0,0,0,0,0,0,0,0,0,0,0,0,0,0,0,0,0,0,0,0,1836,2432,2433,1837,0,0,0,0,0,0,0,0,0,0,0,0,0,0,0,0,0,0,0,0,0,0,0,0,
0,0,0,0,0,0,0,0,0,0,0,0,0,0,0,0,0,0,0,0,0,0,0,0,0,0,0,0,0,0,0,0,0,0,0,0,0,0,0,0,0,0,0,0,0,0,0,0,0,0,0,0,0,0,0,0,0,0,1838,2472,2473,1839,0,0,0,0,0,0,0,0,0,0,0,0,0,0,0,0,0,0,0,0,0,0,0,0,
0,0,0,0,0,0,0,0,0,0,0,0,0,0,0,0,0,0,0,0,0,0,0,0,0,0,0,0,0,0,0,0,0,0,0,0,0,0,0,0,0,0,0,0,0,0,0,0,0,0,0,0,0,0,0,0,0,1840,1841,2512,1842,1843,0,0,0,0,0,0,0,0,0,0,0,0,0,0,0,0,0,0,0,0,0,0,0,0,
0,0,0,0,0,0,0,0,0,0,0,0,0,0,0,0,0,0,0,0,0,0,0,0,0,0,0,0,0,0,0,0,0,0,0,0,0,0,0,0,0,0,0,0,0,0,0,0,0,0,0,0,0,0,0,0,0,1844,1845,2552,1846,1847,0,0,0,0,0,0,0,0,0,0,0,0,0,0,0,0,0,0,0,0,0,0,0,0,
0,0,0,0,0,0,0,0,0,0,0,0,0,0,0,0,0,0,0,0,0,0,0,0,0,0,0,0,0,0,0,0,0,0,0,0,0,0,0,0,0,0,0,0,0,0,0,0,0,0,0,0,0,0,0,0,0,1848,1849,2592,1850,0,0,0,0,0,0,0,0,0,0,0,0,0,0,0,1851,1852,1853,1854,1855,0,0,0,0,0,
0,0,0,0,0,0,0,0,0,0,0,0,0,0,0,0,0,0,0,0,0,0,0,0,0,0,0,0,0,0,0,0,0,0,0,0,0,0,0,0,0,0,0,0,0,0,0,0,0,0,0,0,0,0,0,0,0,1856,2631,1857,1858,0,0,0,0,0,0,0,0,0,0,0,0,0,1859,1860,1861,1862,1863,2652,1864,0,0,0,0,0,
0,0,0,0,0,0,0,0,0,0,0,0,0,0,0,0,0,0,0,0,0,0,0,0,0,0,0,0,0,0,0,0,0,0,0,0,0,0,0,0,0,0,0,0,0,0,0,0,0,0,0,0,0,0,0,0,0,1865,2671,1866,1867,0,0,0,0,0,0,0,0,0,0,0,0,0,1868,1869,2689,2690,2691,1870,1871,0,0,0,0,0,
0,0,0,0,0,0,0,0,0,0,0,0,0,0,0,0,0,0,0,0,0,0,0,0,0,0,0,0,0,0,0,0,0,0,0,0,0,0,0,0,0,0,0,0,0,0,0,0,0,0,0,0,0,0,0,0,1872,1873,2711,1874,0,0,0,0,0,0,0,0,0,0,0,0,0,0,1875,2728,2729,2730,2731,1876,1877,0,0,0,0,0,
0,0,0,0,0,0,0,0,0,0,0,0,0,0,0,0,0,0,0,0,0,0,0,0,0,0,0,0,0,0,0,0,0,0,0,0,0,0,0,0,0,0,0,0,0,0,0,0,0,0,0,0,0,0,0,0,1878,1879,2751,1880,0,0,0,0,0,0,0,0,0,0,0,0,0,0,1881,1882,1883,1884,1885,1886,0,0,0,0,0,0,
0,0,0,0,0,0,0,0,0,0,0,0,0,0,0,0,0,0,0,0,0,0,0,0,0,0,0,0,0,0,0,0,0,0,0,0,0,0,0,0,0,0,0,0,0,0,0,0,0,0,0,0,0,0,0,0,1887,2790,1888,1889,0,0,0,0,0,0,0,0,0,0,0,0,0,0,0,1890,1891,0,0,0,0,0,0,0,0,0,
0,0,0,0,0,0,0,0,0,0,0,0,0,0,0,0,0,0,0,0,0,0,0,0,0,0,0,0,0,0,0,0,0,0,0,0,0,0,0,0,0,0,0,0,0,0,0,0,0,0,0,0,0,0,0,0,1892,2830,1893,1894,0,0,0,0,0,0,0,0,0,0,0,0,0,0,0,0,0,0,0,0,0,0,0,0,0,0,
0,0,0,0,0,0,0,0,0,0,0,0,0,0,0,0,0,0,0,0,0,0,0,0,0,0,0,0,0,0,0,0,0,0,0,0,0,0,0,0,0,0,0,0,0,0,0,0,0,0,0,0,0,0,0,1895,1896,2870,1897,1619,0,0,0,0,0,0,0,0,0,0,0,0,0,0,0,0,0,0,0,0,0,0,0,0,0,0,
0,0,0,0,0,0,0,0,0,0,0,0,0,0,0,0,0,0,0,0,0,0,0,0,0,0,0,0,0,0,0,0,0,0,0,0,0,0,0,0,0,0,0,0,0,0,0,0,0,0,0,0,0,0,0,1898,1899,2910,1900,0,0,0,0,0,0,0,0,0,0,0,0,0,0,0,0,0,0,0,0,0,0,0,0,0,0,0,
0,0,0,0,0,0,0,0,0,0,0,0,0,0,0,0,0,0,0,0,0,0,0,0,0,0,0,0,0,0,0,0,0,0,0,0,0,0,0,0,0,0,0,0,0,0,0,0,0,0,0,0,0,0,0,1901,1902,2950,1903,1904,0,0,0,0,0,0,0,0,0,0,0,0,0,0,0,0,0,0,0,0,0,0,0,0,0,0,
0,0,0,0,0,0,0,0,0,0,0,0,0,0,0,0,0,0,0,0,0,0,0,0,0,0,0,0,0,0,0,0,0,0,0,0,0,0,0,0,0,0,0,0,0,0,0,0,0,0,0,0,0,0,0,1905,1906,2990,1907,1908,0,0,0,0,0,0,0,0,0,0,0,0,0,0,0,0,0,0,0,0,0,0,0,0,0,0
</data>
 </layer>
 <layer id="4" name="Decor" width="86" height="60">
  <data encoding="csv">
0,0,0,0,0,0,0,0,0,0,0,0,0,0,0,0,0,0,0,0,7209,0,0,0,0,0,0,0,0,0,0,0,0,0,7158,0,0,0,0,0,7168,0,7156,0,0,0,0,0,0,0,0,0,0,0,0,0,0,0,0,0,0,0,0,0,0,0,0,0,0,0,0,0,0,0,0,0,0,0,0,0,0,0,0,0,0,0,
0,0,0,7191,0,0,0,0,0,0,0,0,0,0,0,0,0,0,7209,0,0,0,0,0,0,0,0,0,0,0,0,0,0,0,0,0,0,0,0,0,0,0,0,0,0,0,0,0,0,0,0,0,0,0,0,0,0,0,0,7169,0,0,0,0,0,0,0,7208,0,0,0,0,0,0,0,0,0,0,0,0,0,0,0,0,0,0,
0,0,0,0,0,7192,0,0,0,0,0,0,0,0,0,0,0,0,7159,0,0,0,0,0,0,0,0,0,0,0,0,0,0,0,0,0,0,0,0,0,0,0,0,0,0,0,0,0,0,0,0,0,0,0,0,7191,7185,0,0,0,0,0,0,0,0,0,0,0,0,0,0,0,0,0,0,0,0,0,0,0,0,0,0,0,0,7192,
0,0,0,0,0,0,0,0,0,0,0,0,0,0,0,0,0,0,0,0,0,0,0,0,0,0,0,0,0,0,0,0,0,7156,0,0,0,0,0,0,0,0,0,0,0,0,0,0,0,0,0,7159,0,0,0,0,0,0,0,0,0,0,0,0,0,0,0,0,0,0,0,0,0,0,0,7209,0,0,0,0,0,0,0,0,0,0,
0,0,0,0,0,0,7208,0,0,0,0,0,0,0,0,0,0,7156,0,7168,0,0,0,0,0,0,0,0,0,0,0,0,0,0,0,0,0,0,0,0,0,7209,0,0,0,0,0,0,0,0,7175,0,0,0,0,0,0,0,0,0,0,0,0,0,0,0,0,0,0,0,0,0,0,0,0,0,0,0,0,0,0,0,0,0,0,0,
0,0,0,0,0,0,0,0,0,0,0,0,0,0,0,0,0,0,0,0,7206,0,0,0,0,0,0,0,0,0,0,0,0,0,0,0,0,0,0,0,0,0,0,0,0,0,0,0,0,0,0,0,0,0,0,0,0,0,0,0,0,0,0,0,0,0,0,0,0,0,0,0,0,0,0,0,0,0,0,7185,0,0,0,0,0,0,
0,0,0,0,0,0,0,0,0,0,0,0,0,0,0,0,0,0,0,0,0,0,0,0,0,0,0,0,0,0,0,0,0,0,0,7189,0,0,0,0,0,0,0,0,0,0,0,0,0,0,0,0,0,7156,0,0,0,0,0,0,0,0,0,0,0,0,0,0,0,0,7169,0,0,0,0,0,0,0,0,0,0,0,0,0,0,0,
0,0,0,0,0,0,7191,0,0,0,0,0,0,0,0,0,0,0,0,0,0,0,0,0,0,0,0,0,0,0,0,7208,0,0,0,7185,0,0,0,0,0,0,0,0,0,7168,0,0,0,0,0,0,0,0,0,0,0,0,0,0,0,0,0,0,0,0,0,0,0,7168,0,0,0,0,0,0,0,0,0,0,0,0,0,0,0,0,
0,0,0,0,0,7191,0,0,0,7157,0,0,0,0,0,0,0,0,0,0,0,0,0,7168,0,0,0,0,7156,0,0,0,0,0,0,0,0,0,0,0,0,0,7208,0,0,0,7220,7221,0,0,0,0,0,0,0,0,0,0,0,0,0,0,0,0,0,0,0,0,0,0,0,0,0,0,0,0,0,0,0,0,0,0,0,0,0,0,
0,0,0,0,0,0,0,7206,0,0,0,0,0,0,0,0,0,0,0,0,0,0,0,0,7207,0,0,0,0,0,0,0,0,0,0,0,0,0,0,0,0,0,0,0,0,0,7222,7223,0,0,0,0,0,0,0,0,0,0,0,0,0,0,0,0,0,0,7163,0,0,0,0,0,0,0,0,0,0,0,0,0,0,0,0,0,0,0,
0,0,0,0,0,0,0,0,0,0,0,0,0,0,0,0,0,0,0,0,0,0,0,0,0,7177,0,0,0,0,0,0,0,0,0,0,0,0,0,0,7175,0,7177,0,0,0,7220,7221,0,0,0,0,0,0,0,0,0,0,0,0,0,0,0,0,0,0,0,0,0,0,0,0,0,0,0,0,0,0,0,0,0,0,0,0,0,0,
0,0,0,0,0,0,0,0,0,0,0,0,0,0,0,0,0,0,0,0,0,0,7176,0,0,0,0,0,7191,0,0,0,0,0,0,0,0,0,0,0,7175,0,0,0,0,7169,7222,7223,0,0,0,7189,0,0,0,0,0,0,0,0,0,0,0,0,0,0,0,0,0,0,0,0,0,0,0,0,0,0,0,0,0,0,0,0,0,0,
0,0,0,0,0,7208,0,0,0,0,0,0,0,0,0,0,0,0,0,0,0,0,0,0,0,0,0,0,0,0,0,0,0,0,0,0,0,0,0,0,0,7189,0,0,0,7157,0,0,0,7189,0,0,0,0,0,0,0,0,0,0,0,0,0,0,0,0,7211,0,0,0,0,0,0,0,0,0,0,0,0,0,0,0,0,0,0,0,
0,0,0,0,0,0,0,0,0,0,0,0,0,0,0,0,0,0,0,0,0,0,0,0,0,0,0,0,0,0,7189,0,0,0,0,0,0,0,0,0,0,0,0,0,0,0,0,0,0,7168,0,0,0,0,0,0,0,0,0,0,0,0,0,0,7215,0,7213,0,7171,0,0,0,0,0,0,0,0,0,0,0,0,0,0,0,0,0,
0,0,0,0,0,0,0,0,0,0,0,0,0,0,0,0,7207,0,0,0,0,0,0,0,0,0,0,0,0,0,0,0,0,0,0,0,0,0,0,0,0,0,0,0,0,0,0,0,0,7177,0,0,0,0,0,0,0,0,0,0,0,0,0,0,0,0,0,0,0,0,0,7169,0,0,0,0,0,0,0,7168,0,0,0,0,0,0,
0,0,0,0,0,0,0,0,0,0,0,0,0,0,0,0,0,7176,0,0,0,7207,0,0,0,0,0,0,0,0,0,0,0,0,0,0,0,0,0,0,0,0,0,0,0,0,0,0,0,0,0,0,0,0,0,0,0,0,0,0,0,0,0,0,0,0,0,7211,0,0,0,0,0,0,0,0,0,0,0,0,0,0,0,0,0,0,
0,0,0,0,0,0,0,0,7175,0,0,0,0,0,0,0,0,0,0,0,0,0,7178,0,0,0,0,0,0,0,0,0,0,0,0,0,0,0,0,0,0,0,0,0,0,0,0,0,0,0,0,0,7204,0,7168,0,0,0,0,0,0,0,0,0,0,0,0,7215,0,0,0,0,0,0,0,0,0,0,0,7159,0,0,0,0,0,0,
0,0,0,0,0,0,0,0,0,0,0,0,0,0,0,0,7204,0,7206,0,0,0,0,0,0,0,0,0,0,0,0,0,0,0,0,0,0,0,0,0,0,0,0,0,0,0,0,0,0,0,0,0,0,0,0,0,7209,0,0,0,0,0,0,0,0,0,0,0,0,7214,0,0,0,0,0,0,0,0,0,0,0,0,0,0,0,0,
0,7178,7178,0,0,0,0,0,0,0,0,0,0,0,0,0,0,0,0,0,0,0,7175,0,7168,0,0,0,0,0,0,0,0,0,0,0,0,0,0,0,0,0,0,0,0,0,0,0,0,0,0,0,0,0,0,0,0,0,0,0,0,0,0,0,0,0,0,0,0,0,0,0,0,0,0,0,0,0,0,0,0,0,0,0,0,0,
0,0,0,0,0,0,0,0,0,0,0,0,0,0,0,7176,0,0,0,0,0,0,0,0,0,0,0,0,0,0,0,0,0,0,0,0,0,0,0,0,0,0,0,0,0,0,0,7175,0,0,0,0,0,0,0,0,0,0,0,0,0,0,0,0,0,0,0,0,0,0,0,7171,0,0,0,0,0,7191,0,7159,0,0,0,0,7191,0,
0,0,0,0,0,0,0,0,0,0,0,0,0,0,0,0,7175,0,0,0,0,0,0,0,0,0,0,0,0,0,0,0,0,0,0,0,0,0,0,0,0,0,7209,0,0,0,0,7191,0,0,0,0,0,0,0,0,0,0,0,0,0,0,0,0,0,0,0,0,0,0,0,0,0,0,0,0,0,0,0,0,0,0,0,0,0,0,
0,0,0,0,0,0,0,0,0,0,0,0,7181,0,0,0,0,0,0,0,0,0,0,0,0,0,0,0,0,0,0,0,0,0,0,0,0,0,0,0,0,0,0,0,0,0,0,0,0,0,0,0,0,0,0,0,0,0,0,0,0,0,0,0,0,0,0,0,0,0,0,0,0,0,0,0,0,0,0,0,0,0,0,0,0,0,
0,0,7191,0,0,0,0,0,0,0,0,7179,0,0,0,0,0,7204,0,0,0,0,0,0,0,0,0,0,0,0,0,0,0,0,0,0,0,0,0,0,0,7191,0,0,0,0,0,0,0,0,0,0,0,0,0,0,0,0,0,0,0,0,0,0,0,0,0,0,0,0,0,0,0,0,0,0,0,0,0,0,0,0,0,0,0,0,
0,0,0,0,0,0,7157,0,0,0,0,0,0,0,0,0,0,0,7158,0,7159,0,0,0,0,0,0,0,0,0,0,0,0,0,0,0,0,0,0,0,0,0,0,0,0,0,0,0,0,0,0,0,0,0,0,0,0,0,0,0,0,0,0,0,0,0,0,0,0,0,0,0,0,0,0,0,0,0,7164,0,0,0,0,0,0,0,
0,0,0,0,0,0,0,7159,0,0,7191,0,0,0,0,0,0,0,0,0,0,0,0,0,0,0,0,0,0,0,0,0,0,0,0,0,0,0,0,0,0,0,0,0,0,0,0,0,0,0,0,0,0,0,0,0,0,0,0,0,0,0,0,7156,0,0,0,0,0,0,0,0,0,0,0,0,0,0,7160,7164,0,0,0,0,0,0,
0,0,0,0,0,0,0,0,0,0,0,0,0,0,0,0,0,0,0,7191,7159,0,0,0,0,0,0,0,0,0,0,0,0,0,0,0,0,0,0,0,0,0,0,0,0,0,0,0,0,0,0,0,0,0,0,0,0,0,0,0,0,0,7208,0,0,0,0,0,0,0,0,0,0,0,0,0,0,0,0,0,0,0,0,0,0,0,
0,0,0,0,0,7158,0,0,0,0,0,0,0,0,0,0,0,0,0,0,7163,0,0,0,0,0,0,0,0,0,0,0,0,0,0,0,0,0,0,0,0,0,0,0,0,0,0,0,0,0,0,0,0,0,0,0,0,0,0,0,0,7157,0,0,0,0,0,0,0,0,0,0,0,0,0,0,0,0,0,0,0,7215,0,0,0,0,
0,0,0,0,0,0,0,0,0,0,7163,0,0,0,0,0,0,0,0,0,7178,0,0,0,0,0,0,0,0,0,0,0,0,0,0,0,0,0,0,0,0,0,0,0,0,0,0,7157,0,0,0,0,0,0,0,0,0,0,0,0,0,0,0,0,0,0,0,0,0,0,0,0,0,0,0,0,0,0,0,0,0,0,0,0,0,0,
0,0,0,0,0,0,0,0,0,0,0,0,0,0,0,0,0,0,0,0,7189,0,0,0,0,0,0,0,0,0,0,0,0,0,0,0,0,0,0,0,0,0,0,0,0,0,0,0,0,0,0,0,0,0,0,0,0,0,0,0,0,0,0,7211,0,7199,7160,0,0,0,0,7214,0,0,0,0,0,0,0,0,7214,0,0,0,0,0,
0,0,0,0,0,0,0,0,0,0,0,0,0,0,0,0,0,0,0,0,0,0,0,0,0,0,0,0,0,0,0,7175,0,0,0,0,0,0,0,0,0,0,0,0,0,0,0,0,0,0,0,0,0,0,0,0,0,0,0,0,0,0,0,0,0,0,0,0,0,0,0,0,0,0,0,0,0,0,0,0,0,0,0,0,0,0,
0,0,0,0,0,0,0,0,0,0,0,0,0,0,0,0,0,0,0,0,0,0,0,0,0,0,0,0,0,0,0,0,0,0,0,0,0,0,0,0,0,0,0,0,0,0,0,0,0,0,0,0,0,0,0,0,0,0,0,0,0,0,0,0,0,0,0,0,0,0,0,0,0,0,0,0,7211,0,0,0,0,0,0,0,0,0,
0,0,0,0,0,0,0,0,0,0,0,0,0,0,0,0,0,0,0,0,0,0,0,0,0,0,0,0,0,0,0,7168,0,0,0,0,0,0,0,0,0,0,0,7204,0,0,0,0,0,0,0,0,0,0,0,0,6952,6953,6954,6955,0,0,0,0,0,0,0,0,0,0,0,0,0,0,0,0,0,0,0,0,0,0,0,0,0,0,
0,0,0,0,7163,0,7209,0,0,0,0,0,0,0,0,0,0,0,0,0,0,0,0,0,0,0,7157,0,0,0,0,0,0,0,0,0,0,0,7168,7168,0,0,0,0,0,0,0,0,0,0,0,0,0,0,0,0,6956,6957,6958,6959,7159,0,0,0,0,0,0,0,0,0,0,0,0,0,0,0,0,7211,0,0,7171,0,0,0,0,0,
0,0,0,0,0,0,0,0,0,0,0,0,0,0,0,0,0,0,0,0,0,0,0,0,7191,0,0,0,0,0,0,0,0,0,0,0,0,0,0,0,0,0,0,0,0,0,0,0,0,0,0,0,0,7169,0,0,6960,6961,6962,6963,0,0,0,0,0,0,0,0,0,0,0,0,0,0,0,0,0,0,0,0,0,0,0,0,0,0,
0,0,0,0,0,0,0,0,7175,0,0,0,0,0,0,0,0,0,0,0,0,0,7208,0,0,7209,0,0,0,0,0,0,0,0,0,0,0,0,0,0,0,0,0,0,0,0,0,0,0,0,0,0,0,0,0,0,6964,6965,6966,6967,0,0,0,0,0,0,0,0,0,0,0,0,0,7156,0,0,0,0,0,0,0,0,0,0,0,0,
0,0,0,0,0,0,0,0,0,0,0,0,0,0,0,0,0,0,0,0,0,0,0,0,0,0,0,0,0,0,0,0,7158,0,0,0,0,0,0,0,0,0,0,0,0,0,0,0,0,0,0,0,0,0,0,0,0,0,0,0,0,0,0,0,0,0,0,0,0,0,0,0,0,0,0,0,0,0,0,0,0,0,0,0,0,0,
0,0,0,0,0,0,0,0,0,0,7168,0,0,0,0,0,0,0,0,0,0,0,0,0,7157,0,0,0,0,0,0,0,0,0,0,0,0,0,0,0,0,0,0,0,0,0,0,0,0,7156,0,0,0,0,0,0,0,0,0,0,0,0,0,0,0,0,0,7164,0,0,0,0,0,0,0,0,0,0,0,0,0,0,0,0,0,0,
0,0,0,0,0,0,0,0,0,0,0,0,0,0,0,0,0,0,0,0,0,0,0,0,0,0,7208,7178,0,0,0,0,0,0,0,0,0,0,0,0,0,0,0,0,0,0,0,0,0,0,0,0,0,7158,0,0,0,0,0,0,0,0,0,0,0,0,7211,0,0,0,0,0,0,0,0,0,0,0,0,0,0,0,0,0,0,0,
0,0,0,0,0,0,0,0,0,0,0,0,7168,0,0,0,0,0,0,0,0,0,0,0,0,0,0,0,0,0,0,0,0,0,0,0,0,0,0,0,0,0,0,0,0,0,0,0,0,0,0,0,0,0,0,0,0,0,0,0,0,0,0,0,0,0,0,0,0,0,0,0,0,0,0,0,0,0,0,0,0,7211,7215,0,0,0,
0,0,0,0,0,0,0,0,7208,0,0,0,0,0,0,0,0,0,0,0,0,0,0,0,0,0,0,0,0,7208,0,0,0,0,0,0,0,0,0,0,0,7175,0,0,0,0,0,0,0,0,0,0,0,0,0,0,0,0,0,0,0,0,0,0,0,0,0,0,0,0,0,0,0,0,0,0,0,0,0,0,0,0,0,0,0,0,
0,0,0,0,0,0,0,0,0,0,0,0,0,0,0,7206,0,0,0,0,0,0,0,0,7189,0,0,0,0,0,0,0,0,0,0,0,0,0,0,0,0,0,0,0,0,0,0,0,0,0,0,0,0,0,0,0,0,0,0,0,0,0,0,0,0,0,0,0,0,0,0,0,0,0,0,0,0,0,0,0,0,0,0,0,7159,0,
0,0,7168,0,0,0,0,0,0,0,0,0,7185,0,0,0,0,0,0,0,0,0,0,0,0,0,0,0,0,0,0,0,0,0,7204,0,0,0,0,0,0,0,0,0,0,0,7157,0,0,0,0,0,0,0,0,0,0,0,0,0,0,0,0,0,0,0,0,0,0,0,0,0,0,0,0,0,0,0,0,0,0,0,0,0,0,0,
0,0,0,0,7159,0,0,0,0,0,0,0,0,0,0,0,0,0,0,0,0,0,0,0,0,0,0,0,0,0,0,0,0,0,0,0,0,0,0,0,0,0,0,0,0,0,0,0,0,0,0,0,0,0,0,0,0,0,0,0,0,0,0,7213,0,0,0,0,0,0,0,0,0,0,0,0,0,0,0,0,0,0,0,0,0,0,
0,0,0,0,0,0,0,0,0,0,0,0,0,0,0,0,0,0,0,0,0,0,0,0,0,0,0,0,0,0,0,0,0,0,0,0,0,0,0,0,0,0,0,0,0,0,0,0,0,0,0,0,7208,0,0,7157,0,0,0,0,0,0,0,0,0,0,0,0,0,0,0,0,0,0,0,0,0,0,0,0,0,7199,0,0,7204,0,
0,0,0,0,0,0,0,0,0,0,0,0,0,0,0,0,0,0,0,0,0,0,0,0,0,0,0,0,0,0,0,0,0,0,0,0,0,0,0,0,0,0,0,0,0,0,0,0,0,0,0,0,0,0,0,0,0,0,0,0,0,0,0,0,0,0,0,0,0,0,0,0,0,0,0,0,0,0,0,0,0,0,0,0,0,0,
0,0,7209,0,0,0,0,7156,0,0,0,0,0,0,0,0,7156,7158,0,0,0,0,0,0,0,0,0,0,0,0,0,7169,0,0,0,7206,0,0,0,0,0,0,0,0,0,0,0,0,0,0,0,0,0,0,0,0,0,0,0,0,0,0,0,0,0,0,0,0,0,0,0,0,0,0,0,0,0,0,0,0,0,0,0,0,0,7163,
0,0,0,0,7178,0,0,0,0,0,0,0,7156,0,0,0,0,7178,0,0,0,0,0,0,0,0,0,7192,0,0,0,0,0,7178,0,0,0,0,0,0,0,0,0,0,0,0,0,0,0,0,0,0,0,0,0,0,0,0,0,0,0,0,0,0,0,0,0,0,0,0,0,0,7164,0,0,0,0,0,7156,0,0,0,0,0,0,0,
0,0,0,0,0,0,0,0,0,0,0,0,0,0,0,7163,0,0,0,0,0,0,0,0,0,7185,0,0,0,0,0,0,0,0,0,0,0,0,0,7168,0,7157,0,0,0,0,0,0,0,0,0,0,0,0,0,0,0,0,0,0,0,0,0,0,7214,0,0,0,0,0,0,0,0,0,0,0,0,0,0,0,0,0,0,0,0,7185,
0,0,0,0,0,0,0,0,0,0,0,0,0,0,0,7178,0,0,0,7168,0,0,0,0,0,0,7159,0,0,0,0,7169,0,0,0,0,7163,0,0,0,0,0,0,0,0,0,0,7192,0,0,0,0,0,0,0,0,0,0,0,0,0,0,0,0,0,0,0,0,0,0,0,0,7214,0,0,0,0,0,0,0,0,0,0,0,0,0,
0,0,0,0,0,0,0,0,0,0,0,0,0,0,0,0,0,0,0,0,0,0,0,0,7208,0,0,0,7168,0,0,0,0,0,0,0,0,0,0,7189,0,0,0,0,0,0,7168,0,0,0,0,0,0,0,7185,0,0,0,0,0,0,0,0,0,0,7160,0,0,0,7213,0,0,0,0,0,0,0,0,0,0,0,0,0,0,0,0,
0,0,0,0,0,0,0,7192,0,0,7163,0,0,7158,0,7204,7192,0,0,0,0,0,0,0,0,0,0,0,0,0,0,0,0,0,0,0,0,0,7209,0,0,0,0,0,0,0,7206,0,0,0,0,7185,0,0,7168,0,7168,0,0,0,0,0,0,0,0,0,0,0,0,0,0,0,0,0,0,0,0,0,0,0,0,0,0,0,0,0,
7163,0,0,0,0,0,0,0,0,0,0,0,0,0,0,0,0,0,0,0,0,0,0,0,0,0,0,0,0,0,0,0,0,0,0,0,0,0,0,0,0,0,0,7168,7209,0,0,0,0,0,0,0,0,0,0,0,0,0,0,0,0,0,0,7159,0,0,0,0,0,0,0,7211,0,0,0,0,0,0,0,0,0,0,7206,0,0,7168,
0,0,0,0,7163,0,0,0,7163,0,0,0,0,0,0,0,0,0,0,7209,0,0,0,0,0,0,7204,0,0,0,0,0,0,0,0,0,0,0,0,0,0,0,0,0,0,7158,0,0,7158,0,0,0,0,0,0,0,0,0,0,0,0,0,0,0,0,0,0,0,0,0,0,7163,0,0,0,0,0,0,0,0,0,0,0,0,0,7169,
0,0,0,7209,0,0,0,0,0,0,0,0,0,0,0,0,0,0,0,0,0,0,0,0,0,0,0,0,0,0,0,0,0,0,0,0,0,0,0,0,0,0,7206,0,0,0,0,0,0,0,0,0,0,0,0,0,0,0,0,0,0,0,0,0,0,0,0,0,0,0,0,0,0,0,0,0,0,0,0,0,0,0,0,0,7168,0,
0,0,0,0,0,0,0,0,0,0,7189,0,0,0,0,0,0,0,0,0,0,0,0,0,0,0,0,7156,0,0,0,0,0,0,0,0,0,0,0,0,0,0,0,0,0,0,0,0,0,0,0,0,0,0,0,0,0,0,0,0,0,0,0,0,0,0,7209,0,0,0,0,0,0,0,0,0,0,0,0,0,0,0,7157,0,0,0,
0,0,0,0,0,7209,0,0,0,7156,0,0,0,0,0,0,0,0,0,0,0,0,0,0,0,0,0,0,0,0,0,0,0,0,0,0,0,0,0,0,0,0,0,0,0,0,0,0,0,0,0,0,0,0,0,0,0,0,0,0,0,0,0,0,0,0,0,0,0,0,0,0,0,0,0,0,0,0,0,0,7191,0,0,0,0,0,
0,0,0,0,0,0,0,0,0,0,0,0,0,0,0,0,0,0,7191,0,0,0,0,0,0,0,0,0,0,0,0,7204,0,0,0,0,0,0,0,0,0,0,0,0,0,0,0,0,0,0,7175,0,7206,0,0,0,0,0,0,0,0,0,7169,0,0,0,0,0,0,0,0,0,0,0,0,0,0,0,0,0,0,0,0,0,0,0,
0,0,0,0,0,0,0,0,0,0,0,0,0,0,0,0,0,0,0,0,0,0,0,0,0,0,0,0,0,0,0,0,0,0,0,0,0,0,0,0,0,0,0,0,0,0,0,0,0,0,0,0,0,0,0,0,0,0,0,0,0,0,0,0,0,0,0,0,0,0,0,0,0,0,7209,0,0,0,0,0,0,0,0,0,0,7208,
0,0,0,0,0,0,7169,0,0,0,0,0,0,0,0,7185,0,0,0,0,0,0,0,0,0,0,0,0,0,0,0,0,0,0,0,0,0,0,0,0,0,0,0,0,0,0,0,0,0,0,0,0,0,7206,0,0,0,0,0,0,0,0,0,0,0,0,0,0,7178,0,0,7209,0,0,0,0,0,0,0,0,0,0,0,0,0,0,
0,0,7189,0,0,0,0,0,0,0,0,0,0,7189,0,0,0,0,0,0,0,0,0,0,0,0,7185,0,0,0,0,0,0,0,0,0,0,0,0,0,0,0,0,0,0,0,0,0,0,0,0,0,0,0,0,0,0,0,0,0,0,0,7158,0,0,0,0,0,0,0,0,0,7156,0,0,0,0,0,7157,0,0,0,0,0,0,0
</data>
 </layer>
 <layer id="5" name="Dynamic" width="86" height="60">
  <data encoding="csv">
0,0,0,0,0,0,0,0,0,0,0,0,0,0,0,0,0,0,0,0,0,0,0,0,0,0,0,0,0,0,0,0,0,0,0,0,0,0,0,0,0,0,0,0,0,0,0,0,0,0,0,0,0,0,0,0,0,0,0,0,0,0,0,0,0,0,0,0,0,0,0,0,0,0,0,0,0,0,0,0,0,0,0,0,0,0,
0,0,0,0,0,0,0,0,0,0,0,0,0,0,0,0,0,0,0,0,0,0,0,0,0,0,0,0,0,0,0,0,0,0,0,0,0,0,0,0,0,0,0,0,0,0,0,0,0,0,0,0,0,0,0,0,0,0,0,0,0,0,0,0,0,0,0,0,0,0,0,0,0,0,0,0,0,0,0,0,0,0,0,0,0,0,
0,0,0,0,0,0,0,0,0,0,0,0,0,0,0,0,0,0,0,0,0,0,0,0,0,0,0,0,0,0,0,0,0,0,0,0,0,0,0,0,0,0,0,0,0,0,0,0,0,0,0,0,0,0,0,0,0,0,0,0,0,0,0,0,0,0,0,0,0,0,0,0,0,0,0,0,0,0,0,0,0,0,0,0,0,0,
0,0,0,0,0,0,0,0,0,0,0,0,0,0,0,0,0,0,0,0,0,0,0,0,0,0,0,0,0,0,0,0,0,0,0,0,0,0,0,0,0,0,0,0,0,0,0,0,0,0,0,0,0,0,0,0,0,0,0,0,0,0,0,0,0,0,0,0,0,0,0,0,0,0,0,0,0,0,0,0,0,0,0,0,0,0,
0,0,0,0,0,0,0,0,0,0,0,0,0,0,0,0,0,0,0,0,0,0,0,0,0,0,0,0,0,0,0,0,0,0,0,0,0,0,0,0,0,0,0,0,0,0,0,0,0,0,0,0,0,0,0,0,0,0,0,0,0,0,0,0,0,0,0,0,0,0,0,0,0,0,0,0,0,0,0,0,0,0,0,0,0,0,
0,0,0,0,0,0,0,0,0,0,0,0,0,0,0,0,0,0,0,0,0,0,0,0,0,0,0,0,0,0,0,0,0,0,0,0,0,0,0,0,0,0,0,0,0,0,0,0,0,0,0,0,0,0,0,0,0,0,0,0,0,0,0,0,0,0,0,0,0,0,0,0,0,0,0,0,0,0,0,0,0,0,0,0,0,0,
0,0,0,0,0,0,0,0,0,0,0,0,0,0,0,0,0,0,0,0,0,0,0,0,0,0,0,0,0,0,0,0,0,0,0,0,0,0,0,0,0,0,0,0,0,0,0,0,0,0,0,0,0,0,0,0,0,0,0,0,0,0,0,0,0,0,0,0,0,0,0,0,0,0,0,0,0,0,0,0,0,0,0,0,0,0,
0,0,0,0,0,0,0,0,0,0,0,0,0,0,0,0,0,0,0,0,0,0,0,0,0,0,0,0,0,0,0,0,0,0,0,0,0,0,0,0,0,0,0,0,0,0,0,0,0,0,0,0,0,0,0,0,0,0,0,0,0,0,0,0,0,0,0,0,0,0,0,0,0,0,0,0,0,0,0,0,0,0,0,0,0,0,
0,0,0,0,0,0,0,0,0,0,0,0,0,0,0,0,0,0,0,0,0,0,0,0,0,0,0,0,0,0,0,0,0,0,0,0,0,0,0,0,0,0,0,0,0,0,0,0,0,0,0,0,0,0,0,0,0,0,0,0,0,0,0,0,0,0,0,0,0,0,0,0,0,0,0,0,0,0,0,0,0,0,0,0,0,0,
0,0,0,0,0,0,0,0,0,0,0,0,0,0,0,0,0,0,0,0,0,0,0,0,0,0,0,0,0,0,0,0,0,0,0,0,0,0,0,0,0,0,0,0,0,0,0,0,0,0,0,0,0,0,0,0,0,0,0,0,0,0,0,0,0,0,0,0,0,0,0,0,0,0,0,0,0,0,0,0,0,0,0,0,0,0,
0,0,0,0,0,0,0,0,0,0,0,0,0,0,0,0,0,0,0,0,0,0,0,0,0,0,0,0,0,0,0,0,0,0,0,0,0,0,0,0,0,0,0,0,0,0,0,0,0,0,0,0,0,0,0,0,0,0,0,0,0,0,0,0,0,0,0,0,0,0,0,0,0,0,0,0,0,0,0,0,0,0,0,0,0,0,
0,0,0,0,0,0,0,0,0,0,0,0,0,0,0,0,0,0,0,0,0,0,0,0,0,0,0,0,0,0,0,0,0,0,0,0,0,0,0,0,0,0,0,0,0,0,0,0,0,0,0,0,0,0,0,0,0,0,0,0,0,0,0,0,0,0,0,0,0,0,0,0,0,0,0,0,0,0,0,0,0,0,0,0,0,0,
0,0,0,0,0,0,0,0,0,0,0,0,0,0,0,0,0,0,0,0,0,0,0,0,0,0,0,0,0,0,0,0,0,0,0,0,0,0,0,0,0,0,0,0,0,0,0,0,0,0,0,0,0,0,0,0,0,0,0,0,0,0,0,0,0,0,0,0,0,0,0,0,0,0,0,0,0,0,0,0,0,0,0,0,0,0,
0,0,0,0,0,0,0,0,0,0,0,0,0,0,0,0,0,0,0,0,0,0,0,0,0,0,0,0,0,0,0,0,0,0,0,0,0,0,0,0,0,0,0,0,0,0,0,0,0,0,0,0,0,0,0,0,0,0,0,0,0,0,0,0,0,0,0,0,0,0,0,0,0,0,0,0,0,0,0,0,0,0,0,0,0,0,
0,0,0,0,0,0,0,0,0,0,0,0,0,0,0,0,0,0,0,0,0,0,0,0,0,0,0,0,0,0,0,0,0,0,0,0,0,0,0,0,0,0,0,0,0,0,0,0,0,0,0,0,0,0,0,0,0,0,0,0,0,0,0,0,0,0,0,0,0,0,0,0,0,0,0,0,0,0,0,0,0,0,0,0,0,0,
0,0,0,0,0,0,0,0,0,0,0,0,0,0,0,0,0,0,0,0,0,0,0,0,0,0,0,0,0,0,0,0,0,0,0,0,0,0,0,0,0,0,0,0,0,0,0,0,0,0,0,0,0,0,0,0,0,0,0,0,0,0,0,0,0,0,0,0,0,0,0,0,0,0,0,0,0,0,0,0,0,0,0,0,0,0,
0,0,0,0,0,0,0,0,0,0,0,0,0,0,0,0,0,0,0,0,0,0,0,0,0,0,0,0,0,0,0,0,0,0,0,0,0,0,0,0,0,0,0,0,0,0,0,0,0,0,0,0,0,0,0,0,0,0,0,0,0,0,0,0,0,0,0,0,0,0,0,0,0,0,0,0,0,0,0,0,0,0,0,0,0,0,
0,0,0,0,0,0,0,0,0,0,0,0,0,0,0,0,0,0,0,0,0,0,0,0,0,0,0,0,0,0,0,0,0,0,0,0,0,0,0,0,0,0,0,0,0,0,0,0,0,0,0,0,0,0,0,0,0,0,0,0,0,0,0,0,0,0,0,0,0,0,0,0,0,0,0,0,0,0,0,0,0,0,0,0,0,0,
0,0,0,0,0,0,0,0,0,0,0,0,0,0,0,0,0,0,0,0,0,0,0,0,0,0,0,0,0,0,0,0,0,0,0,0,0,0,0,0,0,0,0,0,0,0,0,0,0,0,0,0,0,0,0,0,0,0,0,0,0,0,0,0,0,0,0,0,0,0,0,0,0,0,0,0,0,0,0,0,0,0,0,0,0,0,
0,0,0,0,0,0,0,0,0,0,0,0,0,0,0,0,0,0,0,0,0,0,0,0,0,0,0,0,0,0,0,0,0,0,0,0,0,0,0,0,0,0,0,0,0,0,0,0,0,0,0,0,0,0,0,0,0,0,0,0,0,0,0,0,0,0,0,0,0,0,0,0,0,0,0,0,0,0,0,0,0,0,0,0,0,0,
0,0,0,0,0,0,0,0,0,0,0,0,0,0,0,0,0,0,0,0,0,0,0,0,0,0,0,0,0,0,0,0,0,0,0,0,0,0,0,0,0,0,0,0,0,0,0,0,0,0,0,0,0,0,0,0,0,0,0,0,0,0,0,0,0,0,0,0,0,0,0,0,0,0,0,0,0,0,0,0,0,0,0,0,0,0,
0,0,0,0,0,0,0,0,0,0,0,0,0,0,0,0,0,0,0,0,0,0,0,0,0,0,0,0,0,0,0,0,0,6300,6274,6275,6276,6300,0,0,0,0,0,0,0,0,0,0,0,0,0,0,0,0,0,0,0,0,0,0,0,0,0,0,0,0,0,0,0,0,0,0,0,0,0,0,0,0,0,0,0,0,0,0,0,0,
0,0,0,0,0,0,0,0,0,0,0,0,0,0,0,0,0,0,0,0,0,0,0,0,0,0,0,0,0,0,0,0,0,6300,6277,6278,6279,6300,0,0,0,0,0,0,0,0,0,0,0,0,0,0,0,0,0,0,0,0,0,0,0,0,0,0,0,0,0,0,0,0,0,0,0,0,0,0,0,0,0,0,0,0,0,0,0,0,
0,0,0,0,0,0,0,0,0,0,0,0,0,0,0,0,0,0,0,0,0,0,0,0,0,0,0,0,0,0,0,0,0,6280,6281,6282,6283,6284,0,0,0,0,0,0,0,0,0,0,0,0,0,0,0,0,0,0,0,0,0,0,0,0,0,0,0,0,0,0,0,0,0,0,0,0,0,0,0,0,0,0,0,0,0,0,0,0,
0,0,0,0,0,0,0,0,0,0,0,5749,5731,5732,5749,0,0,0,0,0,0,6585,6585,6585,6585,6549,6550,6585,0,0,0,0,0,6285,6286,6287,6288,6289,0,0,0,0,0,0,0,0,0,0,0,0,0,0,0,0,0,0,0,0,0,0,0,0,0,0,0,0,0,0,0,0,0,0,0,0,0,0,0,0,0,0,0,0,0,0,0,0,
0,0,0,0,0,0,0,0,0,0,0,5733,5734,5735,5736,0,0,0,0,0,0,6551,6552,6553,6554,6555,6556,6585,0,0,0,0,0,6290,6291,6292,6293,6294,0,0,0,0,0,0,0,0,0,0,5579,5555,5556,5557,5558,0,0,0,0,0,0,0,0,0,0,0,0,0,0,0,0,0,0,0,0,0,0,0,0,0,0,0,0,0,0,0,0,0,
0,0,0,0,0,0,0,0,0,0,0,5737,5738,5739,5740,0,0,0,0,0,0,6557,6558,6559,6560,6561,6562,6563,0,0,0,0,0,6295,6296,6297,6298,6299,0,0,0,0,0,0,0,0,0,0,5559,5560,5561,5562,5563,0,0,0,0,0,0,0,0,0,0,0,0,0,0,0,0,0,0,0,0,0,0,0,0,0,0,0,0,0,0,0,0,0,
0,0,0,0,0,0,0,0,0,0,0,5741,5742,5743,5744,0,0,0,0,0,0,6564,6565,6566,6567,6568,6569,6570,0,0,0,0,0,0,0,0,0,0,0,0,0,0,0,0,0,0,0,0,5564,5565,5566,5567,5568,0,0,0,0,0,0,0,0,0,0,0,0,0,0,0,0,0,0,0,0,0,0,0,0,0,0,0,0,0,0,0,0,0,
0,0,0,0,0,0,0,0,0,0,0,5745,5746,5747,5748,0,0,0,0,0,0,6571,6572,6573,6574,6575,6576,6577,0,0,0,0,0,0,0,0,0,0,0,0,0,0,0,0,0,0,0,0,5569,5570,5571,5572,5573,0,0,0,0,0,0,0,0,0,0,0,0,0,0,0,0,0,0,0,0,0,0,0,0,0,0,0,0,0,0,0,0,0,
0,0,0,0,0,0,0,0,0,0,0,0,0,0,0,0,0,0,0,0,0,6578,6579,6580,6581,6582,6583,6584,0,0,0,0,0,0,0,0,0,0,0,0,0,0,0,0,0,0,0,0,5574,5575,5576,5577,5578,0,0,0,0,0,0,0,0,0,0,0,0,0,0,0,0,0,0,0,0,0,0,0,0,0,0,0,0,0,0,0,0,0,
0,0,0,0,0,0,0,0,0,0,0,0,0,0,0,0,0,0,0,0,0,0,0,0,0,0,0,0,0,0,0,0,0,0,0,0,0,0,0,0,0,0,0,0,0,0,0,0,0,0,0,0,0,0,0,0,0,0,0,0,0,0,0,0,0,0,0,0,0,0,0,0,0,0,0,0,0,0,0,0,0,0,0,0,0,0,
0,0,0,0,0,0,0,0,0,0,0,0,0,0,0,0,0,0,0,0,0,0,0,0,0,0,0,0,0,0,0,0,0,0,0,0,0,0,0,0,0,0,0,0,0,0,0,0,0,0,0,0,0,0,0,0,0,0,0,0,0,0,0,0,0,0,0,0,0,0,0,0,0,0,0,0,0,0,0,0,0,0,0,0,0,0,
0,0,0,0,0,0,0,0,0,0,0,0,0,0,0,0,0,0,0,0,0,0,0,0,0,0,0,0,0,0,0,0,0,0,0,0,0,0,0,0,0,0,0,0,0,0,0,0,0,0,0,0,0,0,0,0,0,0,0,0,0,0,0,0,0,0,0,0,0,0,0,0,0,0,0,0,0,0,0,0,0,0,0,0,0,0,
0,0,0,0,0,0,0,0,0,0,0,0,0,0,0,0,0,0,0,0,0,0,0,0,0,0,0,0,0,0,0,0,0,0,0,0,0,0,0,0,0,0,0,0,0,0,0,0,0,0,0,0,0,0,0,0,0,0,0,0,0,0,0,0,0,0,0,0,0,0,0,0,0,0,0,0,0,0,0,0,0,0,0,0,0,0,
0,0,0,0,0,0,0,0,0,0,0,0,0,0,0,0,0,0,0,0,0,0,0,0,0,0,0,0,0,0,0,0,0,0,0,0,0,0,0,0,0,0,0,0,0,0,0,0,0,0,0,0,0,0,0,0,0,0,0,0,0,0,0,0,0,0,0,0,0,0,0,0,0,0,0,0,0,0,0,0,0,0,0,0,0,0,
0,0,0,0,0,0,0,0,0,0,0,0,0,0,0,0,0,0,0,0,0,0,0,0,0,0,0,0,0,0,0,0,0,0,0,0,0,0,0,0,0,0,0,0,0,0,0,0,0,0,0,0,0,0,0,0,0,0,0,0,0,0,0,0,0,0,0,0,0,0,0,0,0,0,0,0,0,0,0,0,0,0,0,0,0,0,
0,0,0,0,0,0,0,0,0,0,0,0,0,0,0,0,0,0,0,0,0,0,0,0,0,0,0,0,0,0,0,0,0,0,0,0,0,0,0,0,0,0,0,0,0,0,0,0,0,0,0,0,0,0,0,0,0,0,0,0,0,0,0,0,0,0,0,0,0,0,0,0,0,0,0,0,0,0,0,0,0,0,0,0,0,0,
0,0,0,0,0,0,0,0,0,0,0,0,0,0,0,0,0,0,0,0,0,0,0,0,0,0,0,0,0,0,0,0,0,0,0,0,0,0,0,0,0,0,0,0,0,0,0,0,0,0,0,0,0,0,0,0,0,0,0,0,0,0,0,0,0,0,0,0,0,0,0,0,0,0,0,0,0,0,0,0,0,0,0,0,0,0,
0,0,0,0,0,0,0,0,0,0,0,0,0,0,0,0,0,0,0,0,0,0,0,0,0,0,0,0,0,0,0,0,0,0,0,0,0,0,0,0,0,0,0,0,0,0,0,0,0,0,0,0,0,0,0,0,0,0,0,0,0,0,0,0,0,0,0,0,0,0,0,0,0,0,0,0,0,0,0,0,0,0,0,0,0,0,
0,0,0,0,0,0,0,0,0,0,0,0,0,0,0,0,0,0,0,0,0,0,0,0,0,0,0,0,0,0,0,0,0,0,0,0,0,0,0,0,0,0,0,0,0,0,0,0,0,0,0,0,0,0,0,0,0,0,0,0,0,0,0,0,0,0,0,0,0,0,0,0,0,0,0,0,0,0,0,0,0,0,0,0,0,0,
0,0,0,0,0,0,0,0,0,0,0,0,0,0,0,0,0,0,0,0,0,0,0,0,0,0,0,0,0,0,0,0,0,0,0,0,0,0,0,0,0,0,0,0,0,0,0,0,0,0,0,0,0,0,0,0,0,0,0,0,0,0,0,0,0,0,0,0,0,0,0,0,0,0,0,0,0,0,0,0,0,0,0,0,0,0,
0,0,0,0,0,0,0,0,0,0,0,0,0,0,0,0,0,0,0,0,0,0,0,0,0,0,0,0,0,0,0,0,0,0,0,0,0,0,0,0,0,0,0,0,0,0,0,0,0,0,0,0,0,0,0,0,0,0,0,0,0,0,0,0,0,0,0,0,0,0,0,0,0,0,0,0,0,0,0,0,0,0,0,0,0,0,
0,0,0,0,0,0,0,0,0,0,0,0,0,0,0,0,0,0,0,0,0,0,0,0,0,0,0,0,0,0,0,0,0,0,0,0,0,0,0,0,0,0,0,0,0,0,0,0,0,0,0,0,0,0,0,0,0,0,0,0,0,0,0,0,0,0,0,0,0,0,0,0,0,0,0,0,0,0,0,0,0,0,0,0,0,0,
0,0,0,0,0,0,0,0,0,0,0,0,0,0,0,0,0,0,0,0,0,0,0,0,0,0,0,0,0,0,0,0,0,0,0,0,0,0,0,0,0,0,0,0,0,0,0,0,0,0,0,0,0,0,0,0,0,0,0,0,0,0,0,0,0,0,0,0,0,0,0,0,0,0,0,0,0,0,0,0,0,0,0,0,0,0,
0,0,0,0,0,0,0,0,0,0,0,0,0,0,0,0,0,0,0,0,0,0,0,0,0,0,0,0,0,0,0,0,0,0,0,0,0,0,0,0,0,0,0,0,0,0,0,0,0,0,0,0,0,0,0,0,0,0,0,0,0,0,0,0,0,0,0,0,0,0,0,0,0,0,0,0,0,0,0,0,0,0,0,0,0,0,
0,0,0,0,0,0,0,0,0,0,0,0,0,0,0,0,0,0,0,0,0,0,0,0,0,0,0,0,0,0,0,0,0,0,0,0,0,0,0,0,0,0,0,0,0,0,0,0,0,0,0,0,0,0,0,0,0,0,0,0,0,0,0,0,0,0,0,0,0,0,0,0,0,0,0,0,0,0,0,0,0,0,0,0,0,0,
0,0,0,0,0,0,0,0,0,0,0,0,0,0,0,0,0,0,0,0,0,0,0,0,0,0,0,0,0,0,0,0,0,0,0,0,0,0,0,0,0,0,0,0,0,0,0,0,0,0,0,0,0,0,0,0,0,0,0,0,0,0,0,0,0,0,0,0,0,0,0,0,0,0,0,0,0,0,0,0,0,0,0,0,0,0,
0,0,0,0,0,0,0,0,0,0,0,0,0,0,0,0,0,0,0,0,0,0,0,0,0,0,0,0,0,0,0,0,0,0,0,0,0,0,0,0,0,0,0,0,0,0,0,0,0,0,0,0,0,0,0,0,0,0,0,0,0,0,0,0,0,0,0,0,0,0,0,0,0,0,0,0,0,0,0,0,0,0,0,0,0,0,
0,0,0,0,0,0,0,0,0,0,0,0,0,0,0,0,0,0,0,0,0,0,0,0,0,0,0,0,0,0,0,0,0,0,0,0,0,0,0,0,0,0,0,0,0,0,0,0,0,0,0,0,0,0,0,0,0,0,0,0,0,0,0,0,0,0,0,0,0,0,0,0,0,0,0,0,0,0,0,0,0,0,0,0,0,0,
0,0,0,0,0,0,0,0,0,0,0,0,0,0,0,0,0,0,0,0,0,0,0,0,0,0,0,0,0,0,0,0,0,0,0,0,0,0,0,0,0,0,0,0,0,0,0,0,0,0,0,0,0,0,0,0,0,0,0,0,0,0,0,0,0,0,0,0,0,0,0,0,0,0,0,0,0,0,0,0,0,0,0,0,0,0,
0,0,0,0,0,0,0,0,0,0,0,0,0,0,0,0,0,0,0,0,0,0,0,0,0,0,0,0,0,0,0,0,0,0,0,0,0,0,0,0,0,0,0,0,0,0,0,0,0,0,0,0,0,0,0,0,0,0,0,0,0,0,0,0,0,0,0,0,0,0,0,0,0,0,0,0,0,0,0,0,0,0,0,0,0,0,
0,0,0,0,0,0,0,0,0,0,0,0,0,0,0,0,0,0,0,0,0,0,0,0,0,0,0,0,0,0,0,0,0,0,0,0,0,0,0,0,0,0,0,0,0,0,0,0,0,0,0,0,0,0,0,0,0,0,0,0,0,0,0,0,0,0,0,0,0,0,0,0,0,0,0,0,0,0,0,0,0,0,0,0,0,0,
0,0,0,0,0,0,0,0,0,0,0,0,0,0,0,0,0,0,0,0,0,0,0,0,0,0,0,0,0,0,0,0,0,0,0,0,0,0,0,0,0,0,0,0,0,0,0,0,0,0,0,0,0,0,0,0,0,0,0,0,0,0,0,0,0,0,0,0,0,0,0,0,0,0,0,0,0,0,0,0,0,0,0,0,0,0,
0,0,0,0,0,0,0,0,0,0,0,0,0,0,0,0,0,0,0,0,0,0,0,0,0,0,0,0,0,0,0,0,0,0,0,0,0,0,0,0,0,0,0,0,0,0,0,0,0,0,0,0,0,0,0,0,0,0,0,0,0,0,0,0,0,0,0,0,0,0,0,0,0,0,0,0,0,0,0,0,0,0,0,0,0,0,
0,0,0,0,0,0,0,0,0,0,0,0,0,0,0,0,0,0,0,0,0,0,0,0,0,0,0,0,0,0,0,0,0,0,0,0,0,0,0,0,0,0,0,0,0,0,0,0,0,0,0,0,0,0,0,0,0,0,0,0,0,0,0,0,0,0,0,0,0,0,0,0,0,0,0,0,0,0,0,0,0,0,0,0,0,0,
0,0,0,0,0,0,0,0,0,0,0,0,0,0,0,0,0,0,0,0,0,0,0,0,0,0,0,0,0,0,0,0,0,0,0,0,0,0,0,0,0,0,0,0,0,0,0,0,0,0,0,0,0,0,0,0,0,0,0,0,0,0,0,0,0,0,0,0,0,0,0,0,0,0,0,0,0,0,0,0,0,0,0,0,0,0,
0,0,0,0,0,0,0,0,0,0,0,0,0,0,0,0,0,0,0,0,0,0,0,0,0,0,0,0,0,0,0,0,0,0,0,0,0,0,0,0,0,0,0,0,0,0,0,0,0,0,0,0,0,0,0,0,0,0,0,0,0,0,0,0,0,0,0,0,0,0,0,0,0,0,0,0,0,0,0,0,0,0,0,0,0,0,
0,0,0,0,0,0,0,0,0,0,0,0,0,0,0,0,0,0,0,0,0,0,0,0,0,0,0,0,0,0,0,0,0,0,0,0,0,0,0,0,0,0,0,0,0,0,0,0,0,0,0,0,0,0,0,0,0,0,0,0,0,0,0,0,0,0,0,0,0,0,0,0,0,0,0,0,0,0,0,0,0,0,0,0,0,0,
0,0,0,0,0,0,0,0,0,0,0,0,0,0,0,0,0,0,0,0,0,0,0,0,0,0,0,0,0,0,0,0,0,0,0,0,0,0,0,0,0,0,0,0,0,0,0,0,0,0,0,0,0,0,0,0,0,0,0,0,0,0,0,0,0,0,0,0,0,0,0,0,0,0,0,0,0,0,0,0,0,0,0,0,0,0,
0,0,0,0,0,0,0,0,0,0,0,0,0,0,0,0,0,0,0,0,0,0,0,0,0,0,0,0,0,0,0,0,0,0,0,0,0,0,0,0,0,0,0,0,0,0,0,0,0,0,0,0,0,0,0,0,0,0,0,0,0,0,0,0,0,0,0,0,0,0,0,0,0,0,0,0,0,0,0,0,0,0,0,0,0,0
</data>
 </layer>
 <layer id="6" name="Collision" width="86" height="60">
  <data encoding="csv">
7224,7224,7224,7224,7225,7224,7224,7224,7224,7225,7224,7224,7225,7224,7224,7225,7224,7225,7224,7224,7224,7224,7224,7225,7224,7225,7224,7225,7224,7224,7225,7224,7225,7224,7224,7225,7224,7224,7224,7224,7224,7224,7224,7225,7224,7224,7224,7224,7224,7224,7224,7225,7225,7224,7224,7224,7224,7224,7225,7225,7224,7225,7225,7225,7224,7225,7224,7225,7224,7224,7225,7224,7224,7224,7224,7225,7224,7224,7225,7224,7225,7224,7224,7225,7224,7225,
7225,7225,7224,7224,7224,7224,7224,7224,7225,7224,7224,7225,7224,7224,7224,7224,7224,7224,7224,7225,7224,7225,7224,7224,7224,7224,7224,7224,7224,7224,7224,7224,7224,7224,7225,7224,7224,7224,7225,7225,7224,7225,7224,7224,7225,7224,7224,7225,7224,7224,7225,7224,7224,7224,7224,7224,7225,7224,7225,7224,7225,7225,7225,7225,7225,7224,7224,7224,7224,7224,7224,7224,7225,7224,7224,7224,7224,7224,7224,7224,7225,7224,7224,7224,7224,7224,
7224,7224,7224,7224,7225,7224,7224,7225,7224,7224,7224,7224,7224,7225,7224,7224,7224,7225,7224,7225,7224,7224,7224,7224,7225,7224,7225,7224,7224,7225,7224,7224,7225,7224,7224,7224,7225,7224,7225,7224,7224,7224,7224,7225,7224,7224,7224,7224,7224,7224,7225,7224,7224,7225,7224,7224,7224,7224,7224,7224,7225,7225,7225,7225,7225,7224,7224,7225,7224,7225,7225,7224,7224,7224,7225,7225,7224,7224,7224,7225,7224,7224,7224,7225,7224,7224,
7225,7224,7225,7224,7225,7224,7224,7225,7224,7224,7224,7224,7224,7224,7224,7224,7225,7224,7225,7224,7224,7225,7224,7224,7224,7224,7224,7224,7225,7224,7224,7224,7225,7224,7224,7224,7224,7225,7224,7224,7225,7224,7224,7225,7224,7224,7224,7224,7224,7225,7224,7224,7224,7225,7224,7224,7224,7224,7224,7224,7225,7225,7225,7225,7224,7225,7224,7224,7225,7224,7225,7224,7224,7224,7225,7224,7224,7225,7224,7224,7224,7225,7224,7225,7225,7224,
7224,7224,7224,7224,7224,7224,7224,7224,7224,7225,7224,7224,7225,7224,7224,7224,7224,7224,7224,7224,7225,7224,7224,7224,7224,7224,7225,7224,7224,7224,7224,7225,7224,7224,7225,7224,7224,7224,7224,7224,7224,7224,7224,7224,7224,7225,7224,7224,7224,7224,7224,7224,7224,7224,7224,7225,7224,7225,7224,7224,7225,7225,7225,7225,7224,7224,7224,7224,7224,7224,7224,7224,7224,7225,7224,7224,7224,7224,7224,7224,7224,7224,7224,7224,7224,7224,
7224,7224,7225,7225,7224,7224,7224,7225,7224,7225,7224,7225,7224,7225,7224,7224,7224,7225,7224,7224,7224,7224,7225,7225,7224,7225,7224,7224,7225,7224,7224,7224,7224,7224,7224,7224,7224,7225,7224,7224,7224,7224,7224,7224,7224,7225,7225,7224,7224,7224,7224,7225,7224,7224,7224,7225,7224,7224,7224,7224,7225,7225,7225,7225,7224,7224,7224,7225,7224,7225,7225,7224,7224,7224,7225,7224,7224,7225,7225,7224,7224,7224,7225,7224,7224,7224,
7224,7224,7225,7224,7224,7224,7224,7224,7224,7224,7224,7225,7224,7224,7224,7224,7224,7224,7224,7225,7224,7224,7224,7224,7224,7224,7224,7224,7224,7224,7224,7225,7224,7225,7224,7224,7225,7224,7225,7224,7225,7224,7224,7224,7224,7224,7225,7225,7224,7224,7224,7224,7224,7224,7225,7225,7224,7225,7224,7225,7225,7225,7225,7225,7224,7224,7224,7224,7224,7224,7224,7224,7224,7225,7224,7224,7224,7224,7224,7224,7225,7224,7224,7224,7225,7224,
7224,7224,7224,7224,7224,7225,7224,7225,7224,7224,7224,7225,7224,7224,7224,7224,7225,7224,7224,7224,7225,7224,7224,7225,7225,7224,7224,7224,7225,7224,7225,7224,7225,7224,7225,7224,7224,7224,7224,7224,7224,7224,7224,7225,7225,7224,7224,7224,7225,7225,7224,7224,7224,7224,7224,7224,7224,7224,7224,7225,7225,7225,7225,7225,7225,7224,7224,7224,7225,7224,7224,7224,7224,7224,7224,7224,7225,7225,7224,7224,7224,7224,7224,7225,7224,7225,
7224,7224,7224,7225,7224,7224,7225,7224,7224,7224,7224,7225,7224,7224,7225,7224,7224,7224,7225,7224,7224,7224,7225,7224,7224,7224,7224,7224,7224,7224,7225,7224,7224,7224,7224,7224,7224,7225,7225,7224,7224,7224,7224,7224,7224,7224,7224,7224,7224,7225,7225,7224,7224,7224,7224,7224,7224,7224,7225,7225,7225,7225,7225,7224,7224,7224,7224,7224,7224,7224,7224,7224,7224,7224,7224,7224,7224,7225,7224,7224,7224,7224,7225,7224,7225,7224,
7224,7225,7224,7224,7224,7224,7224,7224,7224,7225,7224,7224,7224,7224,7224,7224,7225,7224,7224,7224,7224,7225,7224,7224,7224,7224,7225,7224,7224,7225,7224,7224,7224,7224,7225,7225,7224,7224,7224,7224,7224,7225,7225,7224,7224,7224,7224,7224,7225,7225,7225,7225,7224,7224,7224,7224,7224,7224,7225,7225,7225,7225,7225,7225,7224,7224,7224,7224,7224,7224,7224,7224,7224,7224,7224,7225,7224,7224,7224,7225,7224,7224,7224,7224,7224,7224,
7224,7224,7224,7225,7224,7225,7224,7224,7224,7224,7224,7225,7224,7225,7224,7224,7225,7224,7224,7224,7224,7224,7225,7225,7224,7224,7224,7224,7225,7224,7225,7225,7225,7225,7225,7225,7225,7225,7224,7224,7224,7224,7224,7224,7224,7224,7225,7224,7224,7225,7225,7224,7224,7224,7224,7224,7225,7225,7224,7225,7225,7225,7225,7224,7224,7224,7224,7224,7224,7224,7225,7224,7224,7224,7225,7224,7224,7225,7224,7224,7224,7224,7224,7225,7225,7224,
7225,7224,7225,7224,7224,7224,7224,7224,7225,7224,7224,7224,7224,7224,7224,7224,7224,7224,7224,7225,7224,7224,7224,7224,7225,7224,7224,7224,7224,7224,7224,7225,7225,7224,7225,7225,7224,7225,7225,7224,7224,7224,7224,7224,7224,7224,7224,7224,7224,7224,7224,7224,7224,7224,7224,7224,7225,7225,7224,7225,7225,7225,7225,7224,7224,7224,7225,7224,7224,7224,7224,7224,7225,7224,7225,7224,7224,7224,7224,7224,7225,7224,7224,7224,7224,7224,
7224,7224,7224,7224,7225,7224,7224,7225,7224,7225,7224,7225,7224,7224,7224,7224,7224,7224,7224,7224,7224,7224,7225,7224,7224,7224,7225,7224,7224,7224,7225,7225,7224,7224,7224,7224,7225,7225,7224,7225,7225,7224,7224,7224,7224,7224,7224,7224,7224,7224,7224,7224,7224,7224,7224,7224,7224,7224,7224,7225,7225,7225,7225,7225,7224,7224,7224,7224,7224,7224,7224,7224,7224,7224,7224,7224,7224,7225,7225,7224,7225,7224,7224,7224,7225,7224,
7224,7224,7224,7224,7224,7224,7224,7224,7224,7224,7224,7225,7224,7224,7224,7224,7224,7224,7225,7224,7224,7225,7224,7224,7224,7224,7224,7224,7225,7224,7224,7224,7225,7225,7225,7225,7224,7224,7224,7224,7224,7224,7224,7225,7224,7224,7224,7224,7224,7224,7225,7225,7225,7225,7224,7225,7225,7225,7225,7225,7225,7225,7225,7224,7224,7224,7224,7224,7224,7224,7224,7224,7224,7224,7224,7224,7224,7224,7224,7224,7225,7224,7224,7225,7224,7225,
7225,7224,7225,7224,7224,7225,7224,7224,7225,7224,7224,7224,7225,7224,7224,7224,7224,7224,7224,7224,7224,7224,7225,7224,7224,7225,7224,7225,7224,7225,7225,7224,7224,7225,7225,7224,7224,7225,7225,7224,7224,7224,7224,7224,7224,7224,7224,7224,7224,7224,7224,7224,7224,7224,7225,7225,7224,7224,7225,7225,7225,7225,7224,7224,7224,7224,7224,7224,7224,7224,7224,7224,7225,7224,7225,7224,7224,7224,7225,7224,7224,7224,7224,7224,7224,7224,
7224,7224,7224,7224,7224,7225,7224,7224,7224,7225,7224,7225,7224,7224,7225,7224,7225,7224,7224,7224,7224,7224,7224,7224,7224,7225,7224,7224,7224,7224,7225,7225,7225,7225,7224,7224,7225,7225,7225,7225,7225,7225,7224,7224,7224,7224,7224,7224,7224,7225,7224,7224,7224,7224,7224,7225,7225,7224,7225,7225,7225,7225,7224,7225,7224,7224,7224,7224,7224,7224,7224,7224,7224,7224,7225,7224,7225,7224,7224,7224,7224,7225,7224,7224,7224,7224,
7224,7225,7224,7225,7224,7224,7224,7224,7224,7224,7224,7224,7224,7224,7224,7224,7224,7224,7224,7225,7225,7224,7224,7224,7224,7224,7225,7224,7224,7225,7224,7224,7225,7225,7224,7224,7224,7224,7224,7224,7224,7224,7224,7224,7224,7224,7224,7224,7224,7224,7224,7224,7224,7224,7224,7224,7225,7225,7225,7225,7225,7225,7224,7224,7224,7224,7224,7224,7224,7224,7224,7224,7224,7224,7224,7224,7224,7224,7225,7224,7224,7224,7224,7224,7225,7224,
7225,7224,7225,7224,7224,7224,7224,7225,7224,7225,7224,7224,7224,7225,7225,7224,7224,7225,7224,7224,7224,7224,7224,7224,7224,7224,7225,7225,7224,7225,7224,7224,7224,7225,7225,7224,7225,7225,7224,7224,7224,7224,7224,7224,7224,7224,7224,7224,7224,7224,7224,7224,7224,7224,7225,7225,7224,7225,7225,7225,7225,7225,7224,7224,7224,7224,7224,7224,7224,7224,7224,7224,7224,7224,7225,7224,7224,7225,7224,7225,7224,7224,7224,7225,7225,7224,
7224,7224,7224,7224,7224,7224,7225,7225,7224,7224,7224,7224,7224,7224,7224,7224,7225,7224,7225,7224,7224,7224,7224,7225,7224,7224,7224,7224,7224,7224,7224,7224,7224,7224,7224,7224,7224,7225,7225,7225,7225,7225,7225,7225,7224,7224,7224,7225,7225,7225,7225,7225,7225,7225,7225,7224,7224,7225,7225,7225,7225,7225,7224,7224,7224,7224,7224,7225,7224,7224,7225,7224,7225,7224,7224,7225,7224,7224,7224,7224,7224,7225,7224,7224,7224,7224,
7224,7225,7224,7225,7224,7224,7224,7224,7224,7225,7224,7225,7224,7225,7224,7224,7224,7224,7224,7224,7224,7224,7224,7224,7224,7224,7224,7225,7224,7225,7224,7224,7225,7225,7225,7225,7224,7224,7224,7224,7224,7224,7224,7224,7224,7224,7224,7224,7224,7224,7224,7224,7224,7224,7224,7224,7224,7225,7225,7225,7225,7225,7224,7224,7224,7224,7224,7224,7224,7224,7224,7224,7225,7225,7224,7224,7224,7224,7224,7224,7225,7224,7224,7225,7224,7224,
7224,7224,7224,7224,7224,7225,7224,7225,7224,7224,7225,7224,7225,7224,7225,7224,7224,7224,7224,7224,7224,7224,7224,7224,7224,7224,7224,7224,7224,7224,7224,7224,7224,7224,7224,7225,7225,7224,7224,7224,7224,7224,7224,7224,7224,7224,7224,7224,7224,7224,7224,7224,7224,7224,7225,7224,7224,7225,7225,7225,7225,7225,7224,7224,7224,7225,7224,7224,7225,7224,7225,7224,7224,7224,7224,7224,7224,7224,7224,7224,7225,7224,7224,7224,7224,7225,
7224,7225,7224,7225,7224,7224,7224,7224,7224,7224,7224,7224,7224,7225,7224,7225,7224,7224,7224,7224,7224,7224,7224,7224,7224,7224,7224,7224,7224,7224,7224,7224,7224,7224,7224,7224,7224,7224,7224,7224,7224,7224,7224,7224,7224,7224,7224,7224,7224,7224,7225,7224,7224,7224,7224,7224,7224,7225,7225,7225,7225,7225,7224,7224,7224,7224,7224,7224,7225,7225,7225,7225,7224,7224,7225,7224,7224,7224,7224,7224,7224,7224,7224,7225,7224,7224,
7224,7225,7224,7225,7224,7224,7224,7225,7224,7225,7224,7224,7225,7224,7224,7224,7224,7224,7224,7224,7224,7224,7224,7224,7224,7224,7224,7224,7224,7224,7224,7224,7224,7224,7224,7224,7224,7224,7224,7224,7224,7224,7224,7224,7224,7224,7224,7224,7224,7224,7224,7225,7225,7224,7224,7224,7224,7225,7225,7225,7225,7225,7224,7224,7224,7224,7224,7225,7225,7225,7225,7225,7225,7224,7225,7225,7224,7225,7224,7224,7224,7224,7224,7224,7225,7224,
7224,7224,7224,7224,7224,7224,7224,7224,7224,7225,7225,7224,7224,7225,7224,7224,7224,7224,7224,7224,7224,7224,7224,7224,7224,7224,7224,7224,7224,7224,7224,7224,7224,7225,7225,7225,7225,7225,7224,7224,7224,7224,7224,7224,7224,7224,7224,7224,7224,7224,7224,7224,7224,7224,7224,7224,7224,7225,7225,7225,7225,7224,7224,7224,7224,7224,7225,7225,7225,7225,7225,7225,7225,7225,7224,7224,7224,7224,7224,7224,7225,7224,7224,7224,7224,7224,
7225,7224,7224,7224,7225,7224,7224,7224,7224,7224,7224,7224,7224,7224,7224,7224,7224,7224,7224,7224,7224,7224,7224,7224,7224,7224,7224,7224,7224,7224,7224,7225,7225,7225,7225,7225,7225,7225,7224,7224,7224,7224,7224,7224,7224,7224,7224,7224,7224,7224,7224,7224,7224,7224,7225,7224,7224,7225,7225,7225,7225,7224,7224,7224,7224,7224,7224,7224,7225,7225,7225,7225,7225,7225,7224,7225,7224,7224,7224,7224,7224,7224,7224,7224,7224,7225,
7224,7224,7224,7224,7224,7224,7224,7224,7224,7224,7224,7224,7224,7224,7224,7224,7224,7224,7224,7224,7224,7224,7224,7224,7224,7224,7224,7224,7224,7224,7224,7224,7224,7225,7225,7225,7225,7225,7224,7225,7225,7224,7224,7224,7224,7224,7224,7224,7224,7224,7224,7224,7224,7224,7224,7224,7224,7225,7225,7225,7225,7224,7224,7225,7224,7224,7224,7224,7224,7225,7225,7225,7225,7225,7225,7224,7224,7225,7224,7224,7225,7224,7224,7224,7224,7224,
7224,7225,7224,7224,7224,7224,7224,7224,7224,7224,7224,7225,7225,7225,7225,7225,7225,7224,7224,7224,7224,7225,7225,7225,7225,7225,7225,7225,7224,7224,7225,7225,7224,7225,7225,7225,7225,7225,7224,7224,7224,7224,7224,7224,7224,7224,7224,7224,7224,7224,7224,7224,7224,7224,7224,7224,7224,7225,7225,7225,7225,7224,7224,7224,7224,7225,7225,7224,7224,7225,7224,7224,7225,7225,7224,7225,7224,7224,7224,7224,7224,7224,7224,7224,7224,7224,
7224,7225,7224,7224,7224,7224,7224,7224,7224,7224,7224,7225,7225,7225,7225,7224,7224,7224,7224,7224,7224,7225,7225,7225,7225,7225,7225,7225,7225,7225,7224,7224,7224,7224,7224,7224,7224,7224,7224,7224,7224,7224,7224,7224,7224,7224,7224,7224,7225,7225,7225,7225,7225,7224,7224,7224,7225,7225,7225,7225,7224,7224,7224,7224,7224,7224,7224,7224,7224,7224,7224,7225,7224,7224,7224,7224,7224,7225,7224,7224,7224,7225,7224,7224,7224,7225,
7224,7224,7224,7224,7224,7224,7224,7224,7224,7225,7225,7225,7225,7225,7225,7225,7225,7224,7224,7224,7224,7225,7225,7225,7225,7225,7225,7225,7224,7224,7224,7224,7224,7224,7224,7224,7224,7224,7224,7224,7224,7224,7224,7224,7224,7224,7224,7224,7225,7225,7225,7225,7225,7224,7225,7224,7225,7225,7225,7225,7224,7224,7224,7224,7224,7224,7224,7225,7224,7224,7224,7224,7224,7225,7224,7224,7224,7224,7224,7224,7224,7224,7224,7224,7224,7224,
7224,7224,7224,7224,7224,7224,7224,7224,7224,7224,7224,7224,7224,7224,7224,7224,7224,7224,7224,7225,7224,7225,7224,7224,7225,7224,7224,7225,7225,7225,7224,7224,7224,7224,7224,7224,7224,7224,7224,7224,7224,7224,7224,7224,7224,7224,7224,7224,7225,7225,7224,7225,7225,7224,7224,7224,7225,7225,7225,7225,7224,7224,7224,7224,7224,7224,7224,7224,7224,7224,7224,7225,7224,7224,7224,7224,7224,7224,7224,7224,7224,7224,7224,7225,7225,7224,
7224,7224,7224,7224,7224,7224,7224,7224,7224,7224,7224,7224,7224,7224,7224,7224,7224,7224,7224,7224,7224,7224,7224,7224,7224,7224,7224,7224,7224,7224,7224,7224,7224,7224,7224,7224,7224,7224,7224,7224,7224,7224,7224,7224,7224,7224,7224,7224,7225,7224,7224,7224,7225,7224,7224,7224,7225,7225,7225,7225,7224,7224,7224,7224,7224,7224,7224,7225,7224,7224,7224,7224,7224,7224,7224,7224,7224,7224,7224,7224,7224,7224,7224,7224,7224,7225,
7224,7224,7224,7224,7224,7224,7224,7224,7224,7224,7224,7224,7224,7224,7224,7224,7224,7224,7224,7224,7224,7224,7224,7224,7224,7224,7224,7224,7224,7224,7224,7224,7224,7224,7224,7224,7224,7224,7224,7224,7224,7224,7224,7224,7224,7224,7224,7224,7224,7224,7224,7224,7224,7224,7225,7224,7225,7225,7225,7225,7224,7224,7224,7224,7224,7224,7225,7224,7224,7224,7224,7224,7224,7225,7224,7224,7224,7225,7224,7224,7224,7224,7225,7224,7224,7224,
7224,7224,7224,7224,7224,7224,7224,7224,7224,7224,7224,7224,7224,7224,7224,7224,7224,7224,7224,7224,7224,7224,7224,7224,7224,7224,7224,7224,7224,7224,7224,7224,7224,7224,7224,7224,7224,7224,7224,7224,7224,7224,7224,7224,7224,7224,7224,7224,7224,7224,7224,7224,7224,7224,7224,7224,7225,7225,7225,7225,7224,7224,7224,7224,7224,7224,7224,7225,7225,7225,7224,7224,7224,7224,7224,7224,7225,7224,7224,7224,7224,7224,7224,7224,7224,7224,
7224,7224,7224,7224,7224,7224,7224,7224,7224,7224,7224,7224,7224,7224,7224,7224,7224,7224,7224,7225,7224,7224,7224,7224,7224,7224,7224,7224,7224,7224,7224,7224,7224,7224,7224,7224,7224,7224,7224,7224,7224,7224,7224,7224,7224,7224,7224,7224,7224,7224,7224,7224,7224,7224,7224,7224,7224,7224,7224,7224,7224,7224,7224,7224,7224,7224,7224,7224,7224,7224,7224,7224,7225,7224,7225,7224,7224,7225,7224,7224,7224,7224,7224,7224,7224,7224,
7224,7224,7225,7224,7224,7224,7224,7224,7224,7224,7224,7224,7224,7224,7224,7224,7224,7224,7224,7224,7224,7224,7224,7224,7224,7224,7224,7224,7224,7224,7224,7224,7224,7224,7224,7224,7224,7224,7224,7224,7224,7224,7224,7224,7224,7224,7224,7224,7224,7224,7224,7224,7224,7224,7224,7224,7225,7225,7225,7225,7224,7224,7224,7224,7224,7224,7224,7225,7224,7224,7224,7224,7224,7224,7224,7224,7224,7224,7224,7224,7224,7224,7224,7224,7224,7224,
7224,7225,7224,7224,7224,7224,7225,7224,7224,7224,7224,7224,7225,7224,7224,7224,7224,7225,7224,7224,7224,7224,7224,7224,7225,7224,7224,7224,7224,7224,7224,7224,7224,7224,7224,7224,7224,7224,7224,7224,7224,7224,7224,7224,7224,7224,7224,7224,7224,7224,7224,7224,7224,7224,7224,7224,7225,7225,7225,7225,7224,7224,7224,7224,7225,7224,7224,7224,7224,7224,7224,7224,7224,7224,7225,7224,7224,7224,7225,7224,7224,7225,7224,7224,7224,7224,
7224,7224,7224,7225,7224,7224,7224,7224,7224,7225,7224,7224,7224,7224,7224,7224,7224,7224,7224,7224,7225,7224,7224,7224,7224,7224,7224,7224,7224,7224,7224,7224,7224,7224,7224,7224,7225,7224,7225,7225,7224,7224,7224,7224,7224,7224,7224,7224,7224,7224,7224,7224,7224,7224,7225,7224,7225,7225,7225,7225,7224,7224,7224,7224,7224,7224,7224,7224,7224,7224,7224,7224,7225,7225,7225,7225,7225,7225,7225,7224,7224,7224,7224,7224,7224,7224,
7224,7224,7225,7224,7224,7224,7224,7224,7224,7224,7224,7224,7224,7224,7224,7224,7224,7224,7225,7224,7224,7224,7224,7224,7224,7224,7224,7224,7224,7224,7224,7224,7224,7224,7224,7224,7224,7224,7224,7224,7224,7224,7224,7224,7224,7224,7224,7224,7224,7224,7224,7224,7224,7224,7224,7224,7225,7225,7225,7225,7224,7224,7224,7224,7225,7224,7224,7224,7224,7224,7225,7225,7225,7225,7225,7225,7225,7225,7225,7225,7225,7224,7224,7225,7225,7224,
7224,7224,7224,7224,7224,7224,7224,7225,7224,7224,7224,7224,7224,7225,7224,7224,7224,7224,7224,7224,7224,7224,7224,7224,7225,7225,7224,7224,7224,7224,7224,7224,7224,7224,7224,7224,7224,7224,7224,7224,7224,7224,7224,7224,7224,7224,7224,7224,7224,7224,7224,7224,7224,7224,7224,7224,7225,7225,7225,7225,7224,7224,7224,7224,7224,7224,7224,7224,7225,7225,7225,7225,7225,7225,7225,7225,7225,7225,7225,7225,7224,7224,7224,7224,7224,7224,
7224,7224,7225,7225,7224,7224,7224,7224,7224,7224,7225,7224,7224,7224,7224,7224,7224,7224,7224,7224,7224,7224,7224,7224,7224,7224,7224,7224,7224,7224,7224,7224,7224,7224,7224,7224,7224,7224,7224,7224,7224,7224,7224,7224,7224,7224,7224,7224,7224,7224,7224,7224,7224,7224,7224,7224,7225,7225,7225,7225,7224,7224,7224,7224,7224,7224,7224,7224,7224,7225,7225,7225,7225,7225,7225,7225,7225,7225,7225,7224,7225,7224,7224,7224,7225,7224,
7225,7224,7224,7224,7224,7224,7224,7224,7224,7224,7224,7224,7224,7224,7224,7224,7224,7224,7224,7224,7224,7224,7224,7224,7224,7224,7224,7224,7224,7224,7224,7224,7224,7224,7224,7224,7224,7224,7224,7224,7224,7224,7224,7224,7224,7224,7224,7224,7224,7224,7224,7224,7224,7224,7224,7224,7224,7225,7225,7225,7225,7224,7224,7224,7225,7224,7224,7225,7225,7225,7225,7225,7225,7225,7225,7225,7225,7225,7225,7225,7224,7224,7225,7224,7224,7224,
7224,7224,7224,7225,7224,7224,7224,7224,7224,7224,7224,7224,7224,7224,7224,7224,7224,7224,7224,7224,7224,7224,7224,7224,7224,7224,7224,7224,7224,7224,7224,7224,7224,7224,7224,7224,7224,7224,7224,7224,7224,7224,7224,7224,7224,7225,7224,7224,7224,7224,7224,7224,7224,7224,7224,7224,7224,7225,7225,7225,7225,7224,7224,7224,7225,7224,7224,7225,7225,7225,7225,7225,7225,7225,7225,7225,7225,7225,7225,7225,7225,7225,7224,7224,7225,7224,
7224,7225,7224,7224,7224,7224,7224,7224,7224,7224,7224,7224,7224,7224,7224,7224,7224,7224,7224,7224,7225,7224,7224,7224,7224,7224,7224,7225,7225,7224,7224,7224,7224,7224,7224,7224,7224,7224,7224,7225,7224,7224,7224,7224,7224,7224,7224,7224,7224,7224,7224,7224,7224,7224,7224,7224,7224,7225,7225,7225,7225,7224,7225,7224,7224,7224,7224,7224,7225,7225,7225,7225,7225,7225,7225,7225,7225,7225,7225,7225,7224,7224,7224,7224,7225,7224,
7224,7224,7224,7225,7224,7224,7224,7224,7224,7224,7224,7224,7224,7224,7224,7225,7224,7224,7224,7224,7224,7224,7225,7224,7224,7224,7224,7224,7224,7224,7224,7224,7225,7225,7224,7225,7224,7224,7224,7224,7224,7224,7224,7224,7224,7224,7224,7224,7224,7224,7224,7224,7224,7224,7224,7224,7224,7225,7225,7225,7225,7225,7224,7224,7224,7224,7224,7224,7225,7225,7225,7225,7225,7224,7224,7225,7225,7225,7225,7225,7224,7224,7224,7224,7224,7224,
7224,7225,7224,7225,7224,7224,7224,7224,7224,7224,7224,7224,7225,7224,7224,7225,7224,7224,7224,7224,7225,7224,7224,7224,7224,7224,7224,7224,7224,7225,7225,7224,7224,7224,7224,7224,7224,7224,7224,7224,7224,7224,7224,7224,7224,7224,7224,7224,7224,7224,7224,7224,7224,7224,7224,7224,7224,7225,7225,7225,7225,7225,7224,7224,7224,7224,7224,7224,7224,7224,7225,7225,7224,7225,7224,7224,7225,7225,7224,7224,7224,7224,7225,7224,7225,7224,
7224,7224,7224,7224,7224,7224,7224,7224,7224,7224,7224,7224,7224,7224,7224,7224,7224,7224,7224,7224,7224,7224,7224,7224,7225,7224,7224,7225,7225,7224,7224,7224,7224,7225,7225,7224,7224,7224,7224,7224,7224,7224,7224,7224,7224,7224,7224,7224,7224,7224,7224,7224,7224,7224,7224,7224,7224,7225,7225,7225,7225,7225,7225,7224,7224,7224,7224,7224,7225,7224,7224,7225,7224,7224,7224,7224,7224,7224,7224,7225,7224,7224,7225,7224,7224,7224,
7224,7224,7225,7225,7224,7224,7224,7224,7224,7224,7224,7224,7224,7225,7225,7224,7224,7224,7225,7224,7224,7224,7224,7224,7224,7225,7224,7224,7224,7224,7225,7224,7224,7224,7224,7224,7224,7224,7224,7224,7224,7224,7224,7224,7224,7224,7224,7224,7224,7224,7225,7224,7224,7224,7224,7224,7224,7225,7225,7225,7225,7225,7224,7225,7225,7225,7224,7224,7224,7224,7224,7224,7224,7224,7225,7224,7224,7224,7224,7224,7224,7224,7224,7224,7225,7224,
7225,7224,7224,7224,7224,7224,7225,7225,7224,7224,7224,7224,7224,7224,7224,7224,7224,7224,7224,7225,7225,7225,7224,7224,7224,7224,7224,7224,7224,7224,7224,7224,7224,7224,7224,7224,7224,7224,7224,7224,7224,7224,7224,7224,7224,7224,7224,7224,7225,7224,7224,7224,7224,7224,7224,7224,7224,7225,7225,7225,7225,7225,7225,7224,7224,7224,7224,7224,7224,7224,7224,7224,7224,7224,7224,7224,7224,7224,7224,7224,7224,7224,7224,7224,7224,7224,
7224,7224,7224,7224,7224,7224,7224,7224,7224,7224,7225,7224,7224,7224,7224,7224,7224,7224,7224,7224,7224,7224,7224,7224,7224,7224,7224,7224,7224,7224,7224,7224,7224,7224,7224,7224,7224,7224,7224,7225,7225,7224,7224,7224,7224,7225,7224,7224,7225,7224,7224,7224,7224,7224,7224,7224,7224,7225,7225,7225,7225,7225,7224,7225,7224,7224,7224,7224,7225,7224,7224,7224,7224,7224,7225,7224,7224,7224,7224,7224,7225,7224,7224,7224,7224,7225,
7224,7224,7225,7224,7224,7224,7224,7224,7224,7225,7224,7224,7224,7224,7224,7224,7224,7224,7224,7224,7224,7224,7224,7224,7224,7224,7224,7224,7224,7224,7224,7224,7224,7224,7224,7224,7224,7224,7224,7224,7224,7224,7224,7224,7224,7224,7224,7224,7224,7224,7224,7224,7224,7224,7224,7224,7224,7225,7225,7225,7225,7224,7224,7224,7224,7224,7224,7224,7224,7224,7225,7224,7224,7224,7224,7225,7225,7225,7225,7225,7224,7224,7224,7224,7224,7224,
7224,7224,7224,7224,7224,7224,7224,7224,7225,7224,7224,7225,7224,7224,7224,7224,7224,7224,7224,7224,7224,7225,7224,7224,7224,7225,7224,7224,7224,7224,7225,7224,7224,7225,7224,7224,7224,7224,7224,7224,7224,7225,7224,7224,7224,7225,7224,7224,7224,7225,7224,7224,7224,7224,7224,7224,7224,7225,7225,7225,7225,7224,7224,7224,7225,7224,7224,7224,7224,7224,7224,7224,7224,7224,7224,7224,7225,7225,7225,7225,7225,7224,7224,7224,7224,7224,
7224,7224,7225,7224,7225,7224,7224,7224,7224,7224,7224,7224,7224,7224,7224,7224,7224,7224,7224,7225,7224,7224,7224,7224,7225,7224,7224,7224,7224,7224,7224,7224,7224,7224,7224,7224,7225,7224,7225,7224,7224,7224,7224,7224,7224,7224,7224,7224,7224,7224,7224,7224,7224,7224,7224,7224,7224,7225,7225,7225,7224,7224,7224,7224,7224,7224,7224,7224,7224,7224,7224,7224,7224,7224,7224,7225,7225,7225,7225,7225,7225,7224,7224,7224,7224,7224,
7224,7224,7224,7224,7224,7224,7224,7224,7224,7224,7224,7224,7225,7225,7224,7224,7224,7224,7224,7224,7224,7225,7224,7224,7225,7224,7224,7225,7224,7224,7224,7224,7224,7224,7224,7224,7224,7224,7225,7224,7225,7224,7224,7224,7224,7224,7224,7224,7224,7224,7225,7224,7225,7224,7224,7224,7224,7225,7225,7225,7224,7224,7224,7224,7224,7224,7224,7224,7224,7224,7224,7224,7224,7224,7225,7225,7225,7225,7225,7225,7224,7224,7224,7224,7224,7224,
7224,7225,7224,7224,7224,7224,7225,7224,7224,7224,7224,7224,7224,7224,7224,7224,7224,7225,7224,7224,7224,7224,7224,7224,7224,7224,7224,7224,7224,7224,7225,7224,7224,7224,7225,7224,7224,7224,7224,7224,7224,7224,7224,7225,7224,7224,7224,7224,7224,7224,7224,7224,7224,7224,7224,7224,7225,7225,7225,7225,7224,7224,7224,7224,7224,7224,7224,7224,7224,7224,7224,7224,7224,7225,7225,7225,7225,7225,7225,7224,7224,7224,7224,7224,7224,7224,
7225,7224,7224,7225,7224,7225,7225,7224,7224,7224,7224,7225,7224,7224,7225,7224,7224,7225,7224,7224,7224,7224,7224,7224,7224,7224,7224,7224,7224,7225,7225,7224,7224,7224,7224,7224,7224,7224,7225,7224,7224,7224,7224,7224,7224,7225,7224,7224,7225,7224,7224,7224,7224,7224,7225,7224,7225,7225,7225,7225,7224,7224,7224,7224,7224,7224,7224,7224,7224,7224,7224,7224,7224,7224,7225,7225,7225,7224,7224,7224,7224,7224,7224,7224,7224,7224,
7224,7224,7224,7224,7224,7224,7224,7224,7224,7224,7224,7224,7224,7224,7224,7224,7224,7224,7224,7224,7224,7224,7224,7224,7224,7224,7224,7224,7224,7224,7224,7224,7224,7224,7224,7224,7224,7224,7224,7225,7224,7224,7224,7225,7224,7224,7224,7224,7224,7225,7224,7224,7224,7224,7224,7225,7225,7225,7225,7225,7224,7224,7224,7224,7224,7224,7224,7224,7224,7224,7224,7225,7224,7224,7224,7224,7224,7224,7224,7224,7224,7224,7224,7224,7224,7224,
7224,7224,7224,7225,7224,7224,7225,7225,7224,7224,7224,7225,7224,7224,7225,7224,7224,7224,7224,7224,7225,7224,7224,7224,7224,7224,7224,7225,7224,7224,7225,7224,7224,7225,7224,7225,7224,7225,7224,7224,7225,7225,7224,7224,7224,7224,7225,7225,7224,7224,7224,7224,7224,7225,7224,7225,7225,7225,7225,7225,7224,7224,7224,7224,7224,7224,7224,7224,7224,7224,7224,7224,7224,7225,7224,7224,7224,7224,7224,7225,7224,7224,7225,7225,7224,7224,
7224,7225,7225,7224,7224,7224,7224,7224,7224,7224,7224,7224,7224,7224,7224,7224,7224,7224,7224,7224,7224,7224,7224,7224,7224,7224,7224,7224,7224,7224,7224,7224,7224,7224,7224,7224,7224,7224,7224,7224,7224,7224,7224,7224,7225,7224,7224,7224,7225,7224,7224,7224,7224,7224,7224,7225,7225,7225,7225,7225,7224,7224,7224,7224,7224,7224,7224,7224,7224,7224,7224,7224,7224,7224,7224,7224,7224,7224,7224,7224,7224,7224,7224,7225,7224,7224,
7224,7224,7224,7224,7224,7224,7224,7224,7224,7224,7224,7224,7224,7224,7225,7224,7224,7224,7225,7224,7225,7224,7224,7224,7225,7224,7224,7224,7225,7225,7224,7224,7224,7225,7224,7224,7225,7224,7225,7224,7225,7224,7224,7225,7224,7224,7225,7224,7224,7224,7224,7225,7224,7224,7225,7225,7225,7225,7225,7225,7224,7224,7224,7224,7225,7224,7224,7224,7224,7224,7225,7224,7224,7225,7224,7224,7224,7224,7225,7224,7224,7225,7224,7224,7225,7224,
7225,7224,7224,7225,7224,7224,7224,7225,7224,7225,7224,7224,7224,7224,7225,7224,7224,7225,7224,7225,7224,7224,7224,7225,7224,7224,7224,7224,7224,7224,7224,7224,7225,7224,7224,7224,7224,7224,7225,7224,7224,7224,7224,7225,7224,7224,7224,7225,7224,7225,7224,7224,7225,7224,7224,7224,7225,7225,7225,7224,7224,7225,7224,7224,7224,7224,7224,7225,7224,7224,7224,7225,7224,7225,7224,7224,7224,7224,7224,7224,7224,7224,7224,7224,7224,7224
</data>
 </layer>
 <objectgroup id="7" name="Scenery">
  <object id="1" gid="2147490951" x="28" y="-1" width="64" height="64" />
  <object id="2" gid="2147490927" x="743" y="-1" width="64" height="64" />
  <object id="3" gid="7278" x="343" y="1" width="64" height="64" />
  <object id="4" gid="7278" x="1307" y="1" width="64" height="64" />
  <object id="5" gid="2147490927" x="124" y="2" width="64" height="64" />
  <object id="6" gid="7295" x="1009" y="3" width="64" height="64" />
  <object id="7" gid="7279" x="1251" y="3" width="64" height="64" />
  <object id="8" gid="7279" x="214" y="4" width="64" height="64" />
  <object id="9" gid="7278" x="47" y="5" width="64" height="64" />
  <object id="10" gid="2147490976" x="541" y="5" width="64" height="64" />
  <object id="11" gid="7278" x="1049" y="5" width="64" height="64" />
  <object id="12" gid="7278" x="1340" y="5" width="64" height="64" />
  <object id="13" gid="2147490951" x="244" y="7" width="64" height="64" />
  <object id="14" gid="2147490943" x="485" y="7" width="64" height="64" />
  <object id="15" gid="7277" x="175" y="9" width="64" height="64" />
  <object id="16" gid="7328" x="1095" y="10" width="64" height="64" />
  <object id="17" gid="7279" x="1172" y="10" width="64" height="64" />
  <object id="18" gid="2147490926" x="659" y="11" width="64" height="64" />
  <object id="19" gid="2147490924" x="369" y="12" width="64" height="64" />
  <object id="20" gid="7276" x="809" y="12" width="64" height="64" />
  <object id="21" gid="7278" x="917" y="12" width="64" height="64" />
  <object id="22" gid="2147490927" x="458" y="13" width="64" height="64" />
  <object id="23" gid="7278" x="791" y="13" width="64" height="64" />
  <object id="24" gid="2147490943" x="1221" y="14" width="64" height="64" />
  <object id="25" gid="7295" x="402" y="16" width="64" height="64" />
  <object id="26" gid="7278" x="904" y="16" width="64" height="64" />
  <object id="27" gid="2147490927" x="-21" y="18" width="64" height="64" />
  <object id="28" gid="7303" x="286" y="18" width="64" height="64" />
  <object id="29" gid="2147490926" x="678" y="18" width="64" height="64" />
  <object id="30" gid="2147490965" x="1132" y="18" width="64" height="64" />
  <object id="31" gid="2147490926" x="587" y="19" width="64" height="64" />
  <object id="32" gid="7279" x="603" y="19" width="64" height="64" />
  <object id="33" gid="2147490965" x="864" y="19" width="64" height="64" />
  <object id="34" gid="7277" x="96" y="20" width="64" height="64" />
  <object id="35" gid="7279" x="157" y="27" width="64" height="64" />
  <object id="36" gid="2147490951" x="308" y="28" width="64" height="64" />
  <object id="37" gid="2147490927" x="724" y="29" width="64" height="64" />
  <object id="38" gid="7278" x="-1" y="30" width="64" height="64" />
  <object id="39" gid="7278" x="1261" y="30" width="64" height="64" />
  <object id="40" gid="2147490965" x="520" y="31" width="64" height="64" />
  <object id="41" gid="2147490924" x="636" y="31" width="64" height="64" />
  <object id="42" gid="7303" x="769" y="32" width="64" height="64" />
  <object id="43" gid="7328" x="903" y="32" width="64" height="64" />
  <object id="44" gid="7278" x="177" y="33" width="64" height="64" />
  <object id="45" gid="2147490965" x="1162" y="34" width="64" height="64" />
  <object id="46" gid="7276" x="783" y="35" width="64" height="64" />
  <object id="47" gid="7279" x="1044" y="35" width="64" height="64" />
  <object id="48" gid="2147490927" x="545" y="36" width="64" height="64" />
  <object id="49" gid="2147490927" x="88" y="37" width="64" height="64" />
  <object id="50" gid="2147490926" x="384" y="38" width="64" height="64" />
  <object id="51" gid="2147490926" x="240" y="39" width="64" height="64" />
  <object id="52" gid="2147490951" x="440" y="40" width="64" height="64" />
  <object id="53" gid="2147490924" x="581" y="40" width="64" height="64" />
  <object id="54" gid="7317" x="46" y="42" width="64" height="64" />
  <object id="55" gid="2147490927" x="659" y="42" width="64" height="64" />
  <object id="56" gid="7303" x="820" y="42" width="64" height="64" />
  <object id="57" gid="2147490924" x="1084" y="42" width="64" height="64" />
  <object id="58" gid="7279" x="1181" y="42" width="64" height="64" />
  <object id="59" gid="7303" x="367" y="43" width="64" height="64" />
  <object id="60" gid="7276" x="1098" y="44" width="64" height="64" />
  <object id="61" gid="2147490927" x="482" y="45" width="64" height="64" />
  <object id="62" gid="7279" x="1246" y="46" width="64" height="64" />
  <object id="63" gid="2147490951" x="1303" y="46" width="64" height="64" />
  <object id="64" gid="2147490927" x="285" y="47" width="64" height="64" />
  <object id="65" gid="2147490926" x="663" y="53" width="64" height="64" />
  <object id="66" gid="7279" x="-27" y="54" width="64" height="64" />
  <object id="67" gid="7317" x="13" y="54" width="64" height="64" />
  <object id="68" gid="7303" x="1102" y="54" width="64" height="64" />
  <object id="69" gid="7278" x="495" y="55" width="64" height="64" />
  <object id="70" gid="2147490924" x="1301" y="55" width="64" height="64" />
  <object id="71" gid="2147490951" x="95" y="56" width="64" height="64" />
  <object id="72" gid="7279" x="228" y="57" width="64" height="64" />
  <object id="73" gid="7279" x="270" y="58" width="64" height="64" />
  <object id="74" gid="7317" x="319" y="58" width="64" height="64" />
  <object id="75" gid="2147490951" x="621" y="58" width="64" height="64" />
  <object id="76" gid="2147490965" x="818" y="58" width="64" height="64" />
  <object id="77" gid="7278" x="1163" y="59" width="64" height="64" />
  <object id="78" gid="2147490976" x="423" y="60" width="64" height="64" />
  <object id="79" gid="2147490951" x="1066" y="61" width="64" height="64" />
  <object id="80" gid="2147490965" x="1268" y="61" width="64" height="64" />
  <object id="81" gid="2147490927" x="45" y="62" width="64" height="64" />
  <object id="82" gid="2147490951" x="572" y="62" width="64" height="64" />
  <object id="83" gid="2147490951" x="1324" y="62" width="64" height="64" />
  <object id="84" gid="2147490926" x="758" y="63" width="64" height="64" />
  <object id="85" gid="2147490926" x="1010" y="63" width="64" height="64" />
  <object id="86" gid="7278" x="1209" y="63" width="64" height="64" />
  <object id="87" gid="7279" x="702" y="65" width="64" height="64" />
  <object id="88" gid="2147490965" x="470" y="66" width="64" height="64" />
  <object id="89" gid="7276" x="175" y="67" width="64" height="64" />
  <object id="90" gid="7328" x="893" y="67" width="64" height="64" />
  <object id="91" gid="2147490926" x="123" y="68" width="64" height="64" />
  <object id="92" gid="2147490926" x="1136" y="68" width="64" height="64" />
  <object id="93" gid="7278" x="853" y="69" width="64" height="64" />
  <object id="94" gid="7303" x="386" y="70" width="64" height="64" />
  <object id="95" gid="7277" x="527" y="71" width="64" height="64" />
  <object id="96" gid="7276" x="294" y="73" width="64" height="64" />
  <object id="97" gid="7278" x="560" y="81" width="64" height="64" />
  <object id="98" gid="2147490976" x="795" y="81" width="64" height="64" />
  <object id="99" gid="7279" x="1082" y="83" width="64" height="64" />
  <object id="100" gid="7276" x="242" y="85" width="64" height="64" />
  <object id="101" gid="2147490965" x="1041" y="85" width="64" height="64" />
  <object id="102" gid="7278" x="187" y="86" width="64" height="64" />
  <object id="103" gid="2147490927" x="383" y="86" width="64" height="64" />
  <object id="104" gid="2147490965" x="863" y="87" width="64" height="64" />
  <object id="105" gid="7277" x="1207" y="87" width="64" height="64" />
  <object id="106" gid="2147490926" x="323" y="88" width="64" height="64" />
  <object id="107" gid="2147490927" x="120" y="89" width="64" height="64" />
  <object id="108" gid="7276" x="710.4" y="89.6" width="64" height="64" />
  <object id="109" gid="2147490926" x="4" y="90" width="64" height="64" />
  <object id="110" gid="2147490976" x="86" y="90" width="64" height="64" />
  <object id="111" gid="2147490927" x="342" y="90" width="64" height="64" />
  <object id="112" gid="2147490926" x="422" y="91" width="64" height="64" />
  <object id="113" gid="2147490927" x="1098" y="92" width="64" height="64" />
  <object id="114" gid="2147490943" x="155" y="94" width="64" height="64" />
  <object id="115" gid="2147490925" x="1164" y="94" width="64" height="64" />
  <object id="116" gid="7279" x="28" y="96" width="64" height="64" />
  <object id="117" gid="2147490924" x="1230" y="96" width="64" height="64" />
  <object id="118" gid="2147490976" x="1291" y="96" width="64" height="64" />
  <object id="119" gid="2147490927" x="847" y="97" width="64" height="64" />
  <object id="120" gid="7279" x="977" y="97" width="64" height="64" />
  <object id="121" gid="2147490925" x="466" y="98" width="64" height="64" />
  <object id="122" gid="7317" x="511" y="98" width="64" height="64" />
  <object id="123" gid="7295" x="618" y="98" width="64" height="64" />
  <object id="124" gid="2147490927" x="1313" y="99" width="64" height="64" />
  <object id="125" gid="7277" x="274" y="100" width="64" height="64" />
  <object id="126" gid="2147490927" x="584" y="101" width="64" height="64" />
  <object id="127" gid="7276" x="148" y="108" width="64" height="64" />
  <object id="128" gid="7278" x="1258" y="109" width="64" height="64" />
  <object id="129" gid="7276" x="884" y="110" width="64" height="64" />
  <object id="130" gid="7278" x="559" y="111" width="64" height="64" />
  <object id="131" gid="2147490927" x="855" y="111" width="64" height="64" />
  <object id="132" gid="2147490926" x="1150" y="111" width="64" height="64" />
  <object id="133" gid="7309" x="712" y="112" width="64" height="64" />
  <object id="134" gid="2147490927" x="-41" y="112" width="64" height="64" />
  <object id="135" gid="2147490965" x="13" y="112" width="64" height="64" />
  <object id="136" gid="2147490926" x="159" y="113" width="64" height="64" />
  <object id="137" gid="7303" x="480" y="113" width="64" height="64" />
  <object id="138" gid="2147490924" x="231" y="114" width="64" height="64" />
  <object id="139" gid="2147490927" x="1069" y="114" width="64" height="64" />
  <object id="140" gid="7328" x="300" y="115" width="64" height="64" />
  <object id="141" gid="7278" x="518" y="115" width="64" height="64" />
  <object id="142" gid="7279" x="1200" y="115" width="64" height="64" />
  <object id="143" gid="7276" x="423" y="116" width="64" height="64" />
  <object id="144" gid="7278" x="1006" y="116" width="64" height="64" />
  <object id="145" gid="7279" x="678.4" y="116.8" width="64" height="64" />
  <object id="146" gid="2147490927" x="745.6" y="116.8" width="64" height="64" />
  <object id="147" gid="7279" x="57" y="119" width="64" height="64" />
  <object id="148" gid="2147490926" x="345" y="119" width="64" height="64" />
  <object id="149" gid="7303" x="461" y="120" width="64" height="64" />
  <object id="150" gid="7279" x="362" y="121" width="64" height="64" />
  <object id="151" gid="7279" x="1303" y="122" width="64" height="64" />
  <object id="152" gid="2147490965" x="1191" y="123" width="64" height="64" />
  <object id="153" gid="7278" x="93" y="125" width="64" height="64" />
  <object id="154" gid="2147490943" x="1331" y="125" width="64" height="64" />
  <object id="155" gid="7303" x="981" y="125" width="64" height="64" />
  <object id="156" gid="7349" x="656" y="128" width="64" height="64" />
  <object id="157" gid="2147490927" x="457" y="135" width="64" height="64" />
  <object id="158" gid="7279" x="1315" y="135" width="64" height="64" />
  <object id="159" gid="2147490927" x="322" y="136" width="64" height="64" />
  <object id="160" gid="7328" x="1208" y="136" width="64" height="64" />
  <object id="161" gid="7328" x="199" y="139" width="64" height="64" />
  <object id="162" gid="2147490927" x="574" y="139" width="64" height="64" />
  <object id="163" gid="2147490924" x="1292" y="140" width="64" height="64" />
  <object id="164" gid="2147490924" x="146" y="141" width="64" height="64" />
  <object id="165" gid="2147490926" x="266" y="142" width="64" height="64" />
  <object id="166" gid="2147490926" x="31" y="143" width="64" height="64" />
  <object id="167" gid="7279" x="70" y="144" width="64" height="64" />
  <object id="168" gid="7279" x="1245" y="145" width="64" height="64" />
  <object id="169" gid="2147490943" x="387" y="148" width="64" height="64" />
  <object id="170" gid="2147490924" x="435" y="148" width="64" height="64" />
  <object id="171" gid="2147490976" x="524" y="148" width="64" height="64" />
  <object id="172" gid="2147490927" x="117" y="149" width="64" height="64" />
  <object id="173" gid="7276" x="227" y="149" width="64" height="64" />
  <object id="174" gid="2147490926" x="1171" y="153" width="64" height="64" />
  <object id="175" gid="7276" x="-7" y="155" width="64" height="64" />
  <object id="176" gid="7299" x="636.8" y="156.8" width="64" height="64" />
  <object id="177" gid="7279" x="307" y="158" width="64" height="64" />
  <object id="178" gid="7317" x="980" y="158" width="64" height="64" />
  <object id="179" gid="2147490927" x="186" y="162" width="64" height="64" />
  <object id="180" gid="2147490924" x="534" y="162" width="64" height="64" />
  <object id="181" gid="2147490926" x="57" y="163" width="64" height="64" />
  <object id="182" gid="7279" x="559" y="164" width="64" height="64" />
  <object id="183" gid="2147490926" x="1166" y="165" width="64" height="64" />
  <object id="184" gid="2147490927" x="1320" y="165" width="64" height="64" />
  <object id="185" gid="2147490927" x="1212" y="166" width="64" height="64" />
  <object id="186" gid="7317" x="1309" y="170" width="64" height="64" />
  <object id="187" gid="7276" x="885" y="170" width="64" height="64" />
  <object id="188" gid="7328" x="325" y="172" width="64" height="64" />
  <object id="189" gid="7278" x="1102" y="172" width="64" height="64" />
  <object id="190" gid="7279" x="30" y="173" width="64" height="64" />
  <object id="191" gid="2147490951" x="431" y="173" width="64" height="64" />
  <object id="192" gid="2147490927" x="467" y="173" width="64" height="64" />
  <object id="193" gid="7278" x="490" y="173" width="64" height="64" />
  <object id="194" gid="7278" x="232" y="174" width="64" height="64" />
  <object id="195" gid="7340" x="344" y="174" width="64" height="64" />
  <object id="196" gid="2147490926" x="146" y="175" width="64" height="64" />
  <object id="197" gid="7290" x="718.4" y="176" width="64" height="64" />
  <object id="198" gid="2147490956" x="367" y="180" width="64" height="64" />
  <object id="199" gid="2147490924" x="-26" y="181" width="64" height="64" />
  <object id="200" gid="2147490976" x="1253" y="182" width="64" height="64" />
  <object id="201" gid="2147490927" x="111" y="183" width="64" height="64" />
  <object id="202" gid="7303" x="481" y="183" width="64" height="64" />
  <object id="203" gid="2147490976" x="526" y="184" width="64" height="64" />
  <object id="204" gid="2147490976" x="884" y="187" width="64" height="64" />
  <object id="205" gid="2147491055" x="1039" y="187" width="64" height="64" />
  <object id="206" gid="2147490951" x="570" y="188" width="64" height="64" />
  <object id="207" gid="2147490927" x="11" y="189" width="64" height="64" />
  <object id="208" gid="2147490943" x="1127" y="190" width="64" height="64" />
  <object id="209" gid="2147490927" x="281" y="190" width="64" height="64" />
  <object id="210" gid="7278" x="1164" y="191" width="64" height="64" />
  <object id="211" gid="7303" x="1257" y="193" width="64" height="64" />
  <object id="212" gid="7276" x="393" y="195" width="64" height="64" />
  <object id="213" gid="7302" x="614.4" y="195.2" width="64" height="64" />
  <object id="214" gid="7277" x="1226" y="196" width="64" height="64" />
  <object id="215" gid="2147490927" x="320" y="196" width="64" height="64" />
  <object id="216" gid="7278" x="85" y="201" width="64" height="64" />
  <object id="217" gid="7279" x="33" y="202" width="64" height="64" />
  <object id="218" gid="2147490951" x="984" y="205" width="64" height="64" />
  <object id="219" gid="7279" x="157" y="206" width="64" height="64" />
  <object id="220" gid="2147490927" x="1315" y="206" width="64" height="64" />
  <object id="221" gid="2147490926" x="560" y="206" width="64" height="64" />
  <object id="222" gid="2147490926" x="112" y="208" width="64" height="64" />
  <object id="223" gid="2147490976" x="1205" y="208" width="64" height="64" />
  <object id="224" gid="2147490927" x="460" y="208" width="64" height="64" />
  <object id="225" gid="7279" x="431" y="209" width="64" height="64" />
  <object id="226" gid="2147490965" x="304" y="209" width="64" height="64" />
  <object id="227" gid="2147490926" x="868" y="214" width="64" height="64" />
  <object id="228" gid="2147490927" x="898" y="215" width="64" height="64" />
  <object id="229" gid="7328" x="1254" y="217" width="64" height="64" />
  <object id="230" gid="2147490965" x="1299" y="217" width="64" height="64" />
  <object id="231" gid="2147490927" x="1336" y="217" width="64" height="64" />
  <object id="232" gid="7334" x="812.8" y="217.6" width="64" height="64" />
  <object id="233" gid="2147490976" x="496" y="218" width="64" height="64" />
  <object id="234" gid="2147490965" x="268" y="218" width="64" height="64" />
  <object id="235" gid="7279" x="525" y="219" width="64" height="64" />
  <object id="236" gid="7278" x="146" y="223" width="64" height="64" />
  <object id="237" gid="7337" x="777.6" y="224" width="64" height="64" />
  <object id="238" gid="7315" x="665.6" y="224" width="64" height="64" />
  <object id="239" gid="2147490965" x="322" y="226" width="64" height="64" />
  <object id="240" gid="2147490927" x="106" y="227" width="64" height="64" />
  <object id="241" gid="2147490943" x="10" y="229" width="64" height="64" />
  <object id="242" gid="2147490976" x="51" y="230" width="64" height="64" />
  <object id="243" gid="2147490927" x="1218" y="231" width="64" height="64" />
  <object id="244" gid="7328" x="851" y="231" width="64" height="64" />
  <object id="245" gid="7295" x="160" y="233" width="64" height="64" />
  <object id="246" gid="2147490927" x="-27" y="235" width="64" height="64" />
  <object id="247" gid="2147490927" x="379" y="236" width="64" height="64" />
  <object id="248" gid="7279" x="1161" y="236" width="64" height="64" />
  <object id="249" gid="2147490976" x="568" y="236" width="64" height="64" />
  <object id="250" gid="7278" x="516" y="237" width="64" height="64" />
  <object id="251" gid="7278" x="414" y="238" width="64" height="64" />
  <object id="252" gid="2147490924" x="1127" y="238" width="64" height="64" />
  <object id="253" gid="7372" x="681.6" y="240" width="64" height="64" />
  <object id="254" gid="7278" x="451" y="240" width="64" height="64" />
  <object id="255" gid="2147490976" x="552" y="241" width="64" height="64" />
  <object id="256" gid="7279" x="858" y="241" width="64" height="64" />
  <object id="257" gid="2147490951" x="237" y="241" width="64" height="64" />
  <object id="258" gid="7276" x="489" y="242" width="64" height="64" />
  <object id="259" gid="7368" x="646.4" y="243.2" width="64" height="64" />
  <object id="260" gid="2147490965" x="1190" y="245" width="64" height="64" />
  <object id="261" gid="7317" x="987" y="246" width="64" height="64" />
  <object id="262" gid="7328" x="371" y="247" width="64" height="64" />
  <object id="263" gid="7310" x="624" y="249.6" width="64" height="64" />
  <object id="264" gid="7336" x="755.2" y="249.6" width="64" height="64" />
  <object id="265" gid="2147490951" x="192" y="250" width="64" height="64" />
  <object id="266" gid="2147490926" x="121" y="252" width="64" height="64" />
  <object id="267" gid="7278" x="63" y="254" width="64" height="64" />
  <object id="268" gid="2147490927" x="150" y="254" width="64" height="64" />
  <object id="269" gid="2147490924" x="1269" y="254" width="64" height="64" />
  <object id="270" gid="7276" x="462" y="254" width="64" height="64" />
  <object id="271" gid="2147490976" x="589" y="255" width="64" height="64" />
  <object id="272" gid="2147490926" x="1153" y="256" width="64" height="64" />
  <object id="273" gid="2147490965" x="1220" y="257" width="64" height="64" />
  <object id="274" gid="7279" x="435" y="258" width="64" height="64" />
  <object id="275" gid="7279" x="887" y="258" width="64" height="64" />
  <object id="276" gid="2147490976" x="-4" y="259" width="64" height="64" />
  <object id="277" gid="7279" x="19" y="259" width="64" height="64" />
  <object id="278" gid="2147490976" x="399" y="262" width="64" height="64" />
  <object id="279" gid="7279" x="285" y="264" width="64" height="64" />
  <object id="280" gid="2147490951" x="1322" y="265" width="64" height="64" />
  <object id="281" gid="7278" x="498" y="272" width="64" height="64" />
  <object id="282" gid="2147490927" x="299" y="272" width="64" height="64" />
  <object id="283" gid="7303" x="852" y="273" width="64" height="64" />
  <object id="284" gid="2147490925" x="1209" y="275" width="64" height="64" />
  <object id="285" gid="7276" x="511" y="275" width="64" height="64" />
  <object id="286" gid="7295" x="1" y="277" width="64" height="64" />
  <object id="287" gid="7303" x="-23" y="280" width="64" height="64" />
  <object id="288" gid="7278" x="442" y="281" width="64" height="64" />
  <object id="289" gid="7295" x="1296" y="281" width="64" height="64" />
  <object id="290" gid="2147490927" x="1319" y="281" width="64" height="64" />
  <object id="291" gid="7279" x="557" y="282" width="64" height="64" />
  <object id="292" gid="7279" x="1162" y="283" width="64" height="64" />
  <object id="293" gid="7407" x="248" y="283" width="64" height="64" />
  <object id="294" gid="2147490927" x="90" y="284" width="64" height="64" />
  <object id="295" gid="2147490927" x="180" y="285" width="64" height="64" />
  <object id="296" gid="2147490924" x="407" y="285" width="64" height="64" />
  <object id="297" gid="2147490956" x="205" y="285" width="64" height="64" />
  <object id="298" gid="2147490951" x="117" y="286" width="64" height="64" />
  <object id="299" gid="2147490951" x="1237" y="286" width="64" height="64" />
  <object id="300" gid="7328" x="386" y="287" width="64" height="64" />
  <object id="301" gid="2147490925" x="346" y="291" width="64" height="64" />
  <object id="302" gid="7295" x="1131" y="291" width="64" height="64" />
  <object id="303" gid="2147490925" x="68" y="292" width="64" height="64" />
  <object id="304" gid="7331" x="601.6" y="297.6" width="64" height="64" />
  <object id="305" gid="2147490979" x="633.6" y="297.6" width="64" height="64" />
  <object id="306" gid="7331" x="656" y="297.6" width="64" height="64" />
  <object id="307" gid="2147490979" x="732.8" y="297.6" width="64" height="64" />
  <object id="308" gid="7331" x="761.6" y="297.6" width="64" height="64" />
  <object id="309" gid="2147490979" x="793.6" y="297.6" width="64" height="64" />
  <object id="310" gid="7331" x="825.6" y="297.6" width="64" height="64" />
  <object id="311" gid="2147490927" x="1270" y="298" width="64" height="64" />
  <object id="312" gid="2147490927" x="257" y="299" width="64" height="64" />
  <object id="313" gid="7278" x="84" y="300" width="64" height="64" />
  <object id="314" gid="7308" x="1045" y="300" width="64" height="64" />
  <object id="315" gid="7278" x="1181" y="301" width="64" height="64" />
  <object id="316" gid="7408" x="670.4" y="302.4" width="64" height="64" />
  <object id="317" gid="7408" x="718.4" y="302.4" width="64" height="64" />
  <object id="318" gid="7317" x="229" y="303" width="64" height="64" />
  <object id="319" gid="7291" x="1094" y="303" width="64" height="64" />
  <object id="320" gid="2147490976" x="577" y="304" width="64" height="64" />
  <object id="321" gid="2147490927" x="1308" y="305" width="64" height="64" />
  <object id="322" gid="2147490927" x="499" y="305" width="64" height="64" />
  <object id="323" gid="7308" x="190" y="305" width="64" height="64" />
  <object id="324" gid="2147490927" x="28" y="306" width="64" height="64" />
  <object id="325" gid="7303" x="1146" y="308" width="64" height="64" />
  <object id="326" gid="2147490927" x="527" y="308" width="64" height="64" />
  <object id="327" gid="2147490927" x="407" y="312" width="64" height="64" />
  <object id="328" gid="7276" x="445" y="312" width="64" height="64" />
  <object id="329" gid="2147490927" x="120" y="314" width="64" height="64" />
  <object id="330" gid="2147490976" x="147" y="314" width="64" height="64" />
  <object id="331" gid="2147490951" x="1125" y="317" width="64" height="64" />
  <object id="332" gid="7303" x="-15" y="319" width="64" height="64" />
  <object id="333" gid="2147490976" x="1250" y="319" width="64" height="64" />
  <object id="334" gid="7278" x="542" y="323" width="64" height="64" />
  <object id="335" gid="2147490927" x="197" y="327" width="64" height="64" />
  <object id="336" gid="7407" x="169" y="328" width="64" height="64" />
  <object id="337" gid="2147490926" x="134" y="329" width="64" height="64" />
  <object id="338" gid="2147490951" x="1099" y="330" width="64" height="64" />
  <object id="339" gid="2147490926" x="50" y="332" width="64" height="64" />
  <object id="340" gid="7276" x="87" y="333" width="64" height="64" />
  <object id="341" gid="7328" x="1251" y="333" width="64" height="64" />
  <object id="342" gid="2147490951" x="1342" y="334" width="64" height="64" />
  <object id="343" gid="2147491003" x="1009" y="334" width="64" height="64" />
  <object id="344" gid="2147490997" x="838.4" y="336" width="64" height="64" />
  <object id="345" gid="7314" x="1059.2" y="336" width="64" height="64" />
  <object id="346" gid="7279" x="1167" y="337" width="64" height="64" />
  <object id="347" gid="7279" x="1304" y="340" width="64" height="64" />
  <object id="348" gid="2147490927" x="28" y="342" width="64" height="64" />
  <object id="349" gid="7337" x="774.4" y="342.4" width="64" height="64" />
  <object id="350" gid="2147490926" x="-11" y="344" width="64" height="64" />
  <object id="351" gid="2147490965" x="208" y="345" width="64" height="64" />
  <object id="352" gid="7340" x="176" y="350" width="64" height="64" />
  <object id="353" gid="7279" x="82" y="356" width="64" height="64" />
  <object id="354" gid="2147490926" x="127" y="358" width="64" height="64" />
  <object id="355" gid="2147490927" x="-14" y="359" width="64" height="64" />
  <object id="356" gid="7317" x="1325" y="359" width="64" height="64" />
  <object id="357" gid="2147490951" x="1202" y="360" width="64" height="64" />
  <object id="358" gid="7349" x="803.2" y="361.6" width="64" height="64" />
  <object id="359" gid="2147491003" x="1169" y="365" width="64" height="64" />
  <object id="360" gid="2147490951" x="31" y="366" width="64" height="64" />
  <object id="361" gid="2147490956" x="170" y="368" width="64" height="64" />
  <object id="362" gid="7355" x="1158" y="368" width="64" height="64" />
  <object id="363" gid="2147490927" x="183" y="369" width="64" height="64" />
  <object id="364" gid="7317" x="1025" y="371" width="64" height="64" />
  <object id="365" gid="2147491006" x="1252" y="372" width="64" height="64" />
  <object id="366" gid="7407" x="121" y="372" width="64" height="64" />
  <object id="367" gid="2147490924" x="140" y="380" width="64" height="64" />
  <object id="368" gid="7300" x="832" y="390.4" width="64" height="64" />
  <object id="369" gid="2147490965" x="45" y="392" width="64" height="64" />
  <object id="370" gid="7303" x="1180" y="393" width="64" height="64" />
  <object id="371" gid="7337" x="473.6" y="396.8" width="64" height="64" />
  <object id="372" gid="2147490924" x="-31" y="399" width="64" height="64" />
  <object id="373" gid="7328" x="1333" y="399" width="64" height="64" />
  <object id="374" gid="2147490956" x="987" y="403" width="64" height="64" />
  <object id="375" gid="7355" x="1208" y="408" width="64" height="64" />
  <object id="376" gid="7298" x="1254" y="409" width="64" height="64" />
  <object id="377" gid="2147490976" x="1153" y="412" width="64" height="64" />
  <object id="378" gid="7349" x="614.4" y="412.8" width="64" height="64" />
  <object id="379" gid="2147490926" x="-12" y="418" width="64" height="64" />
  <object id="380" gid="7311" x="1177.6" y="422.4" width="64" height="64" />
  <object id="381" gid="2147490951" x="1079" y="424" width="64" height="64" />
  <object id="382" gid="2147490929" x="1027.2" y="425.6" width="64" height="64" />
  <object id="383" gid="2147491003" x="1142" y="427" width="64" height="64" />
  <object id="384" gid="7290" x="470.4" y="430.4" width="64" height="64" />
  <object id="385" gid="7249" x="565" y="432" width="64" height="64" />
  <object id="386" gid="7325" x="222.4" y="432" width="64" height="64" />
  <object id="387" gid="7278" x="-14" y="435" width="64" height="64" />
  <object id="388" gid="2147490956" x="1213" y="435" width="64" height="64" />
  <object id="389" gid="2147490927" x="1330" y="439" width="64" height="64" />
  <object id="390" gid="2147490965" x="1278" y="439" width="64" height="64" />
  <object id="391" gid="7355" x="1114" y="446" width="64" height="64" />
  <object id="392" gid="7294" x="430.4" y="448" width="64" height="64" />
  <object id="393" gid="2147491003" x="1142" y="455" width="64" height="64" />
  <object id="394" gid="7295" x="835.2" y="457.6" width="64" height="64" />
  <object id="395" gid="7297" x="227.2" y="464" width="64" height="64" />
  <object id="396" gid="7305" x="121.6" y="464" width="64" height="64" />
  <object id="397" gid="2147490946" x="1054" y="464" width="64" height="64" />
  <object id="398" gid="7407" x="1310" y="470" width="64" height="64" />
  <object id="399" gid="7279" x="1320" y="477" width="64" height="64" />
  <object id="400" gid="7355" x="1118" y="478" width="64" height="64" />
  <object id="401" gid="7295" x="278.4" y="480" width="64" height="64" />
  <object id="402" gid="7293" x="435.2" y="480" width="64" height="64" />
  <object id="403" gid="7296" x="748.8" y="489.6" width="64" height="64" />
  <object id="404" gid="7296" x="803.2" y="489.6" width="64" height="64" />
  <object id="405" gid="7358" x="1048" y="491" width="64" height="64" />
  <object id="406" gid="2147490976" x="1334" y="496" width="64" height="64" />
  <object id="407" gid="7320" x="1024" y="499.2" width="64" height="64" />
  <object id="408" gid="7317" x="1146" y="500" width="64" height="64" />
  <object id="409" gid="2147490939" x="1210" y="500" width="64" height="64" />
  <object id="410" gid="2147490965" x="1284" y="507" width="64" height="64" />
  <object id="411" gid="7296" x="844.8" y="512" width="64" height="64" />
  <object id="412" gid="2147490956" x="1189" y="513" width="64" height="64" />
  <object id="413" gid="7278" x="1065.6" y="521.6" width="64" height="64" />
  <object id="414" gid="7278" x="1164" y="530" width="64" height="64" />
  <object id="415" gid="2147491006" x="1122" y="539" width="64" height="64" />
  <object id="416" gid="7303" x="1210" y="542" width="64" height="64" />
  <object id="417" gid="2147490943" x="281.6" y="544" width="64" height="64" />
  <object id="418" gid="2147490965" x="3" y="553" width="64" height="64" />
  <object id="419" gid="7368" x="1017.6" y="556.8" width="64" height="64" />
  <object id="420" gid="7308" x="1052.8" y="560" width="64" height="64" />
  <object id="421" gid="2147490951" x="-8" y="561" width="64" height="64" />
  <object id="422" gid="7345" x="995.2" y="563.2" width="64" height="64" />
  <object id="423" gid="7291" x="1270.4" y="563.2" width="64" height="64" />
  <object id="424" gid="7305" x="240" y="566.4" width="64" height="64" />
  <object id="425" gid="2147491006" x="1224" y="567" width="64" height="64" />
  <object id="426" gid="7303" x="73.6" y="572.8" width="64" height="64" />
  <object id="427" gid="7386" x="361.6" y="572.8" width="64" height="64" />
  <object id="428" gid="7407" x="1167" y="574" width="64" height="64" />
  <object id="429" gid="7303" x="163.2" y="574.4" width="64" height="64" />
  <object id="430" gid="2147490951" x="118.4" y="580.8" width="64" height="64" />
  <object id="431" gid="7389" x="297.6" y="582.4" width="64" height="64" />
  <object id="432" gid="7296" x="844.8" y="582.4" width="64" height="64" />
  <object id="433" gid="7296" x="547.2" y="585.6" width="64" height="64" />
  <object id="434" gid="7296" x="604.8" y="585.6" width="64" height="64" />
  <object id="435" gid="7292" x="576" y="588.8" width="64" height="64" />
  <object id="436" gid="7276" x="25" y="591" width="64" height="64" />
  <object id="437" gid="7317" x="1226" y="591" width="64" height="64" />
  <object id="438" gid="2147491006" x="1306" y="595" width="64" height="64" />
  <object id="439" gid="7400" x="1249" y="599" width="64" height="64" />
  <object id="440" gid="7387" x="262.4" y="601.6" width="64" height="64" />
  <object id="441" gid="2147490951" x="-36" y="603" width="64" height="64" />
  <object id="442" gid="2147490951" x="1" y="603" width="64" height="64" />
  <object id="443" gid="2147490951" x="995" y="604" width="64" height="64" />
  <object id="444" gid="7328" x="1242" y="604" width="64" height="64" />
  <object id="445" gid="7278" x="1321" y="606" width="64" height="64" />
  <object id="446" gid="2147490965" x="1101" y="607" width="64" height="64" />
  <object id="447" gid="7308" x="1085" y="610" width="64" height="64" />
  <object id="448" gid="7297" x="374.4" y="617.6" width="64" height="64" />
  <object id="449" gid="2147491055" x="1071" y="618" width="64" height="64" />
  <object id="450" gid="2147491003" x="1243" y="618" width="64" height="64" />
  <object id="451" gid="2147490951" x="94.4" y="620.8" width="64" height="64" />
  <object id="452" gid="2147490951" x="184" y="620.8" width="64" height="64" />
  <object id="453" gid="7303" x="139.2" y="625.6" width="64" height="64" />
  <object id="454" gid="7278" x="5" y="627" width="64" height="64" />
  <object id="455" gid="7303" x="22" y="635" width="64" height="64" />
  <object id="456" gid="2147490927" x="1326" y="637" width="64" height="64" />
  <object id="457" gid="2147490956" x="1257" y="637" width="64" height="64" />
  <object id="458" gid="7407" x="1280" y="641" width="64" height="64" />
  <object id="459" gid="2147490965" x="1053" y="647" width="64" height="64" />
  <object id="460" gid="7355" x="994" y="652" width="64" height="64" />
  <object id="461" gid="7279" x="-19" y="656" width="64" height="64" />
  <object id="462" gid="2147490924" x="1320" y="657" width="64" height="64" />
  <object id="463" gid="7277" x="25" y="661" width="64" height="64" />
  <object id="464" gid="2147490926" x="1005" y="666" width="64" height="64" />
  <object id="465" gid="7355" x="1042" y="667" width="64" height="64" />
  <object id="466" gid="2147491022" x="698" y="669" width="64" height="64" />
  <object id="467" gid="2147490965" x="1268" y="670" width="64" height="64" />
  <object id="468" gid="2147490927" x="1318" y="682" width="64" height="64" />
  <object id="469" gid="7279" x="-9" y="683" width="64" height="64" />
  <object id="470" gid="7308" x="964" y="684" width="64" height="64" />
  <object id="471" gid="2147491055" x="605" y="684" width="64" height="64" />
  <object id="472" gid="2147490923" x="298" y="687" width="64" height="64" />
  <object id="473" gid="7323" x="409.6" y="688" width="64" height="64" />
  <object id="474" gid="7277" x="28" y="689" width="64" height="64" />
  <object id="475" gid="7356" x="217" y="689" width="64" height="64" />
  <object id="476" gid="7275" x="324" y="694" width="64" height="64" />
  <object id="477" gid="7310" x="502.4" y="694.4" width="64" height="64" />
  <object id="478" gid="7406" x="480" y="697.6" width="64" height="64" />
  <object id="479" gid="2147490951" x="1056" y="702" width="64" height="64" />
  <object id="480" gid="7407" x="1234" y="702" width="64" height="64" />
  <object id="481" gid="7356" x="537.6" y="704" width="64" height="64" />
  <object id="482" gid="7379" x="220" y="706" width="64" height="64" />
  <object id="483" gid="2147490965" x="1320" y="707" width="64" height="64" />
  <object id="484" gid="7275" x="162" y="708" width="64" height="64" />
  <object id="485" gid="7275" x="296" y="710" width="64" height="64" />
  <object id="486" gid="7278" x="26" y="711" width="64" height="64" />
  <object id="487" gid="2147491003" x="1281" y="712" width="64" height="64" />
  <object id="488" gid="7348" x="454.4" y="713.6" width="64" height="64" />
  <object id="489" gid="2147491055" x="1204" y="714" width="64" height="64" />
  <object id="490" gid="7317" x="-9" y="716" width="64" height="64" />
  <object id="491" gid="2147490976" x="1141" y="717" width="64" height="64" />
  <object id="492" gid="2147491003" x="1194" y="717" width="64" height="64" />
  <object id="493" gid="2147491027" x="360" y="721" width="64" height="64" />
  <object id="494" gid="2147491055" x="1243" y="722" width="64" height="64" />
  <object id="495" gid="7285" x="422.4" y="723.2" width="64" height="64" />
  <object id="496" gid="2147490956" x="972" y="727" width="64" height="64" />
  <object id="497" gid="7407" x="1058" y="728" width="64" height="64" />
  <object id="498" gid="2147491006" x="1280" y="735" width="64" height="64" />
  <object id="499" gid="2147490951" x="1117" y="735" width="64" height="64" />
  <object id="500" gid="2147490933" x="508.8" y="736" width="64" height="64" />
  <object id="501" gid="2147491004" x="197" y="739" width="64" height="64" />
  <object id="502" gid="7279" x="1" y="740" width="64" height="64" />
  <object id="503" gid="7356" x="260" y="740" width="64" height="64" />
  <object id="504" gid="2147490925" x="1325" y="742" width="64" height="64" />
  <object id="505" gid="2147490923" x="183" y="742" width="64" height="64" />
  <object id="506" gid="7356" x="460.8" y="742.4" width="64" height="64" />
  <object id="507" gid="7356" x="383" y="748" width="64" height="64" />
  <object id="508" gid="7291" x="1153" y="751" width="64" height="64" />
  <object id="509" gid="7277" x="998.4" y="752" width="64" height="64" />
  <object id="510" gid="2147490927" x="17" y="752" width="64" height="64" />
  <object id="511" gid="2147490923" x="770" y="752" width="64" height="64" />
  <object id="512" gid="2147490956" x="960" y="755" width="64" height="64" />
  <object id="513" gid="2147490923" x="313" y="756" width="64" height="64" />
  <object id="514" gid="2147490923" x="748" y="757" width="64" height="64" />
  <object id="515" gid="7277" x="-24" y="762" width="64" height="64" />
  <object id="516" gid="7356" x="95" y="765" width="64" height="64" />
  <object id="517" gid="7280" x="272" y="766" width="64" height="64" />
  <object id="518" gid="2147490923" x="303" y="766" width="64" height="64" />
  <object id="519" gid="7379" x="69" y="767" width="64" height="64" />
  <object id="520" gid="2147490946" x="1155" y="772" width="64" height="64" />
  <object id="521" gid="2147490946" x="989" y="774" width="64" height="64" />
  <object id="522" gid="7317" x="1259" y="774" width="64" height="64" />
  <object id="523" gid="7280" x="592" y="774" width="64" height="64" />
  <object id="524" gid="2147490946" x="1071" y="776" width="64" height="64" />
  <object id="525" gid="7280" x="702" y="778" width="64" height="64" />
  <object id="526" gid="2147491027" x="740" y="778" width="64" height="64" />
  <object id="527" gid="7374" x="608" y="779" width="64" height="64" />
  <object id="528" gid="7280" x="133" y="781" width="64" height="64" />
  <object id="529" gid="2147490924" x="1330" y="782" width="64" height="64" />
  <object id="530" gid="2147490976" x="4" y="790" width="64" height="64" />
  <object id="531" gid="2147490951" x="1168" y="793" width="64" height="64" />
  <object id="532" gid="2147491055" x="1196" y="796" width="64" height="64" />
  <object id="533" gid="7298" x="1097.6" y="796.8" width="64" height="64" />
  <object id="534" gid="7280" x="122" y="800" width="64" height="64" />
  <object id="535" gid="2147490928" x="691" y="802" width="64" height="64" />
  <object id="536" gid="2147490923" x="154" y="804" width="64" height="64" />
  <object id="537" gid="2147491022" x="626" y="804" width="64" height="64" />
  <object id="538" gid="2147490923" x="454" y="805" width="64" height="64" />
  <object id="539" gid="2147491006" x="994" y="807" width="64" height="64" />
  <object id="540" gid="2147491004" x="377" y="807" width="64" height="64" />
  <object id="541" gid="7285" x="100" y="812" width="64" height="64" />
  <object id="542" gid="7356" x="503" y="812" width="64" height="64" />
  <object id="543" gid="2147490923" x="309" y="813" width="64" height="64" />
  <object id="544" gid="2147490932" x="761" y="813" width="64" height="64" />
  <object id="545" gid="2147491004" x="358" y="817" width="64" height="64" />
  <object id="546" gid="7356" x="553" y="818" width="64" height="64" />
  <object id="547" gid="2147490927" x="8" y="819" width="64" height="64" />
  <object id="548" gid="2147491004" x="272" y="820" width="64" height="64" />
  <object id="549" gid="7379" x="583" y="821" width="64" height="64" />
  <object id="550" gid="2147491027" x="42" y="822" width="64" height="64" />
  <object id="551" gid="7328" x="-40" y="834" width="64" height="64" />
  <object id="552" gid="2147491027" x="313" y="836" width="64" height="64" />
  <object id="553" gid="7275" x="404" y="836" width="64" height="64" />
  <object id="554" gid="7280" x="769" y="836" width="64" height="64" />
  <object id="555" gid="2147490928" x="166" y="838" width="64" height="64" />
  <object id="556" gid="7275" x="805" y="840" width="64" height="64" />
  <object id="557" gid="7275" x="177" y="841" width="64" height="64" />
  <object id="558" gid="7275" x="608" y="845" width="64" height="64" />
  <object id="559" gid="2147490928" x="591" y="846" width="64" height="64" />
  <object id="560" gid="7280" x="367" y="848" width="64" height="64" />
  <object id="561" gid="2147491022" x="78" y="849" width="64" height="64" />
  <object id="562" gid="7356" x="253" y="850" width="64" height="64" />
  <object id="563" gid="7379" x="660" y="850" width="64" height="64" />
  <object id="564" gid="7275" x="456" y="852" width="64" height="64" />
  <object id="565" gid="2147491055" x="1147" y="853" width="64" height="64" />
  <object id="566" gid="2147491055" x="1163" y="857" width="64" height="64" />
  <object id="567" gid="2147490927" x="-4" y="860" width="64" height="64" />
  <object id="568" gid="2147491027" x="521" y="862" width="64" height="64" />
  <object id="569" gid="7275" x="48" y="865" width="64" height="64" />
  <object id="570" gid="7275" x="246" y="866" width="64" height="64" />
  <object id="571" gid="7356" x="207" y="868" width="64" height="64" />
  <object id="572" gid="7317" x="29" y="870" width="64" height="64" />
  <object id="573" gid="2147490951" x="1161" y="872" width="64" height="64" />
  <object id="574" gid="7356" x="157" y="872" width="64" height="64" />
  <object id="575" gid="2147491027" x="463" y="872" width="64" height="64" />
  <object id="576" gid="2147491027" x="699" y="872" width="64" height="64" />
  <object id="577" gid="7285" x="745" y="873" width="64" height="64" />
  <object id="578" gid="7303" x="-22" y="875" width="64" height="64" />
  <object id="579" gid="2147490923" x="447" y="877" width="64" height="64" />
  <object id="580" gid="7356" x="583" y="877" width="64" height="64" />
  <object id="581" gid="2147490976" x="1180" y="878" width="64" height="64" />
  <object id="582" gid="7356" x="846" y="879" width="64" height="64" />
  <object id="583" gid="2147490923" x="76" y="880" width="64" height="64" />
  <object id="584" gid="7280" x="755" y="886" width="64" height="64" />
  <object id="585" gid="2147490956" x="1104" y="893" width="64" height="64" />
  <object id="586" gid="2147490923" x="592" y="894" width="64" height="64" />
  <object id="587" gid="2147490933" x="669" y="896" width="64" height="64" />
  <object id="588" gid="7280" x="611" y="898" width="64" height="64" />
  <object id="589" gid="2147490928" x="723" y="898" width="64" height="64" />
  <object id="590" gid="7303" x="25" y="901" width="64" height="64" />
  <object id="591" gid="2147490928" x="144" y="901" width="64" height="64" />
  <object id="592" gid="7356" x="463" y="901" width="64" height="64" />
  <object id="593" gid="7356" x="202" y="902" width="64" height="64" />
  <object id="594" gid="2147490923" x="829" y="903" width="64" height="64" />
  <object id="595" gid="2147490923" x="67" y="904" width="64" height="64" />
  <object id="596" gid="7356" x="87" y="904" width="64" height="64" />
  <object id="597" gid="2147490926" x="1243" y="905" width="64" height="64" />
  <object id="598" gid="2147490965" x="1301" y="905" width="64" height="64" />
  <object id="599" gid="7280" x="532" y="905" width="64" height="64" />
  <object id="600" gid="2147490924" x="719" y="906" width="64" height="64" />
  <object id="601" gid="7285" x="302" y="908" width="64" height="64" />
  <object id="602" gid="7279" x="635" y="909" width="64" height="64" />
  <object id="603" gid="7303" x="1286" y="909" width="64" height="64" />
  <object id="604" gid="7278" x="505" y="911" width="64" height="64" />
  <object id="605" gid="7279" x="564" y="911" width="64" height="64" />
  <object id="606" gid="7276" x="1147" y="911" width="64" height="64" />
  <object id="607" gid="7278" x="408" y="912" width="64" height="64" />
  <object id="608" gid="2147490976" x="-6" y="915" width="64" height="64" />
  <object id="609" gid="2147490927" x="679" y="915" width="64" height="64" />
  <object id="610" gid="7278" x="739" y="924" width="64" height="64" />
  <object id="611" gid="7317" x="1302" y="927" width="64" height="64" />
  <object id="612" gid="2147490926" x="11" y="928" width="64" height="64" />
  <object id="613" gid="7276" x="360" y="931" width="64" height="64" />
  <object id="614" gid="7328" x="503" y="931" width="64" height="64" />
  <object id="615" gid="2147490926" x="788" y="932" width="64" height="64" />
  <object id="616" gid="7317" x="1264" y="932" width="64" height="64" />
  <object id="617" gid="2147490927" x="548" y="933" width="64" height="64" />
  <object id="618" gid="7328" x="712" y="934" width="64" height="64" />
  <object id="619" gid="2147490951" x="438" y="936" width="64" height="64" />
  <object id="620" gid="2147490951" x="623" y="936" width="64" height="64" />
  <object id="621" gid="7276" x="1326" y="937" width="64" height="64" />
  <object id="622" gid="7279" x="297" y="938" width="64" height="64" />
  <object id="623" gid="7277" x="1222" y="938" width="64" height="64" />
  <object id="624" gid="7328" x="263" y="940" width="64" height="64" />
  <object id="625" gid="7279" x="1150" y="940" width="64" height="64" />
  <object id="626" gid="7303" x="669" y="941" width="64" height="64" />
  <object id="627" gid="2147490927" x="1001" y="941" width="64" height="64" />
  <object id="628" gid="7317" x="1103" y="941" width="64" height="64" />
  <object id="629" gid="2147490976" x="202" y="942" width="64" height="64" />
  <object id="630" gid="7278" x="843" y="942" width="64" height="64" />
  <object id="631" gid="7328" x="425" y="943" width="64" height="64" />
  <object id="632" gid="7278" x="582" y="943" width="64" height="64" />
  <object id="633" gid="2147490951" x="-27" y="945" width="64" height="64" />
  <object id="634" gid="7277" x="951" y="945" width="64" height="64" />
  <object id="635" gid="7295" x="84" y="951" width="64" height="64" />
  <object id="636" gid="2147490926" x="591" y="951" width="64" height="64" />
  <object id="637" gid="2147490926" x="244" y="953" width="64" height="64" />
  <object id="638" gid="2147490926" x="763" y="953" width="64" height="64" />
  <object id="639" gid="7279" x="1042" y="953" width="64" height="64" />
  <object id="640" gid="2147490927" x="490" y="954" width="64" height="64" />
  <object id="641" gid="7278" x="30" y="955" width="64" height="64" />
  <object id="642" gid="7277" x="1110" y="955" width="64" height="64" />
  <object id="643" gid="7279" x="206" y="957" width="64" height="64" />
  <object id="644" gid="2147490943" x="275" y="957" width="64" height="64" />
  <object id="645" gid="2147490926" x="725" y="957" width="64" height="64" />
  <object id="646" gid="7278" x="1139" y="957" width="64" height="64" />
  <object id="647" gid="7278" x="118" y="958" width="64" height="64" />
  <object id="648" gid="7278" x="807" y="958" width="64" height="64" />
  <object id="649" gid="2147490924" x="670" y="959" width="64" height="64" />
  <object id="650" gid="7295" x="345" y="960" width="64" height="64" />
  <object id="651" gid="7303" x="1303" y="963" width="64" height="64" />
  <object id="652" gid="7279" x="309" y="964" width="64" height="64" />
  <object id="653" gid="2147490927" x="1092" y="964" width="64" height="64" />
  <object id="654" gid="7276" x="1291" y="964" width="64" height="64" />
  <object id="655" gid="2147490927" x="420" y="965" width="64" height="64" />
  <object id="656" gid="7328" x="1012" y="965" width="64" height="64" />
  <object id="657" gid="7279" x="391" y="967" width="64" height="64" />
  <object id="658" gid="2147490926" x="571" y="967" width="64" height="64" />
  <object id="659" gid="7279" x="-11" y="968" width="64" height="64" />
  <object id="660" gid="7279" x="145" y="968" width="64" height="64" />
  <object id="661" gid="2147490927" x="824" y="969" width="64" height="64" />
  <object id="662" gid="7279" x="1191" y="970" width="64" height="64" />
  <object id="663" gid="2147490927" x="1247" y="970" width="64" height="64" />
  <object id="664" gid="2147490924" x="617" y="971" width="64" height="64" />
  <object id="665" gid="2147490926" x="958" y="971" width="64" height="64" />
  <object id="666" gid="2147490951" x="504" y="972" width="64" height="64" />
 </objectgroup>
 <objectgroup id="8" name="Objects">
  <object id="667" x="48" y="488" name="start" type="start">
   <point />
  </object>
  <object id="668" x="352" y="464" name="forge-home" type="warp" width="32" height="16">
   <properties>
    <property name="goto" value="EmberfallForge,7,12.5" />
   </properties>
  </object>
  <object id="669" x="400" y="464" name="forge-smithy" type="warp" width="32" height="16">
   <properties>
    <property name="goto" value="EmberfallForge,18,12.5" />
   </properties>
  </object>
  <object id="670" x="800" y="464" name="fire-shrine" type="warp" width="16" height="16">
   <properties>
    <property name="goto" value="EmberfallShrine,9,12.5" />
   </properties>
  </object>
  <object id="671" x="0" y="464" name="desert-road" type="warp" width="32" height="48">
   <properties>
    <property name="goto" value="Sunscar,69.5,28.5" />
   </properties>
  </object>
  <object id="672" x="726.4" y="320" name="mine-barricade" type="marker">
   <point />
  </object>
  <object id="673" x="576" y="64" name="mine-yard" type="marker" width="320" height="224" />
  <object id="674" x="992" y="288" name="lava-fields" type="marker" width="352" height="608" />
  <object id="675" x="32" y="304" type="safe-zone" width="864" height="384" />
  <object id="676" x="0" y="0" name="emberfall" type="soundscape" width="1376" height="960">
   <properties>
    <property name="channel1" value="audio/music/harbour.flac, 0.24" />
    <property name="channel2" value="audio/ambient/stone_hum.flac, 0.3" />
   </properties>
  </object>
  <object id="677" x="864" y="0" name="lava-river" type="soundscape" width="128" height="960">
   <properties>
    <property name="channel3" value="audio/ambient/campfire.flac, 0.29" />
    <property name="emit" value="2.0" type="float" />
   </properties>
  </object>
  <object id="678" x="336" y="384" name="forge" type="soundscape" width="112" height="96">
   <properties>
    <property name="channel4" value="audio/ambient/campfire.flac, 0.29" />
    <property name="emit" value="2.0" type="float" />
   </properties>
  </object>
  <object id="679" x="608" y="64" name="mine" type="soundscape" width="272" height="192">
   <properties>
    <property name="channel4" value="audio/ambient/timbers.flac, 0.3" />
    <property name="emit" value="3.0" type="float" />
   </properties>
  </object>
  <object id="680" x="992" y="288" name="lava-fields" type="soundscape" width="352" height="608">
   <properties>
    <property name="channel3" value="audio/ambient/campfire.flac, 0.32" />
    <property name="emit" value="3.0" type="float" />
   </properties>
  </object>
 </objectgroup>
</map>