<?xml version='1.0' encoding='UTF-8'?>
<map version="1.10" tiledversion="1.11.0" orientation="orthogonal" renderorder="right-down" width="25" height="15" tilewidth="16" tileheight="16" infinite="0" nextlayerid="9" nextobjectid="13">
 <tileset firstgid="1" source="../tilesets/emberfall-forge-terrain.tsx" />
 <tileset firstgid="41" source="../tilesets/emberfall-forge-decor.tsx" />
 <tileset firstgid="53" source="../tilesets/emberfall-forge-furniture.tsx" />
 <tileset firstgid="652" source="../tilesets/collision.tsx" />
 <tileset firstgid="654" source="../tilesets/emberfall-forge-props.tsx" />
 <layer id="1" name="Floor" width="25" height="15">
  <data encoding="csv">
1,1,1,1,1,1,1,1,1,1,1,1,1,1,1,1,1,1,1,1,1,1,1,1,1,
1,1,1,1,1,1,1,1,1,1,1,1,1,1,1,1,1,1,1,1,1,1,1,1,1,
1,1,1,1,1,1,1,1,1,1,1,1,1,1,1,1,1,1,1,1,1,1,1,1,1,
1,1,1,1,1,1,1,1,1,1,1,1,1,1,1,1,1,1,1,1,1,1,1,1,1,
1,1,1,1,1,1,1,1,1,1,1,1,1,1,1,1,1,1,1,1,1,1,1,1,1,
1,1,1,1,1,1,1,1,1,1,1,1,1,1,1,1,1,1,1,1,1,1,1,1,1,
1,1,1,1,1,1,1,1,1,1,1,1,1,1,1,1,1,1,1,1,1,1,1,1,1,
1,1,1,1,1,1,1,1,1,1,1,1,1,1,1,1,1,1,1,1,1,1,1,1,1,
1,1,1,1,1,1,1,1,1,1,1,1,1,1,1,1,1,1,1,1,1,1,1,1,1,
1,1,1,1,1,1,1,1,1,1,1,1,1,1,1,1,1,1,1,1,1,1,1,1,1,
1,1,1,1,1,1,1,1,1,1,1,1,1,1,1,1,1,1,1,1,1,1,1,1,1,
1,1,1,1,1,1,1,1,1,1,1,1,1,1,1,1,1,1,1,1,1,1,1,1,1,
1,1,1,1,1,1,1,1,1,1,1,1,1,1,1,1,1,1,1,1,1,1,1,1,1,
1,1,1,1,1,1,1,1,1,1,1,1,1,1,1,1,1,1,1,1,1,1,1,1,1,
1,1,1,1,1,1,1,1,1,1,1,1,1,1,1,1,1,1,1,1,1,1,1,1,1
</data>
 </layer>
 <layer id="2" name="Walls" width="25" height="15">
  <data encoding="csv">
7,7,7,7,7,7,7,7,7,7,7,7,7,7,7,7,7,7,7,7,7,7,7,7,7,
12,13,13,13,13,13,13,13,13,13,13,13,13,19,12,13,13,13,13,13,13,13,13,13,19,
15,16,16,16,16,16,16,16,16,16,16,16,16,22,15,16,16,16,16,16,16,16,16,16,22,
9,0,0,0,0,0,0,0,0,0,0,0,0,6,9,0,0,0,0,0,0,0,0,0,6,
9,0,0,0,0,0,0,0,0,0,0,0,0,6,9,0,0,0,0,0,0,0,0,0,6,
9,0,0,0,0,0,0,0,0,0,0,0,0,18,14,0,0,0,0,0,0,0,0,0,6,
9,0,0,0,0,0,0,0,0,0,0,0,0,21,17,0,0,0,0,0,0,0,0,0,6,
9,0,0,0,0,0,0,0,0,0,0,0,0,0,0,0,0,0,0,0,0,0,0,0,6,
9,0,0,0,0,0,0,0,0,0,0,0,0,0,0,0,0,0,0,0,0,0,0,0,6,
9,0,0,0,0,0,0,0,0,0,0,0,0,2,4,0,0,0,0,0,0,0,0,0,6,
9,0,0,0,0,0,0,0,0,0,0,0,0,5,9,0,0,0,0,0,0,0,0,0,6,
9,0,0,0,0,0,0,0,0,0,0,0,0,6,9,0,0,0,0,0,0,0,0,0,6,
9,0,0,0,0,0,0,0,0,0,0,0,0,6,9,0,0,0,0,0,0,0,0,0,6,
10,3,3,3,3,4,0,0,2,3,3,3,3,11,10,3,4,0,0,2,3,3,3,3,11,
7,7,7,7,7,9,0,0,5,7,7,7,7,7,7,7,9,0,0,5,7,7,7,7,7
</data>
 </layer>
 <layer id="3" name="Rug" width="25" height="15">
  <data encoding="csv">
0,0,0,0,0,0,0,0,0,0,0,0,0,0,0,0,0,0,0,0,0,0,0,0,0,
0,0,0,0,0,0,0,0,0,0,0,0,0,0,0,0,0,0,0,0,0,0,0,0,0,
0,0,0,0,0,0,0,0,0,0,0,0,0,0,0,0,0,0,0,0,0,0,0,0,0,
0,0,0,0,0,0,0,0,0,0,0,0,0,0,0,0,0,0,0,0,0,0,0,0,0,
0,0,0,0,0,0,0,0,0,0,0,0,0,0,0,32,34,34,34,34,34,34,35,0,0,
0,0,0,0,0,0,0,0,0,0,0,0,0,0,0,36,37,37,37,37,37,37,27,0,0,
0,0,0,0,0,0,0,0,0,0,0,0,0,0,0,36,37,37,37,37,37,37,27,0,0,
0,0,0,0,0,0,0,0,0,0,0,0,0,0,0,36,37,37,37,37,37,37,27,0,0,
0,0,0,0,0,0,0,0,0,0,0,0,0,0,0,36,37,37,37,37,37,37,27,0,0,
0,0,0,0,0,0,0,0,0,0,0,0,0,0,0,28,29,29,29,29,29,29,31,0,0,
0,0,0,0,0,0,0,0,0,0,0,0,0,0,0,0,0,0,0,0,0,0,0,0,0,
0,0,0,0,0,0,0,0,0,0,0,0,0,0,0,0,0,0,0,0,0,0,0,0,0,
0,0,0,0,0,0,0,0,0,0,0,0,0,0,0,0,0,0,0,0,0,0,0,0,0,
0,0,0,0,0,0,0,0,0,0,0,0,0,0,0,0,0,0,0,0,0,0,0,0,0,
0,0,0,0,0,0,0,0,0,0,0,0,0,0,0,0,0,0,0,0,0,0,0,0,0
</data>
 </layer>
 <layer id="4" name="Decor" width="25" height="15">
  <data encoding="csv">
0,0,0,0,0,0,0,0,0,0,0,0,0,0,0,0,0,0,0,0,0,0,0,0,0,
0,0,0,0,0,49,50,0,0,45,46,0,0,0,0,0,0,0,0,0,0,41,42,0,0,
0,0,0,0,0,51,52,0,0,47,48,0,0,0,0,0,0,0,0,0,0,43,44,0,0,
0,0,0,0,0,0,0,0,0,0,0,0,0,0,0,0,0,0,0,0,0,0,0,0,0,
0,0,0,0,0,0,0,0,0,0,0,0,0,0,0,0,0,0,0,0,0,0,0,0,0,
0,0,0,0,0,0,0,0,0,0,0,0,0,0,0,0,0,0,0,0,0,0,0,0,0,
0,0,0,0,0,0,0,0,0,0,0,0,0,0,0,0,0,0,0,0,0,0,0,0,0,
0,0,0,0,0,0,0,0,0,0,0,0,0,0,0,0,0,0,0,0,0,0,0,0,0,
0,0,0,0,0,0,0,0,0,0,0,0,0,0,0,0,0,0,0,0,0,0,0,0,0,
0,0,0,0,0,0,0,0,0,0,0,0,0,0,0,0,0,0,0,0,0,0,0,0,0,
0,0,0,0,0,0,0,0,0,0,0,0,0,0,0,0,0,0,0,0,0,0,0,0,0,
0,0,0,0,0,0,0,0,0,0,0,0,0,0,0,0,0,0,0,0,0,0,0,0,0,
0,0,0,0,0,0,0,0,0,0,0,0,0,0,0,0,0,0,0,0,0,0,0,0,0,
0,0,0,0,0,0,0,0,0,0,0,0,0,0,0,0,0,0,0,0,0,0,0,0,0,
0,0,0,0,0,0,0,0,0,0,0,0,0,0,0,0,0,0,0,0,0,0,0,0,0
</data>
 </layer>
 <layer id="5" name="Dynamic" width="25" height="15">
  <data encoding="csv">
0,0,0,0,0,0,0,0,0,0,0,0,0,0,0,0,0,0,0,0,0,0,0,0,0,
0,0,0,0,0,0,0,0,0,0,0,0,0,0,0,0,0,0,0,0,0,0,0,0,0,
0,0,0,0,0,0,0,0,0,0,0,0,0,0,0,0,0,0,0,0,0,0,0,0,0,
0,155,156,289,290,0,0,0,0,0,0,504,505,0,0,0,81,82,53,54,0,0,215,216,0,
0,157,158,291,292,0,0,0,0,0,0,506,507,0,0,0,83,84,55,56,382,383,217,218,0,
0,0,0,0,0,0,0,0,0,0,0,0,0,0,0,241,242,0,0,0,0,0,0,0,0,
0,0,0,0,0,0,0,0,0,0,0,0,0,0,0,243,244,0,57,58,0,65,66,0,0,
0,0,0,353,354,353,354,0,0,0,0,0,0,0,0,0,0,0,59,60,0,67,68,0,0,
0,0,0,476,477,476,477,0,0,143,144,0,0,0,0,0,0,0,0,0,0,0,0,0,0,
0,0,0,478,479,478,479,0,0,145,146,0,0,0,0,69,70,0,0,0,0,0,61,62,0,
0,0,0,353,354,353,354,0,0,0,0,0,0,0,0,71,72,0,0,0,0,0,63,64,0,
0,0,0,0,0,0,0,0,0,159,160,0,0,0,0,233,234,0,0,0,0,0,0,0,0,
0,0,0,0,0,0,0,0,0,161,162,0,0,0,0,235,236,0,0,0,0,0,0,0,0,
0,0,0,0,0,0,0,0,0,0,0,0,0,0,0,0,0,0,0,0,0,0,0,0,0,
0,0,0,0,0,0,0,0,0,0,0,0,0,0,0,0,0,0,0,0,0,0,0,0,0
</data>
 </layer>
 <layer id="6" name="Collision" width="25" height="15">
  <data encoding="csv">
653,653,653,653,653,653,653,653,653,653,653,653,653,653,653,653,653,653,653,653,653,653,653,653,653,
653,653,653,653,653,653,653,653,653,653,653,653,653,653,653,653,653,653,653,653,653,653,653,653,653,
653,653,653,653,653,653,653,653,653,653,653,653,653,653,653,653,653,653,653,653,653,653,653,653,653,
653,652,652,652,652,652,652,652,652,652,652,652,652,653,653,652,652,652,652,652,652,652,652,652,653,
653,653,653,653,653,652,652,652,652,652,652,653,653,653,653,652,653,653,653,653,653,653,653,653,653,
653,652,652,652,652,652,652,652,652,652,652,652,653,653,653,652,652,652,652,652,652,652,652,652,653,
653,652,652,652,652,652,652,652,652,652,652,652,652,653,653,653,653,652,652,652,652,652,652,652,653,
653,652,652,653,653,653,653,652,652,652,652,652,652,652,652,652,652,652,653,653,652,653,653,652,653,
653,652,652,652,652,652,652,652,652,652,652,652,652,652,652,652,652,652,652,652,652,652,652,652,653,
653,652,652,653,653,653,653,652,652,653,653,652,653,653,653,652,652,652,652,652,652,652,652,652,653,
653,652,652,653,653,653,653,652,652,652,652,652,652,653,653,653,653,652,652,652,652,652,653,653,653,
653,653,652,652,652,652,652,652,652,652,652,652,652,653,653,652,652,652,652,652,652,652,652,652,653,
653,653,653,652,652,652,652,652,652,653,653,652,652,653,653,653,653,652,652,652,653,653,652,652,653,
653,653,653,653,653,653,652,652,653,653,653,653,653,653,653,653,653,652,652,653,653,653,653,653,653,
653,653,653,653,653,653,652,652,653,653,653,653,653,653,653,653,653,652,652,653,653,653,653,653,653
</data>
 </layer>
 <objectgroup id="7" name="Scenery">
  <object id="1" gid="759" x="168" y="94" width="64" height="64" />
  <object id="2" gid="670" x="168" y="158" width="64" height="64" />
  <object id="3" gid="726" x="-8" y="190" width="64" height="64" />
  <object id="4" gid="777" x="312" y="206" width="64" height="64" />
  <object id="5" gid="775" x="296" y="206" width="64" height="64" />
  <object id="6" gid="725" x="-8" y="206" width="64" height="64" />
  <object id="7" gid="727" x="8" y="206" width="64" height="64" />
 </objectgroup>
 <objectgroup id="8" name="Objects">
  <object id="8" x="112" y="200" name="start" type="start">
   <point />
  </object>
  <object id="9" x="96" y="208" name="home-door" type="warp" width="32" height="32">
   <properties>
    <property name="goto" value="Emberfall,23,30.5" />
   </properties>
  </object>
  <object id="10" x="272" y="208" name="forge-door" type="warp" width="32" height="32">
   <properties>
    <property name="goto" value="Emberfall,26,30.5" />
   </properties>
  </object>
  <object id="11" x="302.4" y="137.6" name="smith-anvil" type="marker">
   <point />
  </object>
  <object id="12" x="240" y="48" name="forge" type="soundscape" width="144" height="64">
   <properties>
    <property name="channel3" value="audio/ambient/campfire.flac, 0.32" />
    <property name="emit" value="3.0" type="float" />
   </properties>
  </object>
 </objectgroup>
</map>