<?xml version="1.0" encoding="UTF-8"?>
<map version="1.10" tiledversion="1.11.0" orientation="orthogonal" renderorder="right-down" width="45" height="31" tilewidth="16" tileheight="16" infinite="0" nextlayerid="11" nextobjectid="48">
 <tileset firstgid="1" source="../tilesets/forest-tileset.tsx"/>
 <tileset firstgid="289" source="../tilesets/beach-tileset.tsx"/>
 <layer id="1" name="Background" width="45" height="31">
  <data encoding="csv">
223,271,199,1,6,271,175,175,151,121,27,26,126,175,151,151,151,151,151,38,35,41,108,35,83,35,41,83,59,60,41,91,271,223,110,41,41,35,59,83,35,43,151,151,55,
199,175,271,25,50,4,3,6,271,199,121,126,247,145,150,151,151,151,151,134,40,60,41,39,138,136,135,138,136,135,135,139,223,14,64,60,84,36,36,36,39,139,151,151,223,
199,271,223,97,101,152,157,54,271,247,223,271,175,241,194,150,151,151,151,151,134,135,135,139,175,175,199,175,247,199,199,151,199,134,138,138,137,40,60,39,139,151,151,151,151,
223,271,1,51,101,224,253,50,6,175,199,31,175,217,204,194,150,145,150,271,7,151,199,199,199,151,223,199,127,247,271,271,151,199,175,247,151,134,137,139,199,271,175,223,151,
271,1,51,101,152,202,253,101,50,6,175,175,271,193,172,221,194,195,246,223,199,151,151,151,151,175,247,247,151,223,199,31,199,223,271,271,271,271,199,199,79,175,223,271,271,
247,73,52,101,200,245,201,157,101,54,175,199,151,265,171,172,251,196,194,150,271,271,151,151,271,247,199,31,223,31,151,151,223,223,14,19,199,271,151,247,175,175,199,127,247,
5,51,101,152,202,251,177,277,29,78,31,151,151,175,193,228,251,220,221,194,150,79,151,151,151,151,14,19,223,223,223,199,175,175,134,139,199,223,223,151,151,151,55,151,1,
101,101,52,224,220,203,201,157,28,30,247,223,151,247,265,171,221,197,251,251,194,150,151,151,151,151,62,63,15,16,16,19,151,199,175,175,271,271,151,151,199,271,271,271,121,
101,152,156,202,251,197,197,253,101,78,31,271,151,151,151,265,171,204,203,227,245,194,150,151,151,151,134,137,40,84,60,63,19,151,247,151,199,223,145,149,146,150,151,151,151,
154,202,251,203,227,227,221,205,101,78,175,151,151,151,151,31,265,171,180,179,180,203,194,150,151,151,151,151,134,40,36,41,43,151,223,271,271,247,265,171,244,194,147,150,223,
197,227,197,180,196,228,177,277,101,78,2147483703,151,151,151,151,103,223,241,227,177,273,178,221,246,151,151,151,151,151,38,35,39,139,31,247,151,223,151,199,265,171,244,228,194,147,
203,173,172,251,172,204,181,28,101,50,6,199,151,151,151,79,31,241,221,201,157,200,179,174,151,79,151,151,151,134,138,139,79,151,151,151,151,151,151,151,265,266,267,267,171,
203,221,203,177,275,276,277,101,101,101,54,151,151,151,151,175,145,195,245,177,277,200,252,222,223,79,151,151,151,151,151,151,151,151,151,151,145,147,150,151,151,151,151,151,265,
252,204,177,277,29,101,28,101,101,77,50,6,151,151,151,151,241,173,204,253,152,202,170,270,247,151,151,151,151,151,151,151,151,145,147,149,195,220,198,151,151,151,151,151,151,
251,177,277,101,29,101,101,26,123,27,26,126,151,151,151,151,265,171,251,201,202,244,246,151,151,151,151,151,2147483727,151,151,151,145,195,173,172,173,228,174,151,151,151,151,151,151,
274,277,101,101,100,26,27,54,223,49,30,151,151,151,151,151,151,217,173,228,172,173,222,151,145,147,150,151,151,151,151,145,195,196,220,173,244,170,270,31,151,151,151,151,151,
101,26,27,101,101,78,121,126,151,121,126,151,151,127,55,175,151,217,245,172,227,170,270,151,217,245,194,147,149,149,148,195,203,251,228,197,170,270,151,151,151,151,151,151,151,
101,78,97,101,101,78,7,151,151,151,151,151,151,31,271,127,145,195,228,244,172,246,55,151,241,244,252,220,251,203,245,220,173,203,220,244,222,151,151,151,151,151,151,103,145,
124,126,49,101,101,54,151,199,127,127,2147483751,151,151,151,223,79,265,171,252,204,220,194,150,145,195,203,252,204,227,227,220,245,180,204,221,197,222,151,151,151,151,151,151,145,195,
103,151,121,125,123,126,14,19,199,151,175,151,151,151,127,127,151,241,170,171,221,197,194,195,220,251,172,227,227,180,203,251,221,244,251,179,194,146,146,147,150,151,145,195,179,
151,151,151,151,175,247,110,63,15,19,127,151,151,151,151,145,149,195,246,169,196,228,252,203,244,196,196,228,179,245,228,252,245,180,245,180,244,196,196,245,198,145,195,203,204,
151,151,151,151,247,247,86,41,41,63,19,151,151,151,151,265,268,267,270,265,171,172,204,179,228,196,245,203,180,177,275,273,178,173,252,252,197,228,221,203,194,195,252,252,227,
151,151,151,151,151,151,62,36,35,41,63,19,199,103,199,151,55,7,151,145,195,204,173,172,252,244,227,244,252,181,101,101,272,273,276,178,244,244,251,227,245,173,172,204,252,
151,151,151,151,151,151,134,40,35,41,35,63,19,199,223,151,145,148,147,195,245,180,244,203,177,273,178,220,220,205,28,101,101,28,101,200,228,220,220,203,173,220,227,203,227,
151,14,15,15,19,151,14,64,35,59,39,137,139,247,199,145,195,221,203,221,173,197,197,177,277,101,200,252,227,201,157,52,29,101,101,272,178,245,203,220,244,172,244,197,245,
151,134,40,36,63,17,64,41,35,83,43,31,145,149,146,195,227,197,179,244,228,244,177,277,101,101,224,203,173,220,201,156,157,101,101,28,248,172,196,179,203,203,196,177,273,
151,151,86,59,60,41,39,135,138,40,67,247,169,228,220,204,203,245,172,196,203,227,229,77,53,76,248,245,251,252,252,177,277,101,101,100,248,180,204,196,220,173,177,277,100,
151,151,134,138,135,137,139,151,271,134,139,247,265,267,269,266,269,171,172,221,203,177,277,100,101,101,272,273,178,203,172,253,101,101,77,100,224,177,178,172,204,173,181,101,101,
151,151,151,151,151,151,127,199,223,223,175,151,151,151,151,151,145,195,252,221,177,277,101,28,101,101,101,101,272,275,273,277,101,101,77,101,272,277,224,180,177,274,277,101,101,
151,175,103,199,199,7,14,17,15,19,175,151,151,151,145,147,195,203,251,177,277,53,101,101,101,100,29,29,101,101,28,101,28,101,101,101,101,101,272,275,277,101,101,101,101,
151,151,175,151,271,223,38,35,107,63,16,19,151,151,193,204,227,203,220,181,101,101,101,101,101,101,101,101,101,101,29,101,29,53,100,101,101,52,101,101,101,77,29,101,101
  </data>
 </layer>
 <layer id="2" name="Dynamic" width="45" height="31">
  <data encoding="csv">
0,93,94,0,0,0,0,0,0,0,0,0,0,0,0,0,0,0,0,0,0,0,0,0,0,0,0,0,0,0,0,0,0,0,0,0,0,0,0,0,0,0,0,0,0,
0,117,118,0,0,0,0,0,0,0,0,0,0,0,0,0,0,0,0,0,0,0,0,0,0,0,0,0,0,0,0,0,0,0,0,0,0,0,0,0,0,260,261,0,0,
22,0,0,0,0,0,0,0,0,0,0,0,0,0,0,0,0,0,0,0,0,0,0,0,0,0,0,0,0,0,0,0,0,0,0,0,0,0,0,0,0,284,285,260,261,
46,0,0,0,0,0,0,0,0,260,261,160,161,162,163,0,0,0,0,0,0,0,0,0,0,0,0,0,0,0,0,0,0,0,0,0,0,0,0,0,0,0,0,284,285,
0,0,0,0,0,0,0,0,0,284,285,184,185,186,187,0,0,0,0,0,0,0,0,0,0,0,0,0,0,0,0,0,0,0,0,0,0,0,0,0,0,0,0,0,0,
0,0,0,0,0,0,0,0,0,0,192,208,209,210,211,0,0,0,0,0,0,0,0,0,0,0,0,0,0,0,0,0,0,0,0,0,0,0,0,0,0,0,0,0,0,
0,0,0,0,0,0,0,0,0,0,0,0,233,234,235,288,0,0,0,0,0,0,0,216,0,0,0,0,0,0,0,0,0,0,0,0,0,0,0,0,0,0,0,0,0,
0,0,0,0,0,0,0,0,0,0,0,0,0,158,159,0,240,0,0,0,0,0,260,261,0,0,0,0,0,0,0,0,0,0,0,0,0,0,0,0,0,0,0,0,0,
0,0,0,0,0,0,0,0,0,0,0,0,0,182,183,0,0,264,0,0,0,0,284,285,0,0,0,0,0,0,0,0,0,0,0,0,0,0,0,0,0,0,0,0,0,
0,0,0,0,0,0,0,0,0,0,0,0,0,0,0,0,0,0,0,0,0,0,0,2147483811,2147483810,2147483809,2147483808,0,0,0,0,0,0,0,0,0,0,0,0,0,0,0,0,0,0,
0,0,0,0,0,0,0,0,0,0,0,0,0,0,0,0,0,0,0,0,0,0,0,2147483835,2147483834,2147483833,2147483832,0,0,0,0,0,0,0,0,0,0,0,0,0,2147483811,2147483810,2147483809,2147483808,0,
0,0,0,0,0,0,0,0,0,0,0,0,0,0,0,0,0,0,0,0,0,0,0,2147483859,209,210,2147483856,0,0,0,0,0,0,0,0,0,0,0,0,0,2147483835,2147483834,2147483833,2147483832,0,
0,0,0,0,0,0,0,0,0,0,0,0,0,0,0,0,0,0,0,0,0,0,0,2147483883,2147483882,2147483881,235,0,0,0,0,0,0,0,0,0,0,0,0,0,2147483859,209,210,2147483856,0,
0,0,0,0,0,0,0,0,0,0,0,0,230,231,232,206,0,0,0,0,0,0,0,0,0,0,0,0,0,0,0,0,0,0,0,0,0,288,0,0,2147483883,2147483882,2147483881,235,168,
0,0,0,0,0,0,0,0,0,0,0,0,0,0,254,255,206,0,0,0,0,0,0,0,0,0,0,0,0,0,0,0,0,0,119,120,0,0,0,0,0,0,0,0,0,
0,0,0,0,0,0,0,0,0,0,0,0,0,0,0,0,0,0,0,0,0,0,0,0,0,0,0,0,0,0,0,0,0,0,0,0,160,161,162,163,0,0,0,0,0,
0,0,0,0,0,0,0,0,0,0,0,0,0,0,0,0,141,0,0,0,0,0,0,0,0,0,0,0,0,0,0,0,0,0,0,0,184,185,186,187,0,0,0,0,0,
0,0,0,0,0,0,0,0,0,0,0,0,0,0,0,0,0,0,0,0,0,0,0,0,0,0,0,0,2147483912,240,0,0,0,0,0,0,208,209,210,211,0,0,0,0,0,
0,0,0,0,0,0,0,0,0,0,0,0,0,0,0,0,0,0,288,0,0,0,0,0,0,0,0,0,0,0,288,0,0,0,0,0,0,233,234,235,260,261,0,0,0,
0,0,0,0,0,0,0,0,0,0,0,0,0,0,0,0,0,0,0,0,0,0,0,0,0,0,0,0,0,0,0,0,0,0,0,0,0,0,0,0,284,285,0,0,0,
0,0,843,843,843,0,0,0,0,0,0,0,0,0,0,0,0,0,0,0,0,0,0,0,0,0,0,0,0,0,0,0,0,0,0,0,0,0,0,288,0,0,0,0,0,
0,0,843,0,843,0,0,0,0,0,0,0,0,0,0,0,0,0,0,0,0,0,0,0,0,0,0,0,0,0,2147483815,2147483814,2147483813,2147483812,0,0,0,0,0,0,0,0,0,0,0,
0,0,843,843,843,0,0,0,0,0,0,0,0,0,0,0,0,0,0,0,0,0,0,0,0,0,0,0,0,0,2147483839,2147483838,2147483837,2147483836,0,0,0,0,0,0,0,0,0,0,0,
0,0,0,0,0,0,0,0,0,0,0,0,0,0,0,0,0,0,0,0,0,0,0,0,0,0,0,0,0,0,2147483863,213,214,2147483860,0,0,0,0,0,0,0,0,0,0,0,
0,0,0,0,0,0,0,0,0,0,0,0,0,0,0,0,0,0,0,0,0,0,164,165,166,167,0,0,0,0,2147483887,2147483886,2147483885,2147483884,262,263,0,0,0,0,0,0,0,0,0,
0,0,0,0,0,0,0,0,0,0,0,0,0,0,0,0,2147483888,0,0,0,0,0,188,189,190,191,0,0,0,0,0,0,0,0,286,287,0,0,0,0,0,0,0,0,0,
0,0,0,0,0,0,0,0,0,0,0,0,0,0,0,0,0,0,0,0,0,0,212,213,214,215,0,0,0,0,0,0,0,164,165,166,167,0,0,0,0,0,0,0,0,
0,0,0,0,0,0,0,0,0,0,0,0,0,0,0,0,0,0,0,0,0,0,236,237,238,239,0,0,0,0,0,0,0,188,189,190,191,0,0,0,0,0,0,0,0,
0,0,0,0,0,0,0,0,0,0,0,0,0,0,0,0,0,0,0,0,0,0,0,0,0,0,0,164,165,166,167,0,0,212,213,214,215,0,0,0,0,0,0,0,0,
0,0,0,0,0,0,0,0,0,0,0,0,0,0,0,0,0,0,0,0,0,262,263,0,0,0,0,188,189,190,191,0,0,236,237,238,239,262,263,0,0,0,95,96,0,
0,0,0,0,0,0,0,0,0,0,0,0,0,0,0,264,0,0,0,0,0,286,287,0,0,0,0,212,213,214,215,0,0,0,0,0,0,286,287,0,0,0,0,0,0
  </data>
 </layer>
 <objectgroup id="3" name="Objects">
  <object id="10" gid="282" x="413.333" y="225.333" width="16" height="16"/>
  <object id="11" gid="282" x="421.667" y="218" width="16" height="16"/>
  <object id="12" gid="2147483930" x="423" y="235.333" width="16" height="16"/>
  <object id="13" gid="282" x="5" y="70" width="16" height="16"/>
  <object id="14" gid="282" x="-3.66667" y="80.3333" width="16" height="16"/>
  <object id="16" gid="283" x="538" y="418.333" width="16" height="16"/>
  <object id="17" gid="283" x="407.667" y="462" width="16" height="16"/>
  <object id="18" gid="283" x="417" y="473.667" width="16" height="16"/>
  <object id="19" gid="283" x="402.667" y="469" width="16" height="16"/>
  <object id="21" gid="2147483930" x="683.333" y="260.5" width="16" height="16"/>
  <object id="22" gid="282" x="692.167" y="269.167" width="16" height="16"/>
  <object id="23" gid="282" x="701.667" y="247.833" width="16" height="16"/>
  <object id="24" gid="282" x="688.5" y="242" width="16" height="16"/>
  <object id="25" gid="282" x="670.5" y="263.5" width="16" height="16"/>
  <object id="26" gid="282" x="680" y="284" width="16" height="16"/>
  <object id="27" gid="282" x="643.833" y="283.667" width="16" height="16"/>
  <object id="28" gid="282" x="63.4165" y="386" width="16" height="16"/>
  <object id="29" gid="282" x="9.0835" y="356.167" width="16" height="16"/>
  <object id="30" gid="282" x="11.9165" y="385" width="16" height="16"/>
  <object id="31" gid="282" x="54.2495" y="378.5" width="16" height="16"/>
  <object id="32" gid="2147483930" x="2.4165" y="364.5" width="16" height="16"/>
  <object id="33" gid="2147483930" x="41.5835" y="382.833" width="16" height="16"/>
  <object id="34" type="Sign" gid="257" x="670.667" y="87" width="16" height="16">
   <properties>
    <property name="text" value="East West"/>
   </properties>
  </object>
  <object id="37" name="Start" type="start" x="56.08" y="298.077">
   <point/>
  </object>
  <object id="39" name="Warp" type="warp" x="47.3917636363636" y="335.847727272727" width="16.2697" height="16.75">
   <properties>
    <property name="goto" value="Island,39,28"/>
   </properties>
  </object>
 </objectgroup>
</map>
