<?xml version='1.0' encoding='UTF-8'?>
<map version="1.10" tiledversion="1.11.0" orientation="orthogonal" renderorder="right-down" width="20" height="16" tilewidth="16" tileheight="16" infinite="0" nextlayerid="10" nextobjectid="20">
 <tileset firstgid="1" source="../tilesets/frostmere-longhouse-terrain.tsx" />
 <tileset firstgid="41" source="../tilesets/frostmere-longhouse-decor.tsx" />
 <tileset firstgid="65" source="../tilesets/frostmere-longhouse-furniture.tsx" />
 <tileset firstgid="523" source="../tilesets/collision.tsx" />
 <tileset firstgid="525" source="../tilesets/frostmere-longhouse-props.tsx" />
 <layer id="1" name="Floor" width="20" height="16">
  <data encoding="csv">
1,1,1,1,1,1,1,1,1,1,1,1,1,1,1,1,1,1,1,1,
1,1,1,1,1,1,1,1,1,1,1,1,1,1,1,1,1,1,1,1,
1,1,1,1,1,1,1,1,1,1,1,1,1,1,1,1,1,1,1,1,
1,1,1,1,1,1,1,1,1,1,1,1,1,1,1,1,1,1,1,1,
1,1,1,1,1,1,1,1,1,1,1,1,1,1,1,1,1,1,1,1,
1,1,1,1,1,1,1,1,1,1,1,1,1,1,1,1,1,1,1,1,
1,1,1,1,1,1,1,1,1,1,1,1,1,1,1,1,1,1,1,1,
1,1,1,1,1,1,1,1,1,1,1,1,1,1,1,1,1,1,1,1,
1,1,1,1,1,1,1,1,1,1,1,1,1,1,1,1,1,1,1,1,
1,1,1,1,1,1,1,1,1,1,1,1,1,1,1,1,1,1,1,1,
1,1,1,1,1,1,1,1,1,1,1,1,1,1,1,1,1,1,1,1,
1,1,1,1,1,1,1,1,1,1,1,1,1,1,1,1,1,1,1,1,
1,1,1,1,1,1,1,1,1,1,1,1,1,1,1,1,1,1,1,1,
1,1,1,1,1,1,1,1,1,1,1,1,1,1,1,1,1,1,1,1,
1,1,1,1,1,1,1,1,1,1,1,1,1,1,1,1,1,1,1,1,
1,1,1,1,1,1,1,1,1,1,1,1,1,1,1,1,1,1,1,1
</data>
 </layer>
 <layer id="2" name="Walls" width="20" height="16">
  <data encoding="csv">
7,7,7,7,7,7,7,7,7,7,7,7,7,7,7,7,7,7,7,7,
12,13,13,13,13,13,13,13,13,13,13,13,13,13,13,13,13,13,13,19,
15,16,16,16,16,16,16,16,16,16,16,16,16,16,16,16,16,16,16,22,
9,0,0,0,0,0,0,0,0,0,0,0,0,0,0,0,0,0,0,6,
9,0,0,0,0,0,0,0,0,0,0,0,0,0,0,0,0,0,0,6,
9,0,0,0,0,0,0,0,0,0,0,0,0,0,0,0,0,0,0,6,
9,0,0,0,0,0,0,0,0,0,0,0,0,0,0,0,0,0,0,6,
9,0,0,0,0,0,0,0,0,0,0,0,0,0,0,0,0,0,0,6,
9,0,0,0,0,0,0,0,0,0,0,0,0,0,0,0,0,0,0,6,
9,0,0,0,0,0,0,0,0,0,0,0,0,0,0,0,0,0,0,6,
9,0,0,0,0,0,0,0,0,0,0,0,0,0,0,0,0,0,0,6,
9,0,0,0,0,0,0,0,0,0,0,0,0,0,0,0,0,0,0,6,
9,0,0,0,0,0,0,0,0,0,0,0,0,0,0,0,0,0,0,6,
9,0,0,0,0,0,0,0,0,0,0,0,0,0,0,0,0,0,0,6,
10,3,3,3,3,3,3,3,4,0,0,2,3,3,3,3,3,3,3,11,
7,7,7,7,7,7,7,7,9,0,0,5,7,7,7,7,7,7,7,7
</data>
 </layer>
 <layer id="3" name="Rug" width="20" height="16">
  <data encoding="csv">
0,0,0,0,0,0,0,0,0,0,0,0,0,0,0,0,0,0,0,0,
0,0,0,0,0,0,0,0,0,0,0,0,0,0,0,0,0,0,0,0,
0,0,0,0,0,0,0,0,0,0,0,0,0,0,0,0,0,0,0,0,
0,0,0,0,0,0,0,0,0,0,0,0,0,0,0,0,0,0,0,0,
0,0,0,0,0,0,0,0,32,34,34,35,0,0,0,0,0,0,0,0,
0,0,0,0,0,0,0,0,36,37,37,27,0,0,0,0,0,0,0,0,
0,0,0,0,0,0,0,0,36,37,37,27,0,0,0,0,0,0,0,0,
0,0,0,0,0,0,0,0,36,37,37,27,0,0,0,0,0,0,0,0,
0,0,0,0,0,0,0,0,36,37,37,27,0,0,0,0,0,0,0,0,
0,0,0,0,0,0,0,0,36,37,37,27,0,0,0,0,0,0,0,0,
0,0,0,0,0,0,0,0,36,37,37,27,0,0,0,0,0,0,0,0,
0,0,0,0,0,0,0,0,36,37,37,27,0,0,0,0,0,0,0,0,
0,0,0,0,0,0,0,0,36,37,37,27,0,0,0,0,0,0,0,0,
0,0,0,0,0,0,0,0,28,29,29,31,0,0,0,0,0,0,0,0,
0,0,0,0,0,0,0,0,0,0,0,0,0,0,0,0,0,0,0,0,
0,0,0,0,0,0,0,0,0,0,0,0,0,0,0,0,0,0,0,0
</data>
 </layer>
 <layer id="4" name="Decor" width="20" height="16">
  <data encoding="csv">
0,0,0,0,0,0,0,0,0,0,0,0,0,0,0,0,0,0,0,0,
0,0,0,49,50,54,41,42,0,0,0,0,41,42,0,57,58,50,0,0,
0,0,0,51,52,56,43,44,0,0,0,0,43,44,0,59,60,52,0,0,
0,0,0,0,0,0,0,0,0,0,0,0,0,0,0,0,0,0,0,0,
0,0,0,0,0,0,0,0,0,45,46,0,0,0,0,0,0,0,0,0,
0,0,0,0,0,0,0,0,0,47,48,0,0,0,0,0,0,0,0,0,
0,0,0,0,0,0,0,0,0,0,0,0,0,0,0,0,0,0,0,0,
0,0,0,0,0,0,0,0,0,0,0,0,0,0,0,0,0,0,0,0,
0,0,0,0,0,0,0,0,0,0,0,0,0,0,0,0,0,0,0,0,
0,0,0,0,0,0,0,0,0,0,0,0,0,0,0,0,0,0,0,0,
0,61,62,0,0,0,0,0,0,0,0,0,0,0,0,0,61,62,0,0,
0,63,64,0,0,0,0,0,0,0,0,0,0,0,0,0,63,64,0,0,
0,0,0,0,0,0,0,0,0,0,0,0,0,0,0,0,0,0,0,0,
0,0,0,0,0,0,0,0,0,0,0,0,0,0,0,0,0,0,0,0,
0,0,0,0,0,0,0,0,0,0,0,0,0,0,0,0,0,0,0,0,
0,0,0,0,0,0,0,0,0,0,0,0,0,0,0,0,0,0,0,0
</data>
 </layer>
 <layer id="5" name="Decor 2" width="20" height="16">
  <data encoding="csv">
0,0,0,0,0,0,0,0,0,0,0,0,0,0,0,0,0,0,0,0,
0,0,0,0,53,0,0,0,0,0,0,0,0,0,0,0,49,0,0,0,
0,0,0,0,55,0,0,0,0,0,0,0,0,0,0,0,51,0,0,0,
0,0,0,0,0,0,0,0,0,0,0,0,0,0,0,0,0,0,0,0,
0,0,0,0,0,0,0,0,0,0,0,0,0,0,0,0,0,0,0,0,
0,0,0,0,0,0,0,0,0,0,0,0,0,0,0,0,0,0,0,0,
0,0,0,0,0,0,0,0,0,0,0,0,0,0,0,0,0,0,0,0,
0,0,0,0,0,0,0,0,0,0,0,0,0,0,0,0,0,0,0,0,
0,0,0,0,0,0,0,0,0,0,0,0,0,0,0,0,0,0,0,0,
0,0,0,0,0,0,0,0,0,0,0,0,0,0,0,0,0,0,0,0,
0,0,0,0,0,0,0,0,0,0,0,0,0,0,0,0,0,0,0,0,
0,0,0,0,0,0,0,0,0,0,0,0,0,0,0,0,0,0,0,0,
0,0,0,0,0,0,0,0,0,0,0,0,0,0,0,0,0,0,0,0,
0,0,0,0,0,0,0,0,0,0,0,0,0,0,0,0,0,0,0,0,
0,0,0,0,0,0,0,0,0,0,0,0,0,0,0,0,0,0,0,0,
0,0,0,0,0,0,0,0,0,0,0,0,0,0,0,0,0,0,0,0
</data>
 </layer>
 <layer id="6" name="Dynamic" width="20" height="16">
  <data encoding="csv">
0,0,0,0,0,0,0,0,0,0,0,0,0,0,0,0,0,0,0,0,
0,0,0,0,0,0,0,0,0,0,0,0,0,0,0,0,0,0,0,0,
0,93,94,0,0,0,0,0,0,81,82,0,0,0,0,0,0,85,86,0,
0,95,96,0,0,0,0,0,0,83,84,0,0,0,0,0,0,87,88,0,
0,0,0,0,0,0,0,0,0,0,0,0,0,0,0,0,0,0,0,0,
0,137,138,65,66,69,70,0,0,0,0,0,0,65,66,69,70,153,154,0,
0,139,140,67,68,71,72,0,0,0,0,0,0,67,68,71,72,155,156,0,
0,0,0,0,0,0,0,0,0,0,0,0,0,0,0,0,0,0,0,0,
0,0,0,0,0,0,0,0,0,0,0,0,0,0,0,0,0,0,0,0,
0,0,0,0,0,0,0,0,0,0,0,0,0,0,0,0,0,0,0,0,
0,0,0,77,78,0,0,0,0,0,0,0,0,0,77,78,0,0,0,0,
0,0,0,79,80,0,0,0,0,0,0,0,0,0,79,80,0,0,0,0,
0,89,90,117,118,0,0,0,0,0,0,0,0,0,181,182,105,106,0,0,
0,91,92,119,120,0,0,0,0,0,0,0,0,0,183,184,107,108,0,0,
0,0,0,0,0,0,0,0,0,0,0,0,0,0,0,0,0,0,0,0,
0,0,0,0,0,0,0,0,0,0,0,0,0,0,0,0,0,0,0,0
</data>
 </layer>
 <layer id="7" name="Collision" width="20" height="16">
  <data encoding="csv">
524,524,524,524,524,524,524,524,524,524,524,524,524,524,524,524,524,524,524,524,
524,524,524,524,524,524,524,524,524,524,524,524,524,524,524,524,524,524,524,524,
524,524,524,524,524,524,524,524,524,524,524,524,524,524,524,524,524,524,524,524,
524,524,524,523,523,523,523,523,524,524,524,524,523,523,523,523,523,524,524,524,
524,523,523,523,523,523,523,523,523,523,523,523,524,523,523,523,523,523,523,524,
524,523,523,523,523,523,523,524,523,523,523,523,524,523,523,523,523,523,523,524,
524,524,524,524,524,524,524,523,523,523,523,523,523,524,524,524,524,524,524,524,
524,523,524,523,524,523,524,523,523,523,523,523,523,523,524,523,524,523,524,524,
524,523,523,523,523,523,523,523,523,523,523,523,523,523,523,523,523,523,523,524,
524,523,523,523,523,523,523,523,523,523,523,523,523,523,523,523,523,523,523,524,
524,523,523,523,523,523,523,524,523,523,523,523,524,523,523,523,523,523,523,524,
524,523,523,524,524,523,523,523,523,523,523,523,523,523,524,524,523,523,523,524,
524,523,523,523,523,523,523,523,523,523,523,523,523,523,523,523,523,523,523,524,
524,524,524,524,524,524,523,523,523,523,523,523,523,523,524,524,524,524,524,524,
524,524,524,524,524,524,524,524,524,523,523,524,524,524,524,524,524,524,524,524,
524,524,524,524,524,524,524,524,524,523,523,524,524,524,524,524,524,524,524,524
</data>
 </layer>
 <objectgroup id="8" name="Scenery">
  <object id="1" gid="593" x="104" y="62" width="64" height="64" />
  <object id="2" gid="593" x="152" y="62" width="64" height="64" />
  <object id="3" gid="592" x="168" y="78" width="64" height="64" />
  <object id="4" gid="566" x="88" y="94" width="64" height="64" />
  <object id="5" gid="566" x="168" y="94" width="64" height="64" />
  <object id="6" gid="553" x="0" y="126.4" width="64" height="64" />
  <object id="7" gid="553" x="32" y="126.4" width="64" height="64" />
  <object id="8" gid="553" x="64" y="126.4" width="64" height="64" />
  <object id="9" gid="553" x="192" y="126.4" width="64" height="64" />
  <object id="10" gid="553" x="224" y="126.4" width="64" height="64" />
  <object id="11" gid="553" x="256" y="126.4" width="64" height="64" />
  <object id="12" gid="566" x="88" y="174" width="64" height="64" />
  <object id="13" gid="566" x="168" y="174" width="64" height="64" />
  <object id="14" gid="595" x="56" y="222" width="64" height="64" />
  <object id="15" gid="596" x="264" y="222" width="64" height="64" />
 </objectgroup>
 <objectgroup id="9" name="Objects">
  <object id="16" x="160" y="216" name="start" type="start">
   <point />
  </object>
  <object id="17" x="144" y="224" name="front-door" type="warp" width="32" height="32">
   <properties>
    <property name="goto" value="Frostmere,19.5,16.5" />
   </properties>
  </object>
  <object id="18" x="152" y="72" name="jarl-throne" type="marker">
   <point />
  </object>
  <object id="19" x="16" y="48" name="hall-fires" type="soundscape" width="288" height="176">
   <properties>
    <property name="channel3" value="audio/ambient/campfire.flac, 0.27" />
    <property name="emit" value="4.0" type="float" />
   </properties>
  </object>
 </objectgroup>
</map>