<?xml version='1.0' encoding='UTF-8'?>
<map version="1.10" tiledversion="1.11.0" orientation="orthogonal" renderorder="right-down" width="64" height="52" tilewidth="16" tileheight="16" infinite="0" nextlayerid="9" nextobjectid="427">
 <tileset firstgid="1" source="../tilesets/frostmere-ground.tsx" />
 <tileset firstgid="1601" source="../tilesets/frostmere-terrain.tsx" />
 <tileset firstgid="1640" source="../tilesets/frostmere-overlay.tsx" />
 <tileset firstgid="2018" source="../tilesets/frostmere-water.tsx" />
 <tileset firstgid="3618" source="../tilesets/frostmere-path.tsx" />
 <tileset firstgid="5218" source="../tilesets/buildings.tsx" />
 <tileset firstgid="6961" source="../tilesets/frostmere-decor.tsx" />
 <tileset firstgid="7028" source="../tilesets/collision.tsx" />
 <tileset firstgid="7030" source="../tilesets/embellishments.tsx" />
 <tileset firstgid="7078" source="../tilesets/frostmere-props.tsx" />
 <layer id="1" name="Ground" width="64" height="52">
  <data encoding="csv">
1,2,3,4,5,6,7,8,9,10,11,12,13,14,15,16,17,18,19,20,21,22,23,24,25,26,27,28,29,30,31,32,33,34,35,36,37,38,39,40,1,2,3,4,5,6,7,8,9,10,11,12,13,14,15,16,17,18,19,20,21,22,23,24,
41,42,43,44,45,46,47,48,49,50,51,52,53,54,55,56,57,58,59,60,61,62,63,64,65,66,67,68,69,70,71,72,73,74,75,76,77,78,79,80,41,42,43,44,45,46,47,48,49,50,51,52,53,54,55,56,57,58,59,60,61,62,63,64,
81,82,83,84,85,86,87,88,89,90,91,92,93,94,95,96,97,98,99,100,101,102,103,104,105,106,107,108,109,110,111,112,113,114,115,116,117,118,119,120,81,82,83,84,85,86,87,88,89,90,91,92,93,94,95,96,97,98,99,100,101,102,103,104,
121,122,123,124,125,126,127,128,129,130,131,132,133,134,135,136,137,138,139,140,141,142,143,144,145,146,147,148,149,150,151,152,153,154,155,156,157,158,159,160,121,122,123,124,125,126,127,128,129,130,131,132,133,134,135,136,137,138,139,140,141,142,143,144,
161,162,163,164,165,166,167,168,169,170,171,172,173,174,175,176,177,178,179,180,181,182,183,184,185,186,187,188,189,190,191,192,193,194,195,196,197,198,199,200,161,162,163,164,165,166,167,168,169,170,171,172,173,174,175,176,177,178,179,180,181,182,183,184,
201,202,203,204,205,206,207,208,209,210,211,212,213,214,215,216,217,218,219,220,221,222,223,224,225,226,227,228,229,230,231,232,233,234,235,236,237,238,239,240,201,202,203,204,205,206,207,208,209,210,211,212,213,214,215,216,217,218,219,220,221,222,223,224,
241,242,243,244,245,246,247,248,249,250,251,252,253,254,255,256,257,258,259,260,261,262,263,264,265,266,267,268,269,270,271,272,273,274,275,276,277,278,279,280,241,242,243,244,245,246,247,248,249,250,251,252,253,254,255,256,257,258,259,260,261,262,263,264,
281,282,283,284,285,286,287,288,289,290,291,292,293,294,295,296,297,298,299,300,301,302,303,304,305,306,307,308,309,310,311,312,313,314,315,316,317,318,319,320,281,282,283,284,285,286,287,288,289,290,291,292,293,294,295,296,297,298,299,300,301,302,303,304,
321,322,323,324,325,326,327,328,329,330,331,332,333,334,335,336,337,338,339,340,341,342,343,344,345,346,347,348,349,350,351,352,353,354,355,356,357,358,359,360,321,322,323,324,325,326,327,328,329,330,331,332,333,334,335,336,337,338,339,340,341,342,343,344,
361,362,363,364,365,366,367,368,369,370,371,372,373,374,375,376,377,378,379,380,381,382,383,384,385,386,387,388,389,390,391,392,393,394,395,396,397,398,399,400,361,362,363,364,365,366,367,368,369,370,371,372,373,374,375,376,377,378,379,380,381,382,383,384,
401,402,403,404,405,406,407,408,409,410,411,412,413,414,415,416,417,418,419,420,421,422,423,424,425,426,427,428,429,430,431,432,433,434,435,436,437,438,439,440,401,402,403,404,405,406,407,408,409,410,411,412,413,414,415,416,417,418,419,420,421,422,423,424,
441,442,443,444,445,446,447,448,449,450,451,452,453,454,455,456,457,458,459,460,461,462,463,464,465,466,467,468,469,470,471,472,473,474,475,476,477,478,479,480,441,442,443,444,445,446,447,448,449,450,451,452,453,454,455,456,457,458,459,460,461,462,463,464,
481,482,483,484,485,486,487,488,489,490,491,492,493,494,495,496,497,498,499,500,501,502,503,504,505,506,507,508,509,510,511,512,513,514,515,516,517,518,519,520,481,482,483,484,485,486,487,488,489,490,491,492,493,494,495,496,497,498,499,500,501,502,503,504,
521,522,523,524,525,526,527,528,529,530,531,532,533,534,535,536,537,538,539,540,541,542,543,544,545,546,547,548,549,550,551,552,553,554,555,556,557,558,559,560,521,522,523,524,525,526,527,528,529,530,531,532,533,534,535,536,537,538,539,540,541,542,543,544,
561,562,563,564,565,566,567,568,569,570,571,572,573,574,575,576,577,578,579,580,581,582,583,584,585,586,587,588,589,590,591,592,593,594,595,596,597,598,599,600,561,562,563,564,565,566,567,568,569,570,571,572,573,574,575,576,577,578,579,580,581,582,583,584,
601,602,603,604,605,606,607,608,609,610,611,612,613,614,615,616,617,618,619,620,621,622,623,624,625,626,627,628,629,630,631,632,633,634,635,636,637,638,639,640,601,602,603,604,605,606,607,608,609,610,611,612,613,614,615,616,617,618,619,620,621,622,623,624,
641,642,643,644,645,646,647,648,649,650,651,652,653,654,655,656,657,658,659,660,661,662,663,664,665,666,667,668,669,670,671,672,673,674,675,676,677,678,679,680,641,642,643,644,645,646,647,648,649,650,651,652,653,654,655,656,657,658,659,660,661,662,663,664,
681,682,683,684,685,686,687,688,689,690,691,692,693,694,695,696,697,698,699,700,701,702,703,704,705,706,707,708,709,710,711,712,713,714,715,716,717,718,719,720,681,682,683,684,685,686,687,688,689,690,691,692,693,694,695,696,697,698,699,700,701,702,703,704,
721,722,723,724,725,726,727,728,729,730,731,732,733,734,735,736,737,738,739,740,741,742,743,744,745,746,747,748,749,750,751,752,753,754,755,756,757,758,759,760,721,722,723,724,725,726,727,728,729,730,731,732,733,734,735,736,737,738,739,740,741,742,743,744,
761,762,763,764,765,766,767,768,769,770,771,772,773,774,775,776,777,778,779,780,781,782,783,784,785,786,787,788,789,790,791,792,793,794,795,796,797,798,799,800,761,762,763,764,765,766,767,768,769,770,771,772,773,774,775,776,777,778,779,780,781,782,783,784,
801,802,803,804,805,806,807,808,809,810,811,812,813,814,815,816,817,818,819,820,821,822,823,824,825,826,827,828,829,830,831,832,833,834,835,836,837,838,839,840,801,802,803,804,805,806,807,808,809,810,811,812,813,814,815,816,817,818,819,820,821,822,823,824,
841,842,843,844,845,846,847,848,849,850,851,852,853,854,855,856,857,858,859,860,861,862,863,864,865,866,867,868,869,870,871,872,873,874,875,876,877,878,879,880,841,842,843,844,845,846,847,848,849,850,851,852,853,854,855,856,857,858,859,860,861,862,863,864,
881,882,883,884,885,886,887,888,889,890,891,892,893,894,895,896,897,898,899,900,901,902,903,904,905,906,907,908,909,910,911,912,913,914,915,916,917,918,919,920,881,882,883,884,885,886,887,888,889,890,891,892,893,894,895,896,897,898,899,900,901,902,903,904,
921,922,923,924,925,926,927,928,929,930,931,932,933,934,935,936,937,938,939,940,941,942,943,944,945,946,947,948,949,950,951,952,953,954,955,956,957,958,959,960,921,922,923,924,925,926,927,928,929,930,931,932,933,934,935,936,937,938,939,940,941,942,943,944,
961,962,963,964,965,966,967,968,969,970,971,972,973,974,975,976,977,978,979,980,981,982,983,984,985,986,987,988,989,990,991,992,993,994,995,996,997,998,999,1000,961,962,963,964,965,966,967,968,969,970,971,972,973,974,975,976,977,978,979,980,981,982,983,984,
1001,1002,1003,1004,1005,1006,1007,1008,1009,1010,1011,1012,1013,1014,1015,1016,1017,1018,1019,1020,1021,1022,1023,1024,1025,1026,1027,1028,1029,1030,1031,1032,1033,1034,1035,1036,1037,1038,1039,1040,1001,1002,1003,1004,1005,1006,1007,1008,1009,1010,1011,1012,1013,1014,1015,1016,1017,1018,1019,1020,1021,1022,1023,1024,
1041,1042,1043,1044,1045,1046,1047,1048,1049,1050,1051,1052,1053,1054,1055,1056,1057,1058,1059,1060,1061,1062,1063,1064,1065,1066,1067,1068,1069,1070,1071,1072,1073,1074,1075,1076,1077,1078,1079,1080,1041,1042,1043,1044,1045,1046,1047,1048,1049,1050,1051,1052,1053,1054,1055,1056,1057,1058,1059,1060,1061,1062,1063,1064,
1081,1082,1083,1084,1085,1086,1087,1088,1089,1090,1091,1092,1093,1094,1095,1096,1097,1098,1099,1100,1101,1102,1103,1104,1105,1106,1107,1108,1109,1110,1111,1112,1113,1114,1115,1116,1117,1118,1119,1120,1081,1082,1083,1084,1085,1086,1087,1088,1089,1090,1091,1092,1093,1094,1095,1096,1097,1098,1099,1100,1101,1102,1103,1104,
1121,1122,1123,1124,1125,1126,1127,1128,1129,1130,1131,1132,1133,1134,1135,1136,1137,1138,1139,1140,1141,1142,1143,1144,1145,1146,1147,1148,1149,1150,1151,1152,1153,1154,1155,1156,1157,1158,1159,1160,1121,1122,1123,1124,1125,1126,1127,1128,1129,1130,1131,1132,1133,1134,1135,1136,1137,1138,1139,1140,1141,1142,1143,1144,
1161,1162,1163,1164,1165,1166,1167,1168,1169,1170,1171,1172,1173,1174,1175,1176,1177,1178,1179,1180,1181,1182,1183,1184,1185,1186,1187,1188,1189,1190,1191,1192,1193,1194,1195,1196,1197,1198,1199,1200,1161,1162,1163,1164,1165,1166,1167,1168,1169,1170,1171,1172,1173,1174,1175,1176,1177,1178,1179,1180,1181,1182,1183,1184,
1201,1202,1203,1204,1205,1206,1207,1208,1209,1210,1211,1212,1213,1214,1215,1216,1217,1218,1219,1220,1221,1222,1223,1224,1225,1226,1227,1228,1229,1230,1231,1232,1233,1234,1235,1236,1237,1238,1239,1240,1201,1202,1203,1204,1205,1206,1207,1208,1209,1210,1211,1212,1213,1214,1215,1216,1217,1218,1219,1220,1221,1222,1223,1224,
1241,1242,1243,1244,1245,1246,1247,1248,1249,1250,1251,1252,1253,1254,1255,1256,1257,1258,1259,1260,1261,1262,1263,1264,1265,1266,1267,1268,1269,1270,1271,1272,1273,1274,1275,1276,1277,1278,1279,1280,1241,1242,1243,1244,1245,1246,1247,1248,1249,1250,1251,1252,1253,1254,1255,1256,1257,1258,1259,1260,1261,1262,1263,1264,
1281,1282,1283,1284,1285,1286,1287,1288,1289,1290,1291,1292,1293,1294,1295,1296,1297,1298,1299,1300,1301,1302,1303,1304,1305,1306,1307,1308,1309,1310,1311,1312,1313,1314,1315,1316,1317,1318,1319,1320,1281,1282,1283,1284,1285,1286,1287,1288,1289,1290,1291,1292,1293,1294,1295,1296,1297,1298,1299,1300,1301,1302,1303,1304,
1321,1322,1323,1324,1325,1326,1327,1328,1329,1330,1331,1332,1333,1334,1335,1336,1337,1338,1339,1340,1341,1342,1343,1344,1345,1346,1347,1348,1349,1350,1351,1352,1353,1354,1355,1356,1357,1358,1359,1360,1321,1322,1323,1324,1325,1326,1327,1328,1329,1330,1331,1332,1333,1334,1335,1336,1337,1338,1339,1340,1341,1342,1343,1344,
1361,1362,1363,1364,1365,1366,1367,1368,1369,1370,1371,1372,1373,1374,1375,1376,1377,1378,1379,1380,1381,1382,1383,1384,1385,1386,1387,1388,1389,1390,1391,1392,1393,1394,1395,1396,1397,1398,1399,1400,1361,1362,1363,1364,1365,1366,1367,1368,1369,1370,1371,1372,1373,1374,1375,1376,1377,1378,1379,1380,1381,1382,1383,1384,
1401,1402,1403,1404,1405,1406,1407,1408,1409,1410,1411,1412,1413,1414,1415,1416,1417,1418,1419,1420,1421,1422,1423,1424,1425,1426,1427,1428,1429,1430,1431,1432,1433,1434,1435,1436,1437,1438,1439,1440,1401,1402,1403,1404,1405,1406,1407,1408,1409,1410,1411,1412,1413,1414,1415,1416,1417,1418,1419,1420,1421,1422,1423,1424,
1441,1442,1443,1444,1445,1446,1447,1448,1449,1450,1451,1452,1453,1454,1455,1456,1457,1458,1459,1460,1461,1462,1463,1464,1465,1466,1467,1468,1469,1470,1471,1472,1473,1474,1475,1476,1477,1478,1479,1480,1441,1442,1443,1444,1445,1446,1447,1448,1449,1450,1451,1452,1453,1454,1455,1456,1457,1458,1459,1460,1461,1462,1463,1464,
1481,1482,1483,1484,1485,1486,1487,1488,1489,1490,1491,1492,1493,1494,1495,1496,1497,1498,1499,1500,1501,1502,1503,1504,1505,1506,1507,1508,1509,1510,1511,1512,1513,1514,1515,1516,1517,1518,1519,1520,1481,1482,1483,1484,1485,1486,1487,1488,1489,1490,1491,1492,1493,1494,1495,1496,1497,1498,1499,1500,1501,1502,1503,1504,
1521,1522,1523,1524,1525,1526,1527,1528,1529,1530,1531,1532,1533,1534,1535,1536,1537,1538,1539,1540,1541,1542,1543,1544,1545,1546,1547,1548,1549,1550,1551,1552,1553,1554,1555,1556,1557,1558,1559,1560,1521,1522,1523,1524,1525,1526,1527,1528,1529,1530,1531,1532,1533,1534,1535,1536,1537,1538,1539,1540,1541,1542,1543,1544,
1561,1562,1563,1564,1565,1566,1567,1568,1569,1570,1571,1572,1573,1574,1575,1576,1577,1578,1579,1580,1581,1582,1583,1584,1585,1586,1587,1588,1589,1590,1591,1592,1593,1594,1595,1596,1597,1598,1599,1600,1561,1562,1563,1564,1565,1566,1567,1568,1569,1570,1571,1572,1573,1574,1575,1576,1577,1578,1579,1580,1581,1582,1583,1584,
1,2,3,4,5,6,7,8,9,10,11,12,13,14,15,16,17,18,19,20,21,22,23,24,25,26,27,28,29,30,31,32,33,34,35,36,37,38,39,40,1,2,3,4,5,6,7,8,9,10,11,12,13,14,15,16,17,18,19,20,21,22,23,24,
41,42,43,44,45,46,47,48,49,50,51,52,53,54,55,56,57,58,59,60,61,62,63,64,65,66,67,68,69,70,71,72,73,74,75,76,77,78,79,80,41,42,43,44,45,46,47,48,49,50,51,52,53,54,55,56,57,58,59,60,61,62,63,64,
81,82,83,84,85,86,87,88,89,90,91,92,93,94,95,96,97,98,99,100,101,102,103,104,105,106,107,108,109,110,111,112,113,114,115,116,117,118,119,120,81,82,83,84,85,86,87,88,89,90,91,92,93,94,95,96,97,98,99,100,101,102,103,104,
121,122,123,124,125,126,127,128,129,130,131,132,133,134,135,136,137,138,139,140,141,142,143,144,145,146,147,148,149,150,151,152,153,154,155,156,157,158,159,160,121,122,123,124,125,126,127,128,129,130,131,132,133,134,135,136,137,138,139,140,141,142,143,144,
161,162,163,164,165,166,167,168,169,170,171,172,173,174,175,176,177,178,179,180,181,182,183,184,185,186,187,188,189,190,191,192,193,194,195,196,197,198,199,200,161,162,163,164,165,166,167,168,169,170,171,172,173,174,175,176,177,178,179,180,181,182,183,184,
201,202,203,204,205,206,207,208,209,210,211,212,213,214,215,216,217,218,219,220,221,222,223,224,225,226,227,228,229,230,231,232,233,234,235,236,237,238,239,240,201,202,203,204,205,206,207,208,209,210,211,212,213,214,215,216,217,218,219,220,221,222,223,224,
241,242,243,244,245,246,247,248,249,250,251,252,253,254,255,256,257,258,259,260,261,262,263,264,265,266,267,268,269,270,271,272,273,274,275,276,277,278,279,280,241,242,243,244,245,246,247,248,249,250,251,252,253,254,255,256,257,258,259,260,261,262,263,264,
281,282,283,284,285,286,287,288,289,290,291,292,293,294,295,296,297,298,299,300,301,302,303,304,305,306,307,308,309,310,311,312,313,314,315,316,317,318,319,320,281,282,283,284,285,286,287,288,289,290,291,292,293,294,295,296,297,298,299,300,301,302,303,304,
321,322,323,324,325,326,327,328,329,330,331,332,333,334,335,336,337,338,339,340,341,342,343,344,345,346,347,348,349,350,351,352,353,354,355,356,357,358,359,360,321,322,323,324,325,326,327,328,329,330,331,332,333,334,335,336,337,338,339,340,341,342,343,344,
361,362,363,364,365,366,367,368,369,370,371,372,373,374,375,376,377,378,379,380,381,382,383,384,385,386,387,388,389,390,391,392,393,394,395,396,397,398,399,400,361,362,363,364,365,366,367,368,369,370,371,372,373,374,375,376,377,378,379,380,381,382,383,384,
401,402,403,404,405,406,407,408,409,410,411,412,413,414,415,416,417,418,419,420,421,422,423,424,425,426,427,428,429,430,431,432,433,434,435,436,437,438,439,440,401,402,403,404,405,406,407,408,409,410,411,412,413,414,415,416,417,418,419,420,421,422,423,424,
441,442,443,444,445,446,447,448,449,450,451,452,453,454,455,456,457,458,459,460,461,462,463,464,465,466,467,468,469,470,471,472,473,474,475,476,477,478,479,480,441,442,443,444,445,446,447,448,449,450,451,452,453,454,455,456,457,458,459,460,461,462,463,464
</data>
 </layer>
 <layer id="2" name="Terrain" width="64" height="52">
  <data encoding="csv">
0,0,0,0,0,0,0,0,0,0,0,0,0,0,0,0,0,0,0,0,0,0,0,0,1621,0,0,0,0,0,0,0,0,0,1640,1641,1642,1643,0,0,0,0,0,0,0,0,0,0,0,0,0,0,0,0,0,0,0,0,0,0,0,0,0,0,
0,0,0,0,0,0,0,0,0,0,0,0,0,0,0,0,0,0,0,0,0,0,0,0,1621,0,0,0,0,0,0,0,0,0,1644,2093,2094,1645,0,0,0,0,0,0,0,0,0,0,0,0,0,0,0,0,0,0,0,0,0,0,0,0,0,0,
0,0,0,0,0,0,0,0,0,0,0,0,0,0,0,0,0,0,0,0,0,0,0,0,1621,0,0,0,0,0,0,0,0,0,1646,2133,2134,1647,0,0,0,0,0,0,0,0,0,0,0,0,0,0,0,0,0,0,0,0,0,0,0,0,0,0,
0,0,0,0,0,0,0,0,0,0,0,0,0,0,0,0,0,0,0,0,0,0,0,0,1632,1627,1627,1633,0,0,0,0,0,0,1648,2173,2174,1649,0,0,0,0,0,0,0,1626,1627,1627,1627,1627,1627,1627,1627,1627,1627,1627,1627,1627,1627,1627,1627,1627,1627,1627,
0,0,0,0,0,0,0,0,0,0,0,0,0,0,0,0,0,0,0,0,0,0,0,0,1635,1630,1630,1632,1627,1627,1627,1627,1627,1627,1627,1627,1627,1627,1627,1627,1627,1627,1627,1627,1627,1628,1630,1630,1630,1630,1630,1630,1630,1630,1630,1630,1630,1630,1630,1630,1630,1630,1630,1630,
0,0,0,0,0,0,0,0,0,0,0,0,0,0,0,0,0,0,0,0,0,0,0,0,0,0,0,1635,1630,1630,1630,1630,1630,1630,1630,1630,1630,1630,1630,1630,1630,1630,1630,1630,1630,1631,0,0,0,0,0,0,0,0,0,0,0,0,0,0,0,0,0,0,
0,0,0,0,0,0,0,0,0,0,0,0,0,0,0,0,0,0,0,0,0,0,0,0,0,0,0,0,0,0,1650,1651,1652,1653,2292,2293,2294,1654,1655,1656,1657,1658,1659,2261,1660,1661,0,0,0,0,0,0,0,0,0,0,0,0,0,0,0,0,0,0,
0,0,0,0,0,0,0,0,0,0,0,0,0,0,0,0,0,0,0,0,0,0,0,0,0,0,0,0,0,1662,1663,2329,2330,2331,2332,2333,2334,2335,2336,2337,2298,2299,2300,2301,2302,1664,0,0,0,0,0,0,0,0,0,0,0,0,0,0,0,0,0,0,
0,0,0,0,0,0,0,0,0,0,0,0,0,0,0,0,0,0,0,0,0,0,0,0,0,0,0,0,0,1665,1666,2369,2370,2371,2372,2373,2374,2375,2376,2377,2338,2339,2340,2341,2342,1667,0,0,0,0,0,0,0,0,0,0,0,0,0,0,0,0,0,0,
0,0,0,0,0,0,0,0,0,0,0,0,0,0,0,0,0,0,0,0,0,0,0,0,0,0,0,0,0,0,1668,2409,2410,2411,2412,2413,2414,2415,2416,2417,2378,2379,2380,2381,2382,1669,0,0,0,0,0,0,0,0,0,0,0,0,0,0,0,0,0,0,
0,0,0,0,0,0,0,0,0,0,0,0,0,0,0,0,0,0,0,0,0,0,0,0,0,0,0,0,1670,1671,1672,2449,2450,2451,2452,2453,2454,2455,2456,2457,2418,2419,2420,2421,2422,1673,1674,0,0,0,0,0,0,0,0,0,0,0,0,0,0,0,0,0,
0,0,0,0,0,0,0,0,0,0,0,0,0,0,0,0,0,0,0,0,0,0,0,0,0,0,0,0,1675,2487,2488,2489,2490,2491,2492,2493,2494,2495,2496,2497,2458,2459,2460,2461,2462,2463,1676,0,0,0,0,0,0,0,0,0,0,0,0,0,0,0,0,0,
0,0,0,0,0,0,0,0,0,0,0,0,0,0,0,0,0,0,0,0,0,0,0,0,0,0,0,0,1677,2527,2528,2529,2530,2531,2532,2533,2534,2535,2536,2537,2498,2499,1678,1679,1680,2503,1681,1682,0,0,0,0,0,0,0,0,0,0,0,0,0,0,0,0,
0,0,0,0,0,0,0,0,0,0,0,0,0,0,0,0,0,0,0,0,0,0,0,0,0,0,0,0,1683,1684,2568,2569,1685,1686,1687,1688,1689,1690,1691,1692,1693,1694,1695,0,1696,2543,2544,1697,0,0,0,0,0,0,0,0,0,0,0,0,0,0,0,0,
0,0,0,0,0,0,0,0,0,0,0,0,0,0,0,0,0,0,0,0,0,0,0,0,0,0,0,0,0,1698,1699,1700,1701,0,1702,1703,1704,1705,0,0,0,0,0,0,1706,1707,2584,1708,0,0,0,0,0,0,0,0,0,0,0,0,0,0,0,0,
0,0,0,0,0,0,0,0,0,0,0,0,0,0,0,0,0,0,0,0,0,0,0,0,0,0,0,0,0,0,0,0,0,0,0,0,0,0,0,0,0,0,0,0,0,1709,2624,1710,1711,0,0,0,0,0,0,0,0,0,0,0,0,0,0,0,
0,0,0,0,0,0,0,0,0,0,0,0,0,0,0,0,0,0,0,0,0,0,0,0,0,0,0,0,0,0,0,0,0,0,0,0,0,0,0,0,0,0,0,0,0,1712,1713,1714,1715,0,0,0,0,0,0,0,0,0,0,0,0,0,0,0,
0,0,0,0,0,0,0,0,0,0,0,0,0,0,0,0,0,0,0,0,0,0,0,0,0,0,0,0,0,0,0,0,0,0,0,0,0,0,0,0,0,0,0,0,0,0,1716,2705,1717,1718,0,0,0,0,0,0,0,0,0,0,0,0,0,0,
0,0,0,0,0,0,0,0,0,0,0,0,0,0,0,0,0,0,0,0,0,0,0,0,0,0,0,0,0,0,0,0,0,0,0,0,0,0,0,0,0,0,0,0,0,0,1719,1720,2746,1721,0,0,0,0,0,0,0,0,0,0,0,0,0,0,
0,0,0,0,0,0,0,0,0,0,0,0,0,0,0,0,0,0,0,0,0,0,0,0,0,0,0,0,0,0,0,0,0,0,0,0,0,0,0,0,0,0,0,0,0,0,0,1722,2786,1723,1724,0,0,0,0,0,0,0,0,0,0,0,0,0,
0,0,0,0,0,0,0,0,0,0,0,0,0,0,0,0,0,0,0,0,0,0,0,0,0,0,0,0,0,0,0,0,0,0,0,0,0,0,0,0,0,0,0,0,0,0,0,1725,1726,1727,1728,0,0,0,0,0,0,0,0,0,0,0,0,0,
0,0,0,0,0,0,0,0,0,0,0,0,0,0,0,0,0,0,0,0,0,0,0,0,0,0,0,0,0,0,0,0,0,0,0,0,0,0,0,0,0,0,0,0,0,0,0,0,1729,2867,1730,1731,0,0,0,0,0,0,0,0,0,0,0,0,
0,0,0,0,0,0,0,0,0,0,0,0,0,0,0,0,0,0,0,0,0,0,0,0,0,0,0,0,0,0,0,0,0,0,0,0,0,0,0,0,0,0,0,0,0,0,0,0,1732,2907,2908,1733,0,0,0,0,0,0,0,0,0,0,0,0,
0,0,0,0,0,0,0,0,0,0,0,0,0,0,0,0,0,0,0,0,0,0,0,0,0,0,0,0,0,0,0,0,0,0,0,0,0,0,0,0,0,0,0,0,0,0,0,0,1734,2947,2948,1735,0,0,0,0,0,0,0,0,0,0,0,0,
0,0,0,0,0,0,0,0,0,0,0,0,0,0,0,0,0,0,0,0,0,0,0,0,0,0,0,0,0,0,0,0,0,0,0,0,0,0,0,0,0,0,0,0,0,0,0,0,1736,2987,1737,1738,0,0,0,0,0,0,0,0,0,0,0,0,
0,0,0,0,0,0,0,0,0,0,0,0,0,0,0,0,0,0,0,0,0,0,0,0,0,0,0,0,0,0,0,0,0,0,0,0,0,0,0,0,0,0,0,0,0,0,0,1739,1740,3027,1741,0,0,0,0,0,0,0,0,0,0,0,0,0,
0,0,0,0,0,0,0,0,0,0,0,0,0,0,0,0,0,0,0,0,0,0,0,0,0,0,0,0,0,0,0,0,0,0,0,0,0,0,0,0,0,0,0,0,0,0,0,1742,3066,3067,1743,0,0,0,0,0,0,0,0,0,0,0,0,0,
0,0,0,0,0,0,0,0,0,0,0,0,0,0,0,0,0,0,0,0,0,0,0,0,0,0,0,0,0,0,0,0,0,0,0,0,0,0,0,0,0,0,0,0,0,0,0,1744,3106,3107,1745,0,0,0,0,0,0,0,0,0,0,0,0,0,
0,0,0,0,0,0,0,0,0,0,0,0,0,0,0,0,0,0,0,0,0,0,0,0,0,0,0,0,0,0,0,0,0,0,0,0,0,0,0,0,0,0,0,0,0,0,0,1746,3146,3147,1747,0,0,0,0,0,0,0,0,0,0,0,0,0,
0,0,0,0,0,0,0,0,0,0,0,0,0,0,0,0,0,0,0,0,0,0,0,0,0,0,0,0,0,0,0,0,0,0,0,0,0,0,0,0,0,0,0,0,0,0,0,1748,3186,3187,1749,0,0,0,0,0,0,0,0,0,0,0,0,0,
0,0,0,0,0,0,0,0,0,0,0,0,0,0,0,0,0,0,0,0,0,0,0,0,0,0,0,0,0,0,0,0,0,0,0,0,0,0,0,0,0,0,0,0,0,0,0,1750,3226,3227,1751,0,0,0,0,0,0,0,0,0,0,0,0,0,
0,0,0,0,0,0,0,0,0,0,0,0,0,0,0,0,0,0,0,0,0,0,0,0,0,0,0,0,0,0,0,0,0,0,0,0,0,0,0,0,0,0,0,0,0,0,0,1752,1753,3267,1754,1755,0,0,0,0,0,0,0,0,0,0,0,0,
0,0,0,0,0,0,0,0,0,0,0,0,0,0,0,0,0,0,0,0,0,0,0,0,0,0,0,0,0,0,0,0,0,0,0,0,0,0,0,0,0,0,0,0,0,0,0,0,1756,3307,3308,1757,0,0,0,0,0,0,0,0,0,0,0,0,
0,0,0,0,0,0,0,0,0,0,0,0,0,0,0,0,0,0,0,0,0,0,0,0,0,0,0,0,0,0,0,0,0,0,0,0,0,0,0,0,0,0,0,0,0,0,0,0,1758,1759,3348,1760,0,0,0,0,0,0,0,0,0,0,0,0,
0,0,0,0,0,0,0,0,0,0,0,0,0,0,0,0,0,0,0,0,0,0,0,0,0,0,0,0,0,0,0,0,0,0,0,0,0,0,0,0,0,0,0,0,0,0,0,0,0,1761,3388,1762,1763,0,0,0,0,0,0,0,0,0,0,0,
0,0,0,0,0,0,0,0,0,0,0,0,0,0,0,0,0,0,0,0,0,0,0,0,0,0,0,0,0,0,0,0,0,0,0,0,0,0,0,0,0,0,0,0,0,0,0,0,0,1764,3428,3429,1765,0,0,0,0,0,0,0,0,0,0,0,
0,0,0,0,0,0,0,0,0,0,0,0,0,0,0,0,0,0,0,0,0,0,0,0,0,0,0,0,0,0,0,0,0,0,0,0,0,0,0,0,0,0,0,0,0,0,0,0,0,1766,1767,3469,1768,1769,0,0,0,0,0,0,0,0,0,0,
0,0,0,0,0,0,0,0,0,0,0,0,0,0,0,0,0,0,0,0,0,0,0,0,0,0,0,0,0,0,0,0,0,0,0,0,0,0,0,0,0,0,0,0,0,0,0,0,0,0,1770,3509,3510,1771,0,0,0,0,0,0,0,0,0,0,
0,0,0,0,0,0,0,0,0,0,0,0,0,0,0,0,0,0,0,0,0,0,0,0,0,0,0,0,0,0,0,0,0,0,0,0,0,0,0,0,0,0,0,0,0,0,0,0,0,0,1772,3549,3550,1773,0,0,0,0,0,0,0,0,0,0,
0,0,0,0,0,0,0,0,0,0,0,0,0,0,0,0,0,0,0,0,0,0,0,0,0,0,0,0,0,0,0,0,0,0,0,0,0,0,0,0,0,0,0,0,0,0,0,0,0,0,1774,3589,3590,1775,0,0,0,0,0,0,0,0,0,0,
0,0,0,0,0,0,0,0,0,0,0,0,0,0,0,0,0,0,0,0,0,0,0,0,0,0,0,0,0,0,0,0,0,0,0,0,0,0,0,0,0,0,0,0,0,0,0,0,0,0,1776,2029,2030,1777,0,0,0,0,0,0,0,0,0,0,
0,0,0,0,0,0,0,0,0,0,0,0,0,0,0,0,0,0,0,0,0,0,0,0,0,0,0,0,0,0,0,0,0,0,0,0,0,0,0,0,0,0,0,0,0,0,0,0,0,1778,1779,2069,1780,1781,0,0,0,0,0,0,0,0,0,0,
0,0,0,0,0,0,0,0,0,0,0,0,0,0,0,0,0,0,0,0,0,0,0,0,0,0,0,0,0,0,0,0,0,0,0,0,0,0,0,0,0,0,0,0,0,0,0,0,0,1782,2108,2109,1783,0,0,0,0,0,0,0,0,0,0,0,
0,0,0,0,0,0,0,0,0,0,0,0,0,0,0,0,0,0,0,0,0,0,0,0,0,0,0,0,0,0,0,0,0,0,0,0,0,0,0,0,0,0,0,0,0,0,0,0,0,1784,2148,2149,1785,0,0,0,0,0,0,0,0,0,0,0,
0,0,0,0,0,0,0,0,0,0,0,0,0,0,0,0,0,0,0,0,0,0,0,0,0,0,0,0,0,0,0,0,0,0,0,0,0,0,0,0,0,0,0,0,0,0,0,0,0,1786,2188,2189,1787,0,0,0,0,0,0,0,0,0,0,0,
0,0,0,0,0,0,0,0,0,0,0,0,0,0,0,0,0,0,0,0,0,0,0,0,0,0,0,0,0,0,0,0,0,0,0,0,0,0,0,0,0,0,0,0,0,0,0,0,0,1788,1789,2229,1790,1791,0,0,0,0,0,0,0,0,0,0,
0,0,0,0,0,0,0,0,0,0,0,0,0,0,0,0,0,0,0,0,0,0,0,0,0,0,0,0,0,0,0,0,0,0,0,0,0,0,0,0,0,0,0,0,0,0,0,0,0,0,1792,2269,2270,1793,0,0,0,0,0,0,0,0,0,0,
0,0,0,0,0,0,0,0,0,0,0,0,0,0,0,0,0,0,0,0,0,0,0,0,0,0,0,0,0,0,0,0,0,0,0,0,0,0,0,0,0,0,0,0,0,0,0,0,0,0,1794,1795,2310,1796,1797,0,0,0,0,0,0,0,0,0,
0,0,0,0,0,0,0,0,0,0,0,0,0,0,0,0,0,0,0,0,0,0,0,0,0,0,0,0,0,0,0,0,0,0,0,0,0,0,0,0,0,0,0,0,0,0,0,0,0,0,0,1798,2350,2351,1799,0,0,0,0,0,0,0,0,0,
0,0,0,0,0,0,0,0,0,0,0,0,0,0,0,0,0,0,0,0,0,0,0,0,0,0,0,0,0,0,0,0,0,0,0,0,0,0,0,0,0,0,0,0,0,0,0,0,0,0,0,1800,1801,2391,1802,1803,0,0,0,0,0,0,0,0,
0,0,0,0,0,0,0,0,0,0,0,0,0,0,0,0,0,0,0,0,0,0,0,0,0,0,0,0,0,0,0,0,0,0,0,0,0,0,0,0,0,0,0,0,0,0,0,0,0,0,0,0,1804,2431,2432,1805,0,0,0,0,0,0,0,0,
0,0,0,0,0,0,0,0,0,0,0,0,0,0,0,0,0,0,0,0,0,0,0,0,0,0,0,0,0,0,0,0,0,0,0,0,0,0,0,0,0,0,0,0,0,0,0,0,0,0,0,0,1806,1807,2472,1808,0,0,0,0,0,0,0,0
</data>
 </layer>
 <layer id="3" name="Overlay" width="64" height="52">
  <data encoding="csv">
0,0,0,0,0,0,0,0,0,0,0,0,0,0,0,0,0,0,0,0,0,0,0,0,0,0,0,0,0,0,0,0,0,0,0,0,0,0,0,0,0,0,0,0,0,0,0,0,0,0,0,0,0,0,0,0,0,0,0,0,0,0,0,0,
0,0,0,0,0,0,0,0,0,0,0,0,0,0,0,0,0,0,0,0,0,0,0,0,0,0,0,0,0,0,0,0,0,0,0,0,0,0,0,0,0,0,0,0,0,0,0,0,0,0,0,0,0,0,0,0,0,0,0,0,0,0,0,0,
0,0,0,0,0,0,0,0,0,0,0,0,0,0,0,0,0,0,0,0,0,0,0,0,0,0,0,0,0,0,0,0,0,0,0,0,0,0,0,0,0,0,0,0,0,0,0,0,0,0,0,0,0,0,0,0,0,0,0,0,0,0,0,0,
0,0,0,0,0,0,0,0,0,0,0,0,0,0,0,0,0,0,0,0,0,0,0,0,0,0,0,0,0,0,0,0,0,0,0,0,0,0,0,0,0,0,0,0,0,0,0,0,0,0,0,0,0,0,0,0,0,0,0,0,0,0,0,0,
0,0,0,0,0,0,0,0,0,0,0,0,0,0,0,0,0,0,0,0,0,0,0,0,0,0,0,0,0,0,0,0,0,0,0,0,0,0,0,0,0,0,0,0,0,0,0,0,0,0,0,0,0,0,0,0,0,0,0,0,0,0,0,0,
0,0,0,0,0,0,0,0,0,0,0,0,0,0,0,0,0,0,0,0,0,0,0,0,0,0,0,0,0,0,0,0,0,0,0,0,0,0,0,0,0,0,0,0,0,0,0,0,0,0,0,0,0,0,0,0,0,0,0,0,0,0,0,0,
0,0,0,0,0,0,0,0,0,0,0,0,0,0,0,0,0,0,0,0,0,0,0,0,0,0,0,0,0,0,0,0,0,0,0,0,0,0,0,0,0,0,0,0,0,0,0,0,0,0,0,0,0,0,0,0,0,0,0,0,0,0,0,0,
0,0,0,0,0,0,0,0,0,0,0,0,0,0,0,0,0,0,0,0,0,0,0,0,0,0,0,0,0,0,0,0,0,0,0,0,0,0,0,0,0,0,0,0,0,0,0,0,0,0,0,0,0,0,0,0,0,0,0,0,0,0,0,0,
0,0,0,0,0,0,0,0,0,0,0,0,0,0,0,0,0,0,0,0,0,0,0,0,0,0,0,0,0,0,0,0,0,0,0,0,0,0,0,0,0,0,0,0,0,0,0,0,0,0,0,0,0,0,0,0,0,0,0,0,0,0,0,0,
0,0,0,0,0,0,0,0,0,0,0,0,0,0,0,0,0,0,0,0,0,0,0,0,0,0,0,0,0,0,0,0,0,0,0,0,0,0,0,0,0,0,0,0,0,0,0,0,0,0,0,0,0,0,0,0,0,0,0,0,0,0,0,0,
0,0,0,0,0,0,0,0,0,0,0,0,0,0,0,0,0,0,0,0,0,0,0,0,0,0,0,0,0,0,0,0,0,0,0,0,0,0,0,0,0,0,0,0,0,0,0,0,0,0,0,0,0,0,0,0,0,0,0,0,0,0,0,0,
0,0,0,0,0,0,0,0,0,0,0,0,0,0,0,0,0,0,0,0,0,0,0,0,0,0,0,0,0,0,0,0,0,0,0,0,0,0,0,0,0,0,0,0,0,0,0,0,0,0,0,0,0,0,0,0,0,0,0,0,0,0,0,0,
0,0,0,0,0,0,0,0,0,0,0,0,0,0,0,0,0,0,0,0,0,0,0,0,0,0,0,0,0,0,0,0,0,0,0,0,0,0,0,0,0,0,0,0,0,0,0,0,0,0,0,0,0,0,0,0,0,0,0,0,0,0,0,0,
0,0,0,0,0,0,0,0,0,0,0,0,0,0,0,0,0,0,0,0,0,0,0,0,0,0,0,0,0,0,0,0,0,0,0,0,0,0,0,0,0,0,0,0,0,0,0,0,0,0,0,0,0,0,0,0,0,0,0,0,0,0,0,0,
0,0,0,0,0,0,0,0,0,0,0,0,0,0,0,0,0,0,1809,1810,1811,0,0,0,0,0,0,0,0,0,0,0,0,0,0,0,0,0,0,0,0,0,0,0,0,0,0,0,0,0,0,0,0,0,0,0,0,0,0,0,0,0,0,0,
0,0,0,0,0,0,0,0,0,0,0,0,0,0,0,0,0,0,1812,1813,1814,0,0,0,0,0,0,0,0,0,0,0,0,0,0,0,0,0,0,0,0,0,0,0,0,0,0,0,0,0,0,0,0,0,0,0,0,0,0,0,0,0,0,0,
0,0,0,0,0,0,0,0,0,0,0,0,0,0,0,0,0,0,1815,4277,1816,0,0,0,0,0,0,0,0,0,0,0,0,0,0,0,0,0,0,0,0,0,0,0,0,0,0,0,0,0,0,0,0,0,0,0,0,0,0,0,0,0,0,0,
0,0,0,0,0,0,0,0,0,0,0,0,0,0,0,0,0,0,1817,4317,1818,0,0,0,0,0,0,0,0,0,0,0,0,0,0,0,0,0,0,0,0,0,0,0,0,0,0,0,0,0,0,0,0,0,0,0,0,0,0,0,0,0,0,0,
0,0,0,0,0,0,0,0,0,0,0,0,0,0,0,0,0,0,1819,4357,1820,0,0,0,0,0,0,0,0,0,0,0,0,0,1821,1822,1823,0,0,0,0,0,0,0,0,0,0,0,0,0,0,0,0,0,0,0,0,0,0,0,0,0,0,0,
1824,1825,1826,1827,1828,1829,1830,1831,1832,1833,1834,1835,1836,1837,1838,1839,1840,1841,1842,4397,1843,1844,1845,1846,0,1847,0,0,0,0,1848,1849,1850,1851,1852,4413,1853,0,0,0,0,0,0,0,0,0,0,0,0,0,0,0,0,0,0,0,0,0,0,0,0,0,0,0,
4418,4419,4420,4421,4422,4423,4424,4425,4426,1854,1855,1856,1857,1858,1859,1860,1861,1862,4436,4437,4438,4439,1863,1864,1865,1866,1867,1868,1869,1870,1871,1872,1873,4451,4452,4453,1874,0,0,0,0,0,0,0,0,0,0,0,0,0,0,0,0,0,0,0,0,0,0,0,0,0,0,0,
1875,1876,1877,1878,1879,1880,1881,1882,1883,1884,1885,4469,4470,4471,1886,1887,1888,1889,1890,1891,1892,1893,1894,1895,4482,4483,4484,4485,1896,1897,1898,1899,1900,1901,1902,1903,1904,1905,0,0,0,0,0,0,0,0,0,0,0,0,0,0,0,0,0,0,0,0,0,0,0,0,0,0,
0,0,0,0,0,0,1906,1907,0,1908,1909,1910,1911,1912,1913,1914,0,0,0,0,0,0,0,1915,1916,1917,1918,1919,1920,1921,0,0,0,0,0,1922,4534,1923,1924,0,0,0,0,0,0,0,0,0,0,0,0,0,0,0,0,0,0,0,0,0,0,0,0,0,
0,0,0,0,0,0,1925,1926,1927,0,0,0,0,0,0,0,0,0,0,0,0,0,0,0,0,0,0,0,0,0,0,0,0,0,0,1928,1929,1930,1931,1932,0,0,0,0,0,0,0,0,0,0,0,0,0,0,0,0,0,0,0,0,0,0,0,0,
0,0,0,0,0,0,1933,1934,1935,0,0,0,0,0,0,0,0,0,0,0,0,0,0,0,0,0,0,0,0,0,0,0,0,0,0,0,1936,1937,4616,1938,1939,1940,0,0,0,0,0,0,0,0,0,0,0,0,0,0,0,0,0,0,0,0,0,0,
0,0,0,0,0,0,0,0,0,0,0,0,0,0,0,0,0,0,0,0,0,0,0,0,0,0,0,0,0,0,0,0,0,0,0,0,0,1941,1942,1943,4618,1944,1945,1946,0,0,0,0,0,0,0,0,0,0,0,0,0,0,0,0,0,0,0,0,
0,0,0,0,0,0,0,0,0,0,0,0,0,0,0,0,0,0,0,0,0,0,0,0,0,0,0,0,0,0,0,0,0,0,0,0,0,0,0,1947,1948,1949,1950,1951,1952,1953,1954,1955,1956,1957,1958,1959,1960,1961,0,0,0,0,0,0,0,0,0,0,
0,0,0,0,0,0,0,0,0,0,0,0,0,0,0,0,0,0,0,0,0,0,0,0,0,0,0,0,0,0,0,0,0,0,0,0,0,0,0,0,1962,1963,1964,1965,1966,1967,1968,4705,1969,1970,4708,4709,4710,1971,1972,1973,0,0,0,0,0,0,0,0,
0,0,0,0,0,0,0,0,0,0,0,0,0,0,0,0,0,0,0,0,0,0,0,0,0,0,0,0,0,0,0,0,0,0,0,0,0,0,0,0,0,0,0,1974,1975,1976,1977,1978,1979,1980,1981,1982,1983,1984,4752,1985,0,0,0,0,0,0,0,0,
0,0,0,0,0,0,0,0,0,0,0,0,0,0,0,0,0,0,0,0,0,0,0,0,0,0,0,0,0,0,0,0,0,0,0,0,0,0,0,0,0,0,0,0,0,0,0,0,0,0,0,0,0,1986,1987,1988,1989,0,0,0,0,0,0,0,
0,0,0,0,0,0,0,0,0,0,0,0,0,0,0,0,0,0,0,0,0,0,0,0,0,0,0,0,0,0,0,0,0,0,0,0,0,0,0,0,0,0,0,0,0,0,0,0,0,0,0,0,0,0,1990,1991,1992,1993,0,0,0,0,0,0,
0,0,0,0,0,0,0,0,0,0,0,0,0,0,0,0,0,0,0,0,0,0,0,0,0,0,0,0,0,0,0,0,0,0,0,0,0,0,0,0,0,0,0,0,0,0,0,0,0,0,0,0,0,0,0,1994,1995,1996,0,0,0,0,0,0,
0,0,0,0,0,0,0,0,0,0,0,0,0,0,0,0,0,0,0,0,0,0,0,0,0,0,0,0,0,0,0,0,0,0,0,0,0,0,0,0,0,0,0,0,0,0,0,0,0,0,0,0,0,0,0,1997,1998,1999,2000,2001,0,0,0,0,
0,0,0,0,0,0,0,0,0,0,0,0,0,0,0,0,0,0,0,0,0,0,0,0,0,0,0,0,0,0,0,0,0,0,0,0,0,0,0,0,0,0,0,0,0,0,0,0,0,0,0,0,0,0,0,0,2002,2003,2004,2005,2006,2007,2008,2009,
0,0,0,0,0,0,0,0,0,0,0,0,0,0,0,0,0,0,0,0,0,0,0,0,0,0,0,0,0,0,0,0,0,0,0,0,0,0,0,0,0,0,0,0,0,0,0,0,0,0,0,0,0,0,0,0,0,2010,2011,2012,2013,4999,5000,5001,
0,0,0,0,0,0,0,0,0,0,0,0,0,0,0,0,0,0,0,0,0,0,0,0,0,0,0,0,0,0,0,0,0,0,0,0,0,0,0,0,0,0,0,0,0,0,0,0,0,0,0,0,0,0,0,0,0,0,0,0,2014,2015,2016,2017,
0,0,0,0,0,0,0,0,0,0,0,0,0,0,0,0,0,0,0,0,0,0,0,0,0,0,0,0,0,0,0,0,0,0,0,0,0,0,0,0,0,0,0,0,0,0,0,0,0,0,0,0,0,0,0,0,0,0,0,0,0,0,0,0,
0,0,0,0,0,0,0,0,0,0,0,0,0,0,0,0,0,0,0,0,0,0,0,0,0,0,0,0,0,0,0,0,0,0,0,0,0,0,0,0,0,0,0,0,0,0,0,0,0,0,0,0,0,0,0,0,0,0,0,0,0,0,0,0,
0,0,0,0,0,0,0,0,0,0,0,0,0,0,0,0,0,0,0,0,0,0,0,0,0,0,0,0,0,0,0,0,0,0,0,0,0,0,0,0,0,0,0,0,0,0,0,0,0,0,0,0,0,0,0,0,0,0,0,0,0,0,0,0,
0,0,0,0,0,0,0,0,0,0,0,0,0,0,0,0,0,0,0,0,0,0,0,0,0,0,0,0,0,0,0,0,0,0,0,0,0,0,0,0,0,0,0,0,0,0,0,0,0,0,0,0,0,0,0,0,0,0,0,0,0,0,0,0,
0,0,0,0,0,0,0,0,0,0,0,0,0,0,0,0,0,0,0,0,0,0,0,0,0,0,0,0,0,0,0,0,0,0,0,0,0,0,0,0,0,0,0,0,0,0,0,0,0,0,0,0,0,0,0,0,0,0,0,0,0,0,0,0,
0,0,0,0,0,0,0,0,0,0,0,0,0,0,0,0,0,0,0,0,0,0,0,0,0,0,0,0,0,0,0,0,0,0,0,0,0,0,0,0,0,0,0,0,0,0,0,0,0,0,0,0,0,0,0,0,0,0,0,0,0,0,0,0,
0,0,0,0,0,0,0,0,0,0,0,0,0,0,0,0,0,0,0,0,0,0,0,0,0,0,0,0,0,0,0,0,0,0,0,0,0,0,0,0,0,0,0,0,0,0,0,0,0,0,0,0,0,0,0,0,0,0,0,0,0,0,0,0,
0,0,0,0,0,0,0,0,0,0,0,0,0,0,0,0,0,0,0,0,0,0,0,0,0,0,0,0,0,0,0,0,0,0,0,0,0,0,0,0,0,0,0,0,0,0,0,0,0,0,0,0,0,0,0,0,0,0,0,0,0,0,0,0,
0,0,0,0,0,0,0,0,0,0,0,0,0,0,0,0,0,0,0,0,0,0,0,0,0,0,0,0,0,0,0,0,0,0,0,0,0,0,0,0,0,0,0,0,0,0,0,0,0,0,0,0,0,0,0,0,0,0,0,0,0,0,0,0,
0,0,0,0,0,0,0,0,0,0,0,0,0,0,0,0,0,0,0,0,0,0,0,0,0,0,0,0,0,0,0,0,0,0,0,0,0,0,0,0,0,0,0,0,0,0,0,0,0,0,0,0,0,0,0,0,0,0,0,0,0,0,0,0,
0,0,0,0,0,0,0,0,0,0,0,0,0,0,0,0,0,0,0,0,0,0,0,0,0,0,0,0,0,0,0,0,0,0,0,0,0,0,0,0,0,0,0,0,0,0,0,0,0,0,0,0,0,0,0,0,0,0,0,0,0,0,0,0,
0,0,0,0,0,0,0,0,0,0,0,0,0,0,0,0,0,0,0,0,0,0,0,0,0,0,0,0,0,0,0,0,0,0,0,0,0,0,0,0,0,0,0,0,0,0,0,0,0,0,0,0,0,0,0,0,0,0,0,0,0,0,0,0,
0,0,0,0,0,0,0,0,0,0,0,0,0,0,0,0,0,0,0,0,0,0,0,0,0,0,0,0,0,0,0,0,0,0,0,0,0,0,0,0,0,0,0,0,0,0,0,0,0,0,0,0,0,0,0,0,0,0,0,0,0,0,0,0,
0,0,0,0,0,0,0,0,0,0,0,0,0,0,0,0,0,0,0,0,0,0,0,0,0,0,0,0,0,0,0,0,0,0,0,0,0,0,0,0,0,0,0,0,0,0,0,0,0,0,0,0,0,0,0,0,0,0,0,0,0,0,0,0,
0,0,0,0,0,0,0,0,0,0,0,0,0,0,0,0,0,0,0,0,0,0,0,0,0,0,0,0,0,0,0,0,0,0,0,0,0,0,0,0,0,0,0,0,0,0,0,0,0,0,0,0,0,0,0,0,0,0,0,0,0,0,0,0,
0,0,0,0,0,0,0,0,0,0,0,0,0,0,0,0,0,0,0,0,0,0,0,0,0,0,0,0,0,0,0,0,0,0,0,0,0,0,0,0,0,0,0,0,0,0,0,0,0,0,0,0,0,0,0,0,0,0,0,0,0,0,0,0
</data>
 </layer>
 <layer id="4" name="Decor" width="64" height="52">
  <data encoding="csv">
0,0,0,0,0,0,0,0,0,0,0,0,0,0,0,0,0,0,0,0,0,0,0,0,0,0,0,0,0,0,0,0,0,0,0,0,0,0,0,0,0,0,0,0,0,0,0,0,0,0,0,0,0,0,0,0,0,0,0,0,0,0,0,0,
0,0,0,0,0,0,0,0,0,0,0,0,0,0,0,0,0,0,0,0,0,0,0,0,0,0,0,0,0,0,0,0,0,0,0,0,0,0,0,0,0,0,0,0,0,0,0,0,0,0,0,0,0,0,0,0,0,0,0,0,0,0,0,0,
0,0,0,0,0,0,0,0,0,0,0,0,0,0,0,0,0,0,0,0,0,0,0,0,0,0,0,0,0,0,0,0,0,0,0,0,0,0,0,0,0,0,0,0,0,0,0,0,0,0,0,0,0,0,0,0,0,0,0,0,0,0,0,0,
0,0,0,0,0,0,0,0,0,0,0,0,0,0,0,0,0,0,0,0,0,0,0,0,0,0,0,0,0,0,0,0,0,0,0,0,0,0,0,6976,0,0,0,0,0,6980,0,6987,0,0,0,6987,0,0,0,0,0,0,0,0,6977,0,0,0,
0,0,0,0,0,0,0,0,0,0,0,0,0,0,0,0,0,0,0,0,0,0,0,0,0,0,0,0,0,0,0,0,0,0,0,0,0,0,0,0,0,0,0,0,0,0,0,0,0,0,0,0,0,0,0,0,0,0,6980,0,0,0,0,0,
0,0,0,0,0,0,0,0,0,0,0,0,0,0,0,0,0,0,0,0,0,0,0,0,0,0,0,0,0,0,0,0,0,0,0,0,0,0,0,0,6972,0,0,0,0,0,0,0,6970,0,0,0,0,6976,0,0,0,0,0,6971,0,0,0,0,
0,0,0,0,0,0,0,0,0,0,0,0,0,0,0,0,0,6987,0,0,0,0,0,0,0,0,0,0,0,0,0,0,0,0,0,0,0,0,0,0,0,0,0,0,0,0,6988,0,0,0,0,0,0,0,0,0,0,0,0,0,6961,0,0,0,
0,0,0,0,0,0,6985,0,0,0,0,0,6969,0,0,0,0,6964,0,0,0,0,0,0,6972,0,0,0,0,0,0,0,0,0,0,0,0,0,0,0,0,0,0,0,0,0,6969,0,0,0,0,0,0,0,0,6980,0,0,0,0,0,0,0,0,
0,0,0,0,0,0,0,0,0,0,0,0,0,0,0,0,0,0,6971,0,0,6971,0,0,0,0,0,0,0,0,0,0,0,0,0,0,0,0,0,0,0,0,0,0,0,0,0,0,0,0,0,0,6971,0,0,0,0,0,0,0,0,0,0,0,
0,0,0,0,0,0,0,0,0,0,0,0,0,0,0,0,0,0,6972,0,0,0,0,0,0,0,0,0,0,0,0,0,0,0,0,0,0,0,0,0,0,0,0,0,0,0,0,0,0,0,0,0,0,0,0,0,0,6972,0,0,0,0,0,0,
0,0,0,0,0,0,0,0,0,0,0,0,0,0,0,6971,0,0,0,0,0,0,0,0,0,0,6980,0,0,0,0,0,0,0,0,0,0,0,0,0,0,0,0,0,0,0,0,0,0,0,0,0,0,0,0,0,0,0,0,0,0,0,0,0,
0,0,0,0,0,0,6964,0,0,0,0,0,0,0,0,0,0,0,0,0,0,0,0,0,0,0,0,0,0,0,0,0,0,0,0,0,0,0,0,0,0,0,0,0,0,0,0,0,0,0,0,0,0,0,0,0,0,0,0,0,6970,0,0,0,
0,0,0,6971,0,0,0,0,0,0,0,0,0,0,0,0,0,0,0,0,0,0,0,0,0,0,0,0,0,0,0,0,0,0,0,0,0,0,0,0,0,0,0,0,0,0,0,0,0,0,6969,0,0,0,0,0,0,0,0,0,0,0,0,0,
0,0,0,0,0,0,6971,0,0,0,0,0,6972,0,0,0,0,0,0,0,0,0,0,0,0,6980,0,0,0,0,0,0,0,0,0,0,0,0,0,0,0,0,0,0,0,0,0,0,0,0,0,0,0,0,0,0,0,0,0,0,0,0,0,0,
0,0,0,6968,0,0,0,0,0,0,0,0,0,0,0,0,0,0,0,0,0,0,0,0,0,0,0,6985,0,0,0,0,0,0,0,0,0,0,0,0,0,0,0,0,0,0,0,0,0,0,6972,0,0,0,0,0,0,0,0,0,0,0,0,0,
0,0,0,0,6985,6969,0,0,0,0,0,0,0,0,0,0,0,0,0,0,0,0,0,0,0,6971,0,0,0,0,0,6972,0,0,0,0,0,0,0,0,6970,0,0,0,0,0,0,0,0,0,0,0,0,0,0,0,0,0,0,0,0,0,0,0,
0,0,0,6964,6980,0,0,6968,0,6980,0,0,0,0,0,0,0,0,0,0,0,0,0,0,0,0,6987,0,0,0,0,0,0,0,0,0,0,0,0,0,0,0,6977,0,0,0,0,0,0,0,0,0,0,0,0,0,0,6969,0,0,0,0,0,0,
0,0,0,0,0,6972,0,0,6976,0,0,0,6977,0,0,0,0,6976,0,0,0,0,0,0,0,0,0,6972,0,6980,0,0,0,0,0,0,0,0,0,0,0,0,6971,0,0,0,0,0,0,0,0,0,0,6985,0,6987,0,0,0,0,6968,0,0,0,
0,0,0,0,0,0,0,0,0,0,0,0,0,0,0,0,0,0,0,0,0,0,0,0,0,0,6961,0,0,0,0,0,0,0,0,0,0,0,0,0,6987,0,0,0,6971,0,0,0,0,0,0,0,0,0,0,0,0,0,0,0,0,0,0,0,
0,0,0,0,0,0,0,0,0,0,0,0,6980,0,0,6964,0,0,0,0,0,0,0,0,0,0,0,0,0,0,0,0,0,0,0,0,0,0,0,0,0,0,0,0,0,0,0,0,0,0,0,0,6971,0,0,0,6968,0,0,0,0,0,0,0,
0,0,0,0,0,0,0,0,0,0,6969,0,0,0,0,0,0,0,0,0,0,0,0,0,6970,0,0,0,0,0,0,0,0,0,0,0,0,0,0,0,0,0,0,0,0,0,0,0,0,0,0,6964,0,0,0,0,0,6988,0,0,0,0,6971,0,
0,0,6969,0,0,0,0,0,0,0,0,0,0,0,0,0,0,0,0,6976,0,0,0,0,0,0,0,0,0,6985,0,0,0,0,0,0,0,0,0,0,0,0,0,0,0,0,0,0,0,0,0,0,6968,0,0,0,0,6964,0,0,0,0,0,0,
0,0,0,6968,0,0,0,0,0,0,0,0,0,0,0,0,0,0,6970,0,0,0,0,0,0,0,0,0,0,6968,0,0,0,6970,0,0,0,0,0,0,6969,0,0,0,0,0,0,0,0,0,0,0,0,0,0,0,0,0,0,6968,0,0,0,0,
0,0,0,0,0,0,0,0,0,0,0,0,0,0,0,0,0,0,0,0,6988,0,6964,0,0,0,0,0,0,0,6970,0,0,0,0,0,0,0,0,0,0,0,0,0,0,0,0,0,0,0,0,0,0,6961,0,0,6988,0,0,0,0,0,0,0,
0,0,6977,0,0,0,0,0,0,0,0,0,0,0,0,0,6976,0,0,0,0,0,0,0,0,6988,0,0,0,0,0,0,6988,0,0,0,0,0,0,0,0,0,0,0,6971,0,0,0,0,0,0,0,0,0,0,0,6987,0,0,7025,0,0,6961,0,
0,0,6961,0,6961,0,0,0,0,0,0,0,0,0,0,0,0,0,0,0,0,6988,0,0,0,0,0,0,0,0,0,0,0,0,0,0,0,0,0,0,0,0,0,6971,0,6969,0,0,0,0,0,0,0,0,0,0,0,6972,7026,7027,0,0,0,0,
0,0,0,0,0,0,6970,0,0,0,0,0,0,0,0,0,0,0,0,0,0,6976,6987,0,0,6985,6977,0,0,0,0,0,0,0,0,0,0,0,0,6969,0,0,0,0,0,6988,0,6924,6925,6926,6927,0,0,6970,6964,0,0,0,0,0,0,0,6970,0,
0,0,0,0,0,0,0,0,0,0,0,0,0,0,0,0,0,0,0,0,0,0,0,0,0,6970,0,0,0,0,6972,0,0,0,0,0,0,0,0,6970,0,0,0,0,0,0,0,6928,6929,6930,6931,0,0,0,0,0,0,0,0,0,6988,0,0,0,
0,0,0,0,6968,0,0,0,0,0,0,0,0,0,0,0,0,0,0,0,0,0,0,0,0,0,0,0,6985,0,0,0,0,0,0,0,0,0,0,0,0,6970,6990,0,0,0,0,6932,6933,6934,6935,0,0,0,0,0,0,0,0,0,0,0,0,0,
0,0,0,0,0,0,0,0,0,0,0,0,0,6971,0,0,0,0,0,0,0,0,0,0,0,0,0,0,0,0,6977,0,0,0,0,0,0,0,0,0,0,6990,0,0,0,6985,0,0,0,0,0,0,0,0,0,0,0,0,0,0,0,0,0,0,
0,0,0,0,0,0,0,6976,0,0,0,0,0,0,0,0,0,0,0,0,0,6972,0,0,0,0,0,0,0,0,0,6972,6988,0,0,0,0,0,0,0,0,0,0,0,6987,0,0,0,0,0,0,0,0,0,0,0,0,0,0,0,0,0,0,0,
0,0,0,0,0,0,0,6972,0,6980,0,0,6976,0,0,6987,0,0,0,0,0,0,0,0,0,0,0,0,0,0,0,0,0,0,0,0,0,0,0,0,0,0,0,0,0,0,6987,0,0,0,0,0,0,0,0,0,0,0,0,0,0,0,0,0,
0,0,0,0,0,0,0,6980,0,0,0,0,0,0,0,6961,0,0,6964,0,0,0,0,0,0,0,0,6976,0,0,0,0,0,0,0,0,0,0,0,0,0,0,0,0,0,0,0,0,0,0,0,0,0,6969,0,6977,0,0,6968,0,0,0,0,0,
0,0,0,0,0,0,0,0,0,0,0,0,6972,0,0,0,0,0,0,6961,6969,0,0,0,0,0,0,0,0,0,0,0,0,0,0,0,0,0,0,0,0,0,0,0,0,6985,0,0,0,0,0,0,0,0,0,0,0,0,0,0,0,0,0,0,
0,0,0,0,0,0,0,0,0,0,0,0,0,0,0,0,0,0,0,0,0,0,0,0,0,0,0,0,0,0,6970,0,0,0,6969,0,0,0,6961,0,0,0,0,0,0,0,0,0,0,0,0,0,0,0,0,0,0,0,0,0,0,0,0,0,
0,0,0,0,0,0,0,0,0,0,0,0,0,0,0,0,0,0,0,0,0,0,0,0,0,0,0,0,0,0,0,0,0,0,0,0,6976,0,0,0,0,6976,0,0,0,0,0,0,0,0,0,0,0,0,0,0,0,0,0,0,0,0,0,0,
0,0,0,0,0,0,0,0,0,0,0,0,0,0,0,0,0,0,0,0,0,0,0,0,0,0,0,0,0,0,0,0,0,0,0,0,0,0,0,0,0,6980,0,0,0,0,0,0,0,0,0,0,0,0,0,0,0,0,0,0,0,0,0,0,
0,0,0,0,0,0,0,0,0,0,0,0,0,0,0,0,0,0,0,0,0,0,0,0,0,0,0,0,0,0,0,6969,0,6972,0,0,0,0,0,0,0,0,0,0,0,0,0,0,0,0,0,0,0,0,0,0,0,0,0,0,0,0,0,0,
0,0,0,0,0,0,0,0,0,0,0,0,0,0,0,0,0,0,0,0,0,0,0,0,0,0,0,0,0,0,6972,0,0,0,0,0,0,0,0,0,0,0,0,0,0,0,6980,0,0,6964,0,0,0,0,0,0,0,6985,0,6985,0,0,0,0,
0,0,0,0,0,0,0,0,0,0,0,0,0,0,0,0,0,0,0,0,0,0,0,0,6988,0,0,0,0,6970,0,0,0,0,0,6969,0,0,0,0,0,0,0,0,0,0,0,6976,0,0,0,0,0,0,0,0,0,0,0,0,0,0,0,0,
0,0,0,0,0,0,0,0,0,0,0,0,0,0,0,0,0,0,0,0,0,0,0,0,0,0,0,0,0,0,0,0,0,0,0,0,0,0,0,0,0,0,0,0,6988,0,0,0,0,0,0,0,0,0,0,0,0,0,0,0,0,6980,0,0,
0,0,0,0,0,0,0,0,0,0,0,0,0,6988,0,0,0,0,0,0,0,0,0,0,0,0,0,0,0,0,0,0,0,0,0,0,0,0,0,0,0,0,0,0,0,0,0,0,0,0,0,0,0,0,0,0,0,0,0,0,0,0,0,0,
0,0,0,0,0,0,0,0,0,0,0,0,0,6988,0,0,0,0,0,0,0,0,0,0,0,0,0,0,0,0,0,0,0,0,0,6976,0,0,0,0,0,0,0,0,0,0,0,6972,0,0,0,0,0,0,0,0,0,0,6961,0,0,0,0,0,
0,0,0,0,0,0,0,0,0,0,0,0,0,0,6988,0,0,0,0,0,0,0,0,0,0,0,0,0,0,0,0,0,0,0,0,0,0,0,0,0,0,0,6971,0,0,0,0,0,0,0,0,0,0,0,0,0,0,0,0,0,0,0,0,0,
0,0,0,0,0,0,0,0,0,0,0,0,0,0,0,0,0,0,0,0,0,0,0,0,0,0,0,0,0,0,0,0,0,0,0,0,0,0,0,0,0,0,0,0,0,0,6964,0,0,0,0,0,0,0,0,0,0,0,0,0,0,0,0,0,
0,0,0,0,0,0,0,0,0,0,0,0,0,0,0,0,0,0,0,0,0,0,0,0,0,0,0,0,0,0,0,0,0,0,0,0,0,0,0,0,0,0,0,0,0,0,0,0,0,0,0,0,0,0,0,0,0,0,0,0,0,0,0,0,
0,0,0,0,0,0,0,0,0,0,0,0,0,0,0,0,0,0,0,0,0,0,0,0,0,0,0,0,0,0,0,0,0,0,0,0,0,0,0,0,0,0,0,0,0,0,0,0,0,0,0,0,0,0,0,0,0,0,0,6968,0,0,0,0,
0,0,0,6977,0,0,6980,0,0,0,0,0,0,0,0,0,0,0,0,0,0,0,0,0,0,0,0,0,0,0,0,0,0,0,0,0,0,0,0,0,0,0,0,0,0,0,0,0,0,0,0,0,0,0,0,0,0,0,0,0,0,0,0,0,
0,0,0,0,0,0,0,0,0,0,0,0,0,0,0,0,0,0,0,0,0,0,0,0,0,0,0,0,0,0,0,0,0,0,0,0,0,0,0,0,0,0,0,0,0,0,0,0,0,0,0,0,0,0,0,0,0,0,0,0,0,0,0,0,
0,0,0,0,0,0,0,0,0,0,0,0,0,0,0,0,0,0,0,0,0,0,0,0,0,0,0,0,0,0,0,0,0,0,0,0,0,0,0,0,0,0,0,0,0,0,0,0,0,0,0,0,0,0,0,0,0,0,0,0,0,0,0,0,
0,0,0,0,0,0,0,0,0,0,0,0,0,0,0,0,0,0,0,0,0,0,0,0,0,0,0,0,0,0,0,0,0,0,0,0,0,0,0,0,0,0,0,0,0,0,0,0,0,0,0,0,0,0,0,0,0,0,0,0,0,0,0,0,
0,0,0,0,0,0,0,0,0,0,0,0,0,0,0,0,0,0,0,0,0,0,0,0,0,0,0,0,0,0,0,0,0,0,0,0,0,0,0,0,0,0,0,0,0,0,0,0,0,0,0,0,0,0,0,0,0,0,0,0,0,0,0,0
</data>
 </layer>
 <layer id="5" name="Dynamic" width="64" height="52">
  <data encoding="csv">
0,0,0,0,0,0,0,0,0,0,0,0,0,0,0,0,0,0,0,0,0,0,0,0,0,0,0,0,0,0,0,0,0,0,0,0,0,0,0,0,0,0,0,0,0,0,0,0,0,0,0,0,0,0,0,0,0,0,0,0,0,0,0,0,
0,0,0,0,0,0,0,0,0,0,0,0,0,0,0,0,0,0,0,0,0,0,0,0,0,0,0,0,0,0,0,0,0,0,0,0,0,0,0,0,0,0,0,0,0,0,0,0,0,0,0,0,0,0,0,0,0,0,0,0,0,0,0,0,
0,0,0,0,0,0,0,0,0,0,0,0,0,0,0,0,0,0,0,0,0,0,0,0,0,0,0,0,0,0,0,0,0,0,0,0,0,0,0,0,0,0,0,0,0,0,0,0,0,0,0,0,0,0,0,0,0,0,0,0,0,0,0,0,
0,0,0,0,0,0,0,0,0,0,0,0,0,0,0,0,0,0,0,0,0,0,0,0,0,0,0,0,0,0,0,0,0,0,0,0,0,0,0,0,0,0,0,0,0,0,0,0,0,0,0,0,0,0,0,0,0,0,0,0,0,0,0,0,
0,0,0,0,0,0,0,0,0,0,0,0,0,0,0,0,0,0,0,0,0,0,0,0,0,0,0,0,0,0,0,0,0,0,0,0,0,0,0,0,0,0,0,0,0,0,0,0,0,0,0,0,0,0,0,0,0,0,0,0,0,0,0,0,
0,0,0,0,0,0,0,0,0,0,0,0,0,0,0,0,0,0,0,0,0,0,0,0,0,0,0,0,0,0,0,0,0,0,0,0,0,0,0,0,0,0,0,0,0,0,0,0,0,0,0,0,0,0,0,0,0,0,0,0,0,0,0,0,
0,0,0,0,0,0,0,0,0,0,0,0,0,0,0,0,0,0,0,0,0,0,0,0,0,0,0,0,0,0,0,0,0,0,0,0,0,0,0,0,0,0,0,0,0,0,0,0,0,0,0,0,0,0,0,0,0,0,0,0,0,0,0,0,
0,0,0,0,0,0,0,0,0,0,0,0,0,0,0,0,0,0,0,0,0,0,0,0,0,0,0,0,0,0,0,0,0,0,0,0,0,0,0,0,0,0,0,0,0,0,0,0,0,0,0,0,0,0,0,0,0,0,0,0,0,0,0,0,
0,0,0,0,0,0,0,0,0,0,0,0,0,0,0,0,0,0,0,0,0,0,0,0,0,0,0,0,0,0,0,0,0,0,0,0,0,0,0,0,0,0,0,0,0,0,0,0,0,0,0,0,0,0,0,0,0,0,0,0,0,0,0,0,
0,0,0,0,0,0,0,0,0,0,0,0,0,0,0,0,0,0,0,0,0,0,0,0,0,0,0,0,0,0,0,0,0,0,0,0,0,0,0,0,0,0,0,0,0,0,0,0,0,0,0,0,0,0,0,0,0,0,0,0,0,0,0,0,
0,0,0,0,0,0,0,0,0,0,0,0,0,0,0,0,0,0,0,0,0,0,0,0,0,0,0,0,0,0,0,0,0,0,0,0,0,0,0,0,0,0,0,0,0,0,0,0,0,0,0,0,0,0,0,0,0,0,0,0,0,0,0,0,
0,0,0,0,0,0,0,0,0,0,0,0,0,0,0,0,0,5596,5574,5575,5596,5596,0,0,0,0,0,0,0,0,0,0,0,0,0,0,0,0,0,0,0,0,0,0,0,0,0,0,0,0,0,0,0,0,0,0,0,0,0,0,0,0,0,0,
0,0,0,0,0,0,0,0,0,0,0,0,0,0,0,0,0,5576,5577,5578,5579,5580,0,0,0,0,0,0,0,0,0,0,0,0,0,0,0,0,0,0,0,0,0,0,0,0,0,0,0,0,0,0,0,0,0,0,0,0,0,0,0,0,0,0,
0,0,0,0,0,0,0,0,0,0,0,0,0,0,0,0,0,5581,5582,5583,5584,5585,0,0,0,0,0,0,0,0,0,0,0,0,0,0,0,0,0,0,0,0,0,0,0,0,0,0,0,0,0,0,0,0,0,0,0,0,0,0,0,0,0,0,
0,0,0,0,0,0,0,0,0,0,0,0,0,0,0,0,0,5586,5587,5588,5589,5590,0,0,0,0,0,0,0,0,0,0,0,0,0,0,0,0,0,0,0,0,0,0,0,0,0,0,0,0,0,0,0,0,0,0,0,0,0,0,0,0,0,0,
0,0,0,0,0,0,0,0,0,0,0,0,0,0,0,0,0,5591,5592,5593,5594,5595,0,0,0,0,0,0,0,0,0,0,0,5265,5242,5243,5244,5265,0,0,0,0,0,0,0,0,0,0,0,0,0,0,0,0,0,0,0,0,0,0,0,0,0,0,
0,0,0,0,0,0,0,0,0,0,0,0,0,0,0,0,0,0,0,0,0,0,0,0,0,0,0,0,0,0,0,0,0,5245,5246,5247,5248,5249,0,0,0,0,0,0,0,0,0,0,0,0,0,0,0,0,0,0,0,0,0,0,0,0,0,0,
0,0,0,0,0,0,0,0,0,0,0,0,0,0,0,0,0,0,0,0,0,0,0,0,0,0,0,0,0,0,0,0,0,5250,5251,5252,5253,5254,0,0,0,0,0,0,0,0,0,0,0,0,0,0,0,0,0,0,0,0,0,0,0,0,0,0,
0,0,0,0,0,0,0,0,0,0,0,0,0,0,0,0,0,0,0,0,0,0,0,0,0,0,0,0,0,0,0,0,0,5255,5256,5257,5258,5259,0,0,0,0,0,0,0,0,0,0,0,0,0,0,0,0,0,0,0,0,0,0,0,0,0,0,
0,0,0,0,0,0,0,0,0,0,0,0,0,0,0,0,0,0,0,0,0,0,0,0,0,0,0,0,0,0,0,0,0,5260,5261,5262,5263,5264,0,0,0,0,0,0,0,0,0,0,0,0,0,0,0,0,0,0,0,0,0,0,0,0,0,0,
0,0,0,0,0,0,0,0,0,0,0,0,0,0,0,0,0,0,0,0,0,0,0,0,0,0,0,0,0,0,0,0,0,0,0,0,0,0,0,0,0,0,0,0,0,0,0,0,0,0,0,0,0,0,0,0,0,0,0,0,0,0,0,0,
0,0,0,0,0,0,0,0,0,0,0,0,0,0,0,0,0,0,0,0,0,0,0,0,0,0,0,0,0,0,0,0,0,0,0,0,0,0,0,0,0,0,0,0,0,0,0,0,0,0,0,0,0,0,0,0,0,0,0,0,0,0,0,0,
0,0,0,0,0,0,0,0,0,0,0,0,0,0,0,0,0,0,0,0,0,0,0,0,0,0,0,0,0,0,0,0,0,0,0,0,0,0,0,0,0,0,0,0,0,0,0,0,0,0,0,0,0,0,0,0,0,0,0,0,0,0,0,0,
0,0,0,0,0,0,0,0,0,0,0,0,0,0,0,0,0,0,0,0,0,0,0,0,0,0,0,0,0,0,0,0,0,0,0,0,0,0,0,0,0,0,0,0,0,0,0,0,0,0,0,0,0,0,0,0,0,0,0,0,0,0,0,0,
0,0,0,0,0,0,0,0,0,0,0,0,0,0,0,0,0,0,0,0,0,0,0,0,0,0,0,0,0,0,0,0,0,0,0,0,0,0,0,0,0,0,0,0,0,0,0,0,0,0,0,0,0,0,0,0,0,0,0,0,0,0,0,0,
0,0,0,0,0,0,0,0,0,0,0,0,0,0,0,0,0,0,0,0,0,0,0,0,0,0,0,0,0,0,0,0,0,0,0,0,0,0,0,0,0,0,0,0,0,0,0,0,0,0,0,0,0,0,0,0,0,0,0,0,0,0,0,0,
0,0,0,0,0,0,0,0,0,0,0,0,0,0,0,0,0,0,0,0,0,0,0,0,0,0,0,0,0,0,0,0,0,0,0,0,0,0,0,0,0,0,0,0,0,0,0,0,0,0,0,0,0,0,0,0,0,0,0,0,0,0,0,0,
0,0,0,0,0,0,0,0,0,0,0,0,0,0,0,0,0,0,0,0,0,0,0,0,0,0,0,0,0,0,0,0,0,0,0,0,0,0,0,0,0,0,0,0,0,0,0,0,0,0,0,0,0,0,0,0,0,0,0,0,0,0,0,0,
0,0,0,0,0,0,0,0,0,0,0,0,0,0,0,0,0,0,0,0,0,0,0,0,0,0,0,0,0,0,0,0,0,0,0,0,0,0,0,0,0,0,0,0,0,0,0,0,0,0,0,0,0,0,0,0,0,0,0,0,0,0,0,0,
0,0,0,0,0,0,0,0,0,0,0,0,0,0,0,0,0,0,0,0,0,0,0,0,0,0,0,0,0,0,0,0,0,0,0,0,0,0,0,0,0,0,0,0,0,0,0,0,0,0,0,0,0,0,0,0,0,0,0,0,0,0,0,0,
0,0,0,0,0,0,0,0,0,0,0,0,0,0,0,0,0,0,0,0,0,0,0,0,0,0,0,0,0,0,0,0,0,0,0,0,0,0,0,0,0,0,0,0,0,0,0,0,0,0,0,0,0,0,0,0,0,0,0,0,0,0,0,0,
0,0,0,0,0,0,0,0,0,0,0,0,0,0,0,0,0,0,0,0,0,0,0,0,0,0,0,0,0,0,0,0,0,0,0,0,0,0,0,0,0,0,0,0,0,0,0,0,0,0,0,0,0,0,0,0,0,0,0,0,0,0,0,0,
0,0,0,0,0,0,0,0,0,0,0,0,0,0,0,0,0,0,0,0,0,0,0,0,0,0,0,0,0,0,0,0,0,0,0,0,0,0,0,0,0,0,0,0,0,0,0,0,0,0,0,0,0,0,0,0,0,0,0,0,0,0,0,0,
0,0,0,0,0,0,0,0,0,0,0,0,0,0,0,0,0,0,0,0,0,0,0,0,0,0,0,0,0,0,0,0,0,0,0,0,0,0,0,0,0,0,0,0,0,0,0,0,0,0,0,0,0,0,0,0,0,0,0,0,0,0,0,0,
0,0,0,0,0,0,0,0,0,0,0,0,0,0,0,0,0,0,0,0,0,0,0,0,0,0,0,0,0,0,0,0,0,0,0,0,0,0,0,0,0,0,0,0,0,0,0,0,0,0,0,0,0,0,0,0,0,0,0,0,0,0,0,0,
0,0,0,0,0,0,0,0,0,0,0,0,0,0,0,0,0,0,0,0,0,0,0,0,0,0,0,0,0,0,0,0,0,0,0,0,0,0,0,0,0,0,0,0,0,0,0,0,0,0,0,0,0,0,0,0,0,0,0,0,0,0,0,0,
0,0,0,0,0,0,0,0,0,0,0,0,0,0,0,0,0,0,0,0,0,0,0,0,0,0,0,0,0,0,0,0,0,0,0,0,0,0,0,0,0,0,0,0,0,0,0,0,0,0,0,0,0,0,0,0,0,0,0,0,0,0,0,0,
0,0,0,0,0,0,0,0,0,0,0,0,0,0,0,0,0,0,0,0,0,0,0,0,0,0,0,0,0,0,0,0,0,0,0,0,0,0,0,0,0,0,0,0,0,0,0,0,0,0,0,0,0,0,0,0,0,0,0,0,0,0,0,0,
0,0,0,0,0,0,0,0,0,0,0,0,0,0,0,0,0,0,0,0,0,0,0,0,0,0,0,0,0,0,0,0,0,0,0,0,0,0,0,0,0,0,0,0,0,0,0,0,0,0,0,0,0,0,0,0,0,0,0,0,0,0,0,0,
0,0,0,0,0,0,0,0,0,0,0,0,0,0,0,0,0,0,0,0,0,0,0,0,0,0,0,0,0,0,0,0,0,0,0,0,0,0,0,0,0,0,0,0,0,0,0,0,0,0,0,0,0,0,0,0,0,0,0,0,0,0,0,0,
0,0,0,0,0,0,0,0,0,0,0,0,0,0,0,0,0,0,0,0,0,0,0,0,0,0,0,0,0,0,0,0,0,0,0,0,0,0,0,0,0,0,0,0,0,0,0,0,0,0,0,0,0,0,0,0,0,0,0,0,0,0,0,0,
0,0,0,0,0,0,0,0,0,0,0,0,0,0,0,0,0,0,0,0,0,0,0,0,0,0,0,0,0,0,0,0,0,0,0,0,0,0,0,0,0,0,0,0,0,0,0,0,0,0,0,0,0,0,0,0,0,0,0,0,0,0,0,0,
0,0,0,0,0,0,0,0,0,0,0,0,0,0,0,0,0,0,0,0,0,0,0,0,0,0,0,0,0,0,0,0,0,0,0,0,0,0,0,0,0,0,0,0,0,0,0,0,0,0,0,0,0,0,0,0,0,0,0,0,0,0,0,0,
0,0,0,0,0,0,0,0,0,0,0,0,0,0,0,0,0,0,0,0,0,0,0,0,0,0,0,0,0,0,0,0,0,0,0,0,0,0,0,0,0,0,0,0,0,0,0,0,0,0,0,0,0,0,0,0,0,0,0,0,0,0,0,0,
0,0,0,0,0,0,0,0,0,0,0,0,0,0,0,0,0,0,0,0,0,0,0,0,0,0,0,0,0,0,0,0,0,0,0,0,0,0,0,0,0,0,0,0,0,0,0,0,0,0,0,0,0,0,0,0,0,0,0,0,0,0,0,0,
0,0,0,0,0,0,0,0,0,0,0,0,0,0,0,0,0,0,0,0,0,0,0,0,0,0,0,0,0,0,0,0,0,0,0,0,0,0,0,0,0,0,0,0,0,0,0,0,0,0,0,0,0,0,0,0,0,0,0,0,0,0,0,0,
0,0,0,0,0,0,0,0,0,0,0,0,0,0,0,0,0,0,0,0,0,0,0,0,0,0,0,0,0,0,0,0,0,0,0,0,0,0,0,0,0,0,0,0,0,0,0,0,0,0,0,0,0,0,0,0,0,0,0,0,0,0,0,0,
0,0,0,0,0,0,0,0,0,0,0,0,0,0,0,0,0,0,0,0,0,0,0,0,0,0,0,0,0,0,0,0,0,0,0,0,0,0,0,0,0,0,0,0,0,0,0,0,0,0,0,0,0,0,0,0,0,0,0,0,0,0,0,0,
0,0,0,0,0,0,0,0,0,0,0,0,0,0,0,0,0,0,0,0,0,0,0,0,0,0,0,0,0,0,0,0,0,0,0,0,0,0,0,0,0,0,0,0,0,0,0,0,0,0,0,0,0,0,0,0,0,0,0,0,0,0,0,0,
0,0,0,0,0,0,0,0,0,0,0,0,0,0,0,0,0,0,0,0,0,0,0,0,0,0,0,0,0,0,0,0,0,0,0,0,0,0,0,0,0,0,0,0,0,0,0,0,0,0,0,0,0,0,0,0,0,0,0,0,0,0,0,0,
0,0,0,0,0,0,0,0,0,0,0,0,0,0,0,0,0,0,0,0,0,0,0,0,0,0,0,0,0,0,0,0,0,0,0,0,0,0,0,0,0,0,0,0,0,0,0,0,0,0,0,0,0,0,0,0,0,0,0,0,0,0,0,0,
0,0,0,0,0,0,0,0,0,0,0,0,0,0,0,0,0,0,0,0,0,0,0,0,0,0,0,0,0,0,0,0,0,0,0,0,0,0,0,0,0,0,0,0,0,0,0,0,0,0,0,0,0,0,0,0,0,0,0,0,0,0,0,0
</data>
 </layer>
 <layer id="6" name="Collision" width="64" height="52">
  <data encoding="csv">
7029,7028,7028,7029,7029,7028,7028,7028,7029,7028,7028,7029,7029,7028,7028,7028,7028,7029,7028,7029,7028,7029,7028,7028,7029,7029,7029,7029,7029,7029,7029,7029,7029,7029,7029,7029,7029,7029,7029,7029,7029,7029,7029,7029,7029,7029,7029,7029,7029,7029,7029,7029,7029,7029,7029,7029,7029,7029,7029,7029,7029,7029,7029,7029,
7028,7028,7028,7028,7028,7028,7028,7028,7028,7029,7028,7028,7028,7028,7028,7028,7028,7028,7028,7028,7028,7028,7028,7028,7029,7029,7029,7029,7029,7029,7029,7029,7029,7029,7029,7029,7029,7029,7029,7029,7029,7029,7029,7029,7029,7029,7029,7029,7029,7029,7029,7029,7029,7029,7029,7029,7029,7029,7029,7029,7029,7029,7029,7029,
7028,7029,7028,7029,7028,7028,7029,7028,7028,7028,7029,7028,7028,7029,7028,7028,7029,7028,7029,7029,7028,7028,7028,7028,7029,7029,7029,7029,7029,7029,7029,7029,7029,7029,7029,7029,7029,7029,7029,7029,7029,7029,7029,7029,7029,7029,7029,7029,7029,7029,7029,7029,7029,7029,7029,7029,7029,7029,7029,7029,7029,7029,7029,7029,
7028,7029,7028,7028,7028,7029,7028,7028,7028,7029,7028,7029,7028,7028,7028,7028,7029,7028,7028,7029,7028,7028,7028,7028,7029,7029,7029,7029,7029,7029,7029,7029,7029,7029,7029,7029,7029,7029,7029,7029,7029,7029,7029,7029,7029,7029,7029,7029,7029,7029,7029,7029,7029,7029,7029,7029,7029,7029,7029,7029,7029,7029,7029,7029,
7029,7028,7028,7028,7028,7028,7028,7029,7028,7028,7028,7028,7028,7028,7028,7029,7028,7028,7028,7028,7028,7028,7028,7028,7029,7029,7029,7029,7029,7029,7029,7029,7029,7029,7029,7029,7029,7029,7029,7029,7029,7029,7029,7029,7029,7029,7029,7029,7029,7029,7029,7029,7029,7029,7029,7029,7029,7029,7029,7029,7029,7029,7029,7029,
7028,7028,7028,7029,7028,7028,7028,7028,7028,7028,7028,7028,7028,7029,7028,7029,7028,7028,7028,7028,7028,7028,7028,7028,7028,7028,7028,7029,7029,7029,7029,7029,7029,7029,7029,7029,7029,7029,7029,7029,7029,7029,7029,7029,7029,7029,7028,7028,7028,7028,7028,7028,7028,7028,7028,7028,7028,7028,7028,7028,7028,7028,7028,7028,
7028,7029,7028,7028,7028,7028,7028,7028,7028,7028,7028,7028,7028,7028,7028,7028,7028,7028,7028,7028,7028,7028,7028,7028,7028,7028,7028,7028,7028,7028,7028,7028,7028,7029,7029,7029,7029,7029,7029,7029,7029,7029,7029,7029,7029,7028,7028,7028,7028,7028,7028,7028,7028,7028,7028,7028,7028,7028,7028,7028,7028,7028,7028,7028,
7029,7028,7029,7028,7028,7028,7028,7028,7028,7028,7028,7028,7028,7028,7029,7028,7028,7028,7028,7028,7028,7028,7028,7028,7028,7028,7028,7028,7028,7028,7029,7029,7029,7029,7029,7029,7029,7029,7029,7029,7029,7029,7029,7029,7029,7029,7028,7028,7028,7028,7028,7028,7028,7028,7028,7028,7028,7028,7028,7028,7028,7028,7028,7028,
7028,7029,7028,7028,7028,7028,7028,7028,7028,7028,7028,7029,7028,7028,7028,7028,7028,7029,7028,7028,7028,7028,7028,7028,7028,7028,7028,7028,7028,7028,7029,7029,7029,7029,7029,7029,7029,7029,7029,7029,7029,7029,7029,7029,7029,7029,7028,7028,7028,7028,7028,7028,7028,7028,7028,7029,7028,7028,7028,7028,7028,7028,7028,7028,
7028,7028,7028,7029,7028,7028,7028,7028,7028,7029,7028,7028,7028,7028,7028,7028,7028,7028,7028,7029,7029,7028,7028,7028,7028,7028,7028,7028,7028,7028,7028,7029,7029,7029,7029,7029,7029,7029,7029,7029,7029,7029,7029,7029,7029,7029,7028,7028,7028,7028,7028,7029,7028,7028,7028,7028,7028,7028,7028,7028,7028,7028,7028,7028,
7028,7029,7028,7028,7028,7028,7028,7028,7028,7028,7028,7028,7029,7029,7028,7028,7028,7028,7028,7028,7028,7028,7028,7028,7028,7028,7028,7028,7028,7028,7029,7029,7029,7029,7029,7029,7029,7029,7029,7029,7029,7029,7029,7029,7029,7029,7028,7028,7028,7028,7028,7028,7028,7029,7028,7028,7028,7029,7028,7028,7029,7028,7028,7028,
7028,7028,7029,7028,7028,7029,7028,7028,7028,7028,7028,7029,7028,7028,7028,7028,7028,7028,7028,7028,7028,7028,7028,7028,7028,7028,7028,7028,7028,7029,7029,7029,7029,7029,7029,7029,7029,7029,7029,7029,7029,7029,7029,7029,7029,7029,7029,7028,7028,7028,7028,7028,7028,7028,7028,7028,7028,7028,7028,7028,7028,7028,7029,7028,
7028,7029,7028,7028,7028,7028,7028,7028,7028,7028,7028,7028,7028,7028,7028,7028,7028,7028,7028,7028,7028,7028,7028,7028,7028,7028,7028,7028,7028,7029,7029,7029,7029,7029,7029,7029,7029,7029,7029,7029,7029,7029,7029,7029,7029,7029,7029,7028,7028,7028,7028,7028,7028,7028,7028,7028,7028,7028,7028,7028,7028,7029,7028,7028,
7028,7028,7028,7028,7028,7028,7028,7028,7028,7028,7028,7028,7028,7028,7028,7028,7028,7029,7029,7029,7029,7029,7028,7028,7028,7028,7028,7028,7028,7029,7029,7029,7029,7029,7029,7029,7029,7029,7028,7029,7029,7029,7028,7028,7029,7029,7029,7029,7028,7028,7029,7028,7028,7028,7028,7028,7028,7029,7029,7028,7028,7028,7029,7028,
7028,7028,7028,7028,7028,7028,7028,7028,7028,7029,7028,7028,7028,7028,7029,7029,7028,7029,7029,7029,7029,7029,7028,7029,7029,7029,7028,7028,7028,7028,7029,7029,7028,7028,7028,7028,7029,7028,7028,7028,7029,7028,7028,7028,7028,7029,7029,7028,7028,7028,7028,7028,7028,7029,7028,7028,7028,7028,7028,7029,7028,7028,7028,7028,
7028,7029,7028,7028,7028,7028,7029,7028,7028,7028,7028,7028,7028,7028,7028,7028,7028,7029,7029,7028,7029,7029,7028,7028,7028,7028,7029,7029,7028,7028,7028,7028,7028,7028,7028,7028,7028,7028,7028,7028,7028,7028,7028,7028,7028,7028,7029,7029,7028,7028,7028,7028,7028,7028,7028,7028,7028,7028,7028,7028,7028,7028,7028,7028,
7028,7028,7028,7028,7028,7028,7028,7028,7028,7028,7028,7028,7028,7028,7028,7028,7029,7028,7028,7028,7028,7028,7029,7028,7028,7028,7028,7028,7028,7029,7028,7029,7029,7028,7028,7028,7028,7028,7028,7028,7028,7028,7028,7028,7028,7028,7029,7029,7028,7028,7028,7028,7028,7029,7028,7029,7028,7028,7028,7028,7028,7028,7028,7028,
7028,7028,7028,7028,7028,7028,7028,7028,7028,7028,7028,7028,7028,7028,7028,7028,7028,7028,7028,7028,7028,7028,7028,7028,7028,7028,7028,7028,7028,7028,7028,7028,7028,7029,7029,7029,7029,7029,7028,7028,7028,7028,7028,7028,7028,7028,7029,7029,7029,7028,7028,7029,7028,7028,7028,7028,7028,7028,7028,7028,7028,7028,7029,7028,
7028,7028,7029,7028,7028,7028,7028,7028,7028,7028,7028,7028,7029,7029,7028,7028,7028,7028,7028,7028,7028,7029,7028,7028,7029,7029,7028,7029,7029,7028,7028,7028,7028,7029,7029,7029,7029,7029,7028,7028,7028,7028,7028,7028,7028,7028,7028,7029,7029,7028,7028,7029,7028,7028,7028,7028,7028,7028,7028,7028,7028,7028,7028,7028,
7028,7028,7028,7028,7029,7028,7028,7028,7028,7028,7029,7028,7028,7028,7028,7028,7028,7028,7028,7028,7028,7028,7028,7028,7028,7028,7028,7028,7029,7029,7029,7028,7029,7029,7029,7028,7029,7029,7029,7029,7028,7028,7028,7028,7028,7028,7028,7029,7029,7029,7028,7028,7028,7028,7028,7028,7028,7028,7028,7028,7028,7029,7028,7028,
7028,7028,7028,7028,7028,7028,7028,7028,7028,7028,7028,7028,7028,7028,7028,7028,7028,7028,7028,7028,7028,7028,7028,7028,7028,7028,7028,7028,7028,7028,7028,7028,7028,7028,7028,7028,7028,7028,7028,7028,7028,7028,7028,7028,7028,7028,7028,7028,7029,7029,7028,7028,7028,7028,7028,7028,7028,7028,7028,7028,7028,7028,7028,7028,
7028,7028,7028,7028,7028,7028,7028,7028,7028,7028,7028,7028,7028,7028,7028,7028,7028,7028,7028,7028,7028,7028,7028,7028,7028,7028,7028,7028,7028,7028,7028,7028,7028,7028,7028,7028,7028,7029,7029,7028,7028,7028,7028,7028,7028,7028,7028,7028,7029,7029,7029,7028,7028,7028,7029,7028,7028,7028,7028,7028,7029,7028,7028,7028,
7028,7028,7028,7028,7028,7028,7028,7028,7028,7028,7028,7028,7028,7028,7028,7028,7028,7028,7028,7028,7028,7028,7028,7028,7028,7028,7028,7028,7028,7028,7028,7028,7028,7028,7028,7028,7028,7028,7028,7028,7028,7028,7028,7028,7028,7028,7028,7028,7029,7029,7029,7029,7028,7028,7028,7028,7029,7028,7028,7028,7028,7028,7028,7028,
7028,7028,7028,7028,7028,7028,7028,7028,7028,7028,7028,7028,7028,7028,7028,7028,7028,7028,7028,7028,7028,7028,7028,7028,7028,7028,7028,7028,7028,7028,7028,7028,7028,7028,7028,7028,7028,7028,7028,7028,7028,7028,7028,7028,7028,7028,7028,7028,7029,7029,7029,7028,7028,7028,7028,7029,7028,7028,7028,7028,7028,7028,7028,7028,
7029,7028,7028,7028,7029,7029,7028,7029,7028,7029,7029,7028,7028,7028,7029,7028,7028,7028,7028,7028,7028,7029,7028,7028,7028,7028,7028,7028,7028,7028,7028,7028,7028,7028,7028,7028,7028,7028,7028,7028,7028,7028,7028,7028,7028,7028,7028,7028,7028,7029,7029,7028,7028,7028,7028,7028,7028,7028,7028,7028,7028,7029,7028,7028,
7028,7028,7028,7028,7028,7029,7028,7029,7028,7029,7028,7028,7028,7028,7028,7028,7028,7028,7028,7028,7028,7028,7028,7028,7028,7028,7028,7028,7029,7029,7029,7028,7028,7028,7028,7028,7028,7028,7028,7028,7028,7028,7028,7028,7028,7028,7028,7028,7029,7029,7028,7028,7028,7028,7028,7028,7028,7028,7028,7028,7028,7028,7028,7028,
7028,7028,7028,7028,7028,7028,7028,7028,7028,7028,7028,7029,7029,7028,7028,7028,7028,7028,7028,7028,7028,7028,7028,7028,7028,7028,7028,7029,7028,7028,7028,7028,7028,7028,7029,7028,7028,7028,7028,7028,7028,7028,7028,7028,7028,7028,7028,7029,7029,7029,7029,7028,7028,7028,7028,7028,7028,7028,7028,7028,7029,7028,7028,7028,
7028,7028,7029,7028,7028,7028,7029,7028,7029,7028,7028,7028,7029,7028,7028,7028,7029,7028,7028,7028,7028,7029,7029,7028,7028,7028,7028,7029,7028,7028,7028,7028,7028,7028,7028,7028,7028,7028,7028,7028,7028,7028,7028,7028,7028,7028,7028,7028,7028,7028,7028,7028,7028,7028,7028,7028,7028,7028,7028,7028,7028,7029,7028,7028,
7028,7028,7028,7028,7028,7028,7028,7029,7029,7028,7028,7028,7028,7029,7028,7028,7028,7028,7028,7028,7028,7028,7028,7028,7028,7028,7028,7028,7028,7028,7028,7029,7028,7028,7028,7028,7028,7028,7028,7028,7029,7028,7028,7028,7028,7028,7028,7029,7029,7029,7029,7028,7028,7028,7028,7028,7028,7028,7028,7029,7028,7028,7028,7028,
7028,7029,7028,7028,7028,7028,7028,7028,7028,7028,7028,7028,7028,7028,7028,7028,7029,7028,7028,7029,7028,7028,7028,7028,7028,7029,7028,7028,7028,7028,7028,7028,7028,7028,7028,7029,7029,7029,7028,7028,7028,7028,7028,7028,7028,7028,7028,7028,7029,7029,7029,7028,7028,7028,7028,7028,7028,7028,7028,7028,7028,7028,7028,7028,
7028,7028,7028,7028,7028,7028,7028,7028,7028,7028,7028,7028,7028,7028,7028,7028,7028,7028,7028,7028,7028,7028,7028,7028,7028,7028,7028,7028,7028,7028,7028,7028,7028,7028,7028,7028,7028,7028,7029,7028,7029,7028,7028,7028,7028,7028,7028,7028,7029,7029,7029,7028,7028,7028,7028,7028,7028,7028,7028,7028,7028,7028,7028,7028,
7028,7028,7028,7028,7028,7028,7028,7028,7028,7028,7028,7028,7028,7028,7028,7028,7028,7028,7028,7028,7028,7028,7028,7028,7028,7028,7028,7028,7028,7028,7028,7028,7028,7028,7029,7028,7028,7028,7029,7028,7028,7028,7028,7028,7028,7028,7028,7028,7029,7029,7029,7028,7028,7028,7028,7028,7028,7028,7028,7028,7028,7029,7028,7028,
7028,7029,7028,7029,7028,7028,7028,7028,7028,7028,7028,7028,7028,7028,7028,7028,7028,7028,7028,7028,7028,7028,7028,7028,7028,7028,7028,7028,7028,7028,7028,7028,7028,7028,7028,7028,7028,7028,7028,7028,7028,7028,7029,7028,7029,7028,7028,7028,7029,7029,7029,7029,7028,7028,7028,7028,7028,7028,7028,7028,7028,7028,7028,7028,
7028,7029,7028,7028,7028,7028,7028,7028,7028,7028,7028,7028,7028,7028,7028,7028,7028,7028,7028,7028,7028,7028,7028,7028,7028,7028,7028,7028,7028,7028,7029,7028,7028,7028,7028,7028,7028,7028,7028,7028,7028,7028,7028,7028,7028,7028,7028,7028,7028,7029,7029,7029,7028,7029,7028,7028,7028,7028,7028,7028,7028,7028,7028,7028,
7028,7028,7029,7028,7028,7028,7028,7028,7028,7028,7028,7028,7028,7028,7028,7028,7028,7028,7028,7028,7028,7028,7028,7028,7028,7028,7028,7028,7028,7028,7028,7028,7028,7028,7028,7028,7028,7028,7028,7028,7028,7028,7028,7028,7028,7028,7028,7028,7028,7029,7029,7029,7028,7028,7029,7028,7028,7028,7028,7028,7028,7028,7028,7028,
7028,7029,7028,7028,7028,7028,7028,7028,7028,7028,7029,7028,7029,7028,7028,7029,7028,7028,7028,7028,7028,7028,7028,7028,7028,7028,7028,7028,7028,7028,7028,7028,7028,7028,7028,7028,7028,7028,7028,7029,7028,7028,7028,7028,7029,7028,7028,7028,7028,7029,7029,7029,7028,7028,7028,7028,7029,7028,7028,7028,7028,7028,7028,7028,
7028,7028,7028,7028,7028,7028,7028,7028,7028,7028,7028,7029,7029,7028,7028,7028,7029,7029,7028,7028,7028,7028,7028,7028,7028,7028,7028,7028,7028,7028,7028,7029,7028,7028,7028,7028,7028,7028,7028,7028,7028,7028,7028,7028,7029,7028,7028,7028,7028,7028,7029,7029,7029,7028,7028,7028,7028,7028,7028,7028,7028,7028,7028,7028,
7028,7028,7029,7028,7028,7028,7028,7028,7028,7028,7028,7028,7028,7028,7028,7028,7028,7028,7028,7028,7028,7028,7028,7028,7028,7028,7028,7028,7028,7028,7028,7028,7028,7028,7028,7028,7028,7028,7028,7028,7028,7028,7028,7028,7028,7028,7028,7029,7028,7028,7028,7029,7029,7028,7028,7028,7028,7028,7029,7028,7028,7028,7028,7028,
7028,7028,7029,7028,7029,7028,7028,7029,7028,7028,7028,7028,7028,7028,7028,7029,7029,7028,7028,7028,7028,7029,7029,7028,7028,7028,7028,7028,7028,7029,7028,7028,7028,7028,7028,7029,7028,7029,7028,7028,7028,7028,7028,7028,7028,7029,7028,7028,7028,7028,7029,7029,7029,7028,7028,7028,7028,7028,7028,7028,7028,7028,7028,7028,
7028,7028,7028,7029,7028,7028,7028,7028,7029,7029,7029,7028,7028,7028,7028,7028,7028,7029,7028,7028,7028,7028,7028,7028,7028,7028,7029,7028,7028,7028,7028,7028,7028,7028,7028,7028,7028,7028,7028,7028,7028,7028,7028,7028,7028,7028,7028,7028,7028,7028,7028,7029,7029,7028,7028,7028,7028,7029,7028,7028,7028,7028,7029,7028,
7028,7028,7028,7029,7028,7028,7028,7029,7028,7028,7028,7028,7028,7028,7028,7028,7028,7028,7028,7028,7028,7028,7028,7028,7028,7028,7028,7028,7028,7028,7028,7028,7028,7028,7028,7028,7028,7028,7028,7029,7028,7028,7028,7028,7028,7029,7028,7028,7028,7028,7029,7029,7029,7029,7028,7028,7028,7028,7028,7028,7028,7028,7028,7029,
7028,7028,7028,7028,7028,7028,7028,7028,7028,7028,7028,7028,7028,7028,7028,7028,7028,7028,7028,7029,7028,7028,7028,7028,7028,7028,7028,7028,7028,7028,7028,7028,7028,7028,7028,7028,7028,7028,7028,7028,7028,7028,7028,7028,7028,7028,7028,7029,7029,7028,7029,7029,7029,7028,7028,7028,7028,7028,7028,7028,7028,7028,7028,7029,
7029,7028,7029,7028,7028,7029,7029,7028,7028,7029,7028,7028,7028,7028,7028,7028,7028,7028,7029,7028,7028,7028,7028,7028,7028,7028,7028,7028,7028,7028,7028,7028,7028,7028,7028,7028,7028,7028,7029,7029,7028,7028,7028,7028,7028,7028,7028,7028,7028,7029,7029,7029,7029,7028,7028,7028,7028,7028,7028,7028,7028,7028,7029,7028,
7028,7028,7028,7028,7028,7028,7028,7028,7029,7029,7028,7028,7029,7029,7028,7028,7028,7028,7028,7028,7028,7028,7028,7029,7028,7028,7028,7028,7028,7029,7028,7029,7028,7028,7028,7028,7028,7028,7028,7028,7028,7028,7028,7028,7028,7028,7028,7028,7028,7029,7029,7029,7029,7028,7028,7028,7028,7028,7028,7028,7028,7028,7028,7029,
7029,7028,7028,7028,7028,7028,7029,7028,7028,7028,7029,7028,7028,7028,7028,7028,7028,7029,7028,7029,7028,7029,7028,7028,7029,7028,7028,7029,7029,7028,7028,7028,7028,7028,7028,7028,7028,7028,7028,7028,7028,7028,7028,7029,7029,7029,7028,7028,7028,7029,7029,7029,7029,7028,7029,7028,7028,7028,7028,7029,7028,7028,7028,7028,
7028,7029,7028,7029,7028,7028,7028,7029,7028,7028,7029,7028,7028,7029,7028,7029,7028,7028,7028,7028,7029,7028,7028,7028,7029,7028,7028,7028,7028,7028,7028,7029,7028,7029,7028,7029,7028,7028,7028,7028,7028,7028,7028,7028,7028,7028,7028,7028,7028,7028,7029,7029,7029,7028,7028,7028,7028,7028,7028,7028,7028,7028,7028,7029,
7028,7028,7028,7029,7028,7028,7028,7028,7029,7028,7028,7028,7028,7028,7028,7029,7028,7028,7028,7028,7028,7029,7028,7029,7028,7028,7028,7028,7029,7028,7029,7028,7029,7028,7028,7028,7028,7029,7028,7028,7028,7028,7028,7028,7028,7028,7028,7028,7028,7028,7029,7029,7029,7029,7028,7029,7028,7028,7028,7028,7028,7028,7028,7028,
7028,7028,7028,7028,7028,7028,7028,7028,7028,7028,7029,7028,7029,7029,7028,7028,7029,7028,7028,7028,7028,7028,7028,7029,7028,7028,7028,7028,7028,7028,7028,7028,7028,7029,7028,7028,7028,7028,7028,7028,7029,7028,7029,7028,7028,7028,7028,7028,7029,7028,7028,7029,7029,7029,7028,7028,7029,7028,7028,7028,7028,7028,7028,7028,
7029,7028,7028,7028,7028,7029,7028,7028,7028,7029,7028,7029,7028,7029,7028,7028,7028,7028,7028,7029,7028,7028,7029,7028,7028,7028,7029,7028,7029,7028,7028,7029,7028,7028,7028,7028,7029,7028,7029,7028,7028,7028,7028,7028,7028,7029,7028,7028,7028,7028,7029,7029,7029,7029,7029,7028,7028,7028,7029,7028,7028,7028,7028,7029,
7028,7028,7029,7028,7029,7028,7028,7028,7028,7028,7029,7028,7028,7029,7028,7028,7029,7028,7028,7028,7029,7028,7028,7029,7028,7029,7028,7028,7028,7028,7028,7028,7029,7028,7028,7028,7029,7028,7029,7028,7028,7029,7028,7029,7028,7028,7028,7028,7028,7028,7028,7029,7029,7029,7029,7028,7028,7028,7028,7028,7028,7029,7028,7028,
7028,7028,7028,7028,7028,7029,7028,7028,7028,7029,7028,7028,7028,7028,7028,7028,7028,7029,7028,7029,7028,7028,7028,7028,7028,7028,7028,7028,7029,7028,7029,7028,7028,7028,7028,7029,7028,7028,7028,7028,7028,7028,7028,7028,7028,7029,7029,7028,7029,7028,7028,7028,7029,7029,7029,7028,7028,7028,7028,7028,7028,7028,7029,7028,
7028,7028,7029,7028,7028,7029,7028,7028,7029,7028,7029,7029,7028,7028,7029,7028,7028,7028,7028,7028,7028,7029,7028,7028,7028,7028,7028,7029,7028,7028,7029,7028,7029,7029,7028,7028,7028,7028,7028,7029,7028,7029,7028,7028,7028,7028,7028,7028,7029,7028,7028,7028,7028,7029,7029,7028,7028,7028,7028,7029,7029,7028,7028,7028
</data>
 </layer>
 <objectgroup id="7" name="Scenery">
  <object id="1" gid="2147490732" x="712" y="-1" width="64" height="64" />
  <object id="2" gid="2147490729" x="188" y="0" width="64" height="64" />
  <object id="3" gid="2147490732" x="-18" y="1" width="64" height="64" />
  <object id="4" gid="7084" x="105" y="1" width="64" height="64" />
  <object id="5" gid="2147490726" x="615" y="1" width="64" height="64" />
  <object id="6" gid="2147490750" x="145" y="2" width="64" height="64" />
  <object id="7" gid="7102" x="169" y="3" width="64" height="64" />
  <object id="8" gid="7194" x="368" y="4" width="64" height="64" />
  <object id="9" gid="7078" x="39" y="5" width="64" height="64" />
  <object id="10" gid="7078" x="745" y="5" width="64" height="64" />
  <object id="11" gid="2147490750" x="19" y="6" width="64" height="64" />
  <object id="12" gid="2147490869" x="352" y="8" width="64" height="64" />
  <object id="13" gid="2147490732" x="249" y="8" width="64" height="64" />
  <object id="14" gid="7084" x="308" y="8" width="64" height="64" />
  <object id="15" gid="2147490732" x="866" y="9" width="64" height="64" />
  <object id="16" gid="2147490869" x="360" y="11" width="64" height="64" />
  <object id="17" gid="7078" x="437" y="11" width="64" height="64" />
  <object id="18" gid="2147490732" x="901" y="11" width="64" height="64" />
  <object id="19" gid="2147490750" x="769" y="12" width="64" height="64" />
  <object id="20" gid="7084" x="662" y="13" width="64" height="64" />
  <object id="21" gid="7081" x="277" y="15" width="64" height="64" />
  <object id="22" gid="2147490806" x="360" y="16" width="64" height="64" />
  <object id="23" gid="7078" x="478" y="16" width="64" height="64" />
  <object id="24" gid="7078" x="824" y="18" width="64" height="64" />
  <object id="25" gid="2147490726" x="932" y="19" width="64" height="64" />
  <object id="26" gid="2147490726" x="985" y="20" width="64" height="64" />
  <object id="27" gid="7158" x="368" y="22" width="64" height="64" />
  <object id="28" gid="2147490726" x="123" y="26" width="64" height="64" />
  <object id="29" gid="2147490726" x="497" y="27" width="64" height="64" />
  <object id="30" gid="7158" x="360" y="28" width="64" height="64" />
  <object id="31" gid="2147490726" x="902" y="28" width="64" height="64" />
  <object id="32" gid="2147490732" x="890" y="29" width="64" height="64" />
  <object id="33" gid="2147490726" x="431" y="33" width="64" height="64" />
  <object id="34" gid="7078" x="-3" y="36" width="64" height="64" />
  <object id="35" gid="7081" x="237" y="37" width="64" height="64" />
  <object id="36" gid="7084" x="74" y="38" width="64" height="64" />
  <object id="37" gid="7078" x="270" y="38" width="64" height="64" />
  <object id="38" gid="2147490726" x="638" y="39" width="64" height="64" />
  <object id="39" gid="2147490726" x="461" y="40" width="64" height="64" />
  <object id="40" gid="2147490726" x="284" y="41" width="64" height="64" />
  <object id="41" gid="2147490726" x="622" y="41" width="64" height="64" />
  <object id="42" gid="2147490750" x="31" y="43" width="64" height="64" />
  <object id="43" gid="2147490732" x="135" y="43" width="64" height="64" />
  <object id="44" gid="2147490726" x="186" y="44" width="64" height="64" />
  <object id="45" gid="7078" x="695" y="47" width="64" height="64" />
  <object id="46" gid="2147490726" x="747" y="47" width="64" height="64" />
  <object id="47" gid="7194" x="398" y="52" width="64" height="64" />
  <object id="48" gid="2147490728" x="824" y="53" width="64" height="64" />
  <object id="49" gid="7080" x="947" y="53" width="64" height="64" />
  <object id="50" gid="7194" x="930" y="53" width="64" height="64" />
  <object id="51" gid="2147490729" x="228" y="54" width="64" height="64" />
  <object id="52" gid="7084" x="-2" y="55" width="64" height="64" />
  <object id="53" gid="2147490869" x="406" y="56" width="64" height="64" />
  <object id="54" gid="7158" x="724" y="59" width="64" height="64" />
  <object id="55" gid="2147490726" x="60" y="60" width="64" height="64" />
  <object id="56" gid="7083" x="828" y="61" width="64" height="64" />
  <object id="57" gid="2147490750" x="124" y="61" width="64" height="64" />
  <object id="58" gid="2147490869" x="804" y="62" width="64" height="64" />
  <object id="59" gid="7080" x="952" y="62" width="64" height="64" />
  <object id="60" gid="7194" x="934" y="62" width="64" height="64" />
  <object id="61" gid="2147490726" x="281" y="63" width="64" height="64" />
  <object id="62" gid="7078" x="154" y="64" width="64" height="64" />
  <object id="63" gid="7079" x="-20" y="65" width="64" height="64" />
  <object id="64" gid="7158" x="445" y="68" width="64" height="64" />
  <object id="65" gid="7083" x="649" y="68" width="64" height="64" />
  <object id="66" gid="2147490869" x="496" y="70" width="64" height="64" />
  <object id="67" gid="7158" x="626" y="70" width="64" height="64" />
  <object id="68" gid="7080" x="987" y="71" width="64" height="64" />
  <object id="69" gid="7183" x="973" y="71" width="64" height="64" />
  <object id="70" gid="7078" x="82" y="71" width="64" height="64" />
  <object id="71" gid="2147490732" x="211" y="71" width="64" height="64" />
  <object id="72" gid="7083" x="692" y="72" width="64" height="64" />
  <object id="73" gid="7083" x="746" y="72" width="64" height="64" />
  <object id="74" gid="2147490831" x="447" y="74" width="64" height="64" />
  <object id="75" gid="2147490842" x="724" y="74" width="64" height="64" />
  <object id="76" gid="2147490728" x="519" y="75" width="64" height="64" />
  <object id="77" gid="2147490842" x="670" y="75" width="64" height="64" />
  <object id="78" gid="2147490731" x="371" y="77" width="64" height="64" />
  <object id="79" gid="2147490731" x="417" y="77" width="64" height="64" />
  <object id="80" gid="2147490806" x="984" y="79" width="64" height="64" />
  <object id="81" gid="2147490728" x="749" y="80" width="64" height="64" />
  <object id="82" gid="2147490728" x="871" y="81" width="64" height="64" />
  <object id="83" gid="2147490806" x="518" y="82" width="64" height="64" />
  <object id="84" gid="7158" x="726" y="83" width="64" height="64" />
  <object id="85" gid="7083" x="828" y="83" width="64" height="64" />
  <object id="86" gid="7158" x="805" y="83" width="64" height="64" />
  <object id="87" gid="2147490806" x="860" y="83" width="64" height="64" />
  <object id="88" gid="2147490869" x="950" y="83" width="64" height="64" />
  <object id="89" gid="7078" x="20" y="83" width="64" height="64" />
  <object id="90" gid="7080" x="375" y="84" width="64" height="64" />
  <object id="91" gid="7183" x="358" y="84" width="64" height="64" />
  <object id="92" gid="2147490731" x="582" y="84" width="64" height="64" />
  <object id="93" gid="2147490728" x="780" y="84" width="64" height="64" />
  <object id="94" gid="2147490869" x="824" y="84" width="64" height="64" />
  <object id="95" gid="2147490728" x="908" y="84" width="64" height="64" />
  <object id="96" gid="2147490869" x="981" y="84" width="64" height="64" />
  <object id="97" gid="7194" x="741" y="85" width="64" height="64" />
  <object id="98" gid="2147490731" x="951" y="85" width="64" height="64" />
  <object id="99" gid="7102" x="209" y="85" width="64" height="64" />
  <object id="100" gid="7194" x="446" y="88" width="64" height="64" />
  <object id="101" gid="7083" x="693" y="88" width="64" height="64" />
  <object id="102" gid="7083" x="469" y="89" width="64" height="64" />
  <object id="103" gid="7221" x="670" y="89" width="64" height="64" />
  <object id="104" gid="7194" x="496" y="91" width="64" height="64" />
  <object id="105" gid="7158" x="402" y="94" width="64" height="64" />
  <object id="106" gid="2147490728" x="697" y="94" width="64" height="64" />
  <object id="107" gid="2147490751" x="512" y="94.4" width="64" height="64" />
  <object id="108" gid="7080" x="421" y="95" width="64" height="64" />
  <object id="109" gid="7103" x="571.2" y="96" width="64" height="64" />
  <object id="110" gid="2147490726" x="182" y="96" width="64" height="64" />
  <object id="111" gid="7080" x="468" y="97" width="64" height="64" />
  <object id="112" gid="7158" x="449" y="97" width="64" height="64" />
  <object id="113" gid="7078" x="-11" y="98" width="64" height="64" />
  <object id="114" gid="7080" x="419" y="99" width="64" height="64" />
  <object id="115" gid="2147490842" x="513" y="99" width="64" height="64" />
  <object id="116" gid="2147490869" x="572" y="99" width="64" height="64" />
  <object id="117" gid="7083" x="700" y="99" width="64" height="64" />
  <object id="118" gid="2147490831" x="677" y="99" width="64" height="64" />
  <object id="119" gid="7183" x="696" y="99" width="64" height="64" />
  <object id="120" gid="2147490869" x="405" y="100" width="64" height="64" />
  <object id="121" gid="2147490728" x="605" y="100" width="64" height="64" />
  <object id="122" gid="2147490831" x="646" y="100" width="64" height="64" />
  <object id="123" gid="2147490731" x="647" y="101" width="64" height="64" />
  <object id="124" gid="7103" x="502.4" y="104" width="64" height="64" />
  <object id="125" gid="2147490751" x="587.2" y="104" width="64" height="64" />
  <object id="126" gid="7082" x="544" y="107.2" width="64" height="64" />
  <object id="127" gid="7158" x="516.8" y="112" width="64" height="64" />
  <object id="128" gid="2147490831" x="693" y="117" width="64" height="64" />
  <object id="129" gid="2147490732" x="-23" y="119" width="64" height="64" />
  <object id="130" gid="2147490726" x="11" y="122" width="64" height="64" />
  <object id="131" gid="7161" x="198.4" y="124.8" width="64" height="64" />
  <object id="132" gid="7161" x="243.2" y="134.4" width="64" height="64" />
  <object id="133" gid="7161" x="152" y="137.6" width="64" height="64" />
  <object id="134" gid="7078" x="-6" y="141" width="64" height="64" />
  <object id="135" gid="7084" x="852" y="142" width="64" height="64" />
  <object id="136" gid="7079" x="799" y="147" width="64" height="64" />
  <object id="137" gid="2147490726" x="25" y="150" width="64" height="64" />
  <object id="138" gid="7176" x="292.8" y="153.6" width="64" height="64" />
  <object id="139" gid="7161" x="116.8" y="156.8" width="64" height="64" />
  <object id="140" gid="7162" x="182.4" y="163.2" width="64" height="64" />
  <object id="141" gid="7078" x="942" y="170" width="64" height="64" />
  <object id="142" gid="2147490750" x="-13" y="171" width="64" height="64" />
  <object id="143" gid="7084" x="821" y="175" width="64" height="64" />
  <object id="144" gid="2147490726" x="892" y="175" width="64" height="64" />
  <object id="145" gid="7084" x="0" y="180" width="64" height="64" />
  <object id="146" gid="7078" x="969" y="183" width="64" height="64" />
  <object id="147" gid="2147490812" x="59" y="187" width="64" height="64" />
  <object id="148" gid="2147490831" x="153" y="192" width="64" height="64" />
  <object id="149" gid="2147490732" x="949" y="193" width="64" height="64" />
  <object id="150" gid="2147490726" x="-10" y="199" width="64" height="64" />
  <object id="151" gid="7078" x="779" y="209" width="64" height="64" />
  <object id="152" gid="2147490732" x="889" y="211" width="64" height="64" />
  <object id="153" gid="7078" x="897" y="214" width="64" height="64" />
  <object id="154" gid="2147490732" x="969" y="222" width="64" height="64" />
  <object id="155" gid="7163" x="618" y="225" width="64" height="64" />
  <object id="156" gid="7078" x="924" y="227" width="64" height="64" />
  <object id="157" gid="7084" x="829" y="231" width="64" height="64" />
  <object id="158" gid="7084" x="-41" y="232" width="64" height="64" />
  <object id="159" gid="2147490831" x="544" y="235" width="64" height="64" />
  <object id="160" gid="2147490807" x="116" y="236" width="64" height="64" />
  <object id="161" gid="7088" x="358.4" y="240" width="64" height="64" />
  <object id="162" gid="7101" x="211.2" y="240" width="64" height="64" />
  <object id="163" gid="7209" x="396.8" y="249.6" width="64" height="64" />
  <object id="164" gid="2147490815" x="71" y="252" width="64" height="64" />
  <object id="165" gid="7084" x="-11" y="253" width="64" height="64" />
  <object id="166" gid="7113" x="232" y="259.2" width="64" height="64" />
  <object id="167" gid="7113" x="328" y="259.2" width="64" height="64" />
  <object id="168" gid="7078" x="823" y="262" width="64" height="64" />
  <object id="169" gid="7134" x="432" y="265.6" width="64" height="64" />
  <object id="170" gid="7078" x="863" y="270" width="64" height="64" />
  <object id="171" gid="7114" x="473.6" y="270.4" width="64" height="64" />
  <object id="172" gid="7078" x="788" y="273" width="64" height="64" />
  <object id="173" gid="7084" x="-41" y="276" width="64" height="64" />
  <object id="174" gid="7084" x="966" y="276" width="64" height="64" />
  <object id="175" gid="2147490732" x="15" y="290" width="64" height="64" />
  <object id="176" gid="7165" x="313.6" y="294.4" width="64" height="64" />
  <object id="177" gid="7106" x="416" y="294.4" width="64" height="64" />
  <object id="178" gid="7089" x="176" y="297.6" width="64" height="64" />
  <object id="179" gid="7096" x="361.6" y="297.6" width="64" height="64" />
  <object id="180" gid="2147490726" x="791" y="303" width="64" height="64" />
  <object id="181" gid="7109" x="484.8" y="312" width="64" height="64" />
  <object id="182" gid="7094" x="595.2" y="313.6" width="64" height="64" />
  <object id="183" gid="7113" x="136" y="315.2" width="64" height="64" />
  <object id="184" gid="7113" x="424" y="315.2" width="64" height="64" />
  <object id="185" gid="7097" x="41.6" y="315.2" width="64" height="64" />
  <object id="186" gid="7098" x="454.4" y="315.2" width="64" height="64" />
  <object id="187" gid="7084" x="956" y="318" width="64" height="64" />
  <object id="188" gid="7030" x="516" y="320" width="64" height="64" />
  <object id="189" gid="7031" x="556" y="320" width="64" height="64" />
  <object id="190" gid="7178" x="841.6" y="348.8" width="64" height="64" />
  <object id="191" gid="7095" x="582.4" y="350.4" width="64" height="64" />
  <object id="192" gid="7078" x="929" y="352" width="64" height="64" />
  <object id="193" gid="7157" x="870.4" y="361.6" width="64" height="64" />
  <object id="194" gid="7196" x="892.8" y="377.6" width="64" height="64" />
  <object id="195" gid="7135" x="851.2" y="382.4" width="64" height="64" />
  <object id="196" gid="7188" x="88" y="385.6" width="64" height="64" />
  <object id="197" gid="7197" x="48" y="385.6" width="64" height="64" />
  <object id="198" gid="7197" x="128" y="385.6" width="64" height="64" />
  <object id="199" gid="7159" x="195.2" y="387.2" width="64" height="64" />
  <object id="200" gid="2147490726" x="-23" y="389" width="64" height="64" />
  <object id="201" gid="7158" x="304" y="393.6" width="64" height="64" />
  <object id="202" gid="7078" x="953" y="396" width="64" height="64" />
  <object id="203" gid="7080" x="441.6" y="409.6" width="64" height="64" />
  <object id="204" gid="7182" x="56" y="414.4" width="64" height="64" />
  <object id="205" gid="7182" x="88" y="414.4" width="64" height="64" />
  <object id="206" gid="7182" x="120" y="414.4" width="64" height="64" />
  <object id="207" gid="7078" x="522" y="419" width="64" height="64" />
  <object id="208" gid="7183" x="412" y="420" width="64" height="64" />
  <object id="209" gid="7085" x="164.8" y="422.4" width="64" height="64" />
  <object id="210" gid="7084" x="932" y="426" width="64" height="64" />
  <object id="211" gid="7164" x="329.6" y="435.2" width="64" height="64" />
  <object id="212" gid="2147490812" x="308" y="438" width="64" height="64" />
  <object id="213" gid="7182" x="72" y="440" width="64" height="64" />
  <object id="214" gid="7182" x="104" y="440" width="64" height="64" />
  <object id="215" gid="7079" x="12.8" y="441.6" width="64" height="64" />
  <object id="216" gid="7078" x="224" y="441.6" width="64" height="64" />
  <object id="217" gid="7160" x="163" y="443" width="64" height="64" />
  <object id="218" gid="2147490732" x="956" y="446" width="64" height="64" />
  <object id="219" gid="7159" x="409.6" y="446.4" width="64" height="64" />
  <object id="220" gid="7158" x="467.2" y="451.2" width="64" height="64" />
  <object id="221" gid="7200" x="183" y="456" width="64" height="64" />
  <object id="222" gid="2147490732" x="611" y="457" width="64" height="64" />
  <object id="223" gid="7125" x="88" y="464" width="64" height="64" />
  <object id="224" gid="7079" x="927" y="464" width="64" height="64" />
  <object id="225" gid="7159" x="234" y="467" width="64" height="64" />
  <object id="226" gid="7084" x="376" y="467.2" width="64" height="64" />
  <object id="227" gid="7167" x="281.6" y="467.2" width="64" height="64" />
  <object id="228" gid="2147490750" x="-8" y="476" width="64" height="64" />
  <object id="229" gid="7222" x="547.2" y="480" width="64" height="64" />
  <object id="230" gid="7116" x="588.8" y="488" width="64" height="64" />
  <object id="231" gid="7157" x="611.2" y="496" width="64" height="64" />
  <object id="232" gid="7220" x="512" y="502.4" width="64" height="64" />
  <object id="233" gid="7185" x="579.2" y="505.6" width="64" height="64" />
  <object id="234" gid="2147490726" x="-37" y="508" width="64" height="64" />
  <object id="235" gid="7084" x="958" y="509" width="64" height="64" />
  <object id="236" gid="2147490729" x="-8" y="516" width="64" height="64" />
  <object id="237" gid="2147490732" x="679" y="520" width="64" height="64" />
  <object id="238" gid="2147490726" x="30" y="521" width="64" height="64" />
  <object id="239" gid="7078" x="652" y="525" width="64" height="64" />
  <object id="240" gid="7078" x="451" y="529" width="64" height="64" />
  <object id="241" gid="7081" x="-15" y="543" width="64" height="64" />
  <object id="242" gid="7084" x="816" y="543" width="64" height="64" />
  <object id="243" gid="7084" x="9" y="550" width="64" height="64" />
  <object id="244" gid="2147490732" x="846" y="550" width="64" height="64" />
  <object id="245" gid="7161" x="592" y="564" width="64" height="64" />
  <object id="246" gid="2147490848" x="174" y="564" width="64" height="64" />
  <object id="247" gid="7085" x="215" y="565" width="64" height="64" />
  <object id="248" gid="7078" x="680" y="566" width="64" height="64" />
  <object id="249" gid="7160" x="135" y="570" width="64" height="64" />
  <object id="250" gid="7084" x="-4" y="573" width="64" height="64" />
  <object id="251" gid="2147490732" x="866" y="574" width="64" height="64" />
  <object id="252" gid="7200" x="150" y="579" width="64" height="64" />
  <object id="253" gid="2147490848" x="226" y="586" width="64" height="64" />
  <object id="254" gid="2147490808" x="253" y="587" width="64" height="64" />
  <object id="255" gid="2147490727" x="468" y="589" width="64" height="64" />
  <object id="256" gid="7084" x="683" y="591" width="64" height="64" />
  <object id="257" gid="2147490808" x="168" y="591" width="64" height="64" />
  <object id="258" gid="7078" x="735" y="596" width="64" height="64" />
  <object id="259" gid="7084" x="15" y="601" width="64" height="64" />
  <object id="260" gid="2147490732" x="910" y="607" width="64" height="64" />
  <object id="261" gid="7078" x="567" y="610" width="64" height="64" />
  <object id="262" gid="7079" x="698" y="611" width="64" height="64" />
  <object id="263" gid="2147490861" x="80" y="611" width="64" height="64" />
  <object id="264" gid="2147490733" x="316" y="611" width="64" height="64" />
  <object id="265" gid="7079" x="-36" y="612" width="64" height="64" />
  <object id="266" gid="7078" x="436" y="612" width="64" height="64" />
  <object id="267" gid="7200" x="45" y="614" width="64" height="64" />
  <object id="268" gid="2147490727" x="538" y="615" width="64" height="64" />
  <object id="269" gid="2147490726" x="770" y="617" width="64" height="64" />
  <object id="270" gid="2147490737" x="217.6" y="617.6" width="64" height="64" />
  <object id="271" gid="2147490848" x="1" y="618" width="64" height="64" />
  <object id="272" gid="2147490815" x="328" y="624" width="64" height="64" />
  <object id="273" gid="7089" x="128" y="627.2" width="64" height="64" />
  <object id="274" gid="7084" x="961" y="630" width="64" height="64" />
  <object id="275" gid="7200" x="101" y="631" width="64" height="64" />
  <object id="276" gid="2147490807" x="247" y="631" width="64" height="64" />
  <object id="277" gid="7164" x="388" y="636" width="64" height="64" />
  <object id="278" gid="2147490732" x="886" y="637" width="64" height="64" />
  <object id="279" gid="7160" x="25" y="640" width="64" height="64" />
  <object id="280" gid="7078" x="979" y="646" width="64" height="64" />
  <object id="281" gid="7078" x="593" y="647" width="64" height="64" />
  <object id="282" gid="7078" x="780" y="648" width="64" height="64" />
  <object id="283" gid="2147490727" x="826" y="651" width="64" height="64" />
  <object id="284" gid="2147490848" x="82" y="652" width="64" height="64" />
  <object id="285" gid="7160" x="19" y="655" width="64" height="64" />
  <object id="286" gid="7078" x="698" y="656" width="64" height="64" />
  <object id="287" gid="7079" x="278.4" y="665.6" width="64" height="64" />
  <object id="288" gid="7225" x="729.6" y="668.8" width="64" height="64" />
  <object id="289" gid="2147490729" x="984" y="670" width="64" height="64" />
  <object id="290" gid="2147490733" x="1" y="674" width="64" height="64" />
  <object id="291" gid="7213" x="269" y="678" width="64" height="64" />
  <object id="292" gid="7227" x="592" y="678.4" width="64" height="64" />
  <object id="293" gid="7085" x="67.2" y="680" width="64" height="64" />
  <object id="294" gid="7160" x="120" y="681" width="64" height="64" />
  <object id="295" gid="2147490726" x="-21" y="683" width="64" height="64" />
  <object id="296" gid="7078" x="962" y="685" width="64" height="64" />
  <object id="297" gid="2147490726" x="443" y="689" width="64" height="64" />
  <object id="298" gid="2147490848" x="96" y="690" width="64" height="64" />
  <object id="299" gid="7084" x="478" y="691" width="64" height="64" />
  <object id="300" gid="7078" x="987" y="694" width="64" height="64" />
  <object id="301" gid="7089" x="172.8" y="694.4" width="64" height="64" />
  <object id="302" gid="2147490750" x="347" y="696" width="64" height="64" />
  <object id="303" gid="7200" x="116" y="699" width="64" height="64" />
  <object id="304" gid="2147490727" x="922" y="706" width="64" height="64" />
  <object id="305" gid="7084" x="405" y="707" width="64" height="64" />
  <object id="306" gid="7078" x="429" y="707" width="64" height="64" />
  <object id="307" gid="7200" x="133" y="711" width="64" height="64" />
  <object id="308" gid="7160" x="241" y="711" width="64" height="64" />
  <object id="309" gid="2147490861" x="75" y="712" width="64" height="64" />
  <object id="310" gid="7226" x="681.6" y="713.6" width="64" height="64" />
  <object id="311" gid="2147490732" x="841" y="714" width="64" height="64" />
  <object id="312" gid="7160" x="280" y="715" width="64" height="64" />
  <object id="313" gid="7078" x="312" y="716" width="64" height="64" />
  <object id="314" gid="7078" x="357" y="717" width="64" height="64" />
  <object id="315" gid="7084" x="-19" y="719" width="64" height="64" />
  <object id="316" gid="2147490732" x="511" y="722" width="64" height="64" />
  <object id="317" gid="7084" x="24" y="723" width="64" height="64" />
  <object id="318" gid="2147490848" x="291" y="725" width="64" height="64" />
  <object id="319" gid="2147490861" x="85" y="726" width="64" height="64" />
  <object id="320" gid="7081" x="478" y="727" width="64" height="64" />
  <object id="321" gid="2147490861" x="179" y="727" width="64" height="64" />
  <object id="322" gid="7160" x="213" y="730" width="64" height="64" />
  <object id="323" gid="2147490733" x="143" y="732" width="64" height="64" />
  <object id="324" gid="2147490732" x="-11" y="733" width="64" height="64" />
  <object id="325" gid="2147490726" x="364" y="734" width="64" height="64" />
  <object id="326" gid="2147490732" x="532" y="734" width="64" height="64" />
  <object id="327" gid="7081" x="978" y="735" width="64" height="64" />
  <object id="328" gid="2147490726" x="19" y="742" width="64" height="64" />
  <object id="329" gid="7078" x="317" y="743" width="64" height="64" />
  <object id="330" gid="2147490726" x="348" y="745" width="64" height="64" />
  <object id="331" gid="2147490726" x="568" y="746" width="64" height="64" />
  <object id="332" gid="2147490809" x="857" y="748" width="64" height="64" />
  <object id="333" gid="2147490808" x="102" y="749" width="64" height="64" />
  <object id="334" gid="7078" x="420" y="750" width="64" height="64" />
  <object id="335" gid="2147490732" x="460" y="750" width="64" height="64" />
  <object id="336" gid="2147490848" x="218" y="751" width="64" height="64" />
  <object id="337" gid="7084" x="480" y="752" width="64" height="64" />
  <object id="338" gid="2147490733" x="160" y="753" width="64" height="64" />
  <object id="339" gid="2147490808" x="183" y="758" width="64" height="64" />
  <object id="340" gid="7084" x="509" y="761" width="64" height="64" />
  <object id="341" gid="2147490726" x="650" y="761" width="64" height="64" />
  <object id="342" gid="7102" x="739" y="761" width="64" height="64" />
  <object id="343" gid="2147490808" x="142" y="761" width="64" height="64" />
  <object id="344" gid="7078" x="621" y="765" width="64" height="64" />
  <object id="345" gid="2147490726" x="231" y="766" width="64" height="64" />
  <object id="346" gid="2147490726" x="351" y="766" width="64" height="64" />
  <object id="347" gid="2147490732" x="868" y="766" width="64" height="64" />
  <object id="348" gid="7078" x="113" y="769" width="64" height="64" />
  <object id="349" gid="7081" x="384" y="770" width="64" height="64" />
  <object id="350" gid="7078" x="589" y="770" width="64" height="64" />
  <object id="351" gid="7084" x="773" y="770" width="64" height="64" />
  <object id="352" gid="7084" x="902" y="770" width="64" height="64" />
  <object id="353" gid="2147490808" x="154" y="770" width="64" height="64" />
  <object id="354" gid="2147490732" x="-21" y="773" width="64" height="64" />
  <object id="355" gid="2147490732" x="699" y="775" width="64" height="64" />
  <object id="356" gid="2147490726" x="477" y="776" width="64" height="64" />
  <object id="357" gid="7081" x="50" y="777" width="64" height="64" />
  <object id="358" gid="7081" x="179" y="777" width="64" height="64" />
  <object id="359" gid="7078" x="277" y="777" width="64" height="64" />
  <object id="360" gid="2147490729" x="427" y="777" width="64" height="64" />
  <object id="361" gid="7078" x="984" y="778" width="64" height="64" />
  <object id="362" gid="2147490750" x="552" y="781" width="64" height="64" />
  <object id="363" gid="2147490726" x="334" y="782" width="64" height="64" />
  <object id="364" gid="2147490732" x="233" y="788" width="64" height="64" />
  <object id="365" gid="7084" x="289" y="788" width="64" height="64" />
  <object id="366" gid="2147490732" x="548" y="788" width="64" height="64" />
  <object id="367" gid="7081" x="0" y="789" width="64" height="64" />
  <object id="368" gid="7078" x="488" y="790" width="64" height="64" />
  <object id="369" gid="2147490831" x="797" y="791" width="64" height="64" />
  <object id="370" gid="7084" x="959" y="792" width="64" height="64" />
  <object id="371" gid="2147490732" x="177" y="794" width="64" height="64" />
  <object id="372" gid="2147490732" x="132" y="795" width="64" height="64" />
  <object id="373" gid="2147490732" x="659" y="795" width="64" height="64" />
  <object id="374" gid="2147490726" x="338" y="796" width="64" height="64" />
  <object id="375" gid="7078" x="581" y="796" width="64" height="64" />
  <object id="376" gid="7078" x="370" y="797" width="64" height="64" />
  <object id="377" gid="7084" x="44" y="799" width="64" height="64" />
  <object id="378" gid="2147490726" x="624" y="800" width="64" height="64" />
  <object id="379" gid="7102" x="718" y="801" width="64" height="64" />
  <object id="380" gid="7078" x="975" y="801" width="64" height="64" />
  <object id="381" gid="7102" x="692" y="802" width="64" height="64" />
  <object id="382" gid="2147490726" x="450" y="803" width="64" height="64" />
  <object id="383" gid="2147490727" x="62" y="804" width="64" height="64" />
  <object id="384" gid="7102" x="750" y="805" width="64" height="64" />
  <object id="385" gid="7084" x="118" y="806" width="64" height="64" />
  <object id="386" gid="7084" x="247" y="809" width="64" height="64" />
  <object id="387" gid="7084" x="417" y="809" width="64" height="64" />
  <object id="388" gid="7078" x="274" y="816" width="64" height="64" />
  <object id="389" gid="2147490726" x="536" y="816" width="64" height="64" />
  <object id="390" gid="2147490726" x="805" y="816" width="64" height="64" />
  <object id="391" gid="7081" x="7" y="818" width="64" height="64" />
  <object id="392" gid="2147490750" x="138" y="819" width="64" height="64" />
  <object id="393" gid="2147490729" x="744" y="819" width="64" height="64" />
  <object id="394" gid="7081" x="451" y="821" width="64" height="64" />
  <object id="395" gid="2147490726" x="632" y="821" width="64" height="64" />
  <object id="396" gid="2147490726" x="96" y="822" width="64" height="64" />
  <object id="397" gid="7084" x="412" y="824" width="64" height="64" />
  <object id="398" gid="7078" x="62" y="825" width="64" height="64" />
  <object id="399" gid="7078" x="602" y="826" width="64" height="64" />
  <object id="400" gid="7078" x="159" y="827" width="64" height="64" />
  <object id="401" gid="7084" x="192" y="827" width="64" height="64" />
  <object id="402" gid="2147490726" x="503" y="827" width="64" height="64" />
  <object id="403" gid="7078" x="485" y="829" width="64" height="64" />
  <object id="404" gid="2147490726" x="912" y="829" width="64" height="64" />
  <object id="405" gid="2147490726" x="930" y="829" width="64" height="64" />
  <object id="406" gid="7084" x="311" y="831" width="64" height="64" />
  <object id="407" gid="2147490726" x="716" y="834" width="64" height="64" />
  <object id="408" gid="2147490732" x="774" y="834" width="64" height="64" />
  <object id="409" gid="2147490726" x="-14" y="835" width="64" height="64" />
  <object id="410" gid="7084" x="230" y="835" width="64" height="64" />
  <object id="411" gid="7078" x="351" y="835" width="64" height="64" />
  <object id="412" gid="2147490726" x="978" y="835" width="64" height="64" />
  <object id="413" gid="7081" x="658" y="836" width="64" height="64" />
 </objectgroup>
 <objectgroup id="8" name="Objects">
  <object id="414" x="32" y="336" name="start" type="start">
   <point />
  </object>
  <object id="415" x="560" y="304" name="huntress-cabin" type="warp" width="16" height="16">
   <properties>
    <property name="goto" value="FrostmereCabin,8,9.5" />
   </properties>
  </object>
  <object id="416" x="304" y="240" name="jarl-longhouse" type="warp" width="16" height="16">
   <properties>
    <property name="goto" value="FrostmereLonghouse,10,13.5" />
   </properties>
  </object>
  <object id="417" x="0" y="320" name="west-road" type="warp" width="32" height="32">
   <properties>
    <property name="goto" value="Amberwood,49.5,31.5" />
   </properties>
  </object>
  <object id="418" x="992" y="544" name="wolf-trail" type="warp" width="32" height="32">
   <properties>
    <property name="goto" value="Gloomhollow,2.5,35" />
   </properties>
  </object>
  <object id="419" x="104" y="344" name="trapper-post" type="marker">
   <point />
  </object>
  <object id="420" x="312" y="272" name="longhouse-door" type="marker">
   <point />
  </object>
  <object id="421" x="576" y="384" name="wolf-woods" type="marker" width="448" height="448" />
  <object id="422" x="0" y="384" name="barrow" type="marker" width="416" height="448" />
  <object id="423" x="0" y="192" type="safe-zone" width="672" height="192" />
  <object id="424" x="0" y="0" name="frostmere" type="soundscape" width="1024" height="832">
   <properties>
    <property name="channel1" value="audio/music/forest.flac, 0.25" />
    <property name="channel2" value="audio/ambient/forest_air.flac, 0.3" />
   </properties>
  </object>
  <object id="425" x="384" y="48" name="mere" type="soundscape" width="352" height="224">
   <properties>
    <property name="channel4" value="audio/ambient/lake.flac, 0.29" />
   </properties>
  </object>
  <object id="426" x="0" y="352" name="barrow" type="soundscape" width="384" height="416">
   <properties>
    <property name="channel3" value="audio/ambient/stone_hum.flac, 0.29" />
    <property name="emit" value="3.0" type="float" />
   </properties>
  </object>
 </objectgroup>
</map>