<?xml version='1.0' encoding='UTF-8'?>
<map version="1.10" tiledversion="1.11.0" orientation="orthogonal" renderorder="right-down" width="16" height="12" tilewidth="16" tileheight="16" infinite="0" nextlayerid="9" nextobjectid="22">
 <tileset firstgid="1" source="../tilesets/frostmere-cabin-terrain.tsx" />
 <tileset firstgid="41" source="../tilesets/frostmere-cabin-decor.tsx" />
 <tileset firstgid="61" source="../tilesets/frostmere-cabin-furniture.tsx" />
 <tileset firstgid="463" source="../tilesets/collision.tsx" />
 <tileset firstgid="465" source="../tilesets/frostmere-cabin-props.tsx" />
 <layer id="1" name="Floor" width="16" height="12">
  <data encoding="csv">
1,1,1,1,1,1,1,1,1,1,1,1,1,1,1,1,
1,1,1,1,1,1,1,1,1,1,1,1,1,1,1,1,
1,1,1,1,1,1,1,1,1,1,1,1,1,1,1,1,
1,1,1,1,1,1,1,1,1,1,1,1,1,1,1,1,
1,1,1,1,1,1,1,1,1,1,1,1,1,1,1,1,
1,1,1,1,1,1,1,1,1,1,1,1,1,1,1,1,
1,1,1,1,1,1,1,1,1,1,1,1,1,1,1,1,
1,1,1,1,1,1,1,1,1,1,1,1,1,1,1,1,
1,1,1,1,1,1,1,1,1,1,1,1,1,1,1,1,
1,1,1,1,1,1,1,1,1,1,1,1,1,1,1,1,
1,1,1,1,1,1,1,1,1,1,1,1,1,1,1,1,
1,1,1,1,1,1,1,1,1,1,1,1,1,1,1,1
</data>
 </layer>
 <layer id="2" name="Walls" width="16" height="12">
  <data encoding="csv">
7,7,7,7,7,7,7,7,7,7,7,7,7,7,7,7,
12,13,13,13,13,13,13,13,13,13,13,13,13,13,13,19,
15,16,16,16,16,16,16,16,16,16,16,16,16,16,16,22,
9,0,0,0,0,0,0,0,0,0,0,0,0,0,0,6,
9,0,0,0,0,0,0,0,0,0,0,0,0,0,0,6,
9,0,0,0,0,0,0,0,0,0,0,0,0,0,0,6,
9,0,0,0,0,0,0,0,0,0,0,0,0,0,0,6,
9,0,0,0,0,0,0,0,0,0,0,0,0,0,0,6,
9,0,0,0,0,0,0,0,0,0,0,0,0,0,0,6,
9,0,0,0,0,0,0,0,0,0,0,0,0,0,0,6,
10,3,3,3,3,3,4,0,0,2,3,3,3,3,3,11,
7,7,7,7,7,7,9,0,0,5,7,7,7,7,7,7
</data>
 </layer>
 <layer id="3" name="Rug" width="16" height="12">
  <data encoding="csv">
0,0,0,0,0,0,0,0,0,0,0,0,0,0,0,0,
0,0,0,0,0,0,0,0,0,0,0,0,0,0,0,0,
0,0,0,0,0,0,0,0,0,0,0,0,0,0,0,0,
0,32,34,34,34,34,35,0,0,0,0,0,0,0,0,0,
0,36,37,37,37,37,27,0,0,0,0,0,0,0,0,0,
0,36,37,37,37,37,27,0,0,0,0,0,0,0,0,0,
0,28,29,29,29,29,31,0,0,0,0,0,0,0,0,0,
0,0,0,0,0,0,0,0,0,0,0,0,0,0,0,0,
0,0,0,0,0,0,0,0,0,0,0,0,0,0,0,0,
0,0,0,0,0,0,0,0,0,0,0,0,0,0,0,0,
0,0,0,0,0,0,0,0,0,0,0,0,0,0,0,0,
0,0,0,0,0,0,0,0,0,0,0,0,0,0,0,0
</data>
 </layer>
 <layer id="4" name="Decor" width="16" height="12">
  <data encoding="csv">
0,0,0,0,0,0,0,0,0,0,0,0,0,0,0,0,
0,41,42,0,0,0,45,46,49,50,53,54,0,0,0,0,
0,43,44,0,0,0,47,48,51,52,55,56,0,0,0,0,
0,0,0,0,0,0,0,0,0,0,0,0,0,0,0,0,
0,0,0,0,0,0,0,0,0,0,0,0,57,58,0,0,
0,0,0,0,0,0,0,0,0,0,0,0,59,60,0,0,
0,0,0,0,0,0,0,0,0,0,0,0,0,0,0,0,
0,0,0,0,0,0,0,0,0,0,0,0,0,0,0,0,
0,0,0,0,0,0,0,0,0,0,0,0,0,0,0,0,
0,0,0,0,0,0,0,0,0,0,0,0,0,0,0,0,
0,0,0,0,0,0,0,0,0,0,0,0,0,0,0,0,
0,0,0,0,0,0,0,0,0,0,0,0,0,0,0,0
</data>
 </layer>
 <layer id="5" name="Dynamic" width="16" height="12">
  <data encoding="csv">
0,0,0,0,0,0,0,0,0,0,0,0,0,0,0,0,
0,0,0,0,0,0,0,0,0,0,0,0,0,0,0,0,
0,0,0,61,62,0,0,0,0,0,0,0,0,65,66,0,
0,0,0,63,64,0,0,0,0,0,0,0,0,67,68,0,
0,0,0,0,0,0,0,0,0,0,0,0,0,0,0,0,
0,0,0,0,0,0,0,0,0,69,70,0,0,0,0,0,
0,0,0,0,0,0,0,0,0,71,72,0,0,0,0,0,
0,0,0,0,0,0,0,0,0,0,0,0,0,0,0,0,
0,89,90,0,0,0,0,0,0,0,0,0,0,0,0,0,
0,91,92,0,0,0,0,0,0,0,0,0,0,0,0,0,
0,0,0,0,0,0,0,0,0,0,0,0,0,0,0,0,
0,0,0,0,0,0,0,0,0,0,0,0,0,0,0,0
</data>
 </layer>
 <layer id="6" name="Collision" width="16" height="12">
  <data encoding="csv">
464,464,464,464,464,464,464,464,464,464,464,464,464,464,464,464,
464,464,464,464,464,464,464,464,464,464,464,464,464,464,464,464,
464,464,464,464,464,464,464,464,464,464,464,464,464,464,464,464,
464,464,464,464,464,464,463,463,463,463,463,463,464,464,464,464,
464,463,463,463,463,463,463,463,463,463,463,463,463,463,463,464,
464,464,463,463,463,463,463,463,463,463,463,463,463,463,463,464,
464,463,463,463,463,463,463,463,463,464,464,464,463,463,464,464,
464,464,463,463,463,463,463,463,463,464,463,463,463,463,464,464,
464,463,463,463,463,463,463,463,463,463,463,463,463,463,464,464,
464,464,464,464,463,463,464,463,463,464,464,463,463,464,464,464,
464,464,464,464,464,464,464,463,463,464,464,464,464,464,464,464,
464,464,464,464,464,464,464,463,463,464,464,464,464,464,464,464
</data>
 </layer>
 <objectgroup id="7" name="Scenery">
  <object id="1" gid="535" x="-8" y="62" width="64" height="64" />
  <object id="2" gid="533" x="8" y="62" width="64" height="64" />
  <object id="3" gid="531" x="56" y="62" width="64" height="64" />
  <object id="4" gid="578" x="168" y="62" width="64" height="64" />
  <object id="5" gid="547" x="-8" y="94" width="64" height="64" />
  <object id="6" gid="529" x="152" y="110" width="64" height="64" />
  <object id="7" gid="554" x="200" y="110" width="64" height="64" />
  <object id="8" gid="529" x="120" y="126" width="64" height="64" />
  <object id="9" gid="546" x="-8" y="126" width="64" height="64" />
  <object id="10" gid="530" x="200" y="126" width="64" height="64" />
  <object id="11" gid="564" x="200" y="142" width="64" height="64" />
  <object id="12" gid="551" x="24" y="158" width="64" height="64" />
  <object id="13" gid="544" x="72" y="158" width="64" height="64" />
  <object id="14" gid="532" x="120" y="158" width="64" height="64" />
  <object id="15" gid="566" x="136" y="158" width="64" height="64" />
  <object id="16" gid="536" x="200" y="158" width="64" height="64" />
  <object id="17" gid="554" x="184" y="158" width="64" height="64" />
 </objectgroup>
 <objectgroup id="8" name="Objects">
  <object id="18" x="128" y="152" name="start" type="start">
   <point />
  </object>
  <object id="19" x="112" y="160" name="front-door" type="warp" width="32" height="32">
   <properties>
    <property name="goto" value="Frostmere,35.5,20.5" />
   </properties>
  </object>
  <object id="20" x="56" y="120" name="huntress-bench" type="marker">
   <point />
  </object>
  <object id="21" x="16" y="32" name="hearth" type="soundscape" width="112" height="80">
   <properties>
    <property name="channel3" value="audio/ambient/campfire.flac, 0.29" />
    <property name="emit" value="3.0" type="float" />
   </properties>
  </object>
 </objectgroup>
</map>