<?xml version='1.0' encoding='UTF-8'?>
<map version="1.10" tiledversion="1.11.0" orientation="orthogonal" renderorder="right-down" width="66" height="62" tilewidth="16" tileheight="16" infinite="0" nextlayerid="9" nextobjectid="642">
 <tileset firstgid="1" source="../tilesets/glimmercap-ground.tsx" />
 <tileset firstgid="1601" source="../tilesets/glimmercap-overlay.tsx" />
 <tileset firstgid="2102" source="../tilesets/glimmercap-water.tsx" />
 <tileset firstgid="3702" source="../tilesets/glimmercap-path.tsx" />
 <tileset firstgid="5302" source="../tilesets/buildings.tsx" />
 <tileset firstgid="7045" source="../tilesets/glimmercap-decor.tsx" />
 <tileset firstgid="7109" source="../tilesets/collision.tsx" />
 <tileset firstgid="7111" source="../tilesets/embellishments.tsx" />
 <tileset firstgid="7159" source="../tilesets/glimmercap-props.tsx" />
 <layer id="1" name="Ground" width="66" height="62">
  <data encoding="csv">
1,2,3,4,5,6,7,8,9,10,11,12,13,14,15,16,17,18,19,20,21,22,23,24,25,26,27,28,29,30,31,32,33,34,35,36,37,38,39,40,1,2,3,4,5,6,7,8,9,10,11,12,13,14,15,16,17,18,19,20,21,22,23,24,25,26,
41,42,43,44,45,46,47,48,49,50,51,52,53,54,55,56,57,58,59,60,61,62,63,64,65,66,67,68,69,70,71,72,73,74,75,76,77,78,79,80,41,42,43,44,45,46,47,48,49,50,51,52,53,54,55,56,57,58,59,60,61,62,63,64,65,66,
81,82,83,84,85,86,87,88,89,90,91,92,93,94,95,96,97,98,99,100,101,102,103,104,105,106,107,108,109,110,111,112,113,114,115,116,117,118,119,120,81,82,83,84,85,86,87,88,89,90,91,92,93,94,95,96,97,98,99,100,101,102,103,104,105,106,
121,122,123,124,125,126,127,128,129,130,131,132,133,134,135,136,137,138,139,140,141,142,143,144,145,146,147,148,149,150,151,152,153,154,155,156,157,158,159,160,121,122,123,124,125,126,127,128,129,130,131,132,133,134,135,136,137,138,139,140,141,142,143,144,145,146,
161,162,163,164,165,166,167,168,169,170,171,172,173,174,175,176,177,178,179,180,181,182,183,184,185,186,187,188,189,190,191,192,193,194,195,196,197,198,199,200,161,162,163,164,165,166,167,168,169,170,171,172,173,174,175,176,177,178,179,180,181,182,183,184,185,186,
201,202,203,204,205,206,207,208,209,210,211,212,213,214,215,216,217,218,219,220,221,222,223,224,225,226,227,228,229,230,231,232,233,234,235,236,237,238,239,240,201,202,203,204,205,206,207,208,209,210,211,212,213,214,215,216,217,218,219,220,221,222,223,224,225,226,
241,242,243,244,245,246,247,248,249,250,251,252,253,254,255,256,257,258,259,260,261,262,263,264,265,266,267,268,269,270,271,272,273,274,275,276,277,278,279,280,241,242,243,244,245,246,247,248,249,250,251,252,253,254,255,256,257,258,259,260,261,262,263,264,265,266,
281,282,283,284,285,286,287,288,289,290,291,292,293,294,295,296,297,298,299,300,301,302,303,304,305,306,307,308,309,310,311,312,313,314,315,316,317,318,319,320,281,282,283,284,285,286,287,288,289,290,291,292,293,294,295,296,297,298,299,300,301,302,303,304,305,306,
321,322,323,324,325,326,327,328,329,330,331,332,333,334,335,336,337,338,339,340,341,342,343,344,345,346,347,348,349,350,351,352,353,354,355,356,357,358,359,360,321,322,323,324,325,326,327,328,329,330,331,332,333,334,335,336,337,338,339,340,341,342,343,344,345,346,
361,362,363,364,365,366,367,368,369,370,371,372,373,374,375,376,377,378,379,380,381,382,383,384,385,386,387,388,389,390,391,392,393,394,395,396,397,398,399,400,361,362,363,364,365,366,367,368,369,370,371,372,373,374,375,376,377,378,379,380,381,382,383,384,385,386,
401,402,403,404,405,406,407,408,409,410,411,412,413,414,415,416,417,418,419,420,421,422,423,424,425,426,427,428,429,430,431,432,433,434,435,436,437,438,439,440,401,402,403,404,405,406,407,408,409,410,411,412,413,414,415,416,417,418,419,420,421,422,423,424,425,426,
441,442,443,444,445,446,447,448,449,450,451,452,453,454,455,456,457,458,459,460,461,462,463,464,465,466,467,468,469,470,471,472,473,474,475,476,477,478,479,480,441,442,443,444,445,446,447,448,449,450,451,452,453,454,455,456,457,458,459,460,461,462,463,464,465,466,
481,482,483,484,485,486,487,488,489,490,491,492,493,494,495,496,497,498,499,500,501,502,503,504,505,506,507,508,509,510,511,512,513,514,515,516,517,518,519,520,481,482,483,484,485,486,487,488,489,490,491,492,493,494,495,496,497,498,499,500,501,502,503,504,505,506,
521,522,523,524,525,526,527,528,529,530,531,532,533,534,535,536,537,538,539,540,541,542,543,544,545,546,547,548,549,550,551,552,553,554,555,556,557,558,559,560,521,522,523,524,525,526,527,528,529,530,531,532,533,534,535,536,537,538,539,540,541,542,543,544,545,546,
561,562,563,564,565,566,567,568,569,570,571,572,573,574,575,576,577,578,579,580,581,582,583,584,585,586,587,588,589,590,591,592,593,594,595,596,597,598,599,600,561,562,563,564,565,566,567,568,569,570,571,572,573,574,575,576,577,578,579,580,581,582,583,584,585,586,
601,602,603,604,605,606,607,608,609,610,611,612,613,614,615,616,617,618,619,620,621,622,623,624,625,626,627,628,629,630,631,632,633,634,635,636,637,638,639,640,601,602,603,604,605,606,607,608,609,610,611,612,613,614,615,616,617,618,619,620,621,622,623,624,625,626,
641,642,643,644,645,646,647,648,649,650,651,652,653,654,655,656,657,658,659,660,661,662,663,664,665,666,667,668,669,670,671,672,673,674,675,676,677,678,679,680,641,642,643,644,645,646,647,648,649,650,651,652,653,654,655,656,657,658,659,660,661,662,663,664,665,666,
681,682,683,684,685,686,687,688,689,690,691,692,693,694,695,696,697,698,699,700,701,702,703,704,705,706,707,708,709,710,711,712,713,714,715,716,717,718,719,720,681,682,683,684,685,686,687,688,689,690,691,692,693,694,695,696,697,698,699,700,701,702,703,704,705,706,
721,722,723,724,725,726,727,728,729,730,731,732,733,734,735,736,737,738,739,740,741,742,743,744,745,746,747,748,749,750,751,752,753,754,755,756,757,758,759,760,721,722,723,724,725,726,727,728,729,730,731,732,733,734,735,736,737,738,739,740,741,742,743,744,745,746,
761,762,763,764,765,766,767,768,769,770,771,772,773,774,775,776,777,778,779,780,781,782,783,784,785,786,787,788,789,790,791,792,793,794,795,796,797,798,799,800,761,762,763,764,765,766,767,768,769,770,771,772,773,774,775,776,777,778,779,780,781,782,783,784,785,786,
801,802,803,804,805,806,807,808,809,810,811,812,813,814,815,816,817,818,819,820,821,822,823,824,825,826,827,828,829,830,831,832,833,834,835,836,837,838,839,840,801,802,803,804,805,806,807,808,809,810,811,812,813,814,815,816,817,818,819,820,821,822,823,824,825,826,
841,842,843,844,845,846,847,848,849,850,851,852,853,854,855,856,857,858,859,860,861,862,863,864,865,866,867,868,869,870,871,872,873,874,875,876,877,878,879,880,841,842,843,844,845,846,847,848,849,850,851,852,853,854,855,856,857,858,859,860,861,862,863,864,865,866,
881,882,883,884,885,886,887,888,889,890,891,892,893,894,895,896,897,898,899,900,901,902,903,904,905,906,907,908,909,910,911,912,913,914,915,916,917,918,919,920,881,882,883,884,885,886,887,888,889,890,891,892,893,894,895,896,897,898,899,900,901,902,903,904,905,906,
921,922,923,924,925,926,927,928,929,930,931,932,933,934,935,936,937,938,939,940,941,942,943,944,945,946,947,948,949,950,951,952,953,954,955,956,957,958,959,960,921,922,923,924,925,926,927,928,929,930,931,932,933,934,935,936,937,938,939,940,941,942,943,944,945,946,
961,962,963,964,965,966,967,968,969,970,971,972,973,974,975,976,977,978,979,980,981,982,983,984,985,986,987,988,989,990,991,992,993,994,995,996,997,998,999,1000,961,962,963,964,965,966,967,968,969,970,971,972,973,974,975,976,977,978,979,980,981,982,983,984,985,986,
1001,1002,1003,1004,1005,1006,1007,1008,1009,1010,1011,1012,1013,1014,1015,1016,1017,1018,1019,1020,1021,1022,1023,1024,1025,1026,1027,1028,1029,1030,1031,1032,1033,1034,1035,1036,1037,1038,1039,1040,1001,1002,1003,1004,1005,1006,1007,1008,1009,1010,1011,1012,1013,1014,1015,1016,1017,1018,1019,1020,1021,1022,1023,1024,1025,1026,
1041,1042,1043,1044,1045,1046,1047,1048,1049,1050,1051,1052,1053,1054,1055,1056,1057,1058,1059,1060,1061,1062,1063,1064,1065,1066,1067,1068,1069,1070,1071,1072,1073,1074,1075,1076,1077,1078,1079,1080,1041,1042,1043,1044,1045,1046,1047,1048,1049,1050,1051,1052,1053,1054,1055,1056,1057,1058,1059,1060,1061,1062,1063,1064,1065,1066,
1081,1082,1083,1084,1085,1086,1087,1088,1089,1090,1091,1092,1093,1094,1095,1096,1097,1098,1099,1100,1101,1102,1103,1104,1105,1106,1107,1108,1109,1110,1111,1112,1113,1114,1115,1116,1117,1118,1119,1120,1081,1082,1083,1084,1085,1086,1087,1088,1089,1090,1091,1092,1093,1094,1095,1096,1097,1098,1099,1100,1101,1102,1103,1104,1105,1106,
1121,1122,1123,1124,1125,1126,1127,1128,1129,1130,1131,1132,1133,1134,1135,1136,1137,1138,1139,1140,1141,1142,1143,1144,1145,1146,1147,1148,1149,1150,1151,1152,1153,1154,1155,1156,1157,1158,1159,1160,1121,1122,1123,1124,1125,1126,1127,1128,1129,1130,1131,1132,1133,1134,1135,1136,1137,1138,1139,1140,1141,1142,1143,1144,1145,1146,
1161,1162,1163,1164,1165,1166,1167,1168,1169,1170,1171,1172,1173,1174,1175,1176,1177,1178,1179,1180,1181,1182,1183,1184,1185,1186,1187,1188,1189,1190,1191,1192,1193,1194,1195,1196,1197,1198,1199,1200,1161,1162,1163,1164,1165,1166,1167,1168,1169,1170,1171,1172,1173,1174,1175,1176,1177,1178,1179,1180,1181,1182,1183,1184,1185,1186,
1201,1202,1203,1204,1205,1206,1207,1208,1209,1210,1211,1212,1213,1214,1215,1216,1217,1218,1219,1220,1221,1222,1223,1224,1225,1226,1227,1228,1229,1230,1231,1232,1233,1234,1235,1236,1237,1238,1239,1240,1201,1202,1203,1204,1205,1206,1207,1208,1209,1210,1211,1212,1213,1214,1215,1216,1217,1218,1219,1220,1221,1222,1223,1224,1225,1226,
1241,1242,1243,1244,1245,1246,1247,1248,1249,1250,1251,1252,1253,1254,1255,1256,1257,1258,1259,1260,1261,1262,1263,1264,1265,1266,1267,1268,1269,1270,1271,1272,1273,1274,1275,1276,1277,1278,1279,1280,1241,1242,1243,1244,1245,1246,1247,1248,1249,1250,1251,1252,1253,1254,1255,1256,1257,1258,1259,1260,1261,1262,1263,1264,1265,1266,
1281,1282,1283,1284,1285,1286,1287,1288,1289,1290,1291,1292,1293,1294,1295,1296,1297,1298,1299,1300,1301,1302,1303,1304,1305,1306,1307,1308,1309,1310,1311,1312,1313,1314,1315,1316,1317,1318,1319,1320,1281,1282,1283,1284,1285,1286,1287,1288,1289,1290,1291,1292,1293,1294,1295,1296,1297,1298,1299,1300,1301,1302,1303,1304,1305,1306,
1321,1322,1323,1324,1325,1326,1327,1328,1329,1330,1331,1332,1333,1334,1335,1336,1337,1338,1339,1340,1341,1342,1343,1344,1345,1346,1347,1348,1349,1350,1351,1352,1353,1354,1355,1356,1357,1358,1359,1360,1321,1322,1323,1324,1325,1326,1327,1328,1329,1330,1331,1332,1333,1334,1335,1336,1337,1338,1339,1340,1341,1342,1343,1344,1345,1346,
1361,1362,1363,1364,1365,1366,1367,1368,1369,1370,1371,1372,1373,1374,1375,1376,1377,1378,1379,1380,1381,1382,1383,1384,1385,1386,1387,1388,1389,1390,1391,1392,1393,1394,1395,1396,1397,1398,1399,1400,1361,1362,1363,1364,1365,1366,1367,1368,1369,1370,1371,1372,1373,1374,1375,1376,1377,1378,1379,1380,1381,1382,1383,1384,1385,1386,
1401,1402,1403,1404,1405,1406,1407,1408,1409,1410,1411,1412,1413,1414,1415,1416,1417,1418,1419,1420,1421,1422,1423,1424,1425,1426,1427,1428,1429,1430,1431,1432,1433,1434,1435,1436,1437,1438,1439,1440,1401,1402,1403,1404,1405,1406,1407,1408,1409,1410,1411,1412,1413,1414,1415,1416,1417,1418,1419,1420,1421,1422,1423,1424,1425,1426,
1441,1442,1443,1444,1445,1446,1447,1448,1449,1450,1451,1452,1453,1454,1455,1456,1457,1458,1459,1460,1461,1462,1463,1464,1465,1466,1467,1468,1469,1470,1471,1472,1473,1474,1475,1476,1477,1478,1479,1480,1441,1442,1443,1444,1445,1446,1447,1448,1449,1450,1451,1452,1453,1454,1455,1456,1457,1458,1459,1460,1461,1462,1463,1464,1465,1466,
1481,1482,1483,1484,1485,1486,1487,1488,1489,1490,1491,1492,1493,1494,1495,1496,1497,1498,1499,1500,1501,1502,1503,1504,1505,1506,1507,1508,1509,1510,1511,1512,1513,1514,1515,1516,1517,1518,1519,1520,1481,1482,1483,1484,1485,1486,1487,1488,1489,1490,1491,1492,1493,1494,1495,1496,1497,1498,1499,1500,1501,1502,1503,1504,1505,1506,
1521,1522,1523,1524,1525,1526,1527,1528,1529,1530,1531,1532,1533,1534,1535,1536,1537,1538,1539,1540,1541,1542,1543,1544,1545,1546,1547,1548,1549,1550,1551,1552,1553,1554,1555,1556,1557,1558,1559,1560,1521,1522,1523,1524,1525,1526,1527,1528,1529,1530,1531,1532,1533,1534,1535,1536,1537,1538,1539,1540,1541,1542,1543,1544,1545,1546,
1561,1562,1563,1564,1565,1566,1567,1568,1569,1570,1571,1572,1573,1574,1575,1576,1577,1578,1579,1580,1581,1582,1583,1584,1585,1586,1587,1588,1589,1590,1591,1592,1593,1594,1595,1596,1597,1598,1599,1600,1561,1562,1563,1564,1565,1566,1567,1568,1569,1570,1571,1572,1573,1574,1575,1576,1577,1578,1579,1580,1581,1582,1583,1584,1585,1586,
1,2,3,4,5,6,7,8,9,10,11,12,13,14,15,16,17,18,19,20,21,22,23,24,25,26,27,28,29,30,31,32,33,34,35,36,37,38,39,40,1,2,3,4,5,6,7,8,9,10,11,12,13,14,15,16,17,18,19,20,21,22,23,24,25,26,
41,42,43,44,45,46,47,48,49,50,51,52,53,54,55,56,57,58,59,60,61,62,63,64,65,66,67,68,69,70,71,72,73,74,75,76,77,78,79,80,41,42,43,44,45,46,47,48,49,50,51,52,53,54,55,56,57,58,59,60,61,62,63,64,65,66,
81,82,83,84,85,86,87,88,89,90,91,92,93,94,95,96,97,98,99,100,101,102,103,104,105,106,107,108,109,110,111,112,113,114,115,116,117,118,119,120,81,82,83,84,85,86,87,88,89,90,91,92,93,94,95,96,97,98,99,100,101,102,103,104,105,106,
121,122,123,124,125,126,127,128,129,130,131,132,133,134,135,136,137,138,139,140,141,142,143,144,145,146,147,148,149,150,151,152,153,154,155,156,157,158,159,160,121,122,123,124,125,126,127,128,129,130,131,132,133,134,135,136,137,138,139,140,141,142,143,144,145,146,
161,162,163,164,165,166,167,168,169,170,171,172,173,174,175,176,177,178,179,180,181,182,183,184,185,186,187,188,189,190,191,192,193,194,195,196,197,198,199,200,161,162,163,164,165,166,167,168,169,170,171,172,173,174,175,176,177,178,179,180,181,182,183,184,185,186,
201,202,203,204,205,206,207,208,209,210,211,212,213,214,215,216,217,218,219,220,221,222,223,224,225,226,227,228,229,230,231,232,233,234,235,236,237,238,239,240,201,202,203,204,205,206,207,208,209,210,211,212,213,214,215,216,217,218,219,220,221,222,223,224,225,226,
241,242,243,244,245,246,247,248,249,250,251,252,253,254,255,256,257,258,259,260,261,262,263,264,265,266,267,268,269,270,271,272,273,274,275,276,277,278,279,280,241,242,243,244,245,246,247,248,249,250,251,252,253,254,255,256,257,258,259,260,261,262,263,264,265,266,
281,282,283,284,285,286,287,288,289,290,291,292,293,294,295,296,297,298,299,300,301,302,303,304,305,306,307,308,309,310,311,312,313,314,315,316,317,318,319,320,281,282,283,284,285,286,287,288,289,290,291,292,293,294,295,296,297,298,299,300,301,302,303,304,305,306,
321,322,323,324,325,326,327,328,329,330,331,332,333,334,335,336,337,338,339,340,341,342,343,344,345,346,347,348,349,350,351,352,353,354,355,356,357,358,359,360,321,322,323,324,325,326,327,328,329,330,331,332,333,334,335,336,337,338,339,340,341,342,343,344,345,346,
361,362,363,364,365,366,367,368,369,370,371,372,373,374,375,376,377,378,379,380,381,382,383,384,385,386,387,388,389,390,391,392,393,394,395,396,397,398,399,400,361,362,363,364,365,366,367,368,369,370,371,372,373,374,375,376,377,378,379,380,381,382,383,384,385,386,
401,402,403,404,405,406,407,408,409,410,411,412,413,414,415,416,417,418,419,420,421,422,423,424,425,426,427,428,429,430,431,432,433,434,435,436,437,438,439,440,401,402,403,404,405,406,407,408,409,410,411,412,413,414,415,416,417,418,419,420,421,422,423,424,425,426,
441,442,443,444,445,446,447,448,449,450,451,452,453,454,455,456,457,458,459,460,461,462,463,464,465,466,467,468,469,470,471,472,473,474,475,476,477,478,479,480,441,442,443,444,445,446,447,448,449,450,451,452,453,454,455,456,457,458,459,460,461,462,463,464,465,466,
481,482,483,484,485,486,487,488,489,490,491,492,493,494,495,496,497,498,499,500,501,502,503,504,505,506,507,508,509,510,511,512,513,514,515,516,517,518,519,520,481,482,483,484,485,486,487,488,489,490,491,492,493,494,495,496,497,498,499,500,501,502,503,504,505,506,
521,522,523,524,525,526,527,528,529,530,531,532,533,534,535,536,537,538,539,540,541,542,543,544,545,546,547,548,549,550,551,552,553,554,555,556,557,558,559,560,521,522,523,524,525,526,527,528,529,530,531,532,533,534,535,536,537,538,539,540,541,542,543,544,545,546,
561,562,563,564,565,566,567,568,569,570,571,572,573,574,575,576,577,578,579,580,581,582,583,584,585,586,587,588,589,590,591,592,593,594,595,596,597,598,599,600,561,562,563,564,565,566,567,568,569,570,571,572,573,574,575,576,577,578,579,580,581,582,583,584,585,586,
601,602,603,604,605,606,607,608,609,610,611,612,613,614,615,616,617,618,619,620,621,622,623,624,625,626,627,628,629,630,631,632,633,634,635,636,637,638,639,640,601,602,603,604,605,606,607,608,609,610,611,612,613,614,615,616,617,618,619,620,621,622,623,624,625,626,
641,642,643,644,645,646,647,648,649,650,651,652,653,654,655,656,657,658,659,660,661,662,663,664,665,666,667,668,669,670,671,672,673,674,675,676,677,678,679,680,641,642,643,644,645,646,647,648,649,650,651,652,653,654,655,656,657,658,659,660,661,662,663,664,665,666,
681,682,683,684,685,686,687,688,689,690,691,692,693,694,695,696,697,698,699,700,701,702,703,704,705,706,707,708,709,710,711,712,713,714,715,716,717,718,719,720,681,682,683,684,685,686,687,688,689,690,691,692,693,694,695,696,697,698,699,700,701,702,703,704,705,706,
721,722,723,724,725,726,727,728,729,730,731,732,733,734,735,736,737,738,739,740,741,742,743,744,745,746,747,748,749,750,751,752,753,754,755,756,757,758,759,760,721,722,723,724,725,726,727,728,729,730,731,732,733,734,735,736,737,738,739,740,741,742,743,744,745,746,
761,762,763,764,765,766,767,768,769,770,771,772,773,774,775,776,777,778,779,780,781,782,783,784,785,786,787,788,789,790,791,792,793,794,795,796,797,798,799,800,761,762,763,764,765,766,767,768,769,770,771,772,773,774,775,776,777,778,779,780,781,782,783,784,785,786,
801,802,803,804,805,806,807,808,809,810,811,812,813,814,815,816,817,818,819,820,821,822,823,824,825,826,827,828,829,830,831,832,833,834,835,836,837,838,839,840,801,802,803,804,805,806,807,808,809,810,811,812,813,814,815,816,817,818,819,820,821,822,823,824,825,826,
841,842,843,844,845,846,847,848,849,850,851,852,853,854,855,856,857,858,859,860,861,862,863,864,865,866,867,868,869,870,871,872,873,874,875,876,877,878,879,880,841,842,843,844,845,846,847,848,849,850,851,852,853,854,855,856,857,858,859,860,861,862,863,864,865,866
</data>
 </layer>
 <layer id="2" name="Terrain" width="66" height="62">
  <data encoding="csv">
0,0,0,0,0,0,0,0,0,0,0,0,0,0,0,0,0,0,0,0,0,0,0,0,0,0,0,0,0,0,0,0,0,0,0,0,0,0,0,0,0,0,0,0,0,0,0,0,0,0,0,0,0,0,0,0,0,0,0,0,0,0,0,0,0,0,
0,0,0,0,0,0,0,0,0,0,0,0,0,0,0,0,0,0,0,0,0,0,0,0,0,0,0,0,0,0,0,0,0,0,0,0,0,0,0,0,0,0,0,0,0,0,0,0,0,0,0,0,0,0,0,0,0,0,0,0,0,0,0,0,0,0,
0,0,0,0,0,0,0,0,0,0,0,0,0,0,0,0,0,0,0,0,0,0,0,0,0,0,0,0,0,0,0,0,0,0,0,0,0,0,0,0,0,0,0,0,0,0,0,0,0,0,0,0,0,0,0,0,0,0,0,0,0,0,0,0,0,0,
0,0,0,0,0,0,0,0,0,0,0,0,0,0,0,0,0,0,0,0,0,0,0,0,0,0,0,0,0,0,0,0,0,0,0,0,0,0,0,0,0,0,0,0,0,0,0,0,0,0,0,0,0,0,0,0,0,0,0,0,0,0,0,0,0,0,
0,0,0,0,0,0,0,0,0,0,0,0,0,0,0,0,0,0,0,0,0,0,0,0,0,0,0,0,0,0,0,0,0,0,0,0,0,0,0,0,0,0,0,0,0,0,0,0,0,0,0,0,0,0,0,0,0,0,0,0,0,0,0,0,0,0,
0,0,0,0,0,0,0,0,0,0,0,0,0,0,0,0,0,0,0,0,0,0,0,0,0,0,0,0,0,0,0,0,0,0,0,0,0,0,0,0,0,0,0,0,0,0,0,0,0,0,0,0,0,0,0,0,0,0,0,0,0,0,0,0,0,0,
0,0,0,0,0,0,0,0,0,0,0,0,0,0,0,0,0,0,0,0,0,0,0,0,0,0,0,0,0,0,0,0,0,0,0,0,0,0,0,0,0,0,0,0,0,0,0,0,0,0,0,0,0,0,0,0,0,0,0,0,0,0,0,0,0,0,
0,0,0,0,0,0,0,0,0,0,0,0,0,0,0,0,0,0,0,0,0,0,0,0,0,0,0,0,0,0,0,0,0,0,0,0,0,0,0,0,0,0,0,0,0,0,0,0,0,0,0,0,0,0,0,0,0,0,0,0,0,0,0,0,0,0,
0,0,0,0,0,0,0,0,0,0,0,0,0,0,0,0,0,0,0,0,0,0,0,0,0,0,0,0,0,0,0,0,0,0,0,0,0,0,0,0,0,0,0,0,0,0,0,0,0,0,0,0,0,0,0,0,0,0,0,0,0,0,0,0,0,0,
0,0,0,0,0,0,0,0,0,0,0,0,0,0,0,0,0,0,0,0,0,0,0,0,0,0,0,0,0,0,0,0,0,0,0,0,0,0,0,0,0,0,0,0,0,0,0,0,0,0,0,0,0,0,0,0,0,0,0,0,0,0,0,0,0,0,
0,0,0,0,0,0,0,0,0,0,0,0,0,0,0,0,0,0,0,0,0,0,0,0,0,0,0,0,0,0,0,0,0,0,0,0,0,0,0,0,0,0,0,0,0,0,0,0,0,0,0,0,0,0,0,0,0,0,0,0,0,0,0,0,0,0,
0,0,0,0,0,0,0,0,0,0,0,0,0,0,0,0,0,0,0,0,0,0,0,0,0,0,0,0,0,0,0,0,0,0,0,0,0,0,0,0,0,0,0,0,0,0,0,0,0,0,0,0,0,0,0,0,0,0,0,0,0,0,0,0,0,0,
0,0,0,0,0,0,0,0,0,0,0,0,0,0,0,0,0,0,0,0,0,0,0,0,0,0,0,0,0,0,0,0,0,0,0,0,0,0,0,0,0,0,0,0,0,0,0,0,0,0,0,0,0,0,0,0,0,0,0,0,0,0,0,0,0,0,
0,0,0,0,0,0,0,0,0,0,0,0,0,0,0,0,0,0,0,0,0,0,0,0,0,0,0,0,0,0,0,0,0,0,0,0,0,0,0,0,0,0,0,0,0,0,0,0,0,0,0,0,0,0,0,0,0,0,0,0,0,0,0,0,0,0,
0,0,0,0,0,0,0,0,0,0,0,0,0,0,0,0,0,0,0,0,0,0,0,0,0,0,0,0,0,0,0,0,0,0,0,0,0,0,0,0,0,0,0,0,0,0,0,0,0,0,0,0,0,0,0,0,0,0,0,0,0,0,0,0,0,0,
0,0,0,0,0,0,0,0,0,0,0,0,0,0,0,0,0,0,0,0,0,0,0,0,0,0,0,0,0,0,0,0,0,0,0,0,0,0,0,0,0,0,0,0,0,0,0,0,0,0,0,0,0,0,0,0,0,0,0,0,0,0,0,0,0,0,
0,0,0,0,0,0,0,0,0,0,0,0,0,0,0,0,0,0,0,0,0,0,0,0,0,0,0,0,0,0,0,0,0,0,0,0,0,0,0,0,0,0,0,0,0,0,0,0,0,0,0,0,0,0,0,0,0,0,0,0,0,0,0,0,0,0,
0,0,0,0,0,0,0,0,0,0,0,0,0,0,0,0,0,0,0,0,0,0,0,0,0,0,0,0,0,0,0,0,0,0,0,0,0,0,0,0,0,0,0,0,0,0,0,0,0,0,0,0,0,0,0,0,0,0,0,0,0,0,0,0,0,0,
0,0,0,0,0,0,0,0,0,0,0,0,0,0,0,0,0,0,0,0,0,0,0,0,0,0,0,0,0,0,0,0,0,0,0,0,0,0,0,0,0,0,0,0,0,0,0,0,0,0,0,0,0,0,0,0,0,0,0,0,0,0,0,0,0,0,
0,0,0,0,0,0,0,0,0,0,0,0,0,0,0,0,0,0,0,0,0,0,0,0,0,0,0,0,0,0,0,0,0,0,0,0,0,0,0,0,0,0,0,0,0,0,0,0,0,0,0,0,0,0,0,0,0,0,0,0,0,0,0,0,0,0,
0,0,0,0,0,0,0,0,0,0,0,0,0,0,0,0,0,0,0,0,0,0,0,0,0,0,0,0,0,0,0,0,0,0,0,0,0,0,0,0,0,0,0,0,0,0,0,0,0,0,0,0,0,0,0,0,0,0,0,0,0,0,0,0,0,0,
0,0,0,0,0,0,0,0,0,0,0,0,0,0,0,0,0,0,0,0,0,0,0,0,0,0,0,0,0,0,0,0,0,0,0,0,0,0,0,0,0,0,0,0,0,0,0,0,0,0,0,0,0,0,0,0,0,0,0,0,0,0,0,0,0,0,
0,0,0,0,0,0,0,0,0,0,0,0,0,0,0,0,0,0,0,0,0,0,0,0,0,0,0,0,0,0,0,0,0,0,0,0,0,0,0,0,0,0,0,0,0,0,0,0,0,0,0,0,0,0,0,0,0,0,0,0,0,0,0,0,0,0,
0,0,0,0,0,0,0,0,0,0,0,0,0,0,0,0,0,0,0,0,0,0,0,0,0,0,0,0,0,0,0,0,0,0,0,0,0,0,0,0,0,0,0,0,0,0,0,0,0,0,0,0,0,0,0,0,0,0,0,0,0,0,0,0,0,0,
0,0,0,0,0,0,0,0,0,0,0,0,0,0,0,0,0,0,0,0,0,0,0,0,0,0,0,0,0,0,0,0,0,0,0,0,0,0,0,0,0,0,0,0,0,0,0,0,0,0,0,0,0,0,0,0,0,0,0,0,0,0,0,0,0,0,
0,0,0,0,0,0,0,0,0,0,0,0,0,0,0,0,0,0,0,0,0,0,0,0,0,0,0,0,0,0,0,0,0,0,0,0,0,0,0,0,0,0,0,0,0,0,0,0,0,0,0,0,0,0,0,0,0,0,0,0,0,0,0,0,0,0,
0,0,0,0,0,0,0,0,0,0,0,0,0,0,0,0,0,0,0,0,0,0,0,0,0,0,0,0,0,0,0,0,0,0,0,0,0,0,0,0,0,0,0,0,0,0,0,0,0,0,0,0,0,0,0,0,0,0,0,0,0,0,0,0,0,0,
0,0,0,0,0,0,0,0,0,0,0,0,0,0,0,0,0,0,0,0,0,0,0,0,0,0,0,0,0,0,0,0,0,0,0,0,0,0,0,0,0,0,0,0,0,0,0,0,0,0,0,0,0,0,0,0,0,0,0,0,0,0,0,0,0,0,
0,0,0,0,0,0,0,0,0,0,0,0,0,0,0,0,0,0,0,0,0,0,0,0,0,0,0,0,0,0,0,0,0,0,0,0,0,0,0,0,0,0,0,0,0,0,0,0,0,0,0,0,0,0,0,0,0,0,0,0,0,0,0,0,0,0,
0,0,0,0,0,0,0,0,0,0,0,0,0,0,0,0,0,0,0,0,0,0,0,0,0,0,0,0,0,0,0,0,1601,1602,1603,1604,1605,1606,0,0,0,0,0,0,0,0,0,0,0,0,0,0,0,0,0,0,0,0,0,0,0,0,0,0,0,0,
0,0,0,0,0,0,0,0,0,0,0,0,0,0,0,0,0,0,0,0,0,0,0,0,0,0,0,0,0,1607,1608,1609,1610,3335,3336,3337,3338,1611,1612,1613,1614,0,0,0,0,0,0,0,0,0,0,0,0,0,0,0,0,0,0,0,0,0,0,0,0,0,
0,0,0,0,0,0,0,0,0,0,0,0,0,0,0,0,0,0,0,0,0,0,0,0,0,0,0,0,1615,1616,3372,3373,3374,3375,3376,3377,3378,3379,3380,1617,1618,1619,1620,1621,0,0,0,0,0,0,0,0,0,0,0,0,0,0,0,0,0,0,0,0,0,0,
0,0,0,0,0,0,0,0,0,0,0,0,0,0,0,0,0,0,0,0,0,0,0,0,0,0,0,0,1622,1623,3412,3413,3414,3415,3416,3417,3418,3419,3420,3421,3382,3383,1624,1625,1626,0,0,0,0,0,0,0,0,0,0,0,0,0,0,0,0,0,0,0,0,0,
0,0,0,0,0,0,0,0,0,0,0,0,0,0,0,0,0,0,0,0,0,0,0,0,0,0,0,0,1627,1628,3452,3453,3454,3455,3456,3457,3458,3459,3460,3461,3422,3423,3424,3425,1629,1630,1631,0,0,0,0,0,0,0,0,0,0,0,0,0,0,0,0,0,0,0,
0,0,0,0,0,0,0,0,0,0,0,0,0,0,0,0,0,0,0,0,0,0,0,0,0,0,0,0,0,1632,3492,3493,3494,3495,3496,3497,3498,3499,3500,3501,1633,1634,1635,1636,1637,1638,1639,1640,0,0,0,0,0,0,0,0,0,0,0,0,0,0,0,0,0,0,
0,0,0,0,0,0,0,0,0,0,0,0,0,0,0,0,0,0,0,0,0,0,0,0,0,0,0,0,0,1641,1642,3533,3534,3535,3536,3537,3538,3539,3540,1643,1644,0,0,0,1645,1646,3508,1647,1648,0,0,0,0,0,0,0,0,0,0,0,0,0,0,0,0,0,
0,0,0,0,0,0,0,0,0,0,0,0,0,0,0,0,0,0,0,0,0,0,0,0,0,0,0,0,0,0,1649,1650,3574,3575,3576,3577,3578,1651,1652,1653,0,0,0,0,0,1654,1655,3549,1656,0,0,0,0,0,0,0,0,0,0,0,0,0,0,0,0,0,
0,0,0,0,0,0,0,0,0,0,0,0,0,0,0,0,0,0,0,0,0,0,0,0,0,0,0,0,0,0,0,1657,1658,1659,1660,3617,1661,1662,1663,0,0,0,0,0,0,0,1664,3589,1665,1666,0,0,0,0,0,0,0,0,0,0,0,0,0,0,0,0,
0,0,0,0,0,0,0,0,0,0,0,0,0,0,0,0,0,0,0,0,0,0,0,0,0,0,0,0,0,0,0,0,0,0,1667,1668,1669,0,0,0,0,0,0,0,0,0,1670,1671,3630,1672,1673,0,0,0,0,0,0,0,0,0,0,0,0,0,0,0,
0,0,0,0,0,0,0,0,0,0,0,0,0,0,0,0,0,0,0,0,0,0,0,0,0,0,0,0,0,0,0,0,0,0,0,0,0,0,0,0,0,0,0,0,0,0,0,1674,3670,3671,1675,0,0,0,0,0,0,0,0,0,0,0,0,0,0,0,
0,0,0,0,0,0,0,0,0,0,0,0,0,0,0,0,0,0,0,0,0,0,0,0,0,0,0,0,0,0,0,0,0,0,0,0,0,0,0,0,0,0,0,0,0,0,0,1676,2110,2111,1677,0,0,0,0,0,0,0,0,0,0,0,0,0,0,0,
0,0,0,0,0,0,0,0,0,0,0,0,0,0,0,0,0,0,0,0,0,0,0,0,0,0,0,0,0,0,0,0,0,0,0,0,0,0,0,0,0,0,0,0,0,0,0,1678,2150,2151,1679,0,0,0,0,0,0,0,0,0,0,0,0,0,0,0,
0,0,0,0,0,0,0,0,0,0,0,0,0,0,0,0,0,0,0,0,0,0,0,0,0,0,0,0,0,0,0,0,0,0,0,0,0,0,0,0,0,0,0,0,0,0,0,1680,2190,2191,1681,0,0,0,0,0,0,0,0,0,0,0,0,0,0,0,
0,0,0,0,0,0,0,0,0,0,0,0,0,0,0,0,0,0,0,0,0,0,0,0,0,0,0,0,0,0,0,0,0,0,0,0,0,0,0,0,0,0,0,0,0,0,0,1682,2230,2231,1683,0,0,0,0,0,0,0,0,0,0,0,0,0,0,0,
0,0,0,0,0,0,0,0,0,0,0,0,0,0,0,0,0,0,0,0,0,0,0,0,0,0,0,0,0,0,0,0,0,0,0,0,0,0,0,0,0,0,0,0,0,0,0,1684,2270,2271,1685,0,0,0,0,0,0,0,0,0,0,0,0,0,0,0,
0,0,0,0,0,0,0,0,0,0,0,0,0,0,0,0,0,0,0,0,0,0,0,0,0,0,0,0,0,0,0,0,0,0,0,0,0,0,0,0,0,0,0,0,0,0,0,1686,2310,2311,1687,0,0,0,0,0,0,0,0,0,0,0,0,0,0,0,
0,0,0,0,0,0,0,0,0,0,0,0,0,0,0,0,0,0,0,0,0,0,0,0,0,0,0,0,0,0,0,0,0,0,0,0,0,0,0,0,0,0,0,0,0,0,0,1688,2350,2351,1689,0,0,0,0,0,0,0,0,0,0,0,0,0,0,0,
0,0,0,0,0,0,0,0,0,0,0,0,0,0,0,0,0,0,0,0,0,0,0,0,0,0,0,0,0,0,0,0,0,0,0,0,0,0,0,0,0,0,0,0,0,0,0,1690,2390,2391,1691,0,0,0,0,0,0,0,0,0,0,0,0,0,0,0,
0,0,0,0,0,0,0,0,0,0,0,0,0,0,0,0,0,0,0,0,0,0,0,0,0,0,0,0,0,0,0,0,0,0,0,0,0,0,0,0,0,0,0,0,0,0,0,1692,2430,2431,1693,0,0,0,0,0,0,0,0,0,0,0,0,0,0,0,
0,0,0,0,0,0,0,0,0,0,0,0,0,0,0,0,0,0,0,0,0,0,0,0,0,0,0,0,0,0,0,0,0,0,0,0,0,0,0,0,0,0,0,0,0,0,0,1694,1695,2471,1696,0,0,0,0,0,0,0,0,0,0,0,0,0,0,0,
0,0,0,0,0,0,0,0,0,0,0,0,0,0,0,0,0,0,0,1697,1698,1699,1700,1701,0,0,0,0,0,0,0,0,0,0,0,0,0,0,0,0,0,0,0,0,0,0,0,0,1702,2511,1703,1704,0,0,0,0,0,0,0,0,0,0,0,0,0,0,
0,0,0,0,0,0,0,0,0,0,0,0,0,0,0,0,0,0,1705,1706,2562,2563,2564,1707,1708,1709,0,0,0,0,0,0,0,0,0,0,0,0,0,0,0,0,0,0,0,0,0,0,1710,1711,1712,1713,0,0,0,0,0,0,0,0,0,0,0,0,0,0,
0,0,0,0,0,0,0,0,0,0,0,0,0,0,0,0,0,1714,1715,2601,2602,2603,2604,2605,2606,1716,1717,0,0,0,0,0,0,0,0,0,0,0,0,0,0,0,0,0,0,0,0,0,0,1718,2592,1719,1720,0,0,0,0,0,0,0,0,0,0,0,0,0,
0,0,0,0,0,0,0,0,0,0,0,0,0,0,0,0,1721,1722,2640,2641,2642,2643,2644,2645,2646,2647,1723,0,0,0,0,0,0,0,0,0,0,0,0,0,0,0,0,0,0,0,0,0,0,1724,2632,2633,1725,0,0,0,0,0,0,0,0,0,0,0,0,0,
0,0,0,0,0,0,0,0,0,0,0,0,0,0,0,0,1726,1727,2680,2681,2682,2683,2684,2685,2686,2687,1728,0,0,0,0,0,0,0,0,0,0,0,0,0,0,0,0,0,0,0,0,0,0,1729,1730,2673,1731,0,0,0,0,0,0,0,0,0,0,0,0,0,
0,0,0,0,0,0,0,0,0,0,0,0,0,0,0,0,0,1732,1733,2721,2722,2723,2724,2725,2726,1734,1735,0,0,0,0,0,0,0,0,0,0,0,0,0,0,0,0,0,0,0,0,0,0,0,1736,2713,1737,1738,0,0,0,0,0,0,0,0,0,0,0,0,
0,0,0,0,0,0,0,0,0,0,0,0,0,0,0,0,0,0,1739,1740,1741,1742,1743,1744,1745,1746,0,0,0,0,0,0,0,0,0,0,0,0,0,0,0,0,0,0,0,0,0,0,0,0,1747,2753,2754,1748,0,0,0,0,0,0,0,0,0,0,0,0,
0,0,0,0,0,0,0,0,0,0,0,0,0,0,0,0,0,0,0,0,0,0,0,0,0,0,0,0,0,0,0,0,0,0,0,0,0,0,0,0,0,0,0,0,0,0,0,0,0,0,1749,1750,2794,1751,0,0,0,0,0,0,0,0,0,0,0,0,
0,0,0,0,0,0,0,0,0,0,0,0,0,0,0,0,0,0,0,0,0,0,0,0,0,0,0,0,0,0,0,0,0,0,0,0,0,0,0,0,0,0,0,0,0,0,0,0,0,0,0,1752,2834,1753,1754,0,0,0,0,0,0,0,0,0,0,0,
0,0,0,0,0,0,0,0,0,0,0,0,0,0,0,0,0,0,0,0,0,0,0,0,0,0,0,0,0,0,0,0,0,0,0,0,0,0,0,0,0,0,0,0,0,0,0,0,0,0,0,1755,2874,2875,1756,0,0,0,0,0,0,0,0,0,0,0,
0,0,0,0,0,0,0,0,0,0,0,0,0,0,0,0,0,0,0,0,0,0,0,0,0,0,0,0,0,0,0,0,0,0,0,0,0,0,0,0,0,0,0,0,0,0,0,0,0,0,0,1757,2914,2915,1758,0,0,0,0,0,0,0,0,0,0,0,
0,0,0,0,0,0,0,0,0,0,0,0,0,0,0,0,0,0,0,0,0,0,0,0,0,0,0,0,0,0,0,0,0,0,0,0,0,0,0,0,0,0,0,0,0,0,0,0,0,0,0,1759,1760,1761,1762,0,0,0,0,0,0,0,0,0,0,0
</data>
 </layer>
 <layer id="3" name="Overlay" width="66" height="62">
  <data encoding="csv">
0,0,0,0,0,0,0,0,0,0,0,0,0,0,0,0,0,0,0,0,0,0,1763,3725,1764,0,0,0,0,0,0,0,0,0,0,0,0,0,0,0,0,0,0,0,0,0,0,0,0,0,0,0,0,0,0,0,0,0,0,0,0,0,0,0,0,0,
0,0,0,0,0,0,0,0,0,0,0,0,0,0,0,0,0,0,0,0,0,0,1765,3765,1766,0,0,0,0,0,0,0,0,0,0,0,0,0,0,0,0,0,0,0,0,0,0,0,0,0,0,0,0,0,0,0,0,0,0,0,0,0,0,0,0,0,
0,0,0,0,0,0,0,0,0,0,0,0,0,0,0,0,0,0,0,0,0,0,1767,1768,1769,0,0,0,0,0,0,0,0,0,0,0,0,0,0,0,0,0,0,0,0,0,0,0,0,0,0,0,0,0,0,0,0,0,0,0,0,0,0,0,0,0,
0,0,0,0,0,0,0,0,0,0,0,0,0,0,0,0,0,0,0,0,0,0,1770,1771,1772,0,0,0,0,0,0,0,0,0,0,0,0,0,0,0,0,0,0,0,0,0,0,0,0,0,0,0,0,0,0,0,0,0,0,0,0,0,0,0,0,0,
0,0,0,0,0,0,0,0,0,0,0,0,0,0,0,0,0,0,0,0,0,0,1773,1774,1775,0,0,0,0,0,0,0,0,0,0,0,0,0,0,0,0,0,0,0,0,0,0,0,0,0,0,0,0,0,0,0,0,0,0,0,0,0,0,0,0,0,
0,0,0,0,0,0,0,0,0,0,0,0,0,0,0,0,0,0,0,0,0,0,1776,3925,1777,0,0,0,0,0,0,0,0,0,0,0,0,0,0,0,0,0,0,0,0,0,0,0,0,0,0,0,0,0,0,0,0,0,0,0,0,0,0,0,0,0,
0,0,0,0,0,0,0,0,0,0,0,0,0,0,0,0,0,0,0,0,0,0,1778,1779,1780,1781,0,0,0,0,0,0,0,0,0,0,0,0,0,0,0,0,0,0,0,0,0,0,0,0,0,0,0,0,0,0,0,0,0,0,0,0,0,0,0,0,
0,0,0,0,0,0,0,0,0,0,0,0,0,0,0,0,0,0,0,0,0,0,1782,1783,4006,1784,0,0,0,0,0,0,0,0,0,0,0,0,0,0,0,0,0,0,0,0,0,0,0,0,0,0,0,0,0,0,0,0,0,0,0,0,0,0,0,0,
0,0,0,0,0,0,0,0,0,0,0,0,0,0,0,0,0,0,0,0,0,0,0,1785,4046,1786,0,0,0,0,0,0,0,0,0,0,0,0,0,0,0,0,0,0,0,0,0,0,0,0,0,0,0,0,0,0,0,0,0,0,0,0,0,0,0,0,
0,0,0,0,0,0,0,0,0,0,0,0,0,0,0,0,0,0,0,0,0,0,0,1787,4086,1788,0,0,0,0,0,0,0,0,0,0,0,0,0,0,0,0,0,0,0,0,0,0,0,0,0,0,0,0,0,0,0,0,0,0,0,0,0,0,0,0,
0,0,0,0,0,0,0,0,0,0,0,0,0,0,0,0,0,0,0,0,0,0,0,1789,4126,1790,0,0,0,0,0,0,0,0,0,0,0,0,0,0,0,0,0,0,0,0,0,0,0,0,0,0,0,0,0,0,0,0,0,0,0,0,0,0,0,0,
0,0,0,0,0,0,0,0,0,0,0,0,0,0,0,0,0,0,0,0,0,0,0,1791,4166,1792,0,0,0,0,0,0,0,0,0,0,0,0,0,0,0,0,0,0,0,0,0,0,0,0,0,0,0,0,0,0,0,0,0,0,0,0,0,0,0,0,
0,0,0,0,0,0,0,0,0,0,0,0,0,0,0,0,0,0,0,0,0,0,0,1793,4206,1794,0,0,0,0,0,0,0,0,0,0,0,0,0,0,0,0,0,0,0,0,0,0,0,0,0,0,0,0,0,0,0,0,0,0,0,0,0,0,0,0,
0,0,0,0,0,0,0,0,0,0,0,0,0,0,0,0,0,0,0,0,0,0,0,1795,4246,1796,0,0,0,0,0,0,0,0,0,0,0,0,0,0,0,0,0,0,0,0,0,0,0,0,0,0,0,0,0,0,0,0,0,0,0,0,0,0,0,0,
0,0,0,0,0,0,0,0,0,0,0,0,0,0,0,0,0,0,0,0,0,0,0,1797,4286,1798,0,0,0,0,0,0,0,0,0,0,0,0,0,0,0,0,0,0,0,0,0,0,0,0,0,0,0,0,0,0,0,0,0,0,0,0,0,0,0,0,
0,0,0,0,0,0,0,0,0,0,0,0,0,0,0,0,0,0,0,0,0,0,0,1799,4326,1800,0,0,0,0,0,0,0,0,0,0,0,0,0,0,0,0,0,0,0,0,0,0,0,0,0,0,0,0,0,0,0,0,0,0,0,0,0,0,0,0,
0,0,0,0,0,0,0,0,0,0,0,0,0,0,0,0,0,0,0,0,0,0,0,1801,4366,1802,0,0,0,0,0,0,0,0,0,0,0,0,0,0,0,0,0,0,0,0,0,0,0,0,0,0,0,0,0,0,0,0,0,0,0,0,0,0,0,0,
0,0,0,0,0,0,0,0,0,0,0,0,0,0,0,0,0,0,0,0,0,0,0,1803,1804,1805,0,0,0,0,0,0,0,0,0,0,0,0,0,0,0,0,0,0,0,0,0,0,0,0,0,0,0,0,0,0,0,0,0,0,0,0,0,0,0,0,
0,0,0,0,0,0,0,0,0,0,0,0,0,0,0,0,0,0,0,0,0,0,1806,1807,1808,1809,0,0,0,0,0,0,0,0,0,0,0,0,0,0,0,0,0,0,0,0,0,0,0,0,0,0,0,0,0,0,0,0,0,0,0,0,0,0,0,0,
0,0,0,0,0,0,0,0,0,0,0,0,0,0,0,0,0,0,0,0,0,0,1810,4485,1811,0,0,0,0,0,0,0,0,0,0,0,0,0,0,0,0,0,0,0,0,0,0,0,0,0,0,0,0,0,0,0,0,0,0,0,0,0,0,0,0,0,
0,0,0,0,0,0,0,0,0,0,0,0,0,0,0,0,0,0,0,0,0,0,1812,4525,1813,0,0,0,0,0,0,0,0,0,0,0,0,0,0,0,0,0,0,0,0,0,0,0,0,0,0,0,0,0,0,0,0,0,0,0,0,0,0,0,0,0,
0,0,0,0,0,0,0,0,0,0,0,0,0,0,0,0,0,0,0,0,0,0,1814,4565,1815,0,0,0,0,0,0,0,0,0,0,0,0,0,0,0,0,0,0,0,0,0,0,0,0,0,0,0,0,0,0,0,0,0,0,0,0,0,0,0,0,0,
0,0,0,0,0,0,0,0,0,0,0,0,0,0,0,0,0,0,0,0,0,1816,1817,1818,1819,0,0,0,0,0,0,0,0,0,0,0,0,0,0,0,0,0,0,0,0,0,0,0,0,0,0,0,0,0,0,0,0,0,0,0,0,0,0,0,0,0,
0,0,0,0,0,0,0,0,0,0,0,0,0,0,0,0,0,0,0,0,0,1820,4644,1821,0,0,0,0,0,0,0,0,0,0,0,0,0,0,0,0,0,0,0,0,0,0,0,0,0,0,0,0,0,0,0,0,0,0,0,0,0,0,0,0,0,0,
0,0,0,0,0,0,0,0,0,0,0,0,0,0,0,0,0,0,0,0,0,1822,4684,1823,0,0,0,0,0,0,0,0,0,0,0,0,0,0,0,0,0,0,0,0,0,0,0,0,0,0,0,0,0,0,0,0,0,0,0,0,0,0,0,0,0,0,
0,0,0,0,0,0,0,0,0,0,0,0,0,0,0,0,0,0,0,0,0,1824,4724,1825,0,0,0,0,0,0,1826,1827,1828,0,0,0,0,0,0,0,0,0,0,0,0,0,0,0,0,0,0,0,0,0,0,0,0,0,0,0,0,0,0,0,0,0,
0,0,0,0,0,0,0,0,0,0,0,0,0,0,0,0,0,0,0,0,1829,1830,4764,1831,0,0,0,0,0,0,1832,1833,1834,0,0,0,0,0,0,0,0,0,0,0,0,0,0,0,0,0,0,0,0,0,0,0,0,0,0,0,0,0,0,0,0,0,
0,0,0,0,0,0,0,0,0,0,0,0,0,0,0,0,0,1835,0,0,1836,1837,4804,1838,1839,1840,1841,1842,1843,1844,1845,1846,1847,0,0,0,0,0,0,0,0,0,0,0,0,0,0,0,0,0,0,0,0,0,0,0,0,0,0,0,0,0,0,0,0,0,
0,1848,1849,1850,1851,0,0,0,0,0,0,0,0,0,0,0,1852,1853,1854,0,1855,1856,1857,1858,1859,1860,1861,1862,1863,1864,1865,1866,0,0,0,0,0,0,0,0,0,0,0,0,0,0,0,0,0,0,0,0,0,0,0,0,0,0,0,0,0,0,0,0,0,0,
1867,1868,1869,1870,1871,1872,1873,1874,1875,1876,1877,1878,1879,1880,1881,1882,1883,1884,1885,1886,1887,1888,1889,0,0,0,0,1890,1891,0,0,0,0,0,0,0,0,0,0,0,0,0,0,0,0,0,0,0,0,0,0,0,0,0,0,0,0,0,0,0,0,0,0,0,0,0,
4902,4903,1892,1893,1894,1895,4908,4909,1896,1897,1898,4913,1899,1900,4916,4917,4918,4919,4920,4921,4922,4923,1901,0,0,0,0,0,0,0,0,0,0,0,0,0,0,0,0,0,0,0,0,0,0,0,0,0,0,0,0,0,0,0,0,0,0,0,0,0,0,0,0,0,0,0,
1902,1903,1904,1905,1906,1907,1908,1909,1910,1911,1912,1913,1914,1915,1916,1917,1918,1919,1920,1921,1922,4963,1923,0,0,0,0,0,0,0,0,0,0,0,0,0,0,0,0,0,0,0,0,0,0,0,0,0,0,0,0,0,0,0,0,0,0,0,0,0,0,0,0,0,0,0,
0,0,0,0,0,0,0,0,0,0,0,0,0,0,0,0,0,0,0,0,1924,1925,1926,0,0,0,0,0,0,0,0,0,0,0,0,0,0,0,0,0,0,0,0,0,0,0,0,0,0,0,0,0,0,0,0,0,0,0,0,0,0,0,0,0,0,0,
0,0,0,0,0,0,0,0,0,0,0,0,0,0,0,0,0,0,0,1927,1928,1929,1930,0,0,0,0,0,0,0,0,0,0,0,0,0,0,0,0,0,0,0,0,0,0,0,0,0,0,0,0,0,0,0,0,0,0,0,0,0,0,0,0,0,0,0,
0,0,0,0,0,0,0,0,0,0,0,0,0,0,0,0,0,0,0,1931,1932,1933,1934,0,0,0,0,0,0,0,0,0,0,0,0,0,0,0,0,0,0,0,0,0,0,0,0,0,0,0,0,0,0,0,0,0,0,0,0,0,0,0,0,0,0,0,
0,0,0,0,0,0,0,0,0,0,0,0,0,0,0,0,0,0,0,0,1935,1936,1937,0,0,0,0,0,0,0,0,0,0,0,0,0,0,0,0,0,0,0,0,0,0,0,0,0,0,0,0,0,0,0,0,0,0,0,0,1938,0,0,0,0,0,0,
0,0,0,0,0,0,0,0,0,0,0,0,0,0,0,0,0,0,0,0,1939,5163,1940,0,0,0,0,0,0,0,0,0,0,0,0,0,0,0,0,0,0,0,0,0,0,0,0,0,0,0,0,0,0,0,0,0,0,1941,1942,1943,1944,0,0,0,0,0,
0,0,0,0,0,0,0,0,0,0,0,0,0,0,0,0,0,0,0,0,1945,5203,1946,1947,0,0,0,0,0,0,0,0,0,0,0,0,0,0,0,0,0,0,0,0,0,0,0,0,0,0,0,0,0,0,0,1948,1949,1950,1951,1952,1953,0,0,0,0,0,
0,0,0,0,0,0,0,0,0,0,0,1954,0,0,0,0,1955,1956,1957,1958,1959,1960,5244,1961,1962,0,0,0,0,0,0,0,0,0,0,0,0,0,0,0,0,0,0,0,0,0,0,0,0,0,0,0,0,0,0,1963,1964,1965,1966,0,0,0,0,0,0,0,
0,0,0,0,0,0,0,0,0,0,1967,1968,1969,1970,1971,1972,1973,1974,1975,1976,1977,1978,5284,1979,1980,0,0,0,0,0,0,0,0,0,0,0,0,0,0,0,0,0,0,0,0,0,0,0,0,0,0,0,0,0,1981,1982,1983,0,0,0,0,0,0,0,0,0,
0,0,0,0,0,0,0,0,0,0,1984,1985,1986,1987,1988,1989,1990,1991,1992,0,0,1993,1994,3725,1995,1996,1997,0,0,0,0,0,0,0,0,0,0,0,0,0,0,1998,1999,1962,0,2000,2001,2002,2003,2004,2005,2006,2007,2008,2009,2010,2011,0,0,0,0,0,0,0,0,0,
0,0,0,0,0,0,0,0,0,0,0,2012,2013,2011,0,0,0,0,0,0,0,0,2014,2015,2016,3767,2017,2018,2019,2020,0,0,0,0,0,2021,0,0,0,0,0,2022,3744,2023,2024,2025,2026,3749,2027,2028,3752,2029,3754,2030,2031,0,0,0,0,0,0,0,0,0,0,0,
0,0,0,0,0,0,0,0,0,0,0,0,0,0,0,0,0,0,0,0,0,0,0,0,2032,2033,2034,3809,1768,2035,2036,2037,2038,2039,2040,2041,2042,2043,2044,2045,2046,2047,3784,3785,2048,2049,2050,2051,2052,2053,2054,2055,2056,2057,0,0,0,0,0,0,0,0,0,0,0,0,
0,0,0,0,0,0,0,0,0,0,0,0,0,0,0,0,0,0,0,0,0,0,0,0,0,0,2058,2059,2060,2061,3852,3853,3854,3855,3856,3857,3858,3859,3860,1768,2062,2063,2064,2065,2066,0,0,0,0,0,0,0,0,0,0,0,0,0,0,0,0,0,0,0,0,0,
0,0,0,0,0,0,0,0,0,0,0,0,0,0,0,0,0,0,0,0,0,0,0,0,0,0,2067,2068,2069,2070,2071,2072,2073,2074,2075,2076,2077,2078,2079,2080,2081,0,0,0,0,0,0,0,0,0,0,0,0,0,0,0,0,0,0,0,0,0,0,0,0,0,
0,0,0,0,0,0,0,0,0,0,0,0,0,0,0,0,0,0,0,0,0,0,0,0,0,0,2082,2083,0,0,0,0,0,0,0,0,0,0,0,0,0,0,0,0,0,0,0,0,0,0,0,0,0,0,0,0,0,0,0,0,0,0,0,0,0,0,
0,0,0,0,0,0,0,0,0,0,0,0,0,0,0,0,0,0,0,0,0,0,0,0,0,0,2084,2085,2086,0,0,0,0,0,0,0,0,0,0,0,0,0,0,0,0,0,0,0,0,0,0,0,0,0,0,0,0,0,0,0,0,0,0,0,0,0,
0,0,0,0,0,0,0,0,0,0,0,0,0,0,0,0,0,0,0,0,0,0,0,0,0,0,2087,2088,2089,0,0,0,0,0,0,0,0,0,0,0,0,0,0,0,0,0,0,0,0,0,0,0,0,0,0,0,0,0,0,0,0,0,0,0,0,0,
0,0,0,0,0,0,0,0,0,0,0,0,0,0,0,0,0,0,0,0,0,0,0,0,0,0,2090,2091,2092,2093,0,0,0,0,0,0,0,0,0,0,0,0,0,0,0,0,0,0,0,0,0,0,0,0,0,0,0,0,0,0,0,0,0,0,0,0,
0,0,0,0,0,0,0,0,0,0,0,0,0,0,0,0,0,0,0,0,0,0,0,0,0,0,0,2094,2095,2096,2097,0,0,0,0,0,0,0,0,0,0,0,0,0,0,0,0,0,0,0,0,0,0,0,0,0,0,0,0,0,0,0,0,0,0,0,
0,0,0,0,0,0,0,0,0,0,0,0,0,0,0,0,0,0,0,0,0,0,0,0,0,0,0,2069,2098,2099,2100,0,0,0,0,0,0,0,0,0,0,0,0,0,0,0,0,0,0,0,0,0,0,0,0,0,0,0,0,0,0,0,0,0,0,0,
0,0,0,0,0,0,0,0,0,0,0,0,0,0,0,0,0,0,0,0,0,0,0,0,0,0,0,0,0,2101,0,0,0,0,0,0,0,0,0,0,0,0,0,0,0,0,0,0,0,0,0,0,0,0,0,0,0,0,0,0,0,0,0,0,0,0,
0,0,0,0,0,0,0,0,0,0,0,0,0,0,0,0,0,0,0,0,0,0,0,0,0,0,0,0,0,0,0,0,0,0,0,0,0,0,0,0,0,0,0,0,0,0,0,0,0,0,0,0,0,0,0,0,0,0,0,0,0,0,0,0,0,0,
0,0,0,0,0,0,0,0,0,0,0,0,0,0,0,0,0,0,0,0,0,0,0,0,0,0,0,0,0,0,0,0,0,0,0,0,0,0,0,0,0,0,0,0,0,0,0,0,0,0,0,0,0,0,0,0,0,0,0,0,0,0,0,0,0,0,
0,0,0,0,0,0,0,0,0,0,0,0,0,0,0,0,0,0,0,0,0,0,0,0,0,0,0,0,0,0,0,0,0,0,0,0,0,0,0,0,0,0,0,0,0,0,0,0,0,0,0,0,0,0,0,0,0,0,0,0,0,0,0,0,0,0,
0,0,0,0,0,0,0,0,0,0,0,0,0,0,0,0,0,0,0,0,0,0,0,0,0,0,0,0,0,0,0,0,0,0,0,0,0,0,0,0,0,0,0,0,0,0,0,0,0,0,0,0,0,0,0,0,0,0,0,0,0,0,0,0,0,0,
0,0,0,0,0,0,0,0,0,0,0,0,0,0,0,0,0,0,0,0,0,0,0,0,0,0,0,0,0,0,0,0,0,0,0,0,0,0,0,0,0,0,0,0,0,0,0,0,0,0,0,0,0,0,0,0,0,0,0,0,0,0,0,0,0,0,
0,0,0,0,0,0,0,0,0,0,0,0,0,0,0,0,0,0,0,0,0,0,0,0,0,0,0,0,0,0,0,0,0,0,0,0,0,0,0,0,0,0,0,0,0,0,0,0,0,0,0,0,0,0,0,0,0,0,0,0,0,0,0,0,0,0,
0,0,0,0,0,0,0,0,0,0,0,0,0,0,0,0,0,0,0,0,0,0,0,0,0,0,0,0,0,0,0,0,0,0,0,0,0,0,0,0,0,0,0,0,0,0,0,0,0,0,0,0,0,0,0,0,0,0,0,0,0,0,0,0,0,0,
0,0,0,0,0,0,0,0,0,0,0,0,0,0,0,0,0,0,0,0,0,0,0,0,0,0,0,0,0,0,0,0,0,0,0,0,0,0,0,0,0,0,0,0,0,0,0,0,0,0,0,0,0,0,0,0,0,0,0,0,0,0,0,0,0,0,
0,0,0,0,0,0,0,0,0,0,0,0,0,0,0,0,0,0,0,0,0,0,0,0,0,0,0,0,0,0,0,0,0,0,0,0,0,0,0,0,0,0,0,0,0,0,0,0,0,0,0,0,0,0,0,0,0,0,0,0,0,0,0,0,0,0,
0,0,0,0,0,0,0,0,0,0,0,0,0,0,0,0,0,0,0,0,0,0,0,0,0,0,0,0,0,0,0,0,0,0,0,0,0,0,0,0,0,0,0,0,0,0,0,0,0,0,0,0,0,0,0,0,0,0,0,0,0,0,0,0,0,0
</data>
 </layer>
 <layer id="4" name="Decor" width="66" height="62">
  <data encoding="csv">
0,0,0,0,0,0,0,0,0,0,0,0,0,0,0,0,0,0,0,0,0,0,0,0,0,0,0,0,0,0,0,0,0,0,0,0,0,0,0,0,0,0,0,0,0,0,0,0,0,0,0,0,0,0,0,0,0,0,0,0,0,0,0,0,0,0,
0,0,0,0,0,0,0,0,0,0,0,0,0,0,0,0,0,0,0,0,0,0,0,0,0,0,0,0,0,0,0,0,0,0,0,0,0,0,0,0,0,0,0,0,0,0,0,0,0,0,0,0,0,0,0,0,0,0,0,0,0,0,0,0,0,0,
0,0,0,0,0,0,0,0,0,0,0,0,0,0,0,0,0,0,0,0,0,0,0,0,0,0,0,0,0,0,0,0,0,0,0,0,0,0,0,0,0,0,0,0,0,0,0,0,0,0,0,0,0,0,0,0,0,0,0,0,0,0,0,0,0,0,
0,0,0,0,0,0,0,0,0,0,0,0,0,0,0,0,0,0,0,0,0,0,0,0,0,0,0,0,0,0,0,0,0,0,0,0,0,0,0,0,0,0,0,0,0,0,0,0,0,0,0,0,0,0,0,0,0,0,0,0,0,0,0,0,0,0,
0,0,0,0,0,0,0,0,0,0,0,0,0,0,0,0,0,0,0,0,0,0,7086,0,0,0,0,0,0,0,0,0,0,0,0,0,0,0,0,0,0,0,0,0,0,0,0,0,0,0,0,0,0,0,0,0,0,0,0,0,0,0,0,0,0,0,
0,0,0,0,0,0,0,0,0,0,0,0,0,0,0,0,0,0,0,0,0,0,0,0,0,0,0,0,0,0,0,0,0,0,0,0,0,0,0,0,0,0,0,0,0,0,0,0,0,0,0,0,0,0,0,0,0,0,0,0,0,0,0,0,0,0,
0,0,0,0,0,0,0,0,0,0,0,0,0,0,0,0,0,0,0,0,0,0,0,0,0,0,0,0,0,0,0,0,0,0,0,0,0,0,0,0,0,0,0,0,0,0,0,0,0,0,0,0,0,0,0,0,0,0,0,0,0,0,0,0,0,0,
0,0,0,0,0,0,0,0,0,0,0,0,0,0,0,0,0,0,0,0,0,0,0,0,7086,0,0,0,0,0,0,0,0,0,0,0,0,0,0,0,0,0,0,0,0,0,0,0,0,0,0,0,0,0,0,0,0,0,0,0,0,0,0,0,0,0,
0,0,0,0,0,0,0,0,0,0,0,0,0,0,0,0,0,0,0,0,0,0,0,0,0,0,0,0,0,0,0,0,0,0,0,0,0,0,0,0,0,0,0,0,0,0,0,0,0,0,0,0,0,0,0,0,0,0,0,0,0,0,0,0,0,0,
0,0,0,0,0,0,0,0,0,0,0,0,0,0,0,0,0,0,0,0,0,0,0,0,0,0,0,0,0,0,0,0,0,0,0,0,0,0,0,0,0,0,0,0,0,0,0,0,0,0,0,0,0,0,0,0,0,0,0,0,0,0,0,0,0,0,
0,0,0,0,0,0,0,0,0,0,0,0,0,0,0,0,0,0,0,0,0,0,0,0,0,0,0,0,0,0,0,0,0,0,0,0,0,0,0,0,0,0,0,0,0,0,0,0,0,0,0,0,0,0,0,0,0,0,0,0,0,0,0,0,0,0,
0,0,0,0,0,0,0,0,0,0,0,0,0,0,0,0,0,0,0,0,0,0,0,0,0,0,0,0,0,0,0,0,0,0,0,0,0,0,0,0,0,0,0,0,0,0,0,0,0,0,0,0,0,0,0,0,0,0,0,0,0,0,0,0,0,0,
0,0,0,0,0,0,0,0,0,0,0,0,0,0,0,0,0,0,0,0,0,0,0,0,7064,0,0,0,0,0,0,0,0,0,0,0,0,0,0,0,0,0,0,0,0,0,0,0,0,0,0,0,0,0,0,0,0,0,0,0,0,0,0,0,0,0,
0,0,0,0,0,0,0,0,0,0,0,0,0,0,0,0,0,0,0,0,0,0,0,0,0,0,0,0,0,0,0,0,0,0,0,0,0,0,0,0,0,0,0,0,0,0,0,0,0,0,0,0,0,0,0,0,7100,0,0,0,0,0,0,0,0,0,
0,0,0,0,0,0,0,0,0,0,0,0,0,0,0,0,0,0,0,0,0,0,0,0,0,0,0,0,0,0,0,0,0,0,0,0,0,0,0,0,0,0,0,0,0,0,0,0,0,0,0,0,0,0,0,0,0,0,0,0,0,0,0,0,0,0,
0,0,0,0,0,0,0,0,0,0,0,0,0,0,0,0,0,0,0,0,0,0,0,0,0,0,0,0,0,0,0,0,0,0,0,0,0,0,0,0,0,0,0,0,0,0,0,0,0,0,0,0,0,0,0,7098,0,0,0,0,0,0,0,0,0,0,
0,0,0,0,0,0,0,0,0,0,0,0,0,0,0,0,0,0,0,0,0,0,0,0,0,0,0,0,0,0,0,0,0,0,0,0,0,0,0,0,0,0,0,0,0,0,0,0,0,0,0,0,0,0,0,0,0,0,7055,7045,7095,0,0,0,0,0,
0,0,0,0,0,0,0,0,0,0,0,0,0,0,0,0,0,0,0,0,0,0,0,0,0,0,0,0,7072,0,0,0,0,0,0,0,0,0,0,0,0,0,0,0,0,0,0,0,0,0,0,0,0,0,0,0,0,0,0,0,0,0,0,0,0,0,
0,0,0,0,0,0,0,0,0,0,0,0,0,0,0,0,0,0,0,0,0,0,0,0,0,0,0,0,0,0,0,0,0,0,0,0,0,7058,0,0,0,0,0,0,0,0,0,0,0,0,0,0,0,0,0,7098,0,0,0,0,0,0,0,0,0,0,
0,0,0,0,0,0,0,0,0,0,0,0,0,0,0,0,0,0,0,0,0,0,0,0,0,0,0,0,0,0,0,0,0,0,0,0,0,0,0,7080,0,0,0,0,0,0,0,0,0,0,0,0,0,0,0,0,0,0,0,0,0,0,0,0,0,0,
0,0,0,0,0,0,0,0,0,0,0,0,0,0,0,0,0,0,0,0,0,0,0,0,0,0,0,0,0,0,0,0,0,0,0,0,0,0,0,0,0,7098,0,0,0,0,0,0,0,0,0,0,0,0,0,0,0,0,0,0,0,0,0,0,0,0,
0,0,0,0,0,0,0,0,0,0,0,0,0,0,0,0,0,0,0,0,0,0,0,0,0,0,0,0,0,0,0,0,0,0,0,0,0,0,0,0,0,0,0,0,0,0,0,0,0,0,0,0,0,0,0,0,0,7100,0,0,0,0,0,0,0,0,
0,0,0,0,0,0,0,0,0,0,0,0,0,0,0,0,0,0,0,7062,0,0,0,0,0,7045,7050,7069,0,0,0,0,0,0,0,0,0,0,0,0,0,7068,0,0,0,0,0,0,0,0,0,0,0,0,0,0,0,0,0,0,0,0,0,0,0,0,
0,0,0,0,0,0,0,0,0,0,0,0,0,0,0,0,0,0,0,0,0,0,0,0,7062,0,0,7058,0,0,0,0,0,0,0,7067,0,0,0,0,0,0,0,0,0,7062,0,0,0,0,0,0,0,0,0,0,0,0,7098,7098,0,0,0,0,0,0,
0,0,0,0,0,0,0,0,0,0,0,0,0,0,0,0,0,0,0,0,0,0,0,0,0,0,0,0,0,0,0,0,0,0,0,0,0,0,0,0,0,0,0,0,7080,0,0,0,0,0,0,0,0,0,0,0,7094,0,0,0,0,0,0,0,0,0,
0,0,0,0,0,0,0,0,0,0,0,0,0,7049,0,0,0,0,0,0,0,0,0,0,0,0,0,0,0,0,0,0,0,0,0,0,0,0,0,0,7070,0,0,0,0,7054,0,0,0,0,0,0,0,0,0,0,0,0,0,0,0,7094,0,7045,0,0,
0,0,0,0,0,0,0,0,0,0,0,0,0,0,0,0,0,0,0,0,0,0,0,0,0,0,0,0,0,0,0,7020,7021,0,0,0,0,0,0,0,7048,7068,7050,0,0,0,0,0,0,0,0,0,0,0,0,0,7098,0,0,0,0,0,0,0,0,0,
0,0,0,0,0,0,0,0,0,0,0,0,0,0,0,0,0,0,0,0,0,0,0,0,0,0,0,0,0,7108,0,0,0,0,0,0,0,0,0,0,0,0,0,0,0,0,0,0,0,0,0,0,0,0,0,0,0,0,0,0,0,0,0,0,0,0,
0,0,0,0,0,0,0,0,7080,0,7076,0,0,0,0,0,0,0,0,0,0,7107,0,0,0,0,0,0,0,0,0,0,0,0,0,0,0,0,0,0,0,0,0,0,0,0,0,0,0,0,0,0,0,0,0,0,0,0,0,0,0,7099,0,0,0,7060,
0,0,0,0,0,0,0,0,0,0,0,0,7071,0,0,0,0,0,0,0,0,0,0,0,0,0,0,7068,7047,0,7082,0,0,0,0,0,0,0,0,0,0,0,0,0,0,0,0,0,0,0,0,0,0,0,0,0,0,0,0,0,0,0,0,0,0,7058,
0,0,0,0,0,0,0,0,0,0,0,0,0,0,0,0,0,0,0,0,0,0,0,0,0,7082,0,0,0,0,0,0,0,0,0,0,0,0,0,0,0,0,0,0,0,0,0,0,0,0,0,0,0,0,7060,0,0,0,0,0,0,0,7094,7060,0,0,
0,0,0,0,0,0,0,0,0,0,0,0,0,0,0,0,0,0,0,0,7086,0,0,0,0,0,0,7067,0,0,0,0,0,0,0,0,0,0,0,0,0,0,0,0,0,7050,0,0,7046,0,0,0,0,0,0,0,0,7099,7102,0,0,0,0,0,0,0,
0,0,0,0,0,0,0,0,0,0,0,0,0,0,7072,0,0,0,0,0,0,0,0,0,0,0,7052,0,0,0,0,0,0,0,0,0,0,0,0,0,0,0,0,0,0,0,0,0,0,0,0,0,0,0,0,0,0,0,0,0,0,0,7058,0,0,0,
0,0,0,0,0,0,0,0,0,0,0,0,0,0,0,0,0,0,0,0,0,0,0,0,0,0,0,0,0,0,0,0,0,0,0,0,0,0,0,0,0,0,0,0,0,0,0,0,0,0,0,0,0,0,0,0,0,0,0,0,0,0,7045,0,0,0,
0,0,0,0,0,0,0,0,0,0,0,0,0,0,0,0,0,0,0,0,0,0,0,0,0,0,0,0,0,0,0,0,0,0,0,0,0,0,0,0,0,0,0,0,0,0,0,0,0,0,0,0,0,0,0,0,0,0,0,0,0,0,0,0,0,0,
0,0,0,0,0,0,0,0,0,0,0,0,0,0,0,0,0,0,0,7096,0,0,0,7070,7080,0,0,0,0,0,0,0,0,0,0,0,0,0,0,0,0,7098,0,0,0,0,0,0,0,0,0,0,0,0,0,0,0,0,0,7063,0,0,0,0,0,0,
0,0,0,0,0,0,0,0,0,0,0,0,0,0,0,0,0,0,0,0,0,0,0,0,0,0,0,0,7078,0,0,0,0,0,0,0,0,0,0,0,0,0,0,0,0,0,0,0,0,0,0,0,0,0,0,7045,7067,0,0,0,0,0,0,7045,0,0,
0,0,0,0,0,0,0,0,0,0,0,0,0,0,0,0,0,0,0,0,0,0,0,0,0,0,0,0,0,0,0,0,0,0,0,0,0,0,0,0,0,0,0,0,0,0,0,0,0,0,0,0,0,0,0,0,0,0,0,0,0,0,0,0,0,0,
0,0,0,0,0,0,0,0,0,0,0,0,0,0,0,0,0,0,0,0,0,0,0,0,0,7067,0,0,0,0,0,0,0,0,0,0,0,0,0,0,0,0,0,0,0,0,0,0,0,0,0,7060,0,0,0,0,0,0,0,0,0,0,0,0,7100,0,
0,0,0,0,0,0,7076,0,0,0,0,0,0,0,0,0,0,0,0,0,0,0,0,0,0,0,0,0,0,0,0,0,0,0,0,0,0,0,0,0,0,0,0,0,0,0,0,6929,0,0,6930,0,0,7099,7058,0,0,0,0,7056,0,0,0,0,0,0,
0,0,0,0,0,0,0,0,0,0,0,0,0,0,0,0,0,0,0,0,0,0,0,0,0,0,0,0,7048,0,0,0,0,0,0,0,0,0,0,7080,0,0,0,0,0,0,0,6931,6932,6933,6934,0,0,0,0,0,0,0,0,7098,0,0,0,0,0,0,
0,0,0,0,0,0,0,0,0,7047,0,0,0,0,0,0,0,0,0,0,0,0,0,0,0,0,0,0,0,0,0,0,0,0,0,0,0,0,0,0,0,0,0,0,0,0,0,6935,6936,6937,6938,0,0,0,0,0,0,0,0,0,0,7100,7100,0,0,0,
0,0,0,0,0,0,0,0,0,0,0,0,0,7076,7076,0,0,0,0,0,0,0,0,0,0,0,0,0,0,0,0,0,0,0,0,0,0,0,0,0,0,0,0,0,0,0,0,6939,6940,6941,6942,0,0,0,0,0,0,0,0,0,0,0,0,0,0,0,
0,0,0,0,0,0,0,0,0,0,0,0,0,0,0,7068,0,0,0,0,0,7045,7080,0,0,7050,7070,0,0,0,0,0,0,0,0,0,0,0,0,0,0,0,0,0,0,0,0,0,0,0,0,7067,0,7102,0,0,0,0,7094,0,0,0,0,0,0,0,
0,0,0,0,0,0,0,0,0,0,0,0,0,0,0,0,0,0,0,0,0,0,0,0,0,0,0,0,0,0,0,0,0,0,0,0,7050,0,0,0,0,0,0,0,0,0,0,0,0,0,0,0,7052,0,0,0,0,0,0,0,0,0,0,0,0,0,
0,0,0,0,0,0,0,0,0,0,0,0,0,0,0,0,0,0,0,0,0,0,0,0,0,0,0,0,0,7064,0,0,0,0,0,7064,7063,0,0,0,0,0,0,0,0,0,0,0,0,0,0,0,0,0,0,7058,0,0,0,0,0,0,7101,0,0,0,
0,0,0,0,0,0,0,0,0,0,0,0,0,0,0,0,0,0,0,0,0,0,0,0,0,0,0,0,0,0,0,0,0,0,0,0,0,0,0,0,0,7058,0,0,0,0,0,0,0,0,0,0,0,7100,0,0,0,0,0,0,0,0,0,0,0,0,
0,0,0,0,0,0,0,0,0,0,0,0,0,0,0,0,0,0,0,0,0,0,0,0,0,0,0,0,0,0,7080,0,0,0,7049,0,0,0,0,0,0,0,0,0,0,0,0,0,0,0,0,0,0,7100,0,0,0,0,0,0,0,0,0,0,0,0,
0,0,0,0,0,0,0,0,0,0,0,0,0,0,0,0,0,0,0,0,0,0,0,0,0,0,0,0,0,0,0,0,0,0,0,0,0,0,0,0,0,0,0,0,0,0,0,0,0,0,0,0,0,0,0,0,0,0,0,0,0,0,0,0,0,0,
0,0,0,0,0,0,0,0,0,0,0,0,0,0,0,0,0,0,0,0,0,0,0,0,0,0,0,0,0,7071,0,0,0,0,0,0,0,0,0,0,0,0,0,0,0,0,0,0,0,0,0,0,0,0,0,0,0,0,0,0,7058,0,0,0,0,0,
0,0,0,0,0,0,0,0,0,7061,0,0,0,0,7061,0,0,0,0,0,0,0,0,0,0,0,7052,0,0,0,0,0,0,0,0,0,0,0,0,0,0,0,0,0,0,0,0,0,0,0,0,0,0,0,0,0,0,0,0,0,0,0,0,0,0,0,
0,0,0,0,0,0,0,0,0,0,7086,0,0,0,0,0,0,0,0,0,0,0,0,0,0,0,0,0,0,7086,0,0,0,0,0,0,0,0,0,0,0,0,0,0,0,0,0,0,0,0,0,0,0,0,0,0,0,0,0,0,0,0,0,0,0,0,
0,0,0,0,0,0,0,0,0,0,0,0,0,0,0,0,0,0,0,0,0,0,0,0,0,0,0,0,0,0,0,0,0,0,0,0,0,0,0,7052,0,0,0,0,0,0,0,0,0,0,0,0,0,0,0,0,0,0,0,0,7098,0,0,0,0,0,
0,0,0,0,0,0,0,0,0,0,0,0,0,0,0,0,0,0,0,0,0,0,0,0,0,0,0,0,0,0,0,0,0,0,0,0,0,0,0,0,0,0,0,0,0,0,0,0,0,0,0,0,0,0,0,0,0,0,0,0,0,0,0,0,0,0,
0,0,0,0,0,0,0,0,0,0,0,0,0,0,0,0,0,0,0,0,0,0,0,0,0,0,0,0,0,0,0,0,0,0,0,0,0,0,0,0,0,0,0,0,7100,0,0,0,0,0,0,0,0,0,0,0,0,0,0,0,0,0,0,0,0,0,
0,0,0,0,0,0,0,0,0,0,0,0,0,0,0,0,0,0,0,0,0,0,0,0,0,0,0,0,0,0,0,0,0,7054,0,0,0,0,0,7080,0,0,0,0,0,0,0,0,0,0,0,0,0,0,0,0,0,0,7095,7098,7095,0,0,0,0,0,
0,0,0,0,0,0,0,0,0,0,0,0,0,0,0,0,0,0,0,0,0,0,0,0,0,0,0,0,0,0,0,0,0,0,0,0,0,0,0,0,0,7070,0,0,0,0,0,0,0,0,0,0,0,0,0,0,0,0,0,0,0,0,0,0,0,0,
0,0,0,0,0,0,0,0,0,0,0,0,0,0,0,0,0,0,0,0,0,0,0,0,0,0,0,0,0,0,0,0,0,0,0,7054,0,0,0,0,0,0,0,0,0,0,0,0,0,0,0,0,0,0,0,0,0,0,0,0,0,0,0,0,0,0,
0,0,0,0,0,0,0,0,0,0,0,0,0,0,0,0,0,0,0,0,0,0,0,0,0,0,0,0,0,0,0,0,0,0,0,0,0,0,0,0,0,0,0,0,0,0,0,0,0,0,0,0,0,0,0,0,0,0,0,0,0,0,0,0,0,0,
0,0,0,0,0,0,0,0,0,0,0,0,0,0,0,0,0,0,0,0,0,7046,0,0,0,0,0,0,0,0,0,0,0,0,0,0,0,0,0,0,0,0,0,0,0,0,0,0,0,0,0,0,0,0,0,0,0,0,0,0,0,0,0,0,0,0,
0,0,0,0,0,0,0,0,0,0,0,0,0,0,0,0,0,0,0,0,0,0,0,0,0,0,0,0,0,0,0,0,0,0,0,0,0,0,0,0,0,0,0,0,0,0,0,0,0,0,0,0,0,0,0,0,0,0,0,0,0,0,0,0,0,0,
0,0,0,0,0,0,0,0,0,0,0,0,0,0,0,0,0,0,0,0,0,0,0,0,0,0,0,0,0,0,0,0,0,0,0,0,0,0,0,0,0,0,0,0,0,0,0,0,0,0,0,0,0,0,0,0,0,0,0,0,0,0,0,0,0,0
</data>
 </layer>
 <layer id="5" name="Dynamic" width="66" height="62">
  <data encoding="csv">
0,0,0,0,0,0,0,0,0,0,0,0,0,0,0,0,0,0,0,0,0,0,0,0,0,0,0,0,0,0,0,0,0,0,0,0,0,0,0,0,0,0,0,0,0,0,0,0,0,0,0,0,0,0,0,0,0,0,0,0,0,0,0,0,0,0,
0,0,0,0,0,0,0,0,0,0,0,0,0,0,0,0,0,0,0,0,0,0,0,0,0,0,0,0,0,0,0,0,0,0,0,0,0,0,0,0,0,0,0,0,0,0,0,0,0,0,0,0,0,0,0,0,0,0,0,0,0,0,0,0,0,0,
0,0,0,0,0,0,0,0,0,0,0,0,0,0,0,0,0,0,0,0,0,0,0,0,0,0,0,0,0,0,0,0,0,0,0,0,0,0,0,0,0,0,0,0,0,0,0,0,0,0,0,0,0,0,0,0,0,0,0,0,0,0,0,0,0,0,
0,0,0,0,0,0,0,0,0,0,0,0,0,0,0,0,0,0,0,0,0,0,0,0,0,0,0,0,0,0,0,0,0,0,0,0,0,0,0,0,0,0,0,0,0,0,0,0,0,0,0,0,0,0,0,0,0,0,0,0,0,0,0,0,0,0,
0,0,0,0,0,0,0,0,0,0,0,0,0,0,0,0,0,0,0,0,0,0,0,0,0,0,0,0,0,0,0,0,0,0,0,0,0,0,0,0,0,0,0,0,0,0,0,0,0,0,0,0,0,0,0,0,0,0,0,0,0,0,0,0,0,0,
0,0,0,0,0,0,0,0,0,0,0,0,0,0,0,0,0,0,0,0,0,0,0,0,0,0,0,0,0,0,0,0,0,0,0,0,0,0,0,0,0,0,0,0,0,0,0,0,0,0,0,0,0,0,0,0,0,0,0,0,0,0,0,0,0,0,
0,0,0,0,0,0,0,0,0,0,0,0,0,0,0,0,0,0,0,0,0,0,0,0,0,0,0,0,0,0,0,0,0,0,0,0,0,0,0,0,0,0,0,0,0,0,0,0,0,0,0,0,0,0,0,0,0,0,0,0,0,0,0,0,0,0,
0,0,0,0,0,0,0,0,0,0,0,0,0,0,0,0,0,0,0,0,0,0,0,0,0,0,0,0,0,0,0,0,0,0,0,0,0,0,0,0,0,0,0,0,0,0,0,0,0,0,0,0,0,0,0,0,0,0,0,0,0,0,0,0,0,0,
0,0,0,0,0,0,0,0,0,0,0,0,0,0,0,0,0,0,0,0,0,0,0,0,0,0,0,0,0,0,0,0,0,0,0,0,0,0,0,0,0,0,0,0,0,0,0,0,0,0,0,0,0,0,0,0,0,0,0,0,0,0,0,0,0,0,
0,0,0,0,0,0,0,0,0,0,0,0,0,0,0,0,0,0,0,0,0,0,0,0,0,0,0,0,0,0,0,0,0,0,0,0,0,0,0,0,0,0,0,0,0,0,0,0,0,0,0,0,0,0,0,0,0,0,0,0,0,0,0,0,0,0,
0,0,0,0,0,0,0,0,0,0,0,0,0,0,0,0,0,0,0,0,0,0,0,0,0,0,0,0,0,0,0,0,0,0,0,0,0,0,0,0,0,0,0,0,0,0,0,0,0,0,0,0,0,0,0,0,0,0,0,0,0,0,0,0,0,0,
0,0,0,0,0,0,0,0,0,0,0,0,0,0,0,0,0,0,0,0,0,0,0,0,0,0,0,0,0,0,0,0,0,0,0,0,0,0,0,0,0,0,0,0,0,0,0,0,0,0,0,0,0,0,0,0,0,0,0,0,0,0,0,0,0,0,
0,0,0,0,0,0,0,0,0,0,0,0,0,0,0,0,0,0,0,0,0,0,0,0,0,0,0,0,0,0,0,0,0,0,0,0,0,0,0,0,0,0,0,0,0,0,0,0,0,0,0,0,0,0,0,0,0,0,0,0,0,0,0,0,0,0,
0,0,0,0,0,0,0,0,0,0,0,0,0,0,0,0,0,0,0,0,0,0,0,0,0,0,0,0,0,0,0,0,0,0,0,0,0,0,0,0,0,0,0,0,0,0,0,0,0,0,0,0,0,0,0,0,0,0,0,0,0,0,0,0,0,0,
0,0,0,0,0,0,0,0,0,0,0,0,0,0,0,0,0,0,0,0,0,0,0,0,0,0,0,0,0,0,0,0,0,0,0,0,0,0,0,0,0,0,0,0,0,0,0,0,0,0,0,0,0,0,0,0,0,0,0,0,0,0,0,0,0,0,
0,0,0,0,0,0,0,0,0,0,0,0,0,0,0,0,0,0,0,0,0,0,0,0,0,0,0,0,0,0,0,0,0,0,0,0,0,0,0,0,0,0,0,0,0,0,0,0,0,0,0,0,0,0,0,0,0,0,0,0,0,0,0,0,0,0,
0,0,0,0,0,0,0,0,0,0,0,0,0,0,0,0,0,0,0,0,0,0,0,0,0,0,0,0,0,0,0,0,0,0,0,0,0,0,0,0,0,0,0,0,0,0,0,0,0,0,0,0,0,0,0,0,0,0,0,0,0,0,0,0,0,0,
0,0,0,0,0,0,0,0,0,0,0,0,0,0,0,0,0,0,0,0,0,0,0,0,0,0,0,0,0,0,0,0,0,0,0,0,0,0,0,0,0,0,0,0,0,0,0,0,0,0,0,0,0,0,0,0,0,0,0,0,0,0,0,0,0,0,
0,0,0,0,0,0,0,0,0,0,0,0,0,0,0,0,0,0,0,0,0,0,0,0,0,0,0,0,6092,6036,6037,6038,6039,6040,6092,0,0,0,0,0,0,0,0,0,0,0,0,0,0,0,0,0,0,0,0,0,0,0,0,0,0,0,0,0,0,0,
0,0,0,0,0,0,0,0,0,0,0,0,0,0,0,0,0,0,0,0,0,0,0,0,0,0,0,0,6041,6042,6043,6044,6045,6046,6047,0,0,0,0,0,0,0,0,0,0,0,0,0,0,0,0,0,0,0,0,0,0,0,0,0,0,0,0,0,0,0,
0,0,0,0,0,0,0,0,0,0,0,0,0,0,0,0,0,0,0,0,0,0,0,0,0,0,0,0,6048,6049,6050,6051,6052,6053,6054,0,0,0,0,0,0,0,0,0,0,0,0,0,0,0,0,0,0,0,0,0,0,0,0,0,0,0,0,0,0,0,
0,0,0,0,0,0,0,0,0,0,0,0,0,0,0,0,0,0,0,0,0,0,0,0,0,0,0,0,6055,6056,6057,6058,6059,6060,6061,0,0,0,0,0,0,0,0,0,0,0,0,0,0,0,0,0,0,0,0,0,0,0,0,0,0,0,0,0,0,0,
0,0,0,0,0,0,0,0,0,0,0,0,0,0,0,0,0,0,0,0,0,0,0,0,0,0,0,0,6062,6063,6064,6065,6066,6067,6068,0,0,0,0,0,0,0,0,0,0,0,0,0,0,0,0,0,0,0,0,0,0,0,0,0,0,0,0,0,0,0,
0,0,0,0,0,0,0,0,0,0,0,0,0,0,0,0,0,0,0,0,0,0,0,0,0,0,0,0,6069,6070,6071,6072,6073,6074,6075,0,0,0,0,0,0,0,0,0,0,0,0,0,0,0,0,0,0,0,0,0,0,0,0,0,0,0,0,0,0,0,
0,0,0,0,0,0,0,0,0,0,0,0,0,0,0,5492,5469,5470,5471,5492,0,0,0,0,0,0,0,0,6076,6077,6078,6079,6080,6081,6092,0,0,0,0,0,0,0,0,0,0,0,0,0,0,0,0,0,0,0,0,0,0,0,0,0,0,0,0,0,0,0,
0,0,0,0,0,0,0,0,0,0,0,0,0,0,0,5472,5473,5474,5475,5476,0,0,0,0,0,0,0,0,6092,6082,6083,6084,6085,6086,6092,0,0,0,0,0,0,0,0,0,0,0,0,0,0,0,0,0,0,0,0,0,0,0,0,0,0,0,0,0,0,0,
0,0,0,0,0,0,0,0,0,0,0,0,0,0,0,5477,5478,5479,5480,5481,0,0,0,0,0,0,0,0,6092,6087,6088,6089,6090,6091,6092,0,0,0,0,0,0,0,0,0,0,0,0,0,0,0,0,0,0,0,0,0,0,0,0,0,0,0,0,0,0,0,
0,0,0,0,0,0,0,0,0,0,0,0,0,0,0,5482,5483,5484,5485,5486,0,0,0,0,0,0,0,0,0,0,0,0,0,0,0,0,0,0,0,0,0,0,0,0,0,0,0,0,0,0,0,0,0,0,0,0,0,0,0,0,0,0,0,0,0,0,
0,0,0,0,0,0,0,0,0,0,0,0,0,0,0,5487,5488,5489,5490,5491,0,0,0,0,0,0,0,0,0,0,0,0,0,0,0,0,0,0,0,0,0,0,0,0,0,0,0,0,0,0,0,0,0,0,0,0,0,0,0,0,0,0,0,0,0,0,
0,0,0,0,0,0,0,0,0,0,0,0,0,0,0,0,0,0,0,0,0,0,0,0,0,0,0,0,0,0,0,0,0,0,0,0,0,0,0,0,0,0,0,0,0,0,0,0,0,0,0,0,0,0,0,0,0,0,0,0,0,0,0,0,0,0,
0,0,0,0,0,0,0,0,0,0,0,0,0,0,0,0,0,0,0,0,0,0,0,0,0,0,0,0,0,0,0,0,0,0,0,0,0,0,0,0,0,0,0,0,0,0,0,0,0,0,0,0,0,0,0,0,0,0,0,0,0,0,0,0,0,0,
0,0,0,0,0,0,0,0,0,0,0,0,0,0,0,0,0,0,0,0,0,0,0,0,0,0,0,0,0,0,0,0,6310,6311,6312,6313,6333,0,0,0,0,0,0,0,0,0,0,0,0,0,0,0,0,0,0,0,0,0,0,0,0,0,0,0,0,0,
0,0,0,0,0,0,0,0,0,0,0,0,0,0,0,0,0,0,0,0,0,0,0,0,0,0,0,0,0,0,0,0,6314,6315,6316,6317,6318,0,0,0,0,0,0,0,0,0,0,0,0,0,0,0,0,0,0,0,0,0,0,0,0,0,0,0,0,0,
0,0,0,0,0,0,0,0,0,0,0,0,0,0,0,0,0,0,0,0,0,0,0,0,0,0,0,0,0,0,0,0,6319,6320,6321,6322,6323,0,0,0,0,0,0,0,0,0,0,0,0,0,0,0,0,0,0,0,0,0,0,0,0,0,0,0,0,0,
0,0,0,0,0,0,0,0,0,0,0,0,0,0,0,0,0,0,0,0,0,0,0,0,0,0,0,0,0,0,0,0,6324,6325,6326,6327,6328,0,0,0,0,0,0,0,0,0,0,0,0,0,0,0,0,0,0,0,0,0,0,0,0,0,0,0,0,0,
0,0,0,0,0,0,0,0,0,6011,5992,5993,5994,6011,0,0,0,0,0,0,0,0,0,0,0,0,0,0,0,0,0,0,6333,6329,6330,6331,6332,0,0,0,0,0,0,0,0,0,0,0,0,0,0,0,0,0,0,0,0,0,0,0,0,0,0,0,0,0,
0,0,0,0,0,0,0,0,0,5995,5996,5997,5998,5999,0,0,0,0,0,0,0,0,0,0,0,0,0,0,0,0,0,0,0,0,0,0,0,0,0,0,0,0,0,0,0,0,0,0,0,0,0,0,0,0,0,0,0,0,0,0,0,0,0,0,0,0,
0,0,0,0,0,0,0,0,0,6000,6001,6002,6003,6004,0,0,0,0,0,0,0,0,0,0,0,0,0,0,0,0,0,0,0,0,0,0,0,0,0,0,6232,6233,6234,6235,6256,0,0,0,0,0,0,0,0,0,0,0,0,0,0,0,0,0,0,0,0,0,
0,0,0,0,0,0,0,0,0,6011,6005,6006,6007,6011,0,0,0,0,0,0,0,0,0,0,0,0,0,0,0,0,0,0,0,0,0,0,0,0,0,0,6236,6237,6238,6239,6240,0,0,0,0,0,0,0,0,0,0,0,0,0,0,0,0,0,0,0,0,0,
0,0,0,0,0,0,0,0,0,6011,6008,6009,6010,6011,0,0,0,0,0,0,0,0,0,0,0,0,0,0,0,0,0,0,0,5882,5864,5865,5866,5882,0,0,6241,6242,6243,6244,6245,0,0,0,0,0,0,0,0,0,0,0,0,0,0,0,0,0,0,0,0,0,
0,0,0,0,0,0,0,0,0,0,0,0,0,0,0,0,0,0,0,0,0,0,0,0,0,0,0,0,0,0,0,0,0,5867,5868,5869,5870,5871,0,0,6246,6247,6248,6249,6250,0,0,0,0,0,0,0,0,0,0,0,0,0,0,0,0,0,0,0,0,0,
0,0,0,0,0,0,0,0,0,0,0,0,0,0,0,0,0,0,0,0,0,0,0,0,0,0,0,0,0,0,0,0,0,5872,5873,5874,5875,5876,0,0,6251,6252,6253,6254,6255,0,0,0,0,0,0,0,0,0,0,0,0,0,0,0,0,0,0,0,0,0,
0,0,0,0,0,0,0,0,0,0,0,0,0,0,0,0,0,0,0,0,0,0,0,0,0,0,0,0,0,0,0,0,0,5877,5878,5879,5880,5881,0,0,0,0,0,0,0,0,0,0,0,0,0,0,0,0,0,0,0,0,0,0,0,0,0,0,0,0,
0,0,0,0,0,0,0,0,0,0,0,0,0,0,0,0,0,0,0,0,0,0,0,0,0,0,0,0,0,0,0,0,0,0,0,0,0,0,0,0,0,0,0,0,0,0,0,0,0,0,0,0,0,0,0,0,0,0,0,0,0,0,0,0,0,0,
0,0,0,0,0,0,0,0,0,0,0,0,0,0,0,0,0,0,0,0,0,0,0,0,0,0,0,0,0,0,0,0,0,0,0,0,0,0,0,0,0,0,0,0,0,0,0,0,0,0,0,0,0,0,0,0,0,0,0,0,0,0,0,0,0,0,
0,0,0,0,0,0,0,0,0,0,0,0,0,0,0,0,0,0,0,0,0,0,0,0,0,0,0,0,0,0,0,0,0,0,0,0,0,0,0,0,0,0,0,0,0,0,0,0,0,0,0,0,0,0,0,0,0,0,0,0,0,0,0,0,0,0,
0,0,0,0,0,0,0,0,0,0,0,0,0,0,0,0,0,0,0,0,0,0,0,0,0,0,0,0,0,0,0,0,0,0,0,0,0,0,0,0,0,0,0,0,0,0,0,0,0,0,0,0,0,0,0,0,0,0,0,0,0,0,0,0,0,0,
0,0,0,0,0,0,0,0,0,0,0,0,0,0,0,0,0,0,0,0,0,0,0,0,0,0,0,0,0,0,0,0,0,0,0,0,0,0,0,0,0,0,0,0,0,0,0,0,0,0,0,0,0,0,0,0,0,0,0,0,0,0,0,0,0,0,
0,0,0,0,0,0,0,0,0,0,0,0,0,0,0,0,0,0,0,0,0,0,0,0,0,0,0,0,0,0,0,0,0,0,0,0,0,0,0,0,0,0,0,0,0,0,0,0,0,0,0,0,0,0,0,0,0,0,0,0,0,0,0,0,0,0,
0,0,0,0,0,0,0,0,0,0,0,0,0,0,0,0,0,0,0,0,0,0,0,0,0,0,0,0,0,0,0,0,0,0,0,0,0,0,0,0,0,0,0,0,0,0,0,0,0,0,0,0,0,0,0,0,0,0,0,0,0,0,0,0,0,0,
0,0,0,0,0,0,0,0,0,0,0,0,0,0,0,0,0,0,0,0,0,0,0,0,0,0,0,0,0,0,0,0,0,0,0,0,0,0,0,0,0,0,0,0,0,0,0,0,0,0,0,0,0,0,0,0,0,0,0,0,0,0,0,0,0,0,
0,0,0,0,0,0,0,0,0,0,0,0,0,0,0,0,0,0,0,0,0,0,0,0,0,0,0,0,0,0,0,0,0,0,0,0,0,0,0,0,0,0,0,0,0,0,0,0,0,0,0,0,0,0,0,0,0,0,0,0,0,0,0,0,0,0,
0,0,0,0,0,0,0,0,0,0,0,0,0,0,0,0,0,0,0,0,0,0,0,0,0,0,0,0,0,0,0,0,0,0,0,0,0,0,0,0,0,0,0,0,0,0,0,0,0,0,0,0,0,0,0,0,0,0,0,0,0,0,0,0,0,0,
0,0,0,0,0,0,0,0,0,0,0,0,0,0,0,0,0,0,0,0,0,0,0,0,0,0,0,0,0,0,0,0,0,0,0,0,0,0,0,0,0,0,0,0,0,0,0,0,0,0,0,0,0,0,0,0,0,0,0,0,0,0,0,0,0,0,
0,0,0,0,0,0,0,0,0,0,0,0,0,0,0,0,0,0,0,0,0,0,0,0,0,0,0,0,0,0,0,0,0,0,0,0,0,0,0,0,0,0,0,0,0,0,0,0,0,0,0,0,0,0,0,0,0,0,0,0,0,0,0,0,0,0,
0,0,0,0,0,0,0,0,0,0,0,0,0,0,0,0,0,0,0,0,0,0,0,0,0,0,0,0,0,0,0,0,0,0,0,0,0,0,0,0,0,0,0,0,0,0,0,0,0,0,0,0,0,0,0,0,0,0,0,0,0,0,0,0,0,0,
0,0,0,0,0,0,0,0,0,0,0,0,0,0,0,0,0,0,0,0,0,0,0,0,0,0,0,0,0,0,0,0,0,0,0,0,0,0,0,0,0,0,0,0,0,0,0,0,0,0,0,0,0,0,0,0,0,0,0,0,0,0,0,0,0,0,
0,0,0,0,0,0,0,0,0,0,0,0,0,0,0,0,0,0,0,0,0,0,0,0,0,0,0,0,0,0,0,0,0,0,0,0,0,0,0,0,0,0,0,0,0,0,0,0,0,0,0,0,0,0,0,0,0,0,0,0,0,0,0,0,0,0,
0,0,0,0,0,0,0,0,0,0,0,0,0,0,0,0,0,0,0,0,0,0,0,0,0,0,0,0,0,0,0,0,0,0,0,0,0,0,0,0,0,0,0,0,0,0,0,0,0,0,0,0,0,0,0,0,0,0,0,0,0,0,0,0,0,0,
0,0,0,0,0,0,0,0,0,0,0,0,0,0,0,0,0,0,0,0,0,0,0,0,0,0,0,0,0,0,0,0,0,0,0,0,0,0,0,0,0,0,0,0,0,0,0,0,0,0,0,0,0,0,0,0,0,0,0,0,0,0,0,0,0,0,
0,0,0,0,0,0,0,0,0,0,0,0,0,0,0,0,0,0,0,0,0,0,0,0,0,0,0,0,0,0,0,0,0,0,0,0,0,0,0,0,0,0,0,0,0,0,0,0,0,0,0,0,0,0,0,0,0,0,0,0,0,0,0,0,0,0,
0,0,0,0,0,0,0,0,0,0,0,0,0,0,0,0,0,0,0,0,0,0,0,0,0,0,0,0,0,0,0,0,0,0,0,0,0,0,0,0,0,0,0,0,0,0,0,0,0,0,0,0,0,0,0,0,0,0,0,0,0,0,0,0,0,0
</data>
 </layer>
 <layer id="6" name="Collision" width="66" height="62">
  <data encoding="csv">
7109,7109,7109,7109,7110,7109,7109,7109,7109,7110,7109,7109,7110,7109,7110,7109,7110,7109,7109,7109,7109,7109,7109,7109,7109,7109,7109,7110,7110,7109,7109,7110,7109,7110,7109,7110,7109,7109,7109,7109,7110,7109,7109,7109,7110,7109,7109,7109,7110,7109,7109,7109,7109,7109,7110,7110,7110,7109,7109,7109,7109,7109,7109,7110,7109,7109,
7110,7109,7109,7109,7109,7109,7109,7110,7109,7110,7109,7109,7110,7109,7109,7109,7109,7109,7109,7110,7109,7109,7109,7109,7109,7109,7109,7110,7109,7109,7109,7109,7109,7110,7109,7109,7109,7109,7110,7109,7109,7109,7109,7109,7109,7110,7109,7109,7109,7109,7110,7109,7109,7109,7110,7109,7110,7109,7109,7109,7109,7110,7109,7109,7110,7109,
7109,7109,7110,7109,7110,7109,7110,7109,7109,7109,7109,7110,7109,7109,7109,7109,7110,7109,7109,7110,7109,7109,7109,7109,7109,7109,7110,7109,7109,7110,7109,7109,7109,7109,7109,7110,7110,7109,7109,7110,7109,7109,7110,7109,7109,7109,7110,7109,7109,7110,7109,7110,7109,7109,7109,7109,7109,7109,7110,7109,7109,7109,7109,7110,7109,7109,
7109,7109,7109,7110,7109,7110,7109,7109,7110,7110,7109,7110,7109,7109,7109,7109,7109,7110,7109,7110,7109,7109,7109,7109,7109,7109,7109,7109,7109,7109,7109,7109,7110,7109,7109,7109,7109,7110,7109,7109,7109,7110,7109,7110,7109,7109,7110,7109,7109,7109,7109,7109,7109,7109,7110,7109,7110,7109,7109,7110,7109,7109,7109,7109,7109,7110,
7109,7109,7109,7109,7109,7109,7109,7109,7109,7109,7109,7109,7109,7109,7109,7110,7109,7109,7109,7109,7109,7109,7109,7109,7109,7109,7110,7109,7109,7110,7109,7109,7109,7110,7109,7109,7109,7109,7109,7109,7109,7109,7109,7109,7109,7109,7109,7110,7109,7109,7110,7109,7109,7109,7109,7109,7109,7109,7110,7109,7109,7109,7109,7110,7109,7109,
7109,7109,7110,7109,7110,7109,7109,7109,7110,7109,7109,7110,7109,7109,7110,7109,7110,7109,7109,7109,7110,7109,7109,7109,7109,7109,7109,7109,7110,7109,7109,7110,7109,7109,7109,7110,7109,7109,7110,7109,7110,7109,7110,7109,7109,7109,7109,7109,7109,7109,7110,7110,7109,7109,7109,7110,7110,7109,7110,7109,7109,7109,7110,7110,7109,7109,
7109,7109,7109,7109,7109,7110,7109,7109,7109,7109,7109,7110,7109,7110,7109,7109,7109,7110,7110,7109,7109,7109,7109,7109,7109,7109,7109,7109,7109,7109,7110,7109,7110,7109,7109,7109,7109,7109,7109,7109,7109,7109,7109,7109,7110,7110,7109,7110,7109,7109,7109,7110,7109,7110,7109,7109,7109,7109,7109,7109,7109,7109,7109,7109,7109,7109,
7109,7110,7110,7109,7110,7109,7109,7110,7109,7110,7109,7109,7109,7109,7109,7109,7109,7109,7109,7110,7109,7109,7109,7109,7109,7109,7109,7110,7109,7109,7109,7109,7109,7109,7110,7110,7109,7109,7109,7110,7110,7109,7109,7109,7110,7109,7109,7110,7109,7109,7109,7109,7109,7109,7109,7110,7109,7109,7109,7109,7110,7110,7109,7109,7110,7109,
7109,7110,7109,7109,7109,7109,7109,7109,7109,7109,7109,7109,7109,7109,7110,7109,7109,7110,7109,7109,7109,7110,7109,7109,7109,7109,7109,7109,7110,7109,7109,7109,7110,7109,7109,7109,7110,7109,7110,7109,7110,7109,7110,7109,7109,7110,7109,7109,7109,7110,7109,7110,7109,7110,7109,7109,7109,7109,7109,7109,7109,7109,7110,7109,7109,7109,
7109,7109,7109,7110,7109,7110,7109,7109,7109,7110,7109,7109,7110,7109,7109,7110,7109,7109,7109,7109,7109,7109,7109,7109,7109,7109,7109,7109,7109,7109,7110,7109,7110,7109,7109,7109,7109,7109,7109,7109,7109,7109,7109,7109,7109,7109,7110,7109,7109,7109,7109,7109,7109,7109,7109,7109,7109,7110,7109,7109,7109,7109,7109,7110,7109,7109,
7110,7109,7109,7110,7109,7109,7109,7110,7109,7109,7109,7109,7109,7110,7109,7109,7109,7110,7109,7109,7109,7110,7109,7109,7109,7109,7109,7110,7110,7109,7109,7110,7109,7109,7110,7109,7109,7109,7109,7110,7110,7109,7110,7109,7109,7109,7110,7109,7109,7109,7110,7109,7109,7110,7109,7109,7109,7109,7109,7110,7109,7110,7109,7109,7109,7110,
7109,7109,7109,7110,7110,7109,7109,7109,7109,7110,7109,7109,7110,7109,7110,7109,7109,7110,7110,7109,7109,7109,7109,7109,7109,7109,7109,7109,7110,7110,7109,7109,7109,7109,7109,7110,7109,7109,7109,7109,7109,7109,7109,7109,7109,7109,7109,7110,7109,7109,7109,7109,7109,7109,7109,7109,7109,7109,7109,7109,7109,7109,7109,7109,7109,7109,
7110,7109,7109,7109,7109,7109,7109,7110,7110,7109,7109,7109,7110,7109,7109,7109,7110,7109,7109,7109,7109,7110,7109,7109,7109,7109,7109,7109,7109,7109,7109,7109,7110,7109,7109,7110,7109,7110,7109,7110,7109,7110,7109,7109,7109,7109,7109,7109,7110,7110,7109,7110,7109,7109,7109,7109,7110,7109,7109,7109,7109,7109,7109,7110,7109,7109,
7110,7109,7109,7109,7110,7109,7109,7110,7109,7109,7109,7109,7109,7109,7110,7109,7109,7109,7109,7109,7110,7109,7109,7109,7109,7109,7109,7110,7109,7109,7110,7110,7109,7109,7109,7109,7110,7109,7109,7109,7109,7109,7110,7109,7109,7110,7110,7109,7109,7110,7109,7109,7109,7109,7109,7109,7109,7109,7109,7109,7110,7109,7109,7109,7110,7109,
7109,7109,7109,7110,7109,7109,7109,7109,7109,7110,7109,7109,7110,7109,7109,7109,7110,7109,7109,7109,7109,7109,7109,7109,7109,7109,7109,7109,7109,7109,7109,7109,7109,7110,7109,7109,7109,7109,7109,7110,7109,7109,7110,7109,7109,7109,7109,7109,7109,7109,7109,7110,7109,7109,7110,7109,7109,7109,7109,7109,7109,7109,7109,7110,7109,7109,
7110,7109,7109,7109,7109,7110,7110,7109,7110,7109,7109,7110,7109,7109,7109,7110,7109,7109,7109,7109,7109,7109,7109,7109,7109,7109,7109,7109,7109,7109,7109,7109,7109,7110,7110,7109,7109,7109,7109,7109,7109,7110,7109,7109,7109,7110,7110,7109,7109,7109,7109,7110,7109,7109,7109,7109,7109,7109,7109,7109,7109,7109,7109,7109,7110,7109,
7109,7109,7109,7110,7109,7109,7109,7109,7109,7109,7109,7109,7109,7109,7110,7109,7109,7109,7110,7109,7109,7110,7110,7109,7109,7109,7110,7110,7109,7109,7110,7109,7109,7109,7109,7109,7110,7109,7109,7109,7110,7109,7109,7109,7109,7109,7109,7109,7109,7109,7110,7109,7109,7109,7109,7109,7109,7109,7109,7109,7109,7109,7109,7109,7109,7109,
7109,7110,7109,7109,7109,7110,7109,7109,7110,7110,7109,7109,7109,7109,7110,7109,7109,7109,7109,7109,7109,7109,7109,7109,7109,7109,7109,7109,7109,7109,7109,7110,7109,7109,7110,7109,7110,7109,7109,7109,7110,7109,7109,7110,7109,7109,7110,7110,7109,7109,7109,7109,7109,7110,7109,7109,7109,7110,7109,7109,7109,7109,7109,7110,7110,7109,
7109,7109,7109,7109,7110,7109,7109,7109,7109,7109,7109,7110,7109,7110,7109,7109,7110,7109,7109,7109,7109,7109,7109,7109,7109,7109,7109,7109,7109,7109,7109,7109,7109,7109,7109,7109,7109,7109,7109,7110,7109,7109,7109,7109,7109,7109,7109,7109,7109,7109,7109,7110,7109,7109,7109,7109,7109,7109,7109,7109,7109,7109,7109,7109,7109,7109,
7110,7109,7109,7109,7109,7109,7110,7109,7110,7109,7109,7109,7109,7110,7109,7110,7109,7110,7109,7109,7109,7109,7109,7109,7109,7109,7109,7109,7109,7110,7109,7109,7109,7109,7110,7109,7109,7109,7109,7109,7109,7109,7109,7109,7110,7109,7110,7109,7109,7110,7109,7109,7109,7109,7109,7109,7109,7109,7109,7109,7110,7109,7109,7110,7109,7109,
7109,7109,7109,7109,7109,7109,7109,7110,7109,7109,7110,7109,7109,7110,7109,7109,7109,7109,7109,7109,7109,7109,7109,7109,7109,7109,7109,7109,7109,7109,7109,7110,7109,7109,7109,7109,7109,7109,7109,7109,7110,7109,7109,7109,7109,7109,7110,7109,7109,7109,7109,7109,7109,7109,7109,7109,7109,7109,7110,7109,7109,7109,7109,7109,7109,7109,
7109,7109,7109,7110,7110,7109,7109,7109,7109,7109,7109,7109,7109,7110,7109,7109,7109,7109,7109,7110,7109,7109,7109,7109,7109,7109,7109,7109,7109,7109,7109,7109,7109,7109,7109,7109,7109,7109,7109,7109,7109,7110,7109,7110,7110,7109,7109,7109,7109,7110,7109,7109,7109,7109,7109,7109,7109,7109,7109,7109,7109,7109,7109,7109,7110,7109,
7110,7109,7109,7109,7109,7109,7110,7109,7109,7109,7110,7109,7109,7109,7109,7109,7109,7109,7109,7109,7109,7109,7109,7109,7109,7109,7109,7109,7110,7110,7110,7110,7110,7110,7110,7109,7109,7109,7109,7109,7109,7109,7109,7109,7109,7110,7109,7109,7109,7109,7109,7109,7109,7109,7109,7109,7110,7109,7109,7109,7109,7110,7109,7109,7109,7109,
7109,7109,7109,7110,7109,7109,7109,7109,7109,7110,7109,7109,7109,7109,7110,7109,7109,7109,7109,7109,7109,7109,7109,7109,7109,7109,7109,7109,7110,7110,7110,7110,7110,7110,7110,7109,7109,7109,7109,7109,7110,7109,7109,7109,7109,7109,7109,7109,7110,7109,7110,7109,7109,7109,7109,7109,7109,7109,7109,7109,7109,7109,7109,7109,7109,7109,
7109,7110,7109,7110,7109,7110,7110,7109,7109,7109,7110,7109,7109,7109,7109,7109,7109,7109,7109,7109,7109,7109,7109,7109,7109,7109,7109,7109,7109,7109,7110,7110,7110,7109,7109,7109,7109,7109,7109,7109,7109,7110,7110,7109,7109,7110,7109,7109,7109,7109,7110,7109,7109,7109,7109,7109,7109,7110,7109,7110,7109,7109,7109,7109,7109,7109,
7109,7109,7109,7109,7110,7109,7109,7109,7110,7109,7109,7109,7109,7109,7109,7109,7109,7109,7109,7109,7109,7109,7109,7109,7109,7109,7109,7110,7109,7110,7110,7110,7110,7110,7110,7109,7109,7109,7109,7109,7109,7109,7109,7110,7109,7109,7110,7109,7109,7109,7109,7110,7109,7109,7109,7109,7109,7109,7109,7109,7109,7109,7109,7109,7109,7109,
7109,7110,7109,7109,7109,7110,7109,7109,7109,7109,7109,7109,7109,7109,7109,7110,7110,7110,7110,7110,7109,7109,7109,7109,7109,7109,7110,7110,7109,7109,7110,7109,7110,7110,7110,7110,7109,7109,7110,7109,7109,7109,7109,7109,7109,7109,7109,7109,7109,7110,7109,7109,7109,7109,7109,7109,7109,7109,7109,7109,7109,7110,7109,7109,7109,7110,
7109,7109,7109,7110,7109,7109,7109,7109,7109,7110,7109,7109,7109,7110,7110,7110,7110,7110,7110,7110,7109,7109,7109,7109,7109,7109,7109,7109,7109,7109,7109,7109,7109,7109,7109,7109,7109,7110,7109,7109,7110,7109,7109,7109,7110,7109,7110,7109,7109,7109,7109,7109,7109,7109,7109,7109,7110,7109,7109,7110,7109,7109,7109,7109,7109,7109,
7109,7109,7109,7109,7109,7110,7109,7109,7109,7110,7109,7109,7109,7109,7109,7110,7110,7110,7110,7110,7109,7109,7109,7109,7109,7109,7109,7109,7109,7109,7109,7109,7109,7109,7109,7109,7109,7109,7109,7109,7109,7109,7109,7109,7109,7109,7109,7109,7110,7109,7109,7109,7109,7109,7109,7109,7109,7109,7109,7109,7109,7109,7109,7109,7109,7109,
7109,7109,7109,7109,7109,7109,7109,7109,7109,7109,7109,7109,7109,7109,7109,7110,7109,7109,7110,7110,7109,7109,7109,7109,7109,7109,7109,7109,7109,7109,7109,7109,7109,7109,7110,7110,7109,7109,7109,7109,7109,7109,7109,7109,7110,7109,7109,7110,7110,7109,7109,7109,7109,7109,7109,7110,7109,7109,7109,7109,7109,7110,7109,7109,7109,7109,
7109,7109,7109,7109,7109,7109,7109,7109,7109,7109,7109,7109,7109,7109,7109,7109,7109,7109,7109,7109,7109,7109,7109,7109,7109,7109,7109,7109,7109,7109,7110,7109,7110,7110,7110,7110,7110,7110,7109,7109,7109,7109,7110,7110,7109,7109,7109,7110,7109,7109,7109,7109,7109,7109,7109,7109,7109,7109,7109,7109,7109,7109,7109,7109,7109,7110,
7109,7109,7109,7109,7109,7109,7109,7109,7109,7109,7109,7109,7109,7109,7109,7109,7109,7109,7109,7109,7109,7109,7109,7110,7109,7109,7109,7109,7109,7110,7110,7110,7110,7110,7110,7110,7110,7110,7110,7110,7110,7109,7110,7109,7110,7109,7109,7109,7109,7109,7109,7109,7109,7109,7109,7109,7109,7109,7109,7109,7109,7109,7109,7109,7109,7109,
7109,7109,7110,7109,7110,7109,7109,7109,7109,7109,7109,7109,7109,7109,7109,7109,7109,7109,7109,7109,7109,7109,7109,7109,7109,7109,7109,7109,7109,7110,7110,7110,7110,7110,7110,7110,7110,7110,7110,7110,7110,7110,7110,7110,7109,7109,7109,7109,7109,7109,7109,7109,7109,7109,7109,7109,7109,7109,7109,7110,7109,7110,7109,7109,7109,7109,
7109,7109,7109,7109,7109,7109,7109,7109,7109,7109,7109,7110,7109,7109,7109,7109,7109,7109,7109,7109,7109,7109,7109,7109,7109,7109,7109,7109,7109,7110,7110,7110,7110,7110,7110,7110,7110,7110,7110,7110,7110,7110,7110,7110,7110,7109,7109,7110,7110,7110,7109,7110,7109,7110,7109,7109,7109,7109,7110,7109,7109,7109,7109,7109,7109,7109,
7110,7109,7110,7109,7109,7109,7109,7109,7109,7109,7109,7109,7109,7110,7110,7109,7109,7109,7110,7109,7109,7109,7109,7109,7109,7109,7109,7109,7109,7109,7110,7110,7110,7110,7110,7110,7110,7110,7110,7110,7110,7110,7109,7109,7110,7110,7110,7109,7109,7109,7109,7109,7109,7109,7109,7109,7109,7109,7109,7109,7109,7109,7109,7109,7109,7109,
7109,7110,7109,7109,7109,7109,7110,7109,7110,7109,7109,7109,7109,7109,7109,7109,7109,7109,7109,7109,7109,7109,7109,7109,7109,7109,7109,7109,7109,7109,7110,7110,7110,7110,7110,7110,7110,7110,7110,7110,7109,7109,7109,7109,7110,7110,7110,7110,7109,7109,7110,7110,7109,7109,7109,7109,7109,7110,7110,7109,7110,7110,7110,7109,7109,7109,
7109,7109,7109,7110,7109,7109,7109,7110,7109,7109,7109,7109,7109,7109,7109,7109,7109,7109,7109,7110,7109,7109,7109,7109,7109,7109,7109,7109,7109,7109,7109,7110,7110,7110,7110,7110,7110,7110,7110,7110,7109,7109,7109,7109,7109,7109,7110,7110,7110,7110,7109,7110,7109,7109,7109,7109,7109,7109,7109,7109,7109,7109,7109,7109,7109,7109,
7110,7109,7110,7109,7109,7109,7109,7109,7109,7110,7110,7110,7110,7110,7109,7109,7109,7109,7109,7109,7109,7109,7109,7109,7109,7109,7109,7109,7109,7109,7109,7109,7110,7110,7110,7110,7110,7109,7109,7109,7109,7109,7109,7109,7109,7109,7110,7110,7110,7109,7110,7110,7109,7109,7109,7109,7109,7109,7109,7109,7109,7109,7109,7109,7109,7109,
7109,7109,7109,7109,7109,7110,7110,7110,7109,7109,7110,7110,7110,7109,7110,7109,7109,7109,7109,7109,7109,7109,7109,7109,7109,7109,7109,7109,7109,7109,7109,7109,7109,7109,7109,7109,7109,7110,7109,7109,7109,7109,7109,7109,7109,7109,7110,7110,7110,7110,7109,7109,7109,7109,7109,7109,7109,7109,7109,7109,7110,7110,7109,7109,7109,7109,
7109,7110,7109,7109,7109,7109,7109,7109,7109,7109,7110,7109,7110,7109,7109,7109,7109,7109,7109,7109,7109,7109,7109,7109,7109,7109,7109,7109,7109,7109,7109,7109,7109,7109,7109,7109,7109,7109,7110,7110,7110,7110,7110,7110,7110,7109,7109,7110,7110,7110,7109,7109,7109,7109,7109,7109,7109,7110,7109,7109,7109,7109,7109,7109,7109,7109,
7109,7109,7109,7109,7109,7109,7109,7109,7109,7109,7109,7109,7109,7109,7109,7109,7109,7109,7109,7109,7109,7109,7109,7109,7109,7109,7109,7109,7109,7110,7110,7109,7109,7109,7109,7109,7109,7109,7109,7109,7110,7110,7110,7110,7110,7110,7110,7110,7110,7110,7109,7110,7109,7109,7109,7109,7109,7109,7109,7109,7109,7110,7109,7109,7109,7110,
7110,7110,7109,7109,7109,7109,7109,7109,7109,7109,7109,7109,7109,7109,7109,7109,7109,7109,7109,7109,7109,7109,7109,7109,7109,7109,7109,7109,7109,7109,7109,7110,7109,7110,7110,7110,7110,7110,7109,7109,7110,7110,7110,7110,7110,7109,7109,7109,7109,7109,7109,7109,7109,7109,7109,7109,7109,7109,7109,7109,7109,7109,7109,7109,7109,7109,
7109,7109,7109,7109,7109,7109,7109,7110,7109,7109,7109,7109,7109,7109,7109,7109,7109,7109,7109,7109,7109,7110,7109,7109,7109,7109,7109,7109,7109,7109,7109,7109,7109,7110,7110,7110,7110,7110,7109,7109,7109,7109,7109,7109,7109,7109,7109,7110,7110,7110,7109,7109,7109,7109,7109,7109,7109,7109,7109,7109,7109,7110,7109,7109,7109,7110,
7109,7109,7110,7109,7110,7110,7109,7109,7109,7109,7109,7109,7109,7109,7109,7109,7109,7109,7109,7109,7109,7109,7109,7109,7109,7109,7109,7109,7109,7109,7109,7109,7109,7109,7109,7109,7109,7109,7109,7109,7109,7109,7109,7109,7109,7109,7109,7110,7110,7110,7109,7109,7109,7109,7109,7109,7109,7109,7109,7109,7109,7109,7110,7109,7109,7109,
7110,7109,7109,7110,7109,7110,7109,7109,7110,7109,7109,7109,7109,7109,7109,7109,7109,7109,7109,7109,7109,7109,7109,7110,7109,7109,7109,7109,7109,7109,7109,7109,7109,7109,7109,7109,7109,7109,7109,7109,7109,7109,7109,7109,7109,7109,7109,7109,7110,7110,7110,7109,7109,7109,7109,7110,7109,7109,7109,7109,7109,7109,7109,7109,7109,7110,
7109,7109,7109,7110,7109,7109,7109,7109,7109,7109,7109,7109,7109,7109,7109,7109,7109,7109,7110,7109,7109,7109,7109,7109,7110,7109,7109,7109,7109,7109,7109,7109,7109,7109,7109,7109,7109,7109,7109,7109,7109,7109,7109,7109,7110,7109,7109,7109,7110,7110,7109,7109,7109,7109,7109,7109,7109,7109,7109,7110,7109,7109,7109,7109,7109,7109,
7109,7109,7110,7109,7109,7110,7109,7109,7109,7110,7109,7109,7109,7109,7109,7109,7109,7109,7109,7109,7109,7109,7110,7109,7109,7109,7109,7109,7109,7109,7109,7110,7109,7109,7109,7109,7109,7109,7109,7109,7109,7109,7109,7109,7109,7109,7109,7109,7110,7110,7110,7109,7109,7109,7109,7109,7109,7109,7110,7109,7109,7109,7109,7109,7110,7109,
7109,7109,7109,7109,7109,7109,7109,7109,7109,7109,7110,7110,7109,7110,7109,7109,7109,7110,7109,7109,7109,7109,7109,7109,7110,7109,7109,7109,7109,7109,7109,7109,7109,7109,7109,7109,7109,7109,7109,7109,7109,7109,7110,7109,7109,7109,7109,7109,7110,7110,7110,7110,7109,7109,7110,7109,7109,7109,7109,7109,7109,7109,7110,7109,7110,7109,
7110,7109,7110,7109,7109,7110,7109,7109,7110,7109,7109,7110,7109,7109,7110,7109,7109,7110,7109,7110,7109,7109,7109,7110,7109,7109,7109,7109,7109,7109,7109,7109,7109,7109,7109,7109,7109,7109,7109,7109,7109,7109,7110,7109,7109,7109,7110,7110,7110,7110,7109,7109,7109,7109,7109,7109,7109,7109,7109,7109,7109,7109,7109,7109,7109,7109,
7109,7109,7109,7109,7109,7110,7109,7109,7110,7109,7109,7109,7110,7109,7110,7109,7109,7109,7109,7109,7109,7109,7109,7109,7109,7109,7109,7109,7109,7109,7109,7109,7109,7109,7109,7110,7109,7109,7109,7109,7110,7109,7110,7110,7109,7109,7110,7109,7110,7110,7109,7110,7109,7109,7110,7109,7110,7109,7109,7110,7109,7109,7109,7109,7109,7109,
7109,7110,7109,7109,7109,7109,7109,7109,7109,7109,7109,7109,7109,7109,7109,7109,7110,7109,7110,7109,7110,7110,7110,7109,7109,7109,7109,7109,7109,7109,7109,7109,7109,7109,7109,7109,7109,7109,7109,7109,7109,7109,7109,7109,7109,7109,7109,7109,7110,7110,7110,7109,7109,7109,7109,7109,7109,7109,7109,7109,7110,7109,7110,7109,7109,7110,
7109,7110,7109,7110,7109,7109,7110,7110,7109,7110,7109,7109,7109,7110,7109,7109,7109,7109,7109,7110,7110,7110,7110,7110,7109,7109,7109,7109,7109,7109,7109,7110,7109,7109,7109,7109,7109,7109,7109,7109,7109,7110,7109,7109,7109,7109,7110,7109,7109,7110,7110,7109,7109,7109,7110,7109,7109,7109,7110,7109,7109,7109,7109,7109,7110,7109,
7109,7109,7109,7109,7109,7109,7109,7109,7110,7109,7109,7109,7109,7109,7109,7109,7110,7109,7110,7110,7110,7110,7110,7110,7110,7110,7109,7110,7109,7109,7109,7109,7109,7109,7109,7109,7109,7109,7109,7109,7109,7109,7109,7110,7109,7109,7109,7109,7110,7109,7110,7110,7109,7109,7109,7109,7109,7109,7109,7109,7109,7109,7110,7110,7110,7109,
7109,7110,7109,7110,7109,7109,7109,7110,7109,7109,7109,7109,7110,7109,7109,7109,7109,7110,7110,7110,7110,7110,7110,7110,7110,7110,7110,7109,7109,7109,7109,7110,7109,7109,7110,7109,7109,7109,7110,7109,7109,7109,7109,7109,7110,7109,7109,7109,7110,7109,7110,7110,7109,7110,7109,7109,7109,7109,7109,7109,7109,7110,7109,7109,7109,7109,
7109,7110,7109,7109,7109,7110,7109,7109,7109,7109,7109,7109,7109,7109,7109,7110,7109,7110,7110,7110,7110,7110,7110,7110,7110,7110,7110,7109,7109,7109,7109,7109,7109,7109,7109,7110,7109,7110,7109,7109,7109,7109,7109,7109,7109,7109,7109,7109,7109,7110,7110,7110,7109,7109,7109,7109,7109,7110,7110,7109,7109,7109,7109,7110,7110,7109,
7109,7109,7110,7109,7110,7109,7109,7110,7109,7109,7109,7109,7109,7109,7109,7109,7109,7109,7110,7110,7110,7110,7110,7110,7110,7110,7109,7110,7109,7109,7109,7109,7110,7109,7109,7109,7109,7109,7109,7109,7110,7109,7110,7110,7109,7110,7109,7109,7109,7109,7110,7110,7110,7109,7109,7109,7109,7109,7109,7109,7109,7109,7109,7109,7109,7109,
7109,7109,7110,7109,7109,7109,7109,7109,7109,7110,7109,7109,7109,7109,7109,7109,7109,7109,7110,7109,7109,7110,7110,7110,7109,7110,7109,7110,7109,7109,7109,7109,7109,7109,7110,7109,7109,7109,7109,7110,7109,7109,7109,7110,7110,7109,7109,7110,7109,7109,7110,7110,7110,7110,7109,7109,7110,7109,7109,7109,7109,7109,7109,7110,7109,7109,
7109,7109,7109,7109,7109,7110,7109,7109,7110,7109,7109,7109,7110,7110,7109,7109,7109,7109,7109,7109,7109,7109,7109,7109,7109,7109,7109,7109,7109,7110,7109,7109,7109,7109,7109,7109,7109,7109,7109,7110,7109,7109,7109,7109,7109,7109,7109,7109,7109,7109,7109,7110,7110,7110,7109,7109,7109,7109,7110,7109,7109,7110,7109,7109,7109,7109,
7109,7110,7109,7109,7109,7110,7109,7110,7109,7109,7109,7109,7110,7110,7109,7109,7110,7109,7109,7109,7109,7110,7109,7109,7109,7109,7109,7109,7110,7109,7110,7109,7110,7109,7109,7109,7109,7109,7109,7109,7110,7109,7109,7110,7109,7110,7109,7109,7110,7109,7109,7109,7110,7110,7109,7109,7110,7109,7109,7110,7109,7109,7110,7109,7109,7110,
7109,7109,7109,7110,7109,7109,7109,7110,7110,7109,7110,7109,7109,7110,7109,7109,7109,7109,7109,7109,7109,7109,7109,7109,7109,7109,7109,7109,7109,7109,7109,7110,7109,7109,7109,7110,7109,7109,7110,7109,7109,7109,7109,7109,7109,7109,7109,7109,7109,7109,7110,7109,7110,7110,7110,7109,7109,7109,7109,7109,7109,7109,7110,7109,7109,7109,
7109,7110,7109,7109,7109,7109,7109,7109,7109,7109,7109,7109,7109,7109,7109,7110,7109,7109,7109,7110,7110,7110,7109,7109,7109,7109,7109,7110,7109,7109,7109,7110,7109,7109,7109,7109,7109,7109,7110,7109,7109,7109,7110,7109,7109,7110,7110,7109,7109,7109,7110,7109,7110,7110,7109,7109,7110,7109,7109,7110,7109,7109,7109,7110,7109,7109,
7110,7109,7109,7110,7110,7109,7109,7109,7109,7109,7109,7109,7109,7109,7109,7110,7110,7109,7109,7110,7109,7109,7109,7109,7109,7110,7109,7109,7109,7110,7109,7109,7109,7109,7109,7109,7109,7109,7109,7110,7109,7110,7109,7109,7109,7109,7109,7109,7109,7110,7109,7109,7110,7110,7110,7109,7109,7109,7109,7109,7109,7109,7109,7109,7109,7110
</data>
 </layer>
 <objectgroup id="7" name="Scenery">
  <object id="1" gid="2147490814" x="26" y="-1" width="64" height="64" />
  <object id="2" gid="7166" x="945" y="-1" width="64" height="64" />
  <object id="3" gid="7161" x="695" y="0" width="64" height="64" />
  <object id="4" gid="2147490808" x="118" y="2" width="64" height="64" />
  <object id="5" gid="7161" x="429" y="2" width="64" height="64" />
  <object id="6" gid="2147490809" x="615" y="3" width="64" height="64" />
  <object id="7" gid="7160" x="205" y="4" width="64" height="64" />
  <object id="8" gid="7160" x="510" y="4" width="64" height="64" />
  <object id="9" gid="2147490809" x="981" y="4" width="64" height="64" />
  <object id="10" gid="7161" x="44" y="5" width="64" height="64" />
  <object id="11" gid="2147490809" x="832" y="6" width="64" height="64" />
  <object id="12" gid="2147490814" x="233" y="7" width="64" height="64" />
  <object id="13" gid="2147490808" x="410" y="7" width="64" height="64" />
  <object id="14" gid="7161" x="167" y="9" width="64" height="64" />
  <object id="15" gid="2147490809" x="477" y="12" width="64" height="64" />
  <object id="16" gid="7166" x="541" y="13" width="64" height="64" />
  <object id="17" gid="2147490809" x="679" y="13" width="64" height="64" />
  <object id="18" gid="2147490809" x="736" y="15" width="64" height="64" />
  <object id="19" gid="7160" x="858" y="15" width="64" height="64" />
  <object id="20" gid="2147490808" x="879" y="15" width="64" height="64" />
  <object id="21" gid="7166" x="576" y="17" width="64" height="64" />
  <object id="22" gid="2147490808" x="-21" y="18" width="64" height="64" />
  <object id="23" gid="7166" x="274" y="18" width="64" height="64" />
  <object id="24" gid="2147490808" x="1006" y="19" width="64" height="64" />
  <object id="25" gid="7161" x="91" y="20" width="64" height="64" />
  <object id="26" gid="7161" x="768" y="20" width="64" height="64" />
  <object id="27" gid="7159" x="499" y="26" width="64" height="64" />
  <object id="28" gid="2147490808" x="400" y="27" width="64" height="64" />
  <object id="29" gid="2147490809" x="952" y="28" width="64" height="64" />
  <object id="30" gid="2147490814" x="873" y="29" width="64" height="64" />
  <object id="31" gid="7161" x="698" y="30" width="64" height="64" />
  <object id="32" gid="7161" x="124" y="31" width="64" height="64" />
  <object id="33" gid="2147490814" x="170" y="31" width="64" height="64" />
  <object id="34" gid="2147490809" x="834" y="31" width="64" height="64" />
  <object id="35" gid="7161" x="602" y="33" width="64" height="64" />
  <object id="36" gid="7161" x="9" y="36" width="64" height="64" />
  <object id="37" gid="2147490809" x="228" y="36" width="64" height="64" />
  <object id="38" gid="2147490809" x="278" y="36" width="64" height="64" />
  <object id="39" gid="2147490809" x="444" y="38" width="64" height="64" />
  <object id="40" gid="2147490808" x="911" y="38" width="64" height="64" />
  <object id="41" gid="7160" x="542" y="40" width="64" height="64" />
  <object id="42" gid="7166" x="709" y="40" width="64" height="64" />
  <object id="43" gid="7161" x="784" y="40" width="64" height="64" />
  <object id="44" gid="7161" x="46" y="42" width="64" height="64" />
  <object id="45" gid="2147490814" x="756" y="42" width="64" height="64" />
  <object id="46" gid="7161" x="392" y="43" width="64" height="64" />
  <object id="47" gid="2147490814" x="554" y="43" width="64" height="64" />
  <object id="48" gid="2147490808" x="977" y="43" width="64" height="64" />
  <object id="49" gid="7160" x="640" y="45" width="64" height="64" />
  <object id="50" gid="7161" x="67" y="46" width="64" height="64" />
  <object id="51" gid="2147490809" x="152" y="47" width="64" height="64" />
  <object id="52" gid="7166" x="626" y="54" width="64" height="64" />
  <object id="53" gid="7166" x="58" y="55" width="64" height="64" />
  <object id="54" gid="2147490820" x="488" y="56" width="64" height="64" />
  <object id="55" gid="2147490814" x="704" y="56" width="64" height="64" />
  <object id="56" gid="2147490814" x="17" y="57" width="64" height="64" />
  <object id="57" gid="7161" x="153" y="57" width="64" height="64" />
  <object id="58" gid="7166" x="248" y="57" width="64" height="64" />
  <object id="59" gid="7160" x="832" y="57" width="64" height="64" />
  <object id="60" gid="2147490808" x="565" y="58" width="64" height="64" />
  <object id="61" gid="7160" x="873" y="58" width="64" height="64" />
  <object id="62" gid="7166" x="919" y="58" width="64" height="64" />
  <object id="63" gid="7166" x="117" y="59" width="64" height="64" />
  <object id="64" gid="2147490814" x="1019" y="60" width="64" height="64" />
  <object id="65" gid="7161" x="96" y="61" width="64" height="64" />
  <object id="66" gid="7160" x="280" y="61" width="64" height="64" />
  <object id="67" gid="2147490808" x="657" y="62" width="64" height="64" />
  <object id="68" gid="2147490814" x="501" y="66" width="64" height="64" />
  <object id="69" gid="7161" x="781" y="67" width="64" height="64" />
  <object id="70" gid="2147490809" x="731" y="68" width="64" height="64" />
  <object id="71" gid="7166" x="984" y="70" width="64" height="64" />
  <object id="72" gid="2147490809" x="393" y="71" width="64" height="64" />
  <object id="73" gid="7160" x="-40" y="73" width="64" height="64" />
  <object id="74" gid="7160" x="896" y="73" width="64" height="64" />
  <object id="75" gid="2147490814" x="222" y="74" width="64" height="64" />
  <object id="76" gid="7166" x="444" y="75" width="64" height="64" />
  <object id="77" gid="2147490809" x="193" y="81" width="64" height="64" />
  <object id="78" gid="7161" x="32" y="82" width="64" height="64" />
  <object id="79" gid="2147490808" x="303" y="82" width="64" height="64" />
  <object id="80" gid="2147490814" x="153" y="85" width="64" height="64" />
  <object id="81" gid="7166" x="878" y="85" width="64" height="64" />
  <object id="82" gid="7161" x="960" y="86" width="64" height="64" />
  <object id="83" gid="7161" x="531" y="88" width="64" height="64" />
  <object id="84" gid="2147490814" x="107" y="89" width="64" height="64" />
  <object id="85" gid="2147490808" x="649" y="89" width="64" height="64" />
  <object id="86" gid="2147490808" x="579" y="90" width="64" height="64" />
  <object id="87" gid="7160" x="775" y="91" width="64" height="64" />
  <object id="88" gid="7161" x="794" y="91" width="64" height="64" />
  <object id="89" gid="2147490809" x="850" y="91" width="64" height="64" />
  <object id="90" gid="2147490809" x="984" y="91" width="64" height="64" />
  <object id="91" gid="7160" x="232" y="92" width="64" height="64" />
  <object id="92" gid="7161" x="423" y="92" width="64" height="64" />
  <object id="93" gid="2147490807" x="8" y="93" width="64" height="64" />
  <object id="94" gid="7161" x="620" y="93" width="64" height="64" />
  <object id="95" gid="7161" x="465" y="95" width="64" height="64" />
  <object id="96" gid="2147490809" x="900" y="96" width="64" height="64" />
  <object id="97" gid="7161" x="489" y="97" width="64" height="64" />
  <object id="98" gid="7161" x="63" y="98" width="64" height="64" />
  <object id="99" gid="7161" x="264" y="101" width="64" height="64" />
  <object id="100" gid="2147490809" x="726" y="101" width="64" height="64" />
  <object id="101" gid="2147490809" x="682" y="102" width="64" height="64" />
  <object id="102" gid="7166" x="831" y="109" width="64" height="64" />
  <object id="103" gid="7160" x="449" y="110" width="64" height="64" />
  <object id="104" gid="7160" x="792" y="110" width="64" height="64" />
  <object id="105" gid="7160" x="154" y="111" width="64" height="64" />
  <object id="106" gid="2147490814" x="242" y="111" width="64" height="64" />
  <object id="107" gid="2147490809" x="695" y="111" width="64" height="64" />
  <object id="108" gid="2147490809" x="188" y="112" width="64" height="64" />
  <object id="109" gid="2147490808" x="-10" y="114" width="64" height="64" />
  <object id="110" gid="2147490808" x="598" y="115" width="64" height="64" />
  <object id="111" gid="2147490814" x="286" y="116" width="64" height="64" />
  <object id="112" gid="2147490814" x="943" y="116" width="64" height="64" />
  <object id="113" gid="7160" x="620" y="117" width="64" height="64" />
  <object id="114" gid="7161" x="126" y="118" width="64" height="64" />
  <object id="115" gid="2147490809" x="1004" y="118" width="64" height="64" />
  <object id="116" gid="7160" x="402" y="121" width="64" height="64" />
  <object id="117" gid="2147490814" x="851" y="121" width="64" height="64" />
  <object id="118" gid="7161" x="534" y="123" width="64" height="64" />
  <object id="119" gid="2147490808" x="10" y="124" width="64" height="64" />
  <object id="120" gid="7159" x="45" y="124" width="64" height="64" />
  <object id="121" gid="2147490808" x="94" y="124" width="64" height="64" />
  <object id="122" gid="7160" x="672" y="126" width="64" height="64" />
  <object id="123" gid="7160" x="514" y="128" width="64" height="64" />
  <object id="124" gid="2147490814" x="734" y="128" width="64" height="64" />
  <object id="125" gid="7160" x="956" y="128" width="64" height="64" />
  <object id="126" gid="7161" x="488" y="129" width="64" height="64" />
  <object id="127" gid="2147490814" x="831" y="135" width="64" height="64" />
  <object id="128" gid="2147490808" x="-13" y="136" width="64" height="64" />
  <object id="129" gid="2147490814" x="195" y="136" width="64" height="64" />
  <object id="130" gid="2147490808" x="584" y="136" width="64" height="64" />
  <object id="131" gid="7161" x="623" y="136" width="64" height="64" />
  <object id="132" gid="7159" x="250" y="137" width="64" height="64" />
  <object id="133" gid="7160" x="546" y="137" width="64" height="64" />
  <object id="134" gid="7160" x="693" y="137" width="64" height="64" />
  <object id="135" gid="2147490814" x="416" y="138" width="64" height="64" />
  <object id="136" gid="2147490808" x="762" y="138" width="64" height="64" />
  <object id="137" gid="7161" x="790" y="138" width="64" height="64" />
  <object id="138" gid="2147490808" x="968" y="141" width="64" height="64" />
  <object id="139" gid="7166" x="306" y="142" width="64" height="64" />
  <object id="140" gid="7161" x="655" y="144" width="64" height="64" />
  <object id="141" gid="7166" x="17" y="145" width="64" height="64" />
  <object id="142" gid="7160" x="122" y="145" width="64" height="64" />
  <object id="143" gid="2147490808" x="63" y="147" width="64" height="64" />
  <object id="144" gid="7160" x="990" y="148" width="64" height="64" />
  <object id="145" gid="7160" x="494" y="150" width="64" height="64" />
  <object id="146" gid="2147490808" x="456" y="151" width="64" height="64" />
  <object id="147" gid="2147490809" x="160" y="154" width="64" height="64" />
  <object id="148" gid="7161" x="706" y="154" width="64" height="64" />
  <object id="149" gid="2147490810" x="883" y="155" width="64" height="64" />
  <object id="150" gid="2147490808" x="222" y="156" width="64" height="64" />
  <object id="151" gid="7161" x="604" y="163" width="64" height="64" />
  <object id="152" gid="2147490808" x="775" y="163" width="64" height="64" />
  <object id="153" gid="7160" x="27" y="164" width="64" height="64" />
  <object id="154" gid="2147490808" x="519" y="164" width="64" height="64" />
  <object id="155" gid="2147490814" x="824" y="164" width="64" height="64" />
  <object id="156" gid="2147490814" x="-26" y="165" width="64" height="64" />
  <object id="157" gid="7166" x="402" y="166" width="64" height="64" />
  <object id="158" gid="2147490808" x="651" y="166" width="64" height="64" />
  <object id="159" gid="7160" x="311" y="167" width="64" height="64" />
  <object id="160" gid="7159" x="183" y="168" width="64" height="64" />
  <object id="161" gid="7159" x="959" y="168" width="64" height="64" />
  <object id="162" gid="2147490809" x="465" y="169" width="64" height="64" />
  <object id="163" gid="7160" x="622" y="169" width="64" height="64" />
  <object id="164" gid="2147490814" x="719" y="171" width="64" height="64" />
  <object id="165" gid="2147490809" x="242" y="172" width="64" height="64" />
  <object id="166" gid="2147490814" x="1016" y="173" width="64" height="64" />
  <object id="167" gid="7161" x="88" y="174" width="64" height="64" />
  <object id="168" gid="2147490807" x="912" y="175" width="64" height="64" />
  <object id="169" gid="7161" x="428" y="176" width="64" height="64" />
  <object id="170" gid="7161" x="266" y="178" width="64" height="64" />
  <object id="171" gid="7166" x="116" y="180" width="64" height="64" />
  <object id="172" gid="7160" x="35" y="182" width="64" height="64" />
  <object id="173" gid="7161" x="200" y="182" width="64" height="64" />
  <object id="174" gid="7161" x="540" y="183" width="64" height="64" />
  <object id="175" gid="2147490809" x="734" y="183" width="64" height="64" />
  <object id="176" gid="2147490820" x="21" y="190" width="64" height="64" />
  <object id="177" gid="2147490809" x="172" y="190" width="64" height="64" />
  <object id="178" gid="2147490809" x="417" y="190" width="64" height="64" />
  <object id="179" gid="7161" x="446" y="190" width="64" height="64" />
  <object id="180" gid="7166" x="249" y="192" width="64" height="64" />
  <object id="181" gid="7161" x="107" y="193" width="64" height="64" />
  <object id="182" gid="2147490808" x="762" y="193" width="64" height="64" />
  <object id="183" gid="7166" x="739" y="194" width="64" height="64" />
  <object id="184" gid="7160" x="632" y="195" width="64" height="64" />
  <object id="185" gid="7159" x="161" y="196" width="64" height="64" />
  <object id="186" gid="2147490809" x="83" y="198" width="64" height="64" />
  <object id="187" gid="2147490814" x="985" y="198" width="64" height="64" />
  <object id="188" gid="7160" x="531" y="199" width="64" height="64" />
  <object id="189" gid="7159" x="224" y="200" width="64" height="64" />
  <object id="190" gid="2147490814" x="309" y="202" width="64" height="64" />
  <object id="191" gid="7159" x="486" y="203" width="64" height="64" />
  <object id="192" gid="2147490814" x="-19" y="204" width="64" height="64" />
  <object id="193" gid="7161" x="562" y="205" width="64" height="64" />
  <object id="194" gid="2147490809" x="593" y="207" width="64" height="64" />
  <object id="195" gid="2147490808" x="787" y="207" width="64" height="64" />
  <object id="196" gid="2147490823" x="879" y="207" width="64" height="64" />
  <object id="197" gid="2147490814" x="701" y="210" width="64" height="64" />
  <object id="198" gid="2147490820" x="553" y="216" width="64" height="64" />
  <object id="199" gid="2147490809" x="451" y="217" width="64" height="64" />
  <object id="200" gid="2147490808" x="473" y="217" width="64" height="64" />
  <object id="201" gid="7159" x="933" y="217" width="64" height="64" />
  <object id="202" gid="2147490809" x="80" y="218" width="64" height="64" />
  <object id="203" gid="2147490814" x="641" y="218" width="64" height="64" />
  <object id="204" gid="2147490820" x="716" y="218" width="64" height="64" />
  <object id="205" gid="7161" x="752" y="218" width="64" height="64" />
  <object id="206" gid="7166" x="1004" y="218" width="64" height="64" />
  <object id="207" gid="7166" x="205" y="219" width="64" height="64" />
  <object id="208" gid="7166" x="291" y="220" width="64" height="64" />
  <object id="209" gid="7161" x="-18" y="223" width="64" height="64" />
  <object id="210" gid="2147490808" x="35" y="223" width="64" height="64" />
  <object id="211" gid="7161" x="411" y="223" width="64" height="64" />
  <object id="212" gid="7161" x="653" y="227" width="64" height="64" />
  <object id="213" gid="7166" x="984" y="228" width="64" height="64" />
  <object id="214" gid="2147490807" x="505" y="229" width="64" height="64" />
  <object id="215" gid="2147490814" x="168" y="230" width="64" height="64" />
  <object id="216" gid="7160" x="26" y="231" width="64" height="64" />
  <object id="217" gid="2147490814" x="602" y="231" width="64" height="64" />
  <object id="218" gid="2147490887" x="842" y="233" width="64" height="64" />
  <object id="219" gid="2147490809" x="114" y="234" width="64" height="64" />
  <object id="220" gid="2147490814" x="791" y="235" width="64" height="64" />
  <object id="221" gid="2147490809" x="235" y="238" width="64" height="64" />
  <object id="222" gid="7172" x="523" y="244" width="64" height="64" />
  <object id="223" gid="7160" x="101" y="246" width="64" height="64" />
  <object id="224" gid="2147490808" x="223" y="246" width="64" height="64" />
  <object id="225" gid="2147490808" x="717" y="246" width="64" height="64" />
  <object id="226" gid="7161" x="1007" y="247" width="64" height="64" />
  <object id="227" gid="7166" x="500" y="250" width="64" height="64" />
  <object id="228" gid="2147490807" x="700" y="250" width="64" height="64" />
  <object id="229" gid="7161" x="48" y="251" width="64" height="64" />
  <object id="230" gid="7161" x="634" y="252" width="64" height="64" />
  <object id="231" gid="7161" x="-22" y="253" width="64" height="64" />
  <object id="232" gid="7161" x="78" y="254" width="64" height="64" />
  <object id="233" gid="7161" x="786" y="254" width="64" height="64" />
  <object id="234" gid="2147490814" x="151" y="255" width="64" height="64" />
  <object id="235" gid="2147490814" x="775" y="257" width="64" height="64" />
  <object id="236" gid="7172" x="554" y="259" width="64" height="64" />
  <object id="237" gid="7160" x="621" y="262" width="64" height="64" />
  <object id="238" gid="7160" x="202" y="263" width="64" height="64" />
  <object id="239" gid="2147490808" x="267" y="263" width="64" height="64" />
  <object id="240" gid="2147490808" x="448" y="264" width="64" height="64" />
  <object id="241" gid="7170" x="360" y="265.6" width="64" height="64" />
  <object id="242" gid="2147490808" x="29" y="271" width="64" height="64" />
  <object id="243" gid="7217" x="308.8" y="272" width="64" height="64" />
  <object id="244" gid="2147490865" x="411.2" y="272" width="64" height="64" />
  <object id="245" gid="2147490809" x="120" y="276" width="64" height="64" />
  <object id="246" gid="7160" x="479" y="278" width="64" height="64" />
  <object id="247" gid="7161" x="710" y="278" width="64" height="64" />
  <object id="248" gid="2147490863" x="827" y="278" width="64" height="64" />
  <object id="249" gid="2147490809" x="97" y="281" width="64" height="64" />
  <object id="250" gid="2147490809" x="726" y="282" width="64" height="64" />
  <object id="251" gid="7161" x="200" y="283" width="64" height="64" />
  <object id="252" gid="2147490810" x="882" y="283" width="64" height="64" />
  <object id="253" gid="2147490809" x="52" y="284" width="64" height="64" />
  <object id="254" gid="7160" x="515" y="284" width="64" height="64" />
  <object id="255" gid="2147490828" x="976" y="285" width="64" height="64" />
  <object id="256" gid="2147490808" x="619" y="286" width="64" height="64" />
  <object id="257" gid="2147490809" x="667" y="286" width="64" height="64" />
  <object id="258" gid="7161" x="1003" y="286" width="64" height="64" />
  <object id="259" gid="7160" x="-10" y="287" width="64" height="64" />
  <object id="260" gid="7160" x="549" y="287" width="64" height="64" />
  <object id="261" gid="7161" x="178" y="289" width="64" height="64" />
  <object id="262" gid="7160" x="593" y="291" width="64" height="64" />
  <object id="263" gid="7166" x="231" y="292" width="64" height="64" />
  <object id="264" gid="7159" x="784" y="295" width="64" height="64" />
  <object id="265" gid="7161" x="144" y="298" width="64" height="64" />
  <object id="266" gid="7166" x="41" y="301" width="64" height="64" />
  <object id="267" gid="2147490807" x="99" y="306" width="64" height="64" />
  <object id="268" gid="2147490808" x="760" y="306" width="64" height="64" />
  <object id="269" gid="7161" x="675" y="309" width="64" height="64" />
  <object id="270" gid="7160" x="-19" y="311" width="64" height="64" />
  <object id="271" gid="2147490809" x="176" y="312" width="64" height="64" />
  <object id="272" gid="7184" x="512" y="313.6" width="64" height="64" />
  <object id="273" gid="2147490808" x="221" y="314" width="64" height="64" />
  <object id="274" gid="7161" x="709" y="314" width="64" height="64" />
  <object id="275" gid="2147490887" x="941" y="314" width="64" height="64" />
  <object id="276" gid="7159" x="253" y="315" width="64" height="64" />
  <object id="277" gid="7184" x="988" y="316" width="64" height="64" />
  <object id="278" gid="7179" x="444.8" y="316.8" width="64" height="64" />
  <object id="279" gid="7166" x="74" y="317" width="64" height="64" />
  <object id="280" gid="7161" x="623" y="322" width="64" height="64" />
  <object id="281" gid="7239" x="464" y="323.2" width="64" height="64" />
  <object id="282" gid="7215" x="898" y="328" width="64" height="64" />
  <object id="283" gid="7172" x="191" y="329" width="64" height="64" />
  <object id="284" gid="7159" x="-39" y="333" width="64" height="64" />
  <object id="285" gid="2147490808" x="717" y="333" width="64" height="64" />
  <object id="286" gid="2147490814" x="95" y="335" width="64" height="64" />
  <object id="287" gid="7161" x="138" y="336" width="64" height="64" />
  <object id="288" gid="7161" x="680" y="338" width="64" height="64" />
  <object id="289" gid="7187" x="625" y="338" width="64" height="64" />
  <object id="290" gid="2147490808" x="755" y="339" width="64" height="64" />
  <object id="291" gid="2147490809" x="30" y="341" width="64" height="64" />
  <object id="292" gid="2147490809" x="183" y="342" width="64" height="64" />
  <object id="293" gid="7242" x="281.6" y="342.4" width="64" height="64" />
  <object id="294" gid="2147490832" x="657" y="343" width="64" height="64" />
  <object id="295" gid="2147490808" x="35" y="346" width="64" height="64" />
  <object id="296" gid="7175" x="993" y="352" width="64" height="64" />
  <object id="297" gid="2147490809" x="-22" y="356" width="64" height="64" />
  <object id="298" gid="2147490807" x="952" y="361" width="64" height="64" />
  <object id="299" gid="2147490809" x="72" y="362" width="64" height="64" />
  <object id="300" gid="2147490807" x="872" y="363" width="64" height="64" />
  <object id="301" gid="7160" x="692" y="364" width="64" height="64" />
  <object id="302" gid="7166" x="140" y="367" width="64" height="64" />
  <object id="303" gid="2147490808" x="775" y="369" width="64" height="64" />
  <object id="304" gid="2147490890" x="205" y="369" width="64" height="64" />
  <object id="305" gid="7160" x="27" y="370" width="64" height="64" />
  <object id="306" gid="7160" x="121" y="370" width="64" height="64" />
  <object id="307" gid="2147490809" x="737" y="371" width="64" height="64" />
  <object id="308" gid="7265" x="611.2" y="374.4" width="64" height="64" />
  <object id="309" gid="2147490808" x="58" y="385" width="64" height="64" />
  <object id="310" gid="7239" x="888" y="386" width="64" height="64" />
  <object id="311" gid="7160" x="770" y="389" width="64" height="64" />
  <object id="312" gid="7166" x="-15" y="391" width="64" height="64" />
  <object id="313" gid="2147490823" x="920" y="393" width="64" height="64" />
  <object id="314" gid="7163" x="640" y="393.6" width="64" height="64" />
  <object id="315" gid="2147490814" x="73" y="394" width="64" height="64" />
  <object id="316" gid="2147490814" x="25" y="397" width="64" height="64" />
  <object id="317" gid="7180" x="696" y="397" width="64" height="64" />
  <object id="318" gid="2147490808" x="133" y="398" width="64" height="64" />
  <object id="319" gid="2147490828" x="707" y="401" width="64" height="64" />
  <object id="320" gid="2147490823" x="785" y="403" width="64" height="64" />
  <object id="321" gid="7261" x="414.4" y="403.2" width="64" height="64" />
  <object id="322" gid="7256" x="668.8" y="403.2" width="64" height="64" />
  <object id="323" gid="7199" x="521.6" y="406.4" width="64" height="64" />
  <object id="324" gid="2147490809" x="100" y="409" width="64" height="64" />
  <object id="325" gid="7160" x="37" y="410" width="64" height="64" />
  <object id="326" gid="7267" x="387.2" y="419.2" width="64" height="64" />
  <object id="327" gid="7268" x="540.8" y="419.2" width="64" height="64" />
  <object id="328" gid="7304" x="587.2" y="419.2" width="64" height="64" />
  <object id="329" gid="2147490814" x="758" y="420" width="64" height="64" />
  <object id="330" gid="7180" x="945" y="424" width="64" height="64" />
  <object id="331" gid="7159" x="1013" y="424" width="64" height="64" />
  <object id="332" gid="7199" x="406.4" y="425.6" width="64" height="64" />
  <object id="333" gid="7277" x="515.2" y="425.6" width="64" height="64" />
  <object id="334" gid="7166" x="59" y="426" width="64" height="64" />
  <object id="335" gid="2147490808" x="-14" y="428" width="64" height="64" />
  <object id="336" gid="7160" x="-36" y="434" width="64" height="64" />
  <object id="337" gid="7187" x="717" y="435" width="64" height="64" />
  <object id="338" gid="7180" x="873" y="435" width="64" height="64" />
  <object id="339" gid="7304" x="611.2" y="438.4" width="64" height="64" />
  <object id="340" gid="7180" x="913" y="439" width="64" height="64" />
  <object id="341" gid="7304" x="560" y="441.6" width="64" height="64" />
  <object id="342" gid="2147490814" x="19" y="442" width="64" height="64" />
  <object id="343" gid="2147490907" x="114" y="443" width="64" height="64" />
  <object id="344" gid="7178" x="585.6" y="444.8" width="64" height="64" />
  <object id="345" gid="7234" x="184" y="448" width="64" height="64" />
  <object id="346" gid="7241" x="675.2" y="448" width="64" height="64" />
  <object id="347" gid="2147490808" x="738" y="449" width="64" height="64" />
  <object id="348" gid="7161" x="63" y="454" width="64" height="64" />
  <object id="349" gid="2147490832" x="116" y="459" width="64" height="64" />
  <object id="350" gid="7303" x="272" y="464.8" width="64" height="64" />
  <object id="351" gid="7182" x="212.8" y="468.8" width="64" height="64" />
  <object id="352" gid="2147490809" x="720" y="473" width="64" height="64" />
  <object id="353" gid="7257" x="672" y="473.6" width="64" height="64" />
  <object id="354" gid="7239" x="860" y="477" width="64" height="64" />
  <object id="355" gid="2147490807" x="746" y="479" width="64" height="64" />
  <object id="356" gid="2147490863" x="948" y="479" width="64" height="64" />
  <object id="357" gid="7169" x="652.8" y="489.6" width="64" height="64" />
  <object id="358" gid="2147490809" x="735" y="491" width="64" height="64" />
  <object id="359" gid="7239" x="1012" y="496" width="64" height="64" />
  <object id="360" gid="7188" x="681.6" y="502.4" width="64" height="64" />
  <object id="361" gid="7177" x="345.6" y="508.8" width="64" height="64" />
  <object id="362" gid="7262" x="653" y="509" width="64" height="64" />
  <object id="363" gid="2147490828" x="913" y="513" width="64" height="64" />
  <object id="364" gid="2147490856" x="952" y="514" width="64" height="64" />
  <object id="365" gid="2147490809" x="41" y="522" width="64" height="64" />
  <object id="366" gid="2147490808" x="7" y="526" width="64" height="64" />
  <object id="367" gid="7184" x="896" y="533" width="64" height="64" />
  <object id="368" gid="7160" x="753" y="536" width="64" height="64" />
  <object id="369" gid="7161" x="721" y="537" width="64" height="64" />
  <object id="370" gid="2147490807" x="787" y="539" width="64" height="64" />
  <object id="371" gid="7166" x="748" y="543" width="64" height="64" />
  <object id="372" gid="7184" x="830" y="543" width="64" height="64" />
  <object id="373" gid="7199" x="150.4" y="544" width="64" height="64" />
  <object id="374" gid="7269" x="179.2" y="547.2" width="64" height="64" />
  <object id="375" gid="7278" x="268.8" y="547.2" width="64" height="64" />
  <object id="376" gid="2147490808" x="-25" y="558" width="64" height="64" />
  <object id="377" gid="7279" x="195.2" y="560" width="64" height="64" />
  <object id="378" gid="2147490814" x="2" y="560" width="64" height="64" />
  <object id="379" gid="2147490809" x="774" y="561" width="64" height="64" />
  <object id="380" gid="2147490881" x="672" y="561" width="64" height="64" />
  <object id="381" gid="7283" x="76.8" y="563.2" width="64" height="64" />
  <object id="382" gid="7204" x="902.4" y="563.2" width="64" height="64" />
  <object id="383" gid="7277" x="105.6" y="569.6" width="64" height="64" />
  <object id="384" gid="7168" x="956.8" y="569.6" width="64" height="64" />
  <object id="385" gid="7161" x="-8" y="572" width="64" height="64" />
  <object id="386" gid="7166" x="784" y="572" width="64" height="64" />
  <object id="387" gid="7161" x="28" y="578" width="64" height="64" />
  <object id="388" gid="7164" x="787" y="578" width="64" height="64" />
  <object id="389" gid="2147490809" x="756" y="581" width="64" height="64" />
  <object id="390" gid="7278" x="89.6" y="582.4" width="64" height="64" />
  <object id="391" gid="2147490908" x="606" y="585" width="64" height="64" />
  <object id="392" gid="7282" x="281.6" y="588.8" width="64" height="64" />
  <object id="393" gid="2147490809" x="15" y="603" width="64" height="64" />
  <object id="394" gid="7171" x="233.6" y="604.8" width="64" height="64" />
  <object id="395" gid="2147490814" x="-26" y="605" width="64" height="64" />
  <object id="396" gid="7164" x="794" y="605" width="64" height="64" />
  <object id="397" gid="7166" x="782" y="608" width="64" height="64" />
  <object id="398" gid="2147490881" x="572" y="609" width="64" height="64" />
  <object id="399" gid="7243" x="198.4" y="614.4" width="64" height="64" />
  <object id="400" gid="7234" x="940.8" y="614.4" width="64" height="64" />
  <object id="401" gid="7166" x="719" y="617" width="64" height="64" />
  <object id="402" gid="7224" x="83.2" y="620.8" width="64" height="64" />
  <object id="403" gid="7259" x="48" y="623" width="64" height="64" />
  <object id="404" gid="7204" x="590.4" y="633.6" width="64" height="64" />
  <object id="405" gid="7179" x="889.6" y="633.6" width="64" height="64" />
  <object id="406" gid="7160" x="-7" y="637" width="64" height="64" />
  <object id="407" gid="7120" x="134" y="639" width="64" height="64" />
  <object id="408" gid="7121" x="171" y="639" width="64" height="64" />
  <object id="409" gid="2147490832" x="1017" y="641" width="64" height="64" />
  <object id="410" gid="2147490865" x="793.6" y="646.4" width="64" height="64" />
  <object id="411" gid="7234" x="700.8" y="649.6" width="64" height="64" />
  <object id="412" gid="7290" x="435.2" y="652.8" width="64" height="64" />
  <object id="413" gid="2147490863" x="947" y="654" width="64" height="64" />
  <object id="414" gid="7291" x="454.4" y="656" width="64" height="64" />
  <object id="415" gid="7289" x="473.6" y="659.2" width="64" height="64" />
  <object id="416" gid="7166" x="-4" y="666" width="64" height="64" />
  <object id="417" gid="7166" x="-31" y="670" width="64" height="64" />
  <object id="418" gid="2147490809" x="1009" y="685" width="64" height="64" />
  <object id="419" gid="2147490856" x="945" y="685" width="64" height="64" />
  <object id="420" gid="2147490880" x="82" y="686" width="64" height="64" />
  <object id="421" gid="2147490832" x="310" y="686" width="64" height="64" />
  <object id="422" gid="7172" x="3" y="690" width="64" height="64" />
  <object id="423" gid="7184" x="963" y="690" width="64" height="64" />
  <object id="424" gid="7160" x="58" y="692" width="64" height="64" />
  <object id="425" gid="7160" x="47" y="697" width="64" height="64" />
  <object id="426" gid="7215" x="852" y="706" width="64" height="64" />
  <object id="427" gid="7161" x="25" y="709" width="64" height="64" />
  <object id="428" gid="7172" x="50" y="710" width="64" height="64" />
  <object id="429" gid="2147490814" x="1012" y="710" width="64" height="64" />
  <object id="430" gid="2147490907" x="347" y="711" width="64" height="64" />
  <object id="431" gid="7166" x="-27" y="712" width="64" height="64" />
  <object id="432" gid="7166" x="103" y="715" width="64" height="64" />
  <object id="433" gid="2147490807" x="922" y="726" width="64" height="64" />
  <object id="434" gid="7160" x="24" y="734" width="64" height="64" />
  <object id="435" gid="7160" x="263" y="734" width="64" height="64" />
  <object id="436" gid="2147490832" x="679" y="734" width="64" height="64" />
  <object id="437" gid="2147490835" x="364" y="736" width="64" height="64" />
  <object id="438" gid="7166" x="116" y="739" width="64" height="64" />
  <object id="439" gid="2147490832" x="905" y="743" width="64" height="64" />
  <object id="440" gid="7166" x="60" y="746" width="64" height="64" />
  <object id="441" gid="2147490827" x="333" y="746" width="64" height="64" />
  <object id="442" gid="2147490887" x="467" y="746" width="64" height="64" />
  <object id="443" gid="2147490814" x="1005" y="747" width="64" height="64" />
  <object id="444" gid="2147490807" x="2" y="748" width="64" height="64" />
  <object id="445" gid="2147490809" x="152" y="753" width="64" height="64" />
  <object id="446" gid="2147490832" x="843" y="753" width="64" height="64" />
  <object id="447" gid="2147490887" x="650" y="753" width="64" height="64" />
  <object id="448" gid="2147490807" x="969" y="755" width="64" height="64" />
  <object id="449" gid="7161" x="179" y="758" width="64" height="64" />
  <object id="450" gid="7161" x="996" y="761" width="64" height="64" />
  <object id="451" gid="2147490891" x="353" y="762" width="64" height="64" />
  <object id="452" gid="7160" x="245" y="764" width="64" height="64" />
  <object id="453" gid="2147490814" x="796" y="764" width="64" height="64" />
  <object id="454" gid="2147490808" x="132" y="766" width="64" height="64" />
  <object id="455" gid="7239" x="655" y="769" width="64" height="64" />
  <object id="456" gid="2147490807" x="103" y="770" width="64" height="64" />
  <object id="457" gid="7259" x="340" y="770" width="64" height="64" />
  <object id="458" gid="7166" x="52" y="773" width="64" height="64" />
  <object id="459" gid="2147490814" x="280" y="773" width="64" height="64" />
  <object id="460" gid="2147490808" x="-20" y="775" width="64" height="64" />
  <object id="461" gid="2147490808" x="715" y="777" width="64" height="64" />
  <object id="462" gid="2147490808" x="2" y="778" width="64" height="64" />
  <object id="463" gid="2147490809" x="157" y="779" width="64" height="64" />
  <object id="464" gid="7166" x="194" y="779" width="64" height="64" />
  <object id="465" gid="2147490927" x="247" y="780" width="64" height="64" />
  <object id="466" gid="7180" x="843" y="786" width="64" height="64" />
  <object id="467" gid="7161" x="163" y="788" width="64" height="64" />
  <object id="468" gid="7172" x="530" y="790" width="64" height="64" />
  <object id="469" gid="7160" x="671" y="790" width="64" height="64" />
  <object id="470" gid="7161" x="709" y="790" width="64" height="64" />
  <object id="471" gid="7160" x="786" y="792" width="64" height="64" />
  <object id="472" gid="7239" x="878" y="793" width="64" height="64" />
  <object id="473" gid="2147490809" x="49" y="795" width="64" height="64" />
  <object id="474" gid="2147490812" x="915" y="796" width="64" height="64" />
  <object id="475" gid="2147490931" x="195" y="798" width="64" height="64" />
  <object id="476" gid="2147490808" x="107" y="799" width="64" height="64" />
  <object id="477" gid="7172" x="609" y="800" width="64" height="64" />
  <object id="478" gid="2147490809" x="641" y="800" width="64" height="64" />
  <object id="479" gid="2147490808" x="-7" y="801" width="64" height="64" />
  <object id="480" gid="7166" x="964" y="802" width="64" height="64" />
  <object id="481" gid="7161" x="1009" y="802" width="64" height="64" />
  <object id="482" gid="7280" x="265.6" y="806.4" width="64" height="64" />
  <object id="483" gid="7277" x="224" y="807" width="64" height="64" />
  <object id="484" gid="2147490931" x="295" y="807" width="64" height="64" />
  <object id="485" gid="7208" x="935" y="813" width="64" height="64" />
  <object id="486" gid="2147490809" x="-14" y="817" width="64" height="64" />
  <object id="487" gid="2147490809" x="707" y="817" width="64" height="64" />
  <object id="488" gid="7160" x="82" y="819" width="64" height="64" />
  <object id="489" gid="2147490928" x="182" y="821" width="64" height="64" />
  <object id="490" gid="2147490809" x="65" y="824" width="64" height="64" />
  <object id="491" gid="7160" x="999" y="827" width="64" height="64" />
  <object id="492" gid="2147490927" x="477" y="827" width="64" height="64" />
  <object id="493" gid="2147490809" x="23" y="830" width="64" height="64" />
  <object id="494" gid="2147490814" x="627" y="830" width="64" height="64" />
  <object id="495" gid="2147490828" x="900" y="831" width="64" height="64" />
  <object id="496" gid="7164" x="843" y="832" width="64" height="64" />
  <object id="497" gid="7282" x="122" y="832" width="64" height="64" />
  <object id="498" gid="7166" x="659" y="834" width="64" height="64" />
  <object id="499" gid="2147490814" x="984" y="835" width="64" height="64" />
  <object id="500" gid="7243" x="227.2" y="838.4" width="64" height="64" />
  <object id="501" gid="7160" x="967" y="843" width="64" height="64" />
  <object id="502" gid="2147490814" x="1003" y="843" width="64" height="64" />
  <object id="503" gid="7269" x="400" y="844.8" width="64" height="64" />
  <object id="504" gid="2147490808" x="746" y="847" width="64" height="64" />
  <object id="505" gid="2147490928" x="98" y="847" width="64" height="64" />
  <object id="506" gid="7161" x="86" y="849" width="64" height="64" />
  <object id="507" gid="7166" x="736" y="849" width="64" height="64" />
  <object id="508" gid="2147490808" x="-10" y="851" width="64" height="64" />
  <object id="509" gid="2147490809" x="675" y="851" width="64" height="64" />
  <object id="510" gid="2147490931" x="471" y="852" width="64" height="64" />
  <object id="511" gid="7166" x="18" y="854" width="64" height="64" />
  <object id="512" gid="2147490856" x="824" y="854" width="64" height="64" />
  <object id="513" gid="2147490928" x="525" y="855" width="64" height="64" />
  <object id="514" gid="2147490832" x="959" y="859" width="64" height="64" />
  <object id="515" gid="2147490927" x="583" y="861" width="64" height="64" />
  <object id="516" gid="2147490930" x="165" y="862" width="64" height="64" />
  <object id="517" gid="7175" x="882" y="868" width="64" height="64" />
  <object id="518" gid="2147490809" x="754" y="869" width="64" height="64" />
  <object id="519" gid="7243" x="571" y="870" width="64" height="64" />
  <object id="520" gid="2147490917" x="536" y="871" width="64" height="64" />
  <object id="521" gid="2147490809" x="990" y="872" width="64" height="64" />
  <object id="522" gid="2147490808" x="-11" y="875" width="64" height="64" />
  <object id="523" gid="7270" x="220.8" y="876.8" width="64" height="64" />
  <object id="524" gid="2147490809" x="49" y="877" width="64" height="64" />
  <object id="525" gid="2147490809" x="1007" y="877" width="64" height="64" />
  <object id="526" gid="2147490828" x="899" y="880" width="64" height="64" />
  <object id="527" gid="2147490872" x="489" y="881" width="64" height="64" />
  <object id="528" gid="7261" x="664" y="881" width="64" height="64" />
  <object id="529" gid="7277" x="83" y="884" width="64" height="64" />
  <object id="530" gid="2147490925" x="654" y="885" width="64" height="64" />
  <object id="531" gid="7283" x="622" y="886" width="64" height="64" />
  <object id="532" gid="7283" x="403.2" y="886.4" width="64" height="64" />
  <object id="533" gid="2147490809" x="13" y="889" width="64" height="64" />
  <object id="534" gid="2147490809" x="688" y="889" width="64" height="64" />
  <object id="535" gid="7160" x="46" y="896" width="64" height="64" />
  <object id="536" gid="2147490814" x="731" y="900" width="64" height="64" />
  <object id="537" gid="7224" x="125" y="900" width="64" height="64" />
  <object id="538" gid="7172" x="676" y="905" width="64" height="64" />
  <object id="539" gid="7161" x="976" y="905" width="64" height="64" />
  <object id="540" gid="2147490809" x="777" y="906" width="64" height="64" />
  <object id="541" gid="2147490809" x="865" y="906" width="64" height="64" />
  <object id="542" gid="7160" x="1" y="907" width="64" height="64" />
  <object id="543" gid="7282" x="256" y="908.8" width="64" height="64" />
  <object id="544" gid="7160" x="662" y="909" width="64" height="64" />
  <object id="545" gid="2147490927" x="602" y="909" width="64" height="64" />
  <object id="546" gid="7277" x="404" y="910" width="64" height="64" />
  <object id="547" gid="7243" x="371.2" y="912" width="64" height="64" />
  <object id="548" gid="7283" x="514" y="912" width="64" height="64" />
  <object id="549" gid="7166" x="950" y="913" width="64" height="64" />
  <object id="550" gid="2147490909" x="164" y="915" width="64" height="64" />
  <object id="551" gid="7161" x="56" y="916" width="64" height="64" />
  <object id="552" gid="2147490909" x="98" y="916" width="64" height="64" />
  <object id="553" gid="2147490931" x="442" y="917" width="64" height="64" />
  <object id="554" gid="7160" x="604" y="924" width="64" height="64" />
  <object id="555" gid="2147490809" x="900" y="925" width="64" height="64" />
  <object id="556" gid="7280" x="181" y="925" width="64" height="64" />
  <object id="557" gid="2147490814" x="1017" y="929" width="64" height="64" />
  <object id="558" gid="2147490809" x="55" y="930" width="64" height="64" />
  <object id="559" gid="2147490809" x="696" y="930" width="64" height="64" />
  <object id="560" gid="7224" x="226" y="930" width="64" height="64" />
  <object id="561" gid="2147490918" x="421" y="930" width="64" height="64" />
  <object id="562" gid="7166" x="91" y="931" width="64" height="64" />
  <object id="563" gid="7160" x="664" y="935" width="64" height="64" />
  <object id="564" gid="7161" x="747" y="935" width="64" height="64" />
  <object id="565" gid="7161" x="872" y="935" width="64" height="64" />
  <object id="566" gid="7277" x="164" y="935" width="64" height="64" />
  <object id="567" gid="2147490917" x="454" y="935" width="64" height="64" />
  <object id="568" gid="2147490917" x="316" y="937" width="64" height="64" />
  <object id="569" gid="2147490814" x="-9" y="938" width="64" height="64" />
  <object id="570" gid="7160" x="920" y="938" width="64" height="64" />
  <object id="571" gid="7161" x="623" y="939" width="64" height="64" />
  <object id="572" gid="7161" x="181" y="941" width="64" height="64" />
  <object id="573" gid="7160" x="482" y="942" width="64" height="64" />
  <object id="574" gid="2147490809" x="968" y="943" width="64" height="64" />
  <object id="575" gid="7161" x="773" y="945" width="64" height="64" />
  <object id="576" gid="2147490809" x="968" y="951" width="64" height="64" />
  <object id="577" gid="2147490808" x="190" y="952" width="64" height="64" />
  <object id="578" gid="7161" x="542" y="952" width="64" height="64" />
  <object id="579" gid="2147490808" x="591" y="954" width="64" height="64" />
  <object id="580" gid="2147490814" x="99" y="955" width="64" height="64" />
  <object id="581" gid="7160" x="832" y="955" width="64" height="64" />
  <object id="582" gid="2147490808" x="22" y="956" width="64" height="64" />
  <object id="583" gid="7161" x="137" y="956" width="64" height="64" />
  <object id="584" gid="7166" x="84" y="958" width="64" height="64" />
  <object id="585" gid="7160" x="465" y="960" width="64" height="64" />
  <object id="586" gid="2147490814" x="918" y="961" width="64" height="64" />
  <object id="587" gid="7159" x="989" y="961" width="64" height="64" />
  <object id="588" gid="2147490814" x="712" y="962" width="64" height="64" />
  <object id="589" gid="7279" x="316" y="963" width="64" height="64" />
  <object id="590" gid="2147490809" x="777" y="964" width="64" height="64" />
  <object id="591" gid="2147490814" x="691" y="965" width="64" height="64" />
  <object id="592" gid="7161" x="583" y="966" width="64" height="64" />
  <object id="593" gid="7161" x="-10" y="967" width="64" height="64" />
  <object id="594" gid="2147490809" x="279" y="968" width="64" height="64" />
  <object id="595" gid="7161" x="294" y="968" width="64" height="64" />
  <object id="596" gid="7160" x="213" y="971" width="64" height="64" />
  <object id="597" gid="7166" x="407" y="971" width="64" height="64" />
  <object id="598" gid="7160" x="477" y="972" width="64" height="64" />
  <object id="599" gid="7161" x="652" y="972" width="64" height="64" />
  <object id="600" gid="7161" x="866" y="972" width="64" height="64" />
  <object id="601" gid="2147490814" x="20" y="978" width="64" height="64" />
  <object id="602" gid="7161" x="844" y="978" width="64" height="64" />
  <object id="603" gid="7160" x="277" y="982" width="64" height="64" />
  <object id="604" gid="7166" x="595" y="982" width="64" height="64" />
  <object id="605" gid="2147490808" x="-31" y="984" width="64" height="64" />
  <object id="606" gid="7160" x="1022" y="984" width="64" height="64" />
  <object id="607" gid="7166" x="440" y="986" width="64" height="64" />
  <object id="608" gid="2147490808" x="229" y="988" width="64" height="64" />
  <object id="609" gid="2147490814" x="765" y="988" width="64" height="64" />
  <object id="610" gid="7166" x="636" y="989" width="64" height="64" />
  <object id="611" gid="7166" x="42" y="990" width="64" height="64" />
  <object id="612" gid="2147490808" x="218" y="990" width="64" height="64" />
  <object id="613" gid="2147490808" x="374" y="990" width="64" height="64" />
  <object id="614" gid="2147490814" x="556" y="993" width="64" height="64" />
  <object id="615" gid="2147490808" x="978" y="993" width="64" height="64" />
  <object id="616" gid="7160" x="314" y="994" width="64" height="64" />
  <object id="617" gid="7160" x="477" y="994" width="64" height="64" />
  <object id="618" gid="2147490809" x="738" y="994" width="64" height="64" />
  <object id="619" gid="2147490808" x="83" y="995" width="64" height="64" />
  <object id="620" gid="2147490814" x="501" y="995" width="64" height="64" />
  <object id="621" gid="2147490809" x="164" y="996" width="64" height="64" />
  <object id="622" gid="2147490808" x="405" y="996" width="64" height="64" />
  <object id="623" gid="7166" x="661" y="996" width="64" height="64" />
  <object id="624" gid="7172" x="714" y="996" width="64" height="64" />
  <object id="625" gid="7161" x="885" y="996" width="64" height="64" />
  <object id="626" gid="7161" x="128" y="998" width="64" height="64" />
  <object id="627" gid="2147490820" x="922" y="999" width="64" height="64" />
 </objectgroup>
 <objectgroup id="8" name="Objects">
  <object id="628" x="392" y="40" name="start" type="start">
   <point />
  </object>
  <object id="629" x="496" y="416" name="hollow-tree" type="warp" width="16" height="16">
   <properties>
    <property name="goto" value="GlimmercapTree,9,11.5" />
   </properties>
  </object>
  <object id="630" x="176" y="624" name="mushroom-house" type="warp" width="16" height="16">
   <properties>
    <property name="goto" value="GlimmercapMushroom,8,10.5" />
   </properties>
  </object>
  <object id="631" x="368" y="0" name="gloomhollow-path" type="warp" width="48" height="32">
   <properties>
    <property name="goto" value="Gloomhollow,27.5,69.5" />
   </properties>
  </object>
  <object id="632" x="0" y="464" name="sakura-path" type="warp" width="32" height="48">
   <properties>
    <property name="goto" value="Sakura,53.5,46" />
   </properties>
  </object>
  <object id="633" x="622.4" y="656" name="alchemist-yard" type="marker">
   <point />
  </object>
  <object id="634" x="816" y="128" name="deep-caps" type="marker" width="208" height="768" />
  <object id="635" x="96" y="768" name="moth-glade" type="marker" width="608" height="176" />
  <object id="636" x="0" y="0" type="safe-zone" width="752" height="736" />
  <object id="637" x="0" y="0" name="glimmercap" type="soundscape" width="1056" height="992">
   <properties>
    <property name="channel1" value="audio/music/forest.flac, 0.24" />
    <property name="channel2" value="audio/ambient/forest_air.flac, 0.3" />
   </properties>
  </object>
  <object id="638" x="448" y="464" name="glimmer-pool" type="soundscape" width="240" height="144">
   <properties>
    <property name="channel4" value="audio/ambient/lake.flac, 0.29" />
    <property name="emit" value="2.0" type="float" />
   </properties>
  </object>
  <object id="639" x="512" y="496" name="spire" type="soundscape" width="80" height="80">
   <properties>
    <property name="channel3" value="audio/ambient/stone_hum.flac, 0.29" />
    <property name="emit" value="2.0" type="float" />
   </properties>
  </object>
  <object id="640" x="704" y="544" name="stream" type="soundscape" width="112" height="448">
   <properties>
    <property name="channel4" value="audio/ambient/lapping_water.flac, 0.33" />
    <property name="emit" value="2.0" type="float" />
   </properties>
  </object>
  <object id="641" x="96" y="768" name="moth-glade" type="soundscape" width="608" height="160">
   <properties>
    <property name="channel3" value="audio/ambient/jungle.flac, 0.3" />
    <property name="emit" value="3.0" type="float" />
   </properties>
  </object>
 </objectgroup>
</map>