<?xml version='1.0' encoding='UTF-8'?>
<map version="1.10" tiledversion="1.11.0" orientation="orthogonal" renderorder="right-down" width="18" height="14" tilewidth="16" tileheight="16" infinite="0" nextlayerid="9" nextobjectid="12">
 <tileset firstgid="1" source="../tilesets/glimmercap-tree-terrain.tsx" />
 <tileset firstgid="41" source="../tilesets/glimmercap-tree-overlay.tsx" />
 <tileset firstgid="61" source="../tilesets/glimmercap-tree-rug.tsx" />
 <tileset firstgid="1661" source="../tilesets/glimmercap-tree-decor.tsx" />
 <tileset firstgid="1673" source="../tilesets/glimmercap-tree-furniture.tsx" />
 <tileset firstgid="2070" source="../tilesets/collision.tsx" />
 <tileset firstgid="2072" source="../tilesets/glimmercap-tree-props.tsx" />
 <layer id="1" name="Floor" width="18" height="14">
  <data encoding="csv">
1,1,1,1,1,1,1,1,1,1,1,1,1,1,1,1,1,1,
1,1,1,1,1,1,1,1,1,1,1,1,1,1,1,1,1,1,
1,1,1,1,1,1,1,1,1,1,1,1,1,1,1,1,1,1,
1,1,1,1,1,1,1,1,1,1,1,1,1,1,1,1,1,1,
1,1,1,1,1,1,1,1,1,1,1,1,1,1,1,1,1,1,
1,1,1,1,1,1,1,1,1,1,1,1,1,1,1,1,1,1,
1,1,1,1,1,1,1,1,1,1,1,1,1,1,1,1,1,1,
1,1,1,1,1,1,1,1,1,1,1,1,1,1,1,1,1,1,
1,1,1,1,1,1,1,1,1,1,1,1,1,1,1,1,1,1,
1,1,1,1,1,1,1,1,1,1,1,1,1,1,1,1,1,1,
1,1,1,1,1,1,1,1,1,1,1,1,1,1,1,1,1,1,
1,1,1,1,1,1,1,1,1,1,1,1,1,1,1,1,1,1,
1,1,1,1,1,1,1,1,1,1,1,1,1,1,1,1,1,1,
1,1,1,1,1,1,1,1,1,1,1,1,1,1,1,1,1,1
</data>
 </layer>
 <layer id="2" name="Walls" width="18" height="14">
  <data encoding="csv">
7,7,7,7,7,7,7,7,7,7,7,7,7,7,7,7,7,7,
12,13,13,13,13,13,13,13,13,13,13,19,12,13,13,13,13,19,
15,16,16,16,16,16,16,16,16,16,16,22,15,16,16,16,16,22,
9,0,0,0,0,0,0,0,0,0,0,6,9,0,0,0,0,6,
9,0,0,0,0,0,0,0,0,0,0,18,14,0,0,0,0,6,
9,0,0,0,0,0,0,0,0,0,0,21,17,0,0,0,0,6,
9,0,0,0,0,0,0,0,0,0,0,0,0,0,0,0,0,6,
9,0,0,0,0,0,0,0,0,0,0,0,0,0,0,0,0,6,
9,0,0,0,0,0,0,0,0,0,0,2,4,0,0,0,0,6,
9,0,0,0,0,0,0,0,0,0,0,5,9,0,0,0,0,6,
9,0,0,0,0,0,0,0,0,0,0,6,9,0,0,0,0,6,
9,0,0,0,0,0,0,0,0,0,0,6,9,0,0,0,0,6,
10,3,3,3,3,3,3,4,0,0,2,11,10,3,3,3,3,11,
7,7,7,7,7,7,7,9,0,0,5,7,7,7,7,7,7,7
</data>
 </layer>
 <layer id="3" name="Rug" width="18" height="14">
  <data encoding="csv">
0,0,0,0,0,0,0,0,0,0,0,0,0,0,0,0,0,0,
0,0,0,0,0,0,0,0,0,0,0,0,0,0,0,0,0,0,
0,0,0,0,0,0,0,0,0,0,0,0,0,0,0,0,0,0,
0,0,0,0,0,0,0,0,0,0,0,0,0,0,0,0,0,0,
0,0,0,0,0,0,0,0,0,0,0,0,0,0,0,0,0,0,
0,0,0,0,0,0,0,0,0,0,0,0,0,0,0,0,0,0,
0,0,0,0,0,0,0,0,0,0,0,0,0,0,0,0,0,0,
0,0,41,42,43,44,45,46,47,0,0,0,0,0,0,0,0,0,
0,0,48,384,385,386,387,388,49,0,0,0,0,0,0,0,0,0,
0,0,50,424,425,426,427,428,51,0,0,0,0,0,0,0,0,0,
0,0,52,464,465,466,467,468,53,0,0,0,0,0,0,0,0,0,
0,0,54,55,56,57,58,59,60,0,0,0,0,0,0,0,0,0,
0,0,0,0,0,0,0,0,0,0,0,0,0,0,0,0,0,0,
0,0,0,0,0,0,0,0,0,0,0,0,0,0,0,0,0,0
</data>
 </layer>
 <layer id="4" name="Decor" width="18" height="14">
  <data encoding="csv">
0,0,0,0,0,0,0,0,0,0,0,0,0,0,0,0,0,0,
0,0,0,1661,1662,0,0,1665,1666,0,0,0,0,0,0,0,0,0,
0,0,0,1663,1664,0,0,1667,1668,0,0,0,0,0,0,0,0,0,
0,0,0,0,0,0,0,0,0,0,0,0,0,0,0,0,0,0,
0,0,0,0,0,0,0,0,0,0,0,0,0,0,0,0,0,0,
0,0,0,0,0,0,0,0,0,0,0,0,0,0,0,0,0,0,
0,0,0,0,0,0,0,0,0,0,0,0,0,0,0,0,0,0,
0,0,0,0,0,0,0,0,0,0,0,0,0,1669,1670,0,0,0,
0,0,0,0,0,0,0,0,0,0,0,0,0,1671,1672,0,0,0,
0,0,0,0,0,0,0,0,0,0,0,0,0,0,0,0,0,0,
0,0,0,0,0,0,0,0,0,0,0,0,0,0,0,0,0,0,
0,0,0,0,0,0,0,0,0,0,0,0,0,0,0,0,0,0,
0,0,0,0,0,0,0,0,0,0,0,0,0,0,0,0,0,0,
0,0,0,0,0,0,0,0,0,0,0,0,0,0,0,0,0,0
</data>
 </layer>
 <layer id="5" name="Dynamic" width="18" height="14">
  <data encoding="csv">
0,0,0,0,0,0,0,0,0,0,0,0,0,0,0,0,0,0,
0,0,0,0,0,0,0,0,0,0,0,0,0,0,0,0,0,0,
0,0,0,0,0,0,0,0,0,0,0,0,0,0,0,0,0,0,
0,1691,1692,1807,1808,1767,1768,1719,1720,1685,1686,0,0,1795,1796,1677,1678,0,
0,1693,1694,1809,1810,1769,1770,1721,1722,1687,1688,0,0,1797,1798,1679,1680,0,
0,1723,1724,0,0,0,0,0,0,0,0,0,0,0,0,0,1689,0,
0,1725,1726,0,0,0,0,0,0,0,0,0,0,0,0,0,1690,0,
0,1823,1824,0,0,0,0,0,0,0,0,0,0,0,0,1799,1800,0,
0,1825,1826,0,0,0,0,0,0,0,0,0,0,0,0,1801,1802,0,
0,0,0,0,1673,1674,0,0,0,0,0,0,0,0,0,0,0,0,
0,0,0,0,1675,1676,0,0,0,0,0,0,0,1897,1898,1695,1696,0,
0,0,0,0,0,0,0,0,0,0,0,0,0,1899,1900,1697,1698,0,
0,0,0,0,0,0,0,0,0,0,0,0,0,0,0,0,0,0,
0,0,0,0,0,0,0,0,0,0,0,0,0,0,0,0,0,0
</data>
 </layer>
 <layer id="6" name="Collision" width="18" height="14">
  <data encoding="csv">
2071,2071,2071,2071,2071,2071,2071,2071,2071,2071,2071,2071,2071,2071,2071,2071,2071,2071,
2071,2071,2071,2071,2071,2071,2071,2071,2071,2071,2071,2071,2071,2071,2071,2071,2071,2071,
2071,2071,2071,2071,2071,2071,2071,2071,2071,2071,2071,2071,2071,2071,2071,2071,2071,2071,
2071,2070,2070,2070,2070,2070,2070,2070,2070,2070,2070,2071,2071,2070,2070,2070,2070,2071,
2071,2071,2071,2071,2071,2071,2071,2071,2071,2071,2071,2071,2071,2071,2071,2071,2071,2071,
2071,2070,2070,2070,2070,2070,2070,2070,2070,2070,2070,2071,2071,2070,2070,2070,2070,2071,
2071,2071,2071,2070,2070,2070,2070,2070,2070,2070,2070,2070,2070,2070,2070,2070,2071,2071,
2071,2070,2070,2070,2070,2070,2070,2070,2070,2070,2070,2070,2070,2070,2070,2070,2070,2071,
2071,2071,2071,2070,2070,2070,2070,2070,2070,2070,2070,2071,2071,2070,2070,2071,2071,2071,
2071,2070,2070,2071,2070,2070,2071,2070,2070,2070,2070,2071,2071,2070,2070,2070,2070,2071,
2071,2071,2070,2070,2071,2071,2071,2070,2070,2070,2071,2071,2071,2070,2070,2070,2070,2071,
2071,2071,2070,2070,2070,2070,2070,2070,2070,2070,2071,2071,2071,2071,2071,2071,2071,2071,
2071,2071,2071,2071,2071,2071,2071,2071,2070,2070,2071,2071,2071,2071,2071,2071,2071,2071,
2071,2071,2071,2071,2071,2071,2071,2071,2070,2070,2071,2071,2071,2071,2071,2071,2071,2071
</data>
 </layer>
 <objectgroup id="7" name="Scenery">
  <object id="1" gid="2141" x="24" y="158" width="64" height="64" />
  <object id="2" gid="2141" x="72" y="158" width="64" height="64" />
  <object id="3" gid="2170" x="-8" y="174" width="64" height="64" />
  <object id="4" gid="2174" x="72" y="174" width="64" height="64" />
  <object id="5" gid="2172" x="136" y="174" width="64" height="64" />
  <object id="6" gid="2184" x="-8" y="190" width="64" height="64" />
  <object id="7" gid="2196" x="136" y="190" width="64" height="64" />
 </objectgroup>
 <objectgroup id="8" name="Objects">
  <object id="8" x="144" y="184" name="start" type="start">
   <point />
  </object>
  <object id="9" x="128" y="192" name="front-door" type="warp" width="32" height="32">
   <properties>
    <property name="goto" value="Glimmercap,31.5,27.5" />
   </properties>
  </object>
  <object id="10" x="80" y="120" name="druid-table" type="marker">
   <point />
  </object>
  <object id="11" x="0" y="0" name="hollow" type="soundscape" width="288" height="224">
   <properties>
    <property name="channel3" value="audio/ambient/timbers.flac, 0.22" />
   </properties>
  </object>
 </objectgroup>
</map>