<?xml version='1.0' encoding='UTF-8'?>
<map version="1.10" tiledversion="1.11.0" orientation="orthogonal" renderorder="right-down" width="16" height="13" tilewidth="16" tileheight="16" infinite="0" nextlayerid="9" nextobjectid="13">
 <tileset firstgid="1" source="../tilesets/glimmercap-mushroom-terrain.tsx" />
 <tileset firstgid="41" source="../tilesets/glimmercap-mushroom-overlay.tsx" />
 <tileset firstgid="63" source="../tilesets/glimmercap-mushroom-rug.tsx" />
 <tileset firstgid="1663" source="../tilesets/glimmercap-mushroom-decor.tsx" />
 <tileset firstgid="1675" source="../tilesets/glimmercap-mushroom-furniture.tsx" />
 <tileset firstgid="2068" source="../tilesets/collision.tsx" />
 <tileset firstgid="2070" source="../tilesets/glimmercap-mushroom-props.tsx" />
 <layer id="1" name="Floor" width="16" height="13">
  <data encoding="csv">
1,1,1,1,1,1,1,1,1,1,1,1,1,1,1,1,
1,1,1,1,1,1,1,1,1,1,1,1,1,1,1,1,
1,1,1,1,1,1,1,1,1,1,1,1,1,1,1,1,
1,1,1,1,1,1,1,1,1,1,1,1,1,1,1,1,
1,1,1,1,1,1,1,1,1,1,1,1,1,1,1,1,
1,1,1,1,1,1,1,1,1,1,1,1,1,1,1,1,
1,1,1,1,1,1,1,1,1,1,1,1,1,1,1,1,
1,1,1,1,1,1,1,1,1,1,1,1,1,1,1,1,
1,1,1,1,1,1,1,1,1,1,1,1,1,1,1,1,
1,1,1,1,1,1,1,1,1,1,1,1,1,1,1,1,
1,1,1,1,1,1,1,1,1,1,1,1,1,1,1,1,
1,1,1,1,1,1,1,1,1,1,1,1,1,1,1,1,
1,1,1,1,1,1,1,1,1,1,1,1,1,1,1,1
</data>
 </layer>
 <layer id="2" name="Walls" width="16" height="13">
  <data encoding="csv">
7,7,7,7,7,7,7,7,7,7,7,7,7,7,7,7,
12,13,13,13,13,13,13,13,13,13,13,13,13,13,13,19,
15,16,16,16,16,16,16,16,16,16,16,16,16,16,16,22,
9,0,0,0,0,0,0,0,0,0,0,0,0,0,0,6,
9,0,0,0,0,0,0,0,0,0,0,0,0,0,0,6,
9,0,0,0,0,0,0,0,0,0,0,0,0,0,0,6,
9,0,0,0,0,0,0,0,0,0,0,0,0,0,0,6,
9,0,0,0,0,0,0,0,0,0,0,0,0,0,0,6,
9,0,0,0,0,0,0,0,0,0,0,0,0,0,0,6,
9,0,0,0,0,0,0,0,0,0,0,0,0,0,0,6,
9,0,0,0,0,0,0,0,0,0,0,0,0,0,0,6,
10,3,3,3,3,3,4,0,0,2,3,3,3,3,3,11,
7,7,7,7,7,7,9,0,0,5,7,7,7,7,7,7
</data>
 </layer>
 <layer id="3" name="Rug" width="16" height="13">
  <data encoding="csv">
0,0,0,0,0,0,0,0,0,0,0,0,0,0,0,0,
0,0,0,0,0,0,0,0,0,0,0,0,0,0,0,0,
0,0,0,0,0,0,0,0,0,0,0,0,0,0,0,0,
0,0,0,0,0,0,0,0,0,0,0,0,0,0,0,0,
0,0,0,0,0,0,0,0,0,0,0,0,0,0,0,0,
0,0,0,0,0,0,0,0,0,0,0,0,0,0,0,0,
0,0,0,0,41,42,43,44,45,46,47,48,0,0,0,0,
0,0,0,0,49,348,349,350,351,352,353,50,0,0,0,0,
0,0,0,0,51,388,389,390,391,392,393,52,0,0,0,0,
0,0,0,0,53,428,429,430,431,432,433,54,0,0,0,0,
0,0,0,0,55,56,57,58,59,60,61,62,0,0,0,0,
0,0,0,0,0,0,0,0,0,0,0,0,0,0,0,0,
0,0,0,0,0,0,0,0,0,0,0,0,0,0,0,0
</data>
 </layer>
 <layer id="4" name="Decor" width="16" height="13">
  <data encoding="csv">
0,0,0,0,0,0,0,0,0,0,0,0,0,0,0,0,
0,1663,1664,0,0,0,0,1667,1668,1671,1672,0,0,0,0,0,
0,1665,1666,0,0,0,0,1669,1670,1673,1674,0,0,0,0,0,
0,0,0,0,0,0,0,0,0,0,0,0,0,0,0,0,
0,0,0,0,0,0,0,0,0,0,0,0,0,0,0,0,
0,0,0,0,0,0,0,0,0,0,0,0,0,0,0,0,
0,0,0,0,0,0,0,0,0,0,0,0,0,0,0,0,
0,0,0,0,0,0,0,0,0,0,0,0,0,0,0,0,
0,0,0,0,0,0,0,0,0,0,0,0,0,0,0,0,
0,0,0,0,0,0,0,0,0,0,0,0,0,0,0,0,
0,0,0,0,0,0,0,0,0,0,0,0,0,0,0,0,
0,0,0,0,0,0,0,0,0,0,0,0,0,0,0,0,
0,0,0,0,0,0,0,0,0,0,0,0,0,0,0,0
</data>
 </layer>
 <layer id="5" name="Dynamic" width="16" height="13">
  <data encoding="csv">
0,0,0,0,0,0,0,0,0,0,0,0,0,0,0,0,
0,0,0,0,0,0,0,0,0,0,0,0,0,0,0,0,
0,0,0,0,0,0,0,0,0,0,0,0,0,0,0,0,
0,1699,1700,1775,1776,1723,1724,0,0,1695,1696,1683,1684,1679,1680,0,
0,1701,1702,1777,1778,1725,1726,0,0,1697,1698,1685,1686,1681,1682,0,
0,0,0,0,0,0,0,0,0,0,0,0,0,1917,1918,0,
0,1783,1784,0,0,0,0,0,0,0,0,0,0,1919,1920,0,
0,1785,1786,0,0,1735,1736,1675,1676,0,0,0,0,1893,1894,0,
0,1885,1886,0,0,1737,1738,1677,1678,0,0,0,0,1895,1896,0,
0,1887,1888,0,0,0,0,0,0,0,1968,1969,0,1751,1752,0,
0,0,0,0,0,0,0,0,0,0,1970,1971,0,1753,1754,0,
0,0,0,0,0,0,0,0,0,0,0,0,0,0,0,0,
0,0,0,0,0,0,0,0,0,0,0,0,0,0,0,0
</data>
 </layer>
 <layer id="6" name="Collision" width="16" height="13">
  <data encoding="csv">
2069,2069,2069,2069,2069,2069,2069,2069,2069,2069,2069,2069,2069,2069,2069,2069,
2069,2069,2069,2069,2069,2069,2069,2069,2069,2069,2069,2069,2069,2069,2069,2069,
2069,2069,2069,2069,2069,2069,2069,2069,2069,2069,2069,2069,2069,2069,2069,2069,
2069,2068,2068,2068,2068,2068,2068,2068,2068,2068,2068,2068,2068,2068,2068,2069,
2069,2069,2069,2069,2069,2069,2069,2068,2068,2069,2069,2069,2069,2069,2069,2069,
2069,2069,2069,2068,2068,2068,2068,2068,2068,2068,2068,2068,2069,2068,2068,2069,
2069,2068,2068,2068,2068,2068,2068,2068,2068,2068,2068,2068,2068,2069,2069,2069,
2069,2069,2069,2068,2068,2068,2068,2068,2068,2068,2068,2069,2068,2068,2068,2069,
2069,2068,2068,2068,2068,2069,2069,2069,2069,2069,2068,2068,2068,2069,2069,2069,
2069,2069,2069,2068,2068,2068,2068,2068,2068,2068,2068,2068,2068,2068,2068,2069,
2069,2069,2069,2069,2068,2068,2068,2068,2068,2068,2069,2069,2069,2069,2069,2069,
2069,2069,2069,2069,2069,2069,2069,2068,2068,2069,2069,2069,2069,2069,2069,2069,
2069,2069,2069,2069,2069,2069,2069,2068,2068,2069,2069,2069,2069,2069,2069,2069
</data>
 </layer>
 <objectgroup id="7" name="Scenery">
  <object id="1" gid="2171" x="168" y="94" width="64" height="64" />
  <object id="2" gid="2100" x="0" y="94.4" width="64" height="64" />
  <object id="3" gid="2103" x="152" y="126.4" width="64" height="64" />
  <object id="4" gid="2138" x="120" y="142" width="64" height="64" />
  <object id="5" gid="2102" x="-8" y="174" width="64" height="64" />
  <object id="6" gid="2140" x="8" y="174" width="64" height="64" />
  <object id="7" gid="2160" x="24" y="174" width="64" height="64" />
  <object id="8" gid="2182" x="168" y="174" width="64" height="64" />
 </objectgroup>
 <objectgroup id="8" name="Objects">
  <object id="9" x="128" y="168" name="start" type="start">
   <point />
  </object>
  <object id="10" x="112" y="176" name="front-door" type="warp" width="32" height="32">
   <properties>
    <property name="goto" value="Glimmercap,11.5,40.5" />
   </properties>
  </object>
  <object id="11" x="112" y="104" name="fairy-table" type="marker">
   <point />
  </object>
  <object id="12" x="16" y="48" name="stove" type="soundscape" width="48" height="48">
   <properties>
    <property name="channel3" value="audio/ambient/campfire.flac, 0.22" />
    <property name="emit" value="2.0" type="float" />
   </properties>
  </object>
 </objectgroup>
</map>