<?xml version='1.0' encoding='UTF-8'?>
<map version="1.10" tiledversion="1.11.0" orientation="orthogonal" renderorder="right-down" width="14" height="14" tilewidth="16" tileheight="16" infinite="0" nextlayerid="9" nextobjectid="18">
 <tileset firstgid="1" source="../tilesets/gloomhollow-crypt-terrain.tsx" />
 <tileset firstgid="41" source="../tilesets/gloomhollow-crypt-decor.tsx" />
 <tileset firstgid="51" source="../tilesets/gloomhollow-crypt-furniture.tsx" />
 <tileset firstgid="432" source="../tilesets/collision.tsx" />
 <tileset firstgid="434" source="../tilesets/gloomhollow-crypt-props.tsx" />
 <layer id="1" name="Floor" width="14" height="14">
  <data encoding="csv">
1,1,1,1,1,1,1,1,1,1,1,1,1,1,
1,1,1,1,1,1,1,1,1,1,1,1,1,1,
1,1,1,1,1,1,1,1,1,1,1,1,1,1,
1,1,1,1,1,1,1,1,1,1,1,1,1,1,
1,1,1,1,1,1,1,1,1,1,1,1,1,1,
1,1,1,1,1,1,1,1,1,1,1,1,1,1,
1,1,1,1,1,1,1,1,1,1,1,1,1,1,
1,1,1,1,1,1,1,1,1,1,1,1,1,1,
1,1,1,1,1,1,1,1,1,1,1,1,1,1,
1,1,1,1,1,1,1,1,1,1,1,1,1,1,
1,1,1,1,1,1,1,1,1,1,1,1,1,1,
1,1,1,1,1,1,1,1,1,1,1,1,1,1,
1,1,1,1,1,1,1,1,1,1,1,1,1,1,
1,1,1,1,1,1,1,1,1,1,1,1,1,1
</data>
 </layer>
 <layer id="2" name="Walls" width="14" height="14">
  <data encoding="csv">
7,7,7,7,7,7,7,7,7,7,7,7,7,7,
12,13,13,13,13,13,13,13,13,13,13,13,13,19,
15,16,16,16,16,16,16,16,16,16,16,16,16,22,
9,0,0,0,0,0,0,0,0,0,0,0,0,6,
9,0,0,0,0,0,0,0,0,0,0,0,0,6,
9,0,0,0,0,0,0,0,0,0,0,0,0,6,
9,0,0,0,0,0,0,0,0,0,0,0,0,6,
9,0,0,0,0,0,0,0,0,0,0,0,0,6,
9,0,0,0,0,0,0,0,0,0,0,0,0,6,
9,0,0,0,0,0,0,0,0,0,0,0,0,6,
9,0,0,0,0,0,0,0,0,0,0,0,0,6,
9,0,0,0,0,0,0,0,0,0,0,0,0,6,
10,3,3,3,3,4,0,0,2,3,3,3,3,11,
7,7,7,7,7,9,0,0,5,7,7,7,7,7
</data>
 </layer>
 <layer id="3" name="Rug" width="14" height="14">
  <data encoding="csv">
0,0,0,0,0,0,0,0,0,0,0,0,0,0,
0,0,0,0,0,0,0,0,0,0,0,0,0,0,
0,0,0,0,0,0,0,0,0,0,0,0,0,0,
0,0,0,0,0,0,0,0,0,0,0,0,0,0,
0,0,0,0,0,0,0,0,0,0,0,0,0,0,
0,0,0,0,0,32,34,34,35,0,0,0,0,0,
0,0,0,0,0,36,37,37,27,0,0,0,0,0,
0,0,0,0,0,36,37,37,27,0,0,0,0,0,
0,0,0,0,0,36,37,37,27,0,0,0,0,0,
0,0,0,0,0,36,37,37,27,0,0,0,0,0,
0,0,0,0,0,36,37,37,27,0,0,0,0,0,
0,0,0,0,0,28,29,29,31,0,0,0,0,0,
0,0,0,0,0,0,0,0,0,0,0,0,0,0,
0,0,0,0,0,0,0,0,0,0,0,0,0,0
</data>
 </layer>
 <layer id="4" name="Decor" width="14" height="14">
  <data encoding="csv">
0,0,0,0,0,0,0,0,0,0,0,0,0,0,
0,49,45,46,49,0,41,42,0,49,45,46,49,0,
0,50,47,48,50,0,43,44,0,50,47,48,50,0,
0,0,0,0,0,0,0,0,0,0,0,0,0,0,
0,0,0,0,0,0,0,0,0,0,0,0,0,0,
0,0,0,0,0,0,0,0,0,0,0,0,0,0,
0,0,0,0,0,0,0,0,0,0,0,0,0,0,
0,0,0,0,0,0,0,0,0,0,0,0,0,0,
0,0,0,0,0,0,0,0,0,0,0,0,0,0,
0,0,0,0,0,0,0,0,0,0,0,0,0,0,
0,0,0,0,0,0,0,0,0,0,0,0,0,0,
0,0,0,0,0,0,0,0,0,0,0,0,0,0,
0,0,0,0,0,0,0,0,0,0,0,0,0,0,
0,0,0,0,0,0,0,0,0,0,0,0,0,0
</data>
 </layer>
 <layer id="5" name="Dynamic" width="14" height="14">
  <data encoding="csv">
0,0,0,0,0,0,0,0,0,0,0,0,0,0,
0,0,0,0,0,0,0,0,0,0,0,0,0,0,
0,0,0,0,0,0,0,0,0,0,0,0,0,0,
0,0,0,0,0,0,0,0,0,0,0,0,0,0,
0,55,56,0,0,0,165,166,0,0,0,265,266,0,
0,57,58,0,0,0,167,168,0,0,0,267,268,0,
0,0,0,0,0,0,0,0,0,0,0,0,0,0,
0,0,0,0,0,0,0,0,0,0,0,0,0,0,
0,0,0,0,0,0,0,0,0,0,0,0,0,0,
0,261,262,261,262,0,0,0,0,0,0,0,0,0,
0,263,264,263,264,0,0,0,0,0,0,0,0,0,
0,0,0,0,0,0,0,0,0,0,0,0,0,0,
0,0,0,0,0,0,0,0,0,0,0,0,0,0,
0,0,0,0,0,0,0,0,0,0,0,0,0,0
</data>
 </layer>
 <layer id="6" name="Collision" width="14" height="14">
  <data encoding="csv">
433,433,433,433,433,433,433,433,433,433,433,433,433,433,
433,433,433,433,433,433,433,433,433,433,433,433,433,433,
433,433,433,433,433,433,433,433,433,433,433,433,433,433,
433,432,432,432,433,432,432,432,432,433,432,432,432,433,
433,432,432,433,432,432,432,432,432,432,432,432,432,433,
433,433,433,432,432,433,433,433,433,432,432,433,433,433,
433,432,432,432,432,432,432,432,432,432,432,432,432,433,
433,432,433,432,432,432,432,432,432,432,432,432,432,433,
433,432,432,432,432,432,432,432,432,432,432,432,432,433,
433,432,432,432,432,432,432,432,432,432,432,433,432,433,
433,433,433,433,433,432,432,432,432,432,433,433,432,433,
433,432,432,432,432,432,432,432,433,432,432,432,433,433,
433,433,433,433,433,433,432,432,433,433,433,433,433,433,
433,433,433,433,433,433,432,432,433,433,433,433,433,433
</data>
 </layer>
 <objectgroup id="7" name="Scenery">
  <object id="1" gid="438" x="40" y="62.4" width="64" height="64" />
  <object id="2" gid="438" x="120" y="62.4" width="64" height="64" />
  <object id="3" gid="446" x="24" y="78" width="64" height="64" />
  <object id="4" gid="499" x="56" y="94" width="64" height="64" />
  <object id="5" gid="499" x="104" y="94" width="64" height="64" />
  <object id="6" gid="462" x="0" y="126.4" width="64" height="64" />
  <object id="7" gid="495" x="152" y="158" width="64" height="64" />
  <object id="8" gid="486" x="136" y="174" width="64" height="64" />
  <object id="9" gid="460" x="152" y="174" width="64" height="64" />
  <object id="10" gid="493" x="168" y="190" width="64" height="64" />
  <object id="11" gid="458" x="104" y="190" width="64" height="64" />
 </objectgroup>
 <objectgroup id="8" name="Objects">
  <object id="12" x="112" y="184" name="start" type="start">
   <point />
  </object>
  <object id="13" x="96" y="192" name="crypt-gate" type="warp" width="32" height="32">
   <properties>
    <property name="goto" value="Gloomhollow,48,18.5" />
   </properties>
  </object>
  <object id="14" x="152" y="136" name="crypt-keeper" type="marker">
   <point />
  </object>
  <object id="15" x="16" y="48" type="safe-zone" width="192" height="144" />
  <object id="16" x="16" y="48" name="crypt" type="soundscape" width="192" height="144">
   <properties>
    <property name="channel3" value="audio/ambient/stone_hum.flac, 0.32" />
    <property name="emit" value="4.0" type="float" />
   </properties>
  </object>
  <object id="17" x="64" y="48" name="braziers" type="soundscape" width="96" height="16">
   <properties>
    <property name="channel4" value="audio/ambient/campfire.flac, 0.27" />
    <property name="emit" value="2.0" type="float" />
   </properties>
  </object>
 </objectgroup>
</map>