<?xml version='1.0' encoding='UTF-8'?>
<map version="1.10" tiledversion="1.11.0" orientation="orthogonal" renderorder="right-down" width="60" height="72" tilewidth="16" tileheight="16" infinite="0" nextlayerid="9" nextobjectid="394">
 <tileset firstgid="1" source="../tilesets/gloomhollow-ground.tsx" />
 <tileset firstgid="1601" source="../tilesets/gloomhollow-overlay.tsx" />
 <tileset firstgid="2215" source="../tilesets/gloomhollow-water.tsx" />
 <tileset firstgid="3815" source="../tilesets/buildings.tsx" />
 <tileset firstgid="5558" source="../tilesets/gloomhollow-decor.tsx" />
 <tileset firstgid="5622" source="../tilesets/collision.tsx" />
 <tileset firstgid="5624" source="../tilesets/gloomhollow-props.tsx" />
 <tileset firstgid="5767" source="../tilesets/gloomhollow-large-props.tsx" />
 <layer id="1" name="Ground" width="60" height="72">
  <data encoding="csv">
1,2,3,4,5,6,7,8,9,10,11,12,13,14,15,16,17,18,19,20,21,22,23,24,25,26,27,28,29,30,31,32,33,34,35,36,37,38,39,40,1,2,3,4,5,6,7,8,9,10,11,12,13,14,15,16,17,18,19,20,
41,42,43,44,45,46,47,48,49,50,51,52,53,54,55,56,57,58,59,60,61,62,63,64,65,66,67,68,69,70,71,72,73,74,75,76,77,78,79,80,41,42,43,44,45,46,47,48,49,50,51,52,53,54,55,56,57,58,59,60,
81,82,83,84,85,86,87,88,89,90,91,92,93,94,95,96,97,98,99,100,101,102,103,104,105,106,107,108,109,110,111,112,113,114,115,116,117,118,119,120,81,82,83,84,85,86,87,88,89,90,91,92,93,94,95,96,97,98,99,100,
121,122,123,124,125,126,127,128,129,130,131,132,133,134,135,136,137,138,139,140,141,142,143,144,145,146,147,148,149,150,151,152,153,154,155,156,157,158,159,160,121,122,123,124,125,126,127,128,129,130,131,132,133,134,135,136,137,138,139,140,
161,162,163,164,165,166,167,168,169,170,171,172,173,174,175,176,177,178,179,180,181,182,183,184,185,186,187,188,189,190,191,192,193,194,195,196,197,198,199,200,161,162,163,164,165,166,167,168,169,170,171,172,173,174,175,176,177,178,179,180,
201,202,203,204,205,206,207,208,209,210,211,212,213,214,215,216,217,218,219,220,221,222,223,224,225,226,227,228,229,230,231,232,233,234,235,236,237,238,239,240,201,202,203,204,205,206,207,208,209,210,211,212,213,214,215,216,217,218,219,220,
241,242,243,244,245,246,247,248,249,250,251,252,253,254,255,256,257,258,259,260,261,262,263,264,265,266,267,268,269,270,271,272,273,274,275,276,277,278,279,280,241,242,243,244,245,246,247,248,249,250,251,252,253,254,255,256,257,258,259,260,
281,282,283,284,285,286,287,288,289,290,291,292,293,294,295,296,297,298,299,300,301,302,303,304,305,306,307,308,309,310,311,312,313,314,315,316,317,318,319,320,281,282,283,284,285,286,287,288,289,290,291,292,293,294,295,296,297,298,299,300,
321,322,323,324,325,326,327,328,329,330,331,332,333,334,335,336,337,338,339,340,341,342,343,344,345,346,347,348,349,350,351,352,353,354,355,356,357,358,359,360,321,322,323,324,325,326,327,328,329,330,331,332,333,334,335,336,337,338,339,340,
361,362,363,364,365,366,367,368,369,370,371,372,373,374,375,376,377,378,379,380,381,382,383,384,385,386,387,388,389,390,391,392,393,394,395,396,397,398,399,400,361,362,363,364,365,366,367,368,369,370,371,372,373,374,375,376,377,378,379,380,
401,402,403,404,405,406,407,408,409,410,411,412,413,414,415,416,417,418,419,420,421,422,423,424,425,426,427,428,429,430,431,432,433,434,435,436,437,438,439,440,401,402,403,404,405,406,407,408,409,410,411,412,413,414,415,416,417,418,419,420,
441,442,443,444,445,446,447,448,449,450,451,452,453,454,455,456,457,458,459,460,461,462,463,464,465,466,467,468,469,470,471,472,473,474,475,476,477,478,479,480,441,442,443,444,445,446,447,448,449,450,451,452,453,454,455,456,457,458,459,460,
481,482,483,484,485,486,487,488,489,490,491,492,493,494,495,496,497,498,499,500,501,502,503,504,505,506,507,508,509,510,511,512,513,514,515,516,517,518,519,520,481,482,483,484,485,486,487,488,489,490,491,492,493,494,495,496,497,498,499,500,
521,522,523,524,525,526,527,528,529,530,531,532,533,534,535,536,537,538,539,540,541,542,543,544,545,546,547,548,549,550,551,552,553,554,555,556,557,558,559,560,521,522,523,524,525,526,527,528,529,530,531,532,533,534,535,536,537,538,539,540,
561,562,563,564,565,566,567,568,569,570,571,572,573,574,575,576,577,578,579,580,581,582,583,584,585,586,587,588,589,590,591,592,593,594,595,596,597,598,599,600,561,562,563,564,565,566,567,568,569,570,571,572,573,574,575,576,577,578,579,580,
601,602,603,604,605,606,607,608,609,610,611,612,613,614,615,616,617,618,619,620,621,622,623,624,625,626,627,628,629,630,631,632,633,634,635,636,637,638,639,640,601,602,603,604,605,606,607,608,609,610,611,612,613,614,615,616,617,618,619,620,
641,642,643,644,645,646,647,648,649,650,651,652,653,654,655,656,657,658,659,660,661,662,663,664,665,666,667,668,669,670,671,672,673,674,675,676,677,678,679,680,641,642,643,644,645,646,647,648,649,650,651,652,653,654,655,656,657,658,659,660,
681,682,683,684,685,686,687,688,689,690,691,692,693,694,695,696,697,698,699,700,701,702,703,704,705,706,707,708,709,710,711,712,713,714,715,716,717,718,719,720,681,682,683,684,685,686,687,688,689,690,691,692,693,694,695,696,697,698,699,700,
721,722,723,724,725,726,727,728,729,730,731,732,733,734,735,736,737,738,739,740,741,742,743,744,745,746,747,748,749,750,751,752,753,754,755,756,757,758,759,760,721,722,723,724,725,726,727,728,729,730,731,732,733,734,735,736,737,738,739,740,
761,762,763,764,765,766,767,768,769,770,771,772,773,774,775,776,777,778,779,780,781,782,783,784,785,786,787,788,789,790,791,792,793,794,795,796,797,798,799,800,761,762,763,764,765,766,767,768,769,770,771,772,773,774,775,776,777,778,779,780,
801,802,803,804,805,806,807,808,809,810,811,812,813,814,815,816,817,818,819,820,821,822,823,824,825,826,827,828,829,830,831,832,833,834,835,836,837,838,839,840,801,802,803,804,805,806,807,808,809,810,811,812,813,814,815,816,817,818,819,820,
841,842,843,844,845,846,847,848,849,850,851,852,853,854,855,856,857,858,859,860,861,862,863,864,865,866,867,868,869,870,871,872,873,874,875,876,877,878,879,880,841,842,843,844,845,846,847,848,849,850,851,852,853,854,855,856,857,858,859,860,
881,882,883,884,885,886,887,888,889,890,891,892,893,894,895,896,897,898,899,900,901,902,903,904,905,906,907,908,909,910,911,912,913,914,915,916,917,918,919,920,881,882,883,884,885,886,887,888,889,890,891,892,893,894,895,896,897,898,899,900,
921,922,923,924,925,926,927,928,929,930,931,932,933,934,935,936,937,938,939,940,941,942,943,944,945,946,947,948,949,950,951,952,953,954,955,956,957,958,959,960,921,922,923,924,925,926,927,928,929,930,931,932,933,934,935,936,937,938,939,940,
961,962,963,964,965,966,967,968,969,970,971,972,973,974,975,976,977,978,979,980,981,982,983,984,985,986,987,988,989,990,991,992,993,994,995,996,997,998,999,1000,961,962,963,964,965,966,967,968,969,970,971,972,973,974,975,976,977,978,979,980,
1001,1002,1003,1004,1005,1006,1007,1008,1009,1010,1011,1012,1013,1014,1015,1016,1017,1018,1019,1020,1021,1022,1023,1024,1025,1026,1027,1028,1029,1030,1031,1032,1033,1034,1035,1036,1037,1038,1039,1040,1001,1002,1003,1004,1005,1006,1007,1008,1009,1010,1011,1012,1013,1014,1015,1016,1017,1018,1019,1020,
1041,1042,1043,1044,1045,1046,1047,1048,1049,1050,1051,1052,1053,1054,1055,1056,1057,1058,1059,1060,1061,1062,1063,1064,1065,1066,1067,1068,1069,1070,1071,1072,1073,1074,1075,1076,1077,1078,1079,1080,1041,1042,1043,1044,1045,1046,1047,1048,1049,1050,1051,1052,1053,1054,1055,1056,1057,1058,1059,1060,
1081,1082,1083,1084,1085,1086,1087,1088,1089,1090,1091,1092,1093,1094,1095,1096,1097,1098,1099,1100,1101,1102,1103,1104,1105,1106,1107,1108,1109,1110,1111,1112,1113,1114,1115,1116,1117,1118,1119,1120,1081,1082,1083,1084,1085,1086,1087,1088,1089,1090,1091,1092,1093,1094,1095,1096,1097,1098,1099,1100,
1121,1122,1123,1124,1125,1126,1127,1128,1129,1130,1131,1132,1133,1134,1135,1136,1137,1138,1139,1140,1141,1142,1143,1144,1145,1146,1147,1148,1149,1150,1151,1152,1153,1154,1155,1156,1157,1158,1159,1160,1121,1122,1123,1124,1125,1126,1127,1128,1129,1130,1131,1132,1133,1134,1135,1136,1137,1138,1139,1140,
1161,1162,1163,1164,1165,1166,1167,1168,1169,1170,1171,1172,1173,1174,1175,1176,1177,1178,1179,1180,1181,1182,1183,1184,1185,1186,1187,1188,1189,1190,1191,1192,1193,1194,1195,1196,1197,1198,1199,1200,1161,1162,1163,1164,1165,1166,1167,1168,1169,1170,1171,1172,1173,1174,1175,1176,1177,1178,1179,1180,
1201,1202,1203,1204,1205,1206,1207,1208,1209,1210,1211,1212,1213,1214,1215,1216,1217,1218,1219,1220,1221,1222,1223,1224,1225,1226,1227,1228,1229,1230,1231,1232,1233,1234,1235,1236,1237,1238,1239,1240,1201,1202,1203,1204,1205,1206,1207,1208,1209,1210,1211,1212,1213,1214,1215,1216,1217,1218,1219,1220,
1241,1242,1243,1244,1245,1246,1247,1248,1249,1250,1251,1252,1253,1254,1255,1256,1257,1258,1259,1260,1261,1262,1263,1264,1265,1266,1267,1268,1269,1270,1271,1272,1273,1274,1275,1276,1277,1278,1279,1280,1241,1242,1243,1244,1245,1246,1247,1248,1249,1250,1251,1252,1253,1254,1255,1256,1257,1258,1259,1260,
1281,1282,1283,1284,1285,1286,1287,1288,1289,1290,1291,1292,1293,1294,1295,1296,1297,1298,1299,1300,1301,1302,1303,1304,1305,1306,1307,1308,1309,1310,1311,1312,1313,1314,1315,1316,1317,1318,1319,1320,1281,1282,1283,1284,1285,1286,1287,1288,1289,1290,1291,1292,1293,1294,1295,1296,1297,1298,1299,1300,
1321,1322,1323,1324,1325,1326,1327,1328,1329,1330,1331,1332,1333,1334,1335,1336,1337,1338,1339,1340,1341,1342,1343,1344,1345,1346,1347,1348,1349,1350,1351,1352,1353,1354,1355,1356,1357,1358,1359,1360,1321,1322,1323,1324,1325,1326,1327,1328,1329,1330,1331,1332,1333,1334,1335,1336,1337,1338,1339,1340,
1361,1362,1363,1364,1365,1366,1367,1368,1369,1370,1371,1372,1373,1374,1375,1376,1377,1378,1379,1380,1381,1382,1383,1384,1385,1386,1387,1388,1389,1390,1391,1392,1393,1394,1395,1396,1397,1398,1399,1400,1361,1362,1363,1364,1365,1366,1367,1368,1369,1370,1371,1372,1373,1374,1375,1376,1377,1378,1379,1380,
1401,1402,1403,1404,1405,1406,1407,1408,1409,1410,1411,1412,1413,1414,1415,1416,1417,1418,1419,1420,1421,1422,1423,1424,1425,1426,1427,1428,1429,1430,1431,1432,1433,1434,1435,1436,1437,1438,1439,1440,1401,1402,1403,1404,1405,1406,1407,1408,1409,1410,1411,1412,1413,1414,1415,1416,1417,1418,1419,1420,
1441,1442,1443,1444,1445,1446,1447,1448,1449,1450,1451,1452,1453,1454,1455,1456,1457,1458,1459,1460,1461,1462,1463,1464,1465,1466,1467,1468,1469,1470,1471,1472,1473,1474,1475,1476,1477,1478,1479,1480,1441,1442,1443,1444,1445,1446,1447,1448,1449,1450,1451,1452,1453,1454,1455,1456,1457,1458,1459,1460,
1481,1482,1483,1484,1485,1486,1487,1488,1489,1490,1491,1492,1493,1494,1495,1496,1497,1498,1499,1500,1501,1502,1503,1504,1505,1506,1507,1508,1509,1510,1511,1512,1513,1514,1515,1516,1517,1518,1519,1520,1481,1482,1483,1484,1485,1486,1487,1488,1489,1490,1491,1492,1493,1494,1495,1496,1497,1498,1499,1500,
1521,1522,1523,1524,1525,1526,1527,1528,1529,1530,1531,1532,1533,1534,1535,1536,1537,1538,1539,1540,1541,1542,1543,1544,1545,1546,1547,1548,1549,1550,1551,1552,1553,1554,1555,1556,1557,1558,1559,1560,1521,1522,1523,1524,1525,1526,1527,1528,1529,1530,1531,1532,1533,1534,1535,1536,1537,1538,1539,1540,
1561,1562,1563,1564,1565,1566,1567,1568,1569,1570,1571,1572,1573,1574,1575,1576,1577,1578,1579,1580,1581,1582,1583,1584,1585,1586,1587,1588,1589,1590,1591,1592,1593,1594,1595,1596,1597,1598,1599,1600,1561,1562,1563,1564,1565,1566,1567,1568,1569,1570,1571,1572,1573,1574,1575,1576,1577,1578,1579,1580,
1,2,3,4,5,6,7,8,9,10,11,12,13,14,15,16,17,18,19,20,21,22,23,24,25,26,27,28,29,30,31,32,33,34,35,36,37,38,39,40,1,2,3,4,5,6,7,8,9,10,11,12,13,14,15,16,17,18,19,20,
41,42,43,44,45,46,47,48,49,50,51,52,53,54,55,56,57,58,59,60,61,62,63,64,65,66,67,68,69,70,71,72,73,74,75,76,77,78,79,80,41,42,43,44,45,46,47,48,49,50,51,52,53,54,55,56,57,58,59,60,
81,82,83,84,85,86,87,88,89,90,91,92,93,94,95,96,97,98,99,100,101,102,103,104,105,106,107,108,109,110,111,112,113,114,115,116,117,118,119,120,81,82,83,84,85,86,87,88,89,90,91,92,93,94,95,96,97,98,99,100,
121,122,123,124,125,126,127,128,129,130,131,132,133,134,135,136,137,138,139,140,141,142,143,144,145,146,147,148,149,150,151,152,153,154,155,156,157,158,159,160,121,122,123,124,125,126,127,128,129,130,131,132,133,134,135,136,137,138,139,140,
161,162,163,164,165,166,167,168,169,170,171,172,173,174,175,176,177,178,179,180,181,182,183,184,185,186,187,188,189,190,191,192,193,194,195,196,197,198,199,200,161,162,163,164,165,166,167,168,169,170,171,172,173,174,175,176,177,178,179,180,
201,202,203,204,205,206,207,208,209,210,211,212,213,214,215,216,217,218,219,220,221,222,223,224,225,226,227,228,229,230,231,232,233,234,235,236,237,238,239,240,201,202,203,204,205,206,207,208,209,210,211,212,213,214,215,216,217,218,219,220,
241,242,243,244,245,246,247,248,249,250,251,252,253,254,255,256,257,258,259,260,261,262,263,264,265,266,267,268,269,270,271,272,273,274,275,276,277,278,279,280,241,242,243,244,245,246,247,248,249,250,251,252,253,254,255,256,257,258,259,260,
281,282,283,284,285,286,287,288,289,290,291,292,293,294,295,296,297,298,299,300,301,302,303,304,305,306,307,308,309,310,311,312,313,314,315,316,317,318,319,320,281,282,283,284,285,286,287,288,289,290,291,292,293,294,295,296,297,298,299,300,
321,322,323,324,325,326,327,328,329,330,331,332,333,334,335,336,337,338,339,340,341,342,343,344,345,346,347,348,349,350,351,352,353,354,355,356,357,358,359,360,321,322,323,324,325,326,327,328,329,330,331,332,333,334,335,336,337,338,339,340,
361,362,363,364,365,366,367,368,369,370,371,372,373,374,375,376,377,378,379,380,381,382,383,384,385,386,387,388,389,390,391,392,393,394,395,396,397,398,399,400,361,362,363,364,365,366,367,368,369,370,371,372,373,374,375,376,377,378,379,380,
401,402,403,404,405,406,407,408,409,410,411,412,413,414,415,416,417,418,419,420,421,422,423,424,425,426,427,428,429,430,431,432,433,434,435,436,437,438,439,440,401,402,403,404,405,406,407,408,409,410,411,412,413,414,415,416,417,418,419,420,
441,442,443,444,445,446,447,448,449,450,451,452,453,454,455,456,457,458,459,460,461,462,463,464,465,466,467,468,469,470,471,472,473,474,475,476,477,478,479,480,441,442,443,444,445,446,447,448,449,450,451,452,453,454,455,456,457,458,459,460,
481,482,483,484,485,486,487,488,489,490,491,492,493,494,495,496,497,498,499,500,501,502,503,504,505,506,507,508,509,510,511,512,513,514,515,516,517,518,519,520,481,482,483,484,485,486,487,488,489,490,491,492,493,494,495,496,497,498,499,500,
521,522,523,524,525,526,527,528,529,530,531,532,533,534,535,536,537,538,539,540,541,542,543,544,545,546,547,548,549,550,551,552,553,554,555,556,557,558,559,560,521,522,523,524,525,526,527,528,529,530,531,532,533,534,535,536,537,538,539,540,
561,562,563,564,565,566,567,568,569,570,571,572,573,574,575,576,577,578,579,580,581,582,583,584,585,586,587,588,589,590,591,592,593,594,595,596,597,598,599,600,561,562,563,564,565,566,567,568,569,570,571,572,573,574,575,576,577,578,579,580,
601,602,603,604,605,606,607,608,609,610,611,612,613,614,615,616,617,618,619,620,621,622,623,624,625,626,627,628,629,630,631,632,633,634,635,636,637,638,639,640,601,602,603,604,605,606,607,608,609,610,611,612,613,614,615,616,617,618,619,620,
641,642,643,644,645,646,647,648,649,650,651,652,653,654,655,656,657,658,659,660,661,662,663,664,665,666,667,668,669,670,671,672,673,674,675,676,677,678,679,680,641,642,643,644,645,646,647,648,649,650,651,652,653,654,655,656,657,658,659,660,
681,682,683,684,685,686,687,688,689,690,691,692,693,694,695,696,697,698,699,700,701,702,703,704,705,706,707,708,709,710,711,712,713,714,715,716,717,718,719,720,681,682,683,684,685,686,687,688,689,690,691,692,693,694,695,696,697,698,699,700,
721,722,723,724,725,726,727,728,729,730,731,732,733,734,735,736,737,738,739,740,741,742,743,744,745,746,747,748,749,750,751,752,753,754,755,756,757,758,759,760,721,722,723,724,725,726,727,728,729,730,731,732,733,734,735,736,737,738,739,740,
761,762,763,764,765,766,767,768,769,770,771,772,773,774,775,776,777,778,779,780,781,782,783,784,785,786,787,788,789,790,791,792,793,794,795,796,797,798,799,800,761,762,763,764,765,766,767,768,769,770,771,772,773,774,775,776,777,778,779,780,
801,802,803,804,805,806,807,808,809,810,811,812,813,814,815,816,817,818,819,820,821,822,823,824,825,826,827,828,829,830,831,832,833,834,835,836,837,838,839,840,801,802,803,804,805,806,807,808,809,810,811,812,813,814,815,816,817,818,819,820,
841,842,843,844,845,846,847,848,849,850,851,852,853,854,855,856,857,858,859,860,861,862,863,864,865,866,867,868,869,870,871,872,873,874,875,876,877,878,879,880,841,842,843,844,845,846,847,848,849,850,851,852,853,854,855,856,857,858,859,860,
881,882,883,884,885,886,887,888,889,890,891,892,893,894,895,896,897,898,899,900,901,902,903,904,905,906,907,908,909,910,911,912,913,914,915,916,917,918,919,920,881,882,883,884,885,886,887,888,889,890,891,892,893,894,895,896,897,898,899,900,
921,922,923,924,925,926,927,928,929,930,931,932,933,934,935,936,937,938,939,940,941,942,943,944,945,946,947,948,949,950,951,952,953,954,955,956,957,958,959,960,921,922,923,924,925,926,927,928,929,930,931,932,933,934,935,936,937,938,939,940,
961,962,963,964,965,966,967,968,969,970,971,972,973,974,975,976,977,978,979,980,981,982,983,984,985,986,987,988,989,990,991,992,993,994,995,996,997,998,999,1000,961,962,963,964,965,966,967,968,969,970,971,972,973,974,975,976,977,978,979,980,
1001,1002,1003,1004,1005,1006,1007,1008,1009,1010,1011,1012,1013,1014,1015,1016,1017,1018,1019,1020,1021,1022,1023,1024,1025,1026,1027,1028,1029,1030,1031,1032,1033,1034,1035,1036,1037,1038,1039,1040,1001,1002,1003,1004,1005,1006,1007,1008,1009,1010,1011,1012,1013,1014,1015,1016,1017,1018,1019,1020,
1041,1042,1043,1044,1045,1046,1047,1048,1049,1050,1051,1052,1053,1054,1055,1056,1057,1058,1059,1060,1061,1062,1063,1064,1065,1066,1067,1068,1069,1070,1071,1072,1073,1074,1075,1076,1077,1078,1079,1080,1041,1042,1043,1044,1045,1046,1047,1048,1049,1050,1051,1052,1053,1054,1055,1056,1057,1058,1059,1060,
1081,1082,1083,1084,1085,1086,1087,1088,1089,1090,1091,1092,1093,1094,1095,1096,1097,1098,1099,1100,1101,1102,1103,1104,1105,1106,1107,1108,1109,1110,1111,1112,1113,1114,1115,1116,1117,1118,1119,1120,1081,1082,1083,1084,1085,1086,1087,1088,1089,1090,1091,1092,1093,1094,1095,1096,1097,1098,1099,1100,
1121,1122,1123,1124,1125,1126,1127,1128,1129,1130,1131,1132,1133,1134,1135,1136,1137,1138,1139,1140,1141,1142,1143,1144,1145,1146,1147,1148,1149,1150,1151,1152,1153,1154,1155,1156,1157,1158,1159,1160,1121,1122,1123,1124,1125,1126,1127,1128,1129,1130,1131,1132,1133,1134,1135,1136,1137,1138,1139,1140,
1161,1162,1163,1164,1165,1166,1167,1168,1169,1170,1171,1172,1173,1174,1175,1176,1177,1178,1179,1180,1181,1182,1183,1184,1185,1186,1187,1188,1189,1190,1191,1192,1193,1194,1195,1196,1197,1198,1199,1200,1161,1162,1163,1164,1165,1166,1167,1168,1169,1170,1171,1172,1173,1174,1175,1176,1177,1178,1179,1180,
1201,1202,1203,1204,1205,1206,1207,1208,1209,1210,1211,1212,1213,1214,1215,1216,1217,1218,1219,1220,1221,1222,1223,1224,1225,1226,1227,1228,1229,1230,1231,1232,1233,1234,1235,1236,1237,1238,1239,1240,1201,1202,1203,1204,1205,1206,1207,1208,1209,1210,1211,1212,1213,1214,1215,1216,1217,1218,1219,1220,
1241,1242,1243,1244,1245,1246,1247,1248,1249,1250,1251,1252,1253,1254,1255,1256,1257,1258,1259,1260,1261,1262,1263,1264,1265,1266,1267,1268,1269,1270,1271,1272,1273,1274,1275,1276,1277,1278,1279,1280,1241,1242,1243,1244,1245,1246,1247,1248,1249,1250,1251,1252,1253,1254,1255,1256,1257,1258,1259,1260
</data>
 </layer>
 <layer id="2" name="Terrain" width="60" height="72">
  <data encoding="csv">
0,0,0,0,0,0,0,0,1601,1602,1603,1604,0,0,0,0,0,0,0,0,0,0,0,0,0,0,0,0,0,0,0,0,0,0,0,0,0,0,0,0,0,0,0,0,0,0,0,0,0,0,0,0,0,0,0,0,0,0,0,0,
0,0,0,0,0,0,0,0,1605,2264,2265,1606,0,0,0,0,0,0,0,0,0,0,0,0,0,0,0,0,0,0,0,0,0,0,0,0,0,0,0,0,0,0,0,0,0,0,0,0,0,0,0,0,0,0,0,0,0,0,0,0,
0,0,0,0,0,0,0,0,1607,2304,2305,1608,0,0,0,0,0,0,0,0,0,0,0,0,0,0,0,0,0,0,0,0,0,0,0,0,0,0,0,0,0,0,0,0,0,0,0,0,0,0,0,0,0,0,0,0,0,0,0,0,
0,0,0,0,0,0,0,0,1609,2344,2345,1610,0,0,0,0,0,0,0,0,0,0,0,0,0,0,0,0,0,0,0,0,0,0,0,0,0,0,0,0,0,0,0,0,0,0,0,0,0,0,0,0,0,0,0,0,0,0,0,0,
0,0,0,0,0,0,0,0,1611,2384,2385,1612,0,0,0,0,0,0,0,0,0,0,0,0,0,0,0,0,0,0,0,0,0,0,0,0,0,0,0,0,0,0,0,0,0,0,0,0,0,0,0,0,0,0,0,0,0,0,0,0,
0,0,0,0,0,0,0,0,1613,2424,2425,1614,0,0,0,0,0,0,0,0,0,0,0,0,0,0,0,0,0,0,0,0,0,0,0,0,0,0,0,0,0,0,0,0,0,0,0,0,0,0,0,0,0,0,0,0,0,0,0,0,
0,0,0,0,0,0,0,0,1615,2464,2465,1616,0,0,0,0,0,0,0,0,0,0,0,0,0,0,0,0,0,0,0,0,0,0,0,0,0,0,0,0,0,0,0,0,0,0,0,0,0,0,0,0,0,0,0,0,0,0,0,0,
0,0,0,0,0,0,0,0,1617,2504,2505,1618,0,0,0,0,0,0,0,0,0,0,0,0,0,0,0,0,0,0,0,0,0,0,0,0,0,0,0,0,0,0,0,0,0,0,0,0,0,0,0,0,0,0,0,0,0,0,0,0,
0,0,0,0,0,0,0,0,1619,2544,2545,1620,0,0,0,0,0,0,0,0,0,0,0,0,0,0,0,0,0,0,0,0,0,0,0,0,0,0,0,0,0,0,0,0,0,0,0,0,0,0,0,0,0,0,0,0,0,0,0,0,
0,0,0,0,0,0,0,0,1621,2584,1622,1623,0,0,0,0,0,0,0,0,0,0,0,0,0,0,0,0,0,0,0,0,0,0,0,0,0,0,0,0,0,0,0,0,0,0,0,0,0,0,0,0,0,0,0,0,0,0,0,0,
0,0,0,0,0,0,0,1624,1625,2624,1626,0,0,0,0,0,0,0,0,0,0,0,0,0,0,0,0,0,0,0,0,0,0,0,0,0,0,0,0,0,0,0,0,0,0,0,0,0,0,0,0,0,0,0,0,0,0,0,0,0,
0,0,0,0,0,0,0,1627,2663,2664,1628,0,0,0,0,0,0,0,0,0,0,0,0,0,0,0,0,0,0,0,0,0,0,0,0,0,0,0,0,0,0,0,0,0,0,0,0,0,0,0,0,0,0,0,0,0,0,0,0,0,
0,0,0,0,0,0,0,1629,2703,2704,1630,0,0,0,0,0,0,0,0,0,0,0,0,0,0,0,0,0,0,0,0,0,0,0,0,0,0,0,0,0,0,0,0,0,0,0,0,0,0,0,0,0,0,0,0,0,0,0,0,0,
0,0,0,0,0,0,0,1631,2743,2744,1632,0,0,0,0,0,0,0,0,0,0,0,0,0,0,0,0,0,0,0,0,0,0,0,0,0,0,0,0,0,0,0,0,0,0,0,0,0,0,0,0,0,0,0,0,0,0,0,0,0,
0,0,0,0,0,0,0,1633,2783,2784,1634,0,0,0,0,0,0,0,0,0,0,0,0,0,0,0,0,0,0,0,0,0,0,0,0,0,0,0,0,0,0,0,0,0,0,0,0,0,0,0,0,0,0,0,0,0,0,0,0,0,
0,0,0,0,0,0,0,1635,2823,2824,1636,0,0,0,0,0,0,0,0,0,0,0,0,0,0,0,0,0,0,0,0,0,0,0,0,0,0,0,0,0,0,0,0,0,0,0,0,0,0,0,0,0,0,0,0,0,0,0,0,0,
0,0,0,0,0,0,0,1637,2863,2864,1638,0,0,0,0,0,0,0,0,0,0,0,0,0,0,0,0,0,0,0,0,0,0,0,0,0,0,0,0,0,0,0,0,0,0,0,0,0,0,0,0,0,0,0,0,0,0,0,0,0,
0,0,0,0,0,0,1639,1640,2903,2904,1641,0,0,0,0,0,0,0,0,0,0,0,0,0,0,0,0,0,0,0,0,0,0,0,0,0,0,0,0,0,0,0,0,0,0,0,0,0,0,0,0,0,0,0,0,0,0,0,0,0,
0,0,0,0,0,0,1642,2942,2943,1643,1644,0,0,0,0,0,0,0,0,0,0,0,0,0,0,0,0,0,0,0,0,0,0,0,0,0,0,0,0,0,0,0,0,0,0,0,0,0,0,0,0,0,0,0,0,0,0,0,0,0,
0,0,0,0,0,0,1645,2982,2983,1646,0,0,0,0,0,0,0,0,0,0,0,0,0,0,0,0,0,0,0,0,0,0,0,0,0,0,0,0,0,0,0,0,0,0,0,0,0,0,0,0,0,0,0,0,0,0,0,0,0,0,
0,0,0,0,0,0,1647,3022,3023,1648,0,0,0,0,0,0,0,0,0,0,0,0,0,0,0,0,0,0,0,0,0,0,0,0,0,0,0,0,0,0,0,0,0,0,0,0,0,0,0,0,0,0,0,0,0,0,0,0,0,0,
0,0,0,0,0,0,1649,3062,3063,1650,0,0,0,0,0,0,0,0,0,0,0,0,0,0,0,0,0,0,0,0,0,0,0,0,0,0,0,0,0,0,0,0,0,0,0,0,0,0,0,0,0,0,0,0,0,0,0,0,0,0,
0,0,0,0,0,0,1651,3102,3103,1652,0,0,0,0,0,0,0,0,0,0,0,0,0,0,0,0,0,0,0,0,0,0,0,0,0,0,0,0,0,0,0,0,0,0,0,0,0,0,0,0,0,0,0,0,0,0,0,0,0,0,
0,0,0,0,0,0,1653,3142,3143,1654,0,0,0,0,0,0,0,0,0,0,0,0,0,0,0,0,0,0,0,0,0,0,0,0,0,0,0,0,0,0,0,0,0,0,0,0,0,0,0,0,0,0,0,0,0,0,0,0,0,0,
0,0,0,0,0,0,1655,3182,3183,1656,0,0,0,0,0,0,0,0,0,0,0,0,0,0,0,0,0,0,0,0,0,0,0,0,0,0,0,0,0,0,0,0,0,0,0,0,0,0,0,0,0,0,0,0,0,0,0,0,0,0,
0,0,0,0,0,0,1657,3222,3223,1658,0,0,0,0,0,0,0,0,0,0,0,0,0,0,0,0,0,0,0,0,0,0,0,0,0,0,0,0,0,0,0,0,0,0,0,0,0,0,0,0,0,0,0,0,0,0,0,0,0,0,
0,0,0,0,0,0,1659,1660,3263,1661,1662,0,0,0,0,0,0,0,0,0,0,0,0,0,0,0,0,0,0,0,0,0,0,0,0,0,0,0,0,0,0,0,0,0,0,0,0,0,0,0,0,0,0,0,0,0,0,0,0,0,
0,0,0,0,0,0,0,1663,3303,3304,1664,0,0,0,0,0,0,0,0,0,0,0,0,0,0,0,0,0,0,0,0,0,0,0,0,0,0,0,0,0,0,0,0,0,0,0,0,0,0,0,0,0,0,0,0,0,0,0,0,0,
0,0,0,0,0,0,0,1665,3343,3344,1666,0,0,0,0,0,0,0,0,0,0,0,0,0,0,0,0,0,0,0,0,0,0,0,0,0,0,0,0,0,0,0,0,0,0,0,0,0,0,0,0,0,0,0,0,0,0,0,0,0,
0,0,0,0,0,0,0,1667,3383,3384,1668,0,0,0,0,0,0,0,0,0,0,0,0,0,0,0,0,0,0,0,0,0,0,0,0,0,0,0,0,0,0,0,0,0,0,0,0,0,0,0,0,0,0,0,0,0,0,0,0,0,
0,0,0,0,0,0,0,1669,3423,3424,1670,0,0,0,0,0,0,0,0,0,0,0,0,0,0,0,0,0,0,0,0,0,0,0,0,0,0,0,0,0,0,0,0,0,0,0,0,0,0,0,0,0,0,0,0,0,0,0,0,0,
0,0,0,0,0,0,0,1671,3463,3464,1672,0,0,0,0,0,0,0,0,0,0,0,0,0,0,0,0,0,0,0,0,0,0,0,0,0,0,0,0,0,0,0,0,0,0,0,0,0,0,0,0,0,0,0,0,0,0,0,0,0,
0,0,0,0,0,0,0,1673,3503,3504,1674,0,0,0,0,0,0,0,0,0,0,0,0,0,0,0,0,0,0,0,0,0,0,0,0,0,0,0,0,0,0,0,0,0,0,0,0,0,0,0,0,0,0,0,0,0,0,0,0,0,
0,0,0,0,0,0,0,1675,3543,3544,1676,0,0,0,0,0,0,0,0,0,0,0,0,0,0,0,0,0,0,0,0,0,0,0,0,0,0,0,0,0,0,0,0,0,0,0,0,0,0,0,0,0,0,0,0,0,0,0,0,0,
0,0,0,0,0,0,0,1677,3583,3584,1678,0,0,0,0,0,0,0,0,0,0,0,0,0,0,0,0,0,0,0,0,0,0,0,0,0,0,0,0,0,0,0,0,0,0,0,0,0,0,0,0,0,0,0,0,0,0,0,0,0,
0,0,0,0,0,0,0,1679,3623,3624,1680,0,0,0,0,0,0,0,0,0,0,0,0,0,0,0,0,0,0,0,0,0,0,0,0,0,0,0,0,0,0,0,0,0,0,0,0,0,0,0,0,0,0,0,0,0,0,0,0,0,
0,0,0,0,0,0,0,1681,3663,3664,1682,0,0,0,0,0,0,0,0,0,0,0,0,0,0,0,0,0,0,0,0,0,0,0,0,0,0,0,0,0,0,0,0,0,0,0,0,0,0,0,0,0,0,0,0,0,0,0,0,0,
0,0,0,0,0,0,0,1683,3703,3704,1684,0,0,0,0,0,0,0,0,0,0,0,0,0,0,0,0,0,0,0,0,0,0,0,0,0,0,0,0,0,0,0,0,0,0,0,0,0,0,0,0,0,0,0,0,0,0,0,0,0,
0,0,0,0,0,0,0,1685,3743,3744,1686,0,0,0,0,0,0,0,0,0,0,0,0,0,0,0,0,0,0,0,0,0,0,0,0,0,0,0,0,0,0,0,0,0,0,0,0,0,0,0,0,0,0,0,0,0,0,0,0,0,
0,0,0,0,0,0,0,1687,1688,3784,1689,0,0,0,0,0,0,0,0,0,0,0,0,0,0,0,0,0,0,0,0,0,0,0,0,0,0,0,0,0,0,0,0,0,0,0,0,0,0,0,0,0,0,0,0,0,0,0,0,0,
0,0,0,0,0,0,0,1690,2223,2224,1691,0,0,0,0,0,0,0,0,0,0,0,0,0,0,0,0,0,0,0,0,0,0,0,0,0,0,0,0,0,0,0,0,0,0,0,0,0,0,0,0,0,0,0,0,0,0,0,0,0,
0,0,0,0,0,0,0,1692,2263,2264,1693,0,0,0,0,0,0,0,0,0,0,0,0,0,0,0,0,0,0,0,0,0,0,0,0,0,0,0,0,0,0,0,0,0,0,0,0,0,0,0,0,0,0,0,0,0,0,0,0,0,
0,0,0,0,0,0,0,1694,2303,2304,1695,0,0,0,0,0,0,0,0,0,0,0,0,0,0,0,0,0,0,0,0,0,0,0,0,0,0,0,0,0,0,0,0,0,0,0,0,0,0,0,0,0,0,0,0,0,0,0,0,0,
0,0,0,0,0,0,0,1696,2343,2344,1697,0,0,0,0,0,0,0,0,0,0,0,0,0,0,0,0,0,0,0,0,0,0,0,0,0,0,0,0,0,0,0,0,0,0,0,0,0,0,0,0,0,0,0,0,0,0,0,0,0,
0,0,0,0,0,0,0,1698,2383,2384,1699,0,0,0,0,0,0,0,0,0,0,0,0,0,0,0,0,0,0,0,0,0,0,0,0,0,0,0,0,0,0,0,0,0,0,0,0,0,0,0,0,0,0,0,0,0,0,0,0,0,
0,0,0,0,0,0,0,1700,2423,2424,1701,0,0,0,0,0,0,0,0,0,0,0,0,0,0,0,0,0,0,0,0,0,0,0,0,0,0,0,0,0,0,0,0,0,0,0,0,0,0,0,0,0,0,0,0,0,0,0,0,0,
0,0,0,0,0,0,0,1702,2463,2464,1703,0,0,0,0,0,0,0,0,0,0,0,0,0,0,0,0,0,0,0,0,0,0,0,0,0,0,0,0,0,0,0,0,0,0,0,0,0,0,0,0,0,0,0,0,0,0,0,0,0,
0,0,0,0,0,0,0,1704,2503,2504,1705,0,0,0,0,0,0,0,0,0,0,0,0,0,0,0,0,0,0,0,0,0,0,0,0,0,0,0,0,0,0,0,0,0,0,0,0,0,0,0,0,0,0,0,0,0,0,0,0,0,
0,0,0,0,0,0,0,1706,2543,1707,1708,0,0,0,0,0,0,0,0,0,0,0,0,0,0,0,0,0,0,0,0,0,0,0,0,0,0,0,0,0,0,0,0,0,0,0,0,0,0,0,0,0,0,0,0,0,0,0,0,0,
0,0,0,0,0,0,0,1709,2583,1710,1711,0,0,0,0,0,0,0,0,0,0,0,0,0,0,0,0,0,0,0,0,0,0,0,0,0,0,0,0,0,0,0,0,0,0,0,0,0,0,0,0,0,0,0,0,0,0,0,0,0,
0,0,0,0,0,0,0,1712,1713,2624,1714,1715,0,0,0,0,0,0,0,0,0,0,0,0,0,0,0,0,0,0,0,0,0,0,0,0,0,0,0,0,0,0,0,0,0,0,0,0,0,0,0,0,0,0,0,0,0,0,0,0,
0,0,0,0,0,0,0,0,1716,2664,2665,1717,0,0,0,0,0,0,0,0,0,0,0,0,0,0,0,0,0,0,0,0,0,0,0,0,0,0,0,0,0,0,0,0,0,0,0,0,0,0,0,0,0,0,0,0,0,0,0,0,
0,0,0,0,0,0,0,0,1718,2704,2705,1719,0,0,0,0,0,0,0,0,0,0,0,0,0,0,0,0,0,0,0,0,0,0,0,0,0,0,0,0,0,0,0,0,0,0,0,0,0,0,0,0,0,0,0,0,0,0,0,0,
0,0,0,0,0,0,0,0,1720,2744,2745,1721,0,0,0,0,0,0,0,0,0,0,0,0,0,0,0,0,0,0,0,0,0,0,0,0,0,0,0,0,0,0,0,0,0,0,0,0,0,0,0,0,0,0,0,0,0,0,0,0,
0,0,0,0,0,0,0,0,1722,1723,2785,1724,1725,0,0,0,0,0,0,0,0,0,0,0,0,0,0,0,0,0,0,0,0,0,0,0,0,0,0,0,0,0,0,0,0,0,0,0,0,0,0,0,0,0,0,0,0,0,0,0,
0,0,0,0,0,0,0,0,0,1726,2825,2826,1727,0,0,0,0,0,0,0,0,0,0,0,0,0,0,0,0,0,0,0,0,0,0,0,0,0,0,0,0,0,0,0,0,0,0,0,0,0,0,0,0,0,0,0,0,0,0,0,
0,0,0,0,0,0,0,0,0,1728,2865,2866,1729,0,0,0,0,0,0,0,0,0,0,0,0,0,0,0,0,0,0,0,0,0,0,0,0,0,0,0,0,0,0,0,0,0,0,0,0,0,0,0,0,0,0,0,0,0,0,0,
0,0,0,0,0,0,0,0,0,1730,2905,2906,1731,1732,1733,1734,0,0,0,0,0,0,0,0,0,0,0,0,0,0,0,0,0,0,0,0,0,0,0,0,0,0,0,0,0,0,0,0,0,0,0,0,0,0,0,0,0,0,0,0,
0,0,0,0,0,0,0,0,0,1735,2945,2946,2947,2948,2949,1736,1737,1738,0,0,0,0,0,0,0,0,0,0,0,0,0,0,0,0,0,0,0,0,0,0,0,0,0,0,0,0,0,0,0,0,0,0,0,0,0,0,0,0,0,0,
0,0,0,0,0,0,0,0,0,1739,2985,2986,2987,2988,2989,2990,2991,1740,1741,0,0,0,0,0,0,0,0,0,0,0,0,0,0,0,0,0,0,0,0,0,0,0,0,0,0,0,0,0,0,0,0,0,0,0,0,0,0,0,0,0,
0,0,0,0,0,0,0,0,1742,1743,3025,3026,3027,3028,3029,3030,3031,3032,1744,0,0,0,0,0,0,0,0,0,0,0,0,0,0,0,0,0,0,0,0,0,0,0,0,0,0,0,0,0,0,0,0,0,0,0,0,0,0,0,0,0,
0,0,0,0,0,0,0,0,1745,1746,3065,3066,3067,3068,3069,3070,3071,3072,1747,0,0,0,0,0,0,0,0,0,0,0,0,0,0,0,0,0,0,0,0,0,0,0,0,0,0,0,0,0,0,0,0,0,0,0,0,0,0,0,0,0,
0,0,0,0,0,0,0,0,0,1748,3105,3106,3107,3108,3109,3110,1749,1750,1751,0,0,0,0,0,0,0,0,0,0,0,0,0,0,0,0,0,0,0,0,0,0,0,0,0,0,0,0,0,0,0,0,0,0,0,0,0,0,0,0,0,
0,0,0,0,0,0,0,0,0,1752,3145,3146,3147,3148,3149,3150,1753,1754,0,0,0,0,0,0,0,0,0,0,0,0,0,0,0,0,0,0,0,0,0,0,0,0,0,0,0,0,0,0,0,0,0,0,0,0,0,0,0,0,0,0,
0,0,0,0,0,0,0,0,0,1755,3185,3186,1756,1757,1758,1759,1760,0,0,0,0,0,0,0,0,0,0,0,0,0,0,0,0,0,0,0,0,0,0,0,0,0,0,0,0,0,0,0,0,0,0,0,0,0,0,0,0,0,0,0,
0,0,0,0,0,0,0,0,0,1761,3225,3226,1762,0,0,0,0,0,0,0,0,0,0,0,0,0,0,0,0,0,0,0,0,0,0,0,0,0,0,0,0,0,0,0,0,0,0,0,0,0,0,0,0,0,0,0,0,0,0,0,
0,0,0,0,0,0,0,0,0,1763,3265,1764,1765,0,0,0,0,0,0,0,0,0,0,0,0,0,0,0,0,0,0,0,0,0,0,0,0,0,0,0,0,0,0,0,0,0,0,0,0,0,0,0,0,0,0,0,0,0,0,0,
0,0,0,0,0,0,0,0,1766,1767,3305,1768,0,0,0,0,0,0,0,0,0,0,0,0,0,0,0,0,0,0,0,0,0,0,0,0,0,0,0,0,0,0,0,0,0,0,0,0,0,0,0,0,0,0,0,0,0,0,0,0,
0,0,0,0,0,0,0,0,1769,3344,3345,1770,0,0,0,0,0,0,0,0,0,0,0,0,0,0,0,0,0,0,0,0,0,0,0,0,0,0,0,0,0,0,0,0,0,0,0,0,0,0,0,0,0,0,0,0,0,0,0,0,
0,0,0,0,0,0,0,0,1771,3384,3385,1772,0,0,0,0,0,0,0,0,0,0,0,0,0,0,0,0,0,0,0,0,0,0,0,0,0,0,0,0,0,0,0,0,0,0,0,0,0,0,0,0,0,0,0,0,0,0,0,0,
0,0,0,0,0,0,0,0,1773,3424,3425,1774,0,0,0,0,0,0,0,0,0,0,0,0,0,0,0,0,0,0,0,0,0,0,0,0,0,0,0,0,0,0,0,0,0,0,0,0,0,0,0,0,0,0,0,0,0,0,0,0,
0,0,0,0,0,0,0,0,1775,1776,1777,1778,0,0,0,0,0,0,0,0,0,0,0,0,0,0,0,0,0,0,0,0,0,0,0,0,0,0,0,0,0,0,0,0,0,0,0,0,0,0,0,0,0,0,0,0,0,0,0,0
</data>
 </layer>
 <layer id="3" name="Overlay" width="60" height="72">
  <data encoding="csv">
0,0,0,0,0,0,0,0,0,0,0,0,0,0,0,0,0,0,0,0,0,0,0,0,0,0,0,0,0,0,0,0,0,0,0,0,0,0,0,0,0,0,0,0,0,0,0,0,0,0,0,0,0,0,0,0,0,0,0,0,
0,0,0,0,0,0,0,0,0,0,0,0,0,0,0,0,0,0,0,0,0,0,0,0,0,0,0,0,0,0,0,0,0,0,0,0,0,0,0,0,0,0,0,0,0,0,0,0,0,0,0,0,0,0,0,0,0,0,0,0,
0,0,0,0,0,0,0,0,0,0,0,0,0,0,0,0,0,0,0,0,0,0,0,0,0,0,0,0,0,0,0,0,0,0,0,0,0,0,0,0,0,0,0,0,0,0,0,0,0,0,0,0,0,0,0,0,0,0,0,0,
0,0,0,0,0,0,0,0,0,0,0,0,0,0,0,0,0,0,0,0,0,0,0,0,0,0,0,0,0,0,0,0,0,0,0,0,0,0,0,0,0,0,0,0,0,0,0,0,0,0,0,0,0,0,0,0,0,0,0,0,
0,0,0,0,0,0,0,0,0,0,0,0,0,0,0,0,0,0,0,0,0,0,0,0,0,0,0,0,0,0,0,0,0,0,0,0,0,0,0,0,0,0,0,0,0,0,0,0,0,0,0,0,0,0,0,0,0,0,0,0,
0,0,0,0,0,0,0,0,0,0,0,0,0,0,0,0,0,0,0,0,0,0,0,0,0,0,0,0,0,0,0,0,0,0,0,0,0,0,0,0,0,0,0,0,0,0,0,0,0,0,0,0,0,0,0,0,0,0,0,0,
0,0,0,0,0,0,0,0,0,0,0,0,0,0,0,0,0,0,0,0,0,0,0,0,0,0,0,0,0,0,0,0,0,0,0,0,0,0,0,0,0,0,0,0,0,0,0,0,0,0,0,0,0,0,0,0,0,0,0,0,
0,0,0,0,0,0,0,0,0,0,0,0,0,0,0,0,0,0,0,0,0,0,0,0,0,0,0,0,0,0,0,0,0,0,0,0,0,0,0,0,0,0,0,0,0,0,0,0,0,0,0,0,0,0,0,0,0,0,0,0,
0,0,0,0,0,0,0,0,0,0,0,0,0,0,0,0,0,0,0,0,0,0,0,0,0,0,0,0,0,0,0,0,0,0,0,0,0,0,0,0,0,0,0,0,0,0,0,0,0,0,0,0,0,0,0,0,0,0,0,0,
0,0,0,0,0,0,0,0,0,0,0,0,0,0,0,0,0,0,0,0,0,0,0,0,0,0,0,0,0,0,0,0,0,0,0,0,0,0,0,0,0,0,0,0,0,0,0,0,0,0,0,0,0,0,0,0,0,0,0,0,
0,0,0,0,0,0,0,0,0,0,0,0,0,0,0,0,0,0,0,0,0,0,0,0,0,0,0,0,0,0,0,0,0,0,0,0,0,0,0,0,0,0,0,0,0,0,0,0,0,0,0,0,0,0,0,0,0,0,0,0,
0,0,0,0,0,0,0,0,0,0,0,0,0,0,0,0,0,0,0,0,0,0,0,0,0,0,0,0,0,0,0,0,0,0,0,0,0,0,0,0,0,0,0,0,0,0,0,0,0,0,0,0,0,0,0,0,0,0,0,0,
0,0,0,0,0,0,0,0,0,0,0,0,0,0,0,0,0,0,0,0,0,0,0,0,0,0,0,0,0,0,0,0,0,0,0,0,0,0,0,0,0,0,0,0,0,0,0,0,0,0,0,0,0,0,0,0,0,0,0,0,
0,0,0,0,0,0,0,0,0,0,0,0,0,0,0,0,0,0,0,0,0,0,0,0,0,0,0,0,0,0,0,0,0,0,0,0,0,0,0,0,0,0,0,0,0,0,0,0,0,0,0,0,0,0,0,0,0,0,0,0,
0,0,0,0,0,0,0,0,0,0,0,0,0,0,0,0,0,0,0,0,0,0,0,0,0,0,0,0,0,0,0,0,0,0,0,0,0,0,0,0,0,0,0,0,0,0,0,0,0,0,0,0,0,0,0,0,0,0,0,0,
0,0,0,0,0,0,0,0,0,0,0,0,0,0,0,0,0,0,0,0,0,0,0,0,0,0,0,0,0,0,0,0,0,0,0,0,0,0,0,0,0,0,0,0,0,0,0,0,0,0,0,0,0,0,0,0,0,0,0,0,
0,0,0,0,0,0,0,0,0,0,0,0,0,0,0,0,0,0,0,0,0,0,0,0,0,0,0,0,0,0,0,0,0,0,0,0,0,0,0,0,0,0,0,0,0,0,0,1779,1780,0,0,0,0,0,0,0,0,0,0,0,
0,0,0,0,0,0,0,0,0,0,0,0,0,1781,1782,1783,0,0,0,0,0,0,0,0,0,0,0,0,0,0,0,0,0,0,0,0,0,0,0,0,0,0,0,0,0,0,0,1784,1785,0,0,0,0,0,0,0,0,0,0,0,
0,0,0,0,0,0,0,0,0,0,0,0,0,1786,1787,1788,0,0,0,0,0,0,0,0,0,0,0,0,0,0,0,0,0,0,0,0,0,0,0,0,0,0,0,0,0,0,0,1789,1790,0,0,0,0,0,0,0,0,0,0,0,
0,0,0,0,0,0,0,0,0,0,0,0,0,1791,1792,1793,0,0,0,0,0,0,0,0,0,0,0,0,0,0,0,0,0,0,0,0,0,0,0,0,0,0,0,0,0,0,0,1794,1795,0,0,0,0,0,0,0,0,0,0,0,
0,0,0,0,0,0,0,0,0,0,0,0,0,1796,1797,1798,0,0,0,0,0,0,0,0,0,0,0,0,0,0,0,0,0,0,0,0,0,0,0,0,0,0,0,0,0,0,0,1799,1800,0,0,0,0,1801,1802,0,0,0,0,0,
0,0,0,0,0,0,0,0,0,0,0,0,0,1803,1804,0,0,0,0,0,0,0,1805,1806,1807,0,1808,0,0,0,0,1809,0,0,0,0,0,0,0,0,0,0,0,0,0,0,0,1810,1811,0,0,0,0,1812,1813,0,0,0,0,0,
0,0,0,0,0,0,0,0,0,0,0,0,0,1814,1815,0,0,0,0,0,0,0,1816,1817,1818,1819,1820,1821,0,0,1822,1823,1824,0,0,0,1825,1826,1827,0,0,0,0,0,0,0,0,1828,1829,1830,1831,1832,1833,1834,1835,0,0,0,0,0,
0,0,0,0,0,0,0,0,0,0,0,0,0,1836,1837,0,0,0,0,0,0,0,1838,1817,1839,1840,1841,1842,0,0,1843,1844,1845,0,0,0,1846,1847,1848,0,0,0,0,0,0,0,0,1849,1850,1851,1852,1853,1854,1855,1856,0,0,0,0,0,
0,0,0,0,0,0,0,0,0,0,0,0,0,1857,1858,1859,0,0,0,1860,1861,1862,1863,1817,1817,1817,1817,1864,1865,1866,1867,1868,1869,0,0,0,1870,1871,1872,0,0,0,0,0,0,0,0,1873,1874,0,0,0,0,0,0,0,0,0,0,0,
0,0,0,0,0,0,0,0,0,0,0,0,0,1875,1876,1877,0,0,1878,1879,1880,1817,1817,1817,1817,1817,1817,1817,1817,1817,1881,1882,1883,0,0,0,1884,1885,1886,0,0,0,0,0,0,0,0,1887,1888,0,0,0,0,0,0,0,0,0,0,0,
0,0,0,0,0,0,0,0,0,0,0,0,0,0,1889,1890,1891,0,1892,1893,1817,1817,1817,1817,1817,1817,1817,1817,1817,1817,1894,1895,1896,1897,1898,1899,1900,1901,1902,1903,1904,1905,1906,1907,1908,1909,1910,1911,1912,0,0,0,0,0,0,0,0,0,0,0,
0,0,0,0,0,0,0,0,0,0,0,0,0,0,1913,1914,1915,1827,1916,1917,1817,1817,1817,1817,1817,1817,1817,1817,1817,1817,1817,1817,1817,1817,1918,1919,1920,1817,1817,1817,1817,1921,1922,1923,1817,1817,1817,1817,1924,1925,0,0,0,0,0,0,0,0,0,0,
0,0,0,0,0,0,0,0,0,0,0,0,0,0,0,1926,1817,1927,1928,1929,1930,1817,1817,1931,1932,1933,1934,1935,1936,1937,1938,1939,1940,1941,1942,1943,1944,1945,1946,1817,1947,1948,1949,1950,1951,1952,1953,1954,1955,1956,0,0,0,0,0,0,0,0,0,0,
0,0,0,0,0,0,0,0,0,0,0,0,0,0,0,1957,1958,1959,1960,1817,1961,1962,1963,1964,1965,1966,1967,0,0,0,0,0,0,0,0,0,0,1968,1969,1970,1971,1972,1973,1974,0,0,0,0,0,0,0,0,0,0,0,0,0,0,0,0,
0,0,0,0,0,0,0,0,0,0,0,0,0,0,0,0,1975,1817,1976,1977,1978,0,0,0,1979,1980,1981,1982,0,0,0,0,0,0,0,0,0,0,0,0,0,0,0,0,0,0,0,0,0,0,0,0,0,0,0,0,0,0,0,0,
0,0,0,0,0,0,0,0,0,0,0,0,0,0,0,1983,1984,1985,1986,1987,0,0,0,0,1988,1989,1990,0,0,0,0,0,0,0,0,0,0,0,0,0,0,0,0,0,0,0,0,0,0,0,0,0,0,0,0,0,0,0,0,0,
0,0,0,0,0,0,0,0,0,0,0,0,0,1991,1992,1993,1994,1995,0,0,0,0,0,0,1996,1933,1997,0,0,0,0,0,0,0,0,0,0,0,0,0,0,0,0,0,0,0,0,0,0,0,0,0,0,0,0,0,0,0,0,0,
0,0,0,0,0,0,0,0,0,0,1998,1999,2000,2001,1817,1976,2002,0,0,0,0,0,0,0,2003,1817,2004,0,0,0,0,0,0,0,0,0,0,0,0,0,0,0,0,0,0,0,0,0,0,0,0,0,0,0,0,0,0,0,0,0,
2005,2006,2007,2008,2009,2010,2011,2012,2013,2014,2015,2016,2017,1817,2018,2019,2020,0,0,0,0,0,0,0,2021,1817,2022,0,0,0,0,0,0,0,0,0,0,0,0,0,0,0,0,0,0,0,0,0,0,0,0,0,0,0,0,0,0,0,0,0,
2023,2024,2025,2026,2027,2028,2029,2030,2031,2032,2033,2034,2035,2036,2037,2038,0,0,0,0,0,0,0,0,2039,2040,2041,0,0,0,0,0,0,0,0,0,0,0,0,0,0,0,0,0,0,0,0,0,0,0,0,0,0,0,0,0,0,0,0,0,
2042,0,0,0,0,0,0,0,0,0,2043,2044,2045,2046,0,0,0,0,0,0,0,0,0,2047,2048,2049,1956,0,0,0,0,0,0,0,0,0,0,0,0,0,0,0,0,0,0,0,0,0,0,0,0,0,0,0,0,0,0,0,0,0,
0,0,0,0,0,0,0,0,0,0,0,0,0,0,0,0,0,0,0,0,0,0,0,2050,1817,2051,2052,0,0,0,0,0,0,0,0,0,0,0,0,0,0,0,0,0,0,0,0,0,0,0,0,0,0,0,0,0,0,0,0,0,
0,0,0,0,0,0,0,0,0,0,0,0,0,0,0,0,0,0,0,0,0,0,0,2053,1817,2054,2055,0,0,0,0,0,0,0,0,0,0,0,0,0,0,0,0,0,0,0,0,0,0,0,0,0,0,0,0,0,0,0,0,0,
0,0,0,0,0,0,0,0,0,0,0,0,0,0,0,0,0,0,0,0,0,0,0,2056,1817,2057,2058,0,0,0,0,0,0,0,0,0,0,0,0,0,0,0,0,0,0,0,0,0,0,0,0,0,0,0,0,0,0,0,0,0,
0,0,0,0,0,0,0,0,0,0,0,0,0,0,0,0,0,0,0,0,0,0,0,2059,1817,2060,2061,0,0,0,0,0,0,0,0,0,0,0,0,0,0,0,0,0,0,0,0,0,0,0,0,0,0,0,0,0,0,0,0,0,
0,0,0,0,0,0,0,0,0,0,0,0,0,0,0,0,0,0,0,0,0,0,0,2062,2063,2064,2065,0,0,0,0,0,0,0,0,0,0,0,0,0,0,0,0,0,0,0,0,0,0,0,0,0,0,0,0,0,0,0,0,0,
0,0,0,0,0,0,0,0,0,0,0,0,0,0,0,0,0,0,0,0,0,0,0,0,2066,1817,2067,0,0,0,0,0,0,0,0,0,0,0,0,0,0,0,0,0,0,0,0,0,0,0,0,0,0,0,0,0,0,0,0,0,
0,0,0,0,0,0,0,0,0,0,0,0,0,0,0,0,0,0,0,0,0,0,0,0,2068,1817,2069,0,0,0,0,0,0,0,0,0,0,0,0,0,0,0,0,0,0,0,0,0,0,0,0,0,0,0,0,0,0,0,0,0,
0,0,0,0,0,0,0,0,0,0,0,0,0,0,0,0,0,0,0,0,0,0,0,0,2070,1817,2071,0,0,0,0,0,0,0,0,0,0,0,0,0,0,0,0,0,0,0,0,0,0,0,0,0,0,0,0,0,0,0,0,0,
0,0,0,0,0,0,0,0,0,0,0,0,0,0,0,0,0,0,0,0,0,0,0,0,2072,2073,2074,2075,0,0,0,0,0,0,0,0,0,0,0,0,0,2076,2077,2078,0,0,0,0,0,0,0,0,0,0,0,0,0,0,0,0,
0,0,0,0,0,0,0,0,0,0,0,0,0,0,0,0,0,0,0,0,0,0,0,0,0,2079,1817,2080,0,0,0,0,0,0,0,0,0,0,0,0,0,2081,1817,2082,2083,0,0,0,0,0,0,0,0,0,0,0,0,0,0,0,
0,0,0,0,0,0,0,0,0,0,0,0,0,0,0,0,0,0,0,0,0,0,0,0,0,2084,2085,2086,0,0,0,0,0,0,0,0,0,0,0,0,0,2087,1817,1817,2088,2089,2090,2091,0,0,0,0,0,0,0,0,0,0,0,0,
0,0,0,0,0,0,0,0,0,0,0,0,0,0,0,0,0,0,0,0,0,0,0,0,0,0,2092,2093,2094,0,0,0,0,0,0,0,0,0,0,0,0,2095,1817,1817,1817,1817,1817,2096,0,0,0,0,0,0,0,0,0,0,0,0,
0,0,0,0,0,0,0,0,0,0,0,0,0,0,0,0,0,0,0,0,0,0,0,0,0,0,2097,1817,2098,0,0,0,0,0,0,0,0,0,0,0,0,2099,1817,1817,1817,1817,1817,2100,2101,0,0,0,0,0,0,0,0,0,0,0,
0,0,0,0,0,0,0,0,0,0,0,0,0,0,0,0,0,0,0,0,0,0,0,0,0,0,2102,1817,2103,0,0,0,0,0,0,0,0,0,0,0,2104,2105,1817,1817,1817,1817,1817,1817,2106,0,0,0,0,0,0,0,0,0,0,0,
0,0,0,0,0,0,0,0,0,0,0,0,0,0,0,0,0,0,0,0,0,0,0,0,0,0,2107,1817,2108,0,0,0,0,0,0,0,0,0,0,0,2109,1817,1817,1817,1817,1817,1817,1817,2110,0,0,0,0,0,0,0,0,0,0,0,
0,0,0,0,0,0,0,0,0,0,0,0,0,0,0,0,0,0,0,0,0,0,0,0,0,2111,2112,1817,2113,0,0,0,0,0,0,0,0,0,0,0,2114,2115,1817,1817,1817,1817,1817,1817,2116,0,0,0,0,0,0,0,0,0,0,0,
0,0,0,0,0,0,0,0,0,0,0,0,0,0,0,0,0,0,0,0,0,0,0,0,0,2117,1817,2118,2119,0,0,0,0,0,0,0,0,0,0,0,2120,2121,1817,1817,1817,1817,1817,1817,2122,0,0,0,0,0,0,0,0,0,0,0,
0,0,0,0,0,0,0,0,0,0,0,0,0,0,0,0,0,0,0,0,0,0,0,0,0,2123,1817,2124,2038,0,0,0,0,0,0,0,0,0,0,0,0,2125,1817,1817,1976,2126,2127,2128,2129,0,0,0,0,0,0,0,0,0,0,0,
0,0,0,0,0,0,0,0,0,0,0,0,0,0,0,0,0,0,0,0,0,0,0,0,0,2130,1817,2131,0,0,0,0,0,0,0,0,0,0,0,0,0,2132,1817,1817,2133,2134,0,0,0,0,0,0,0,0,0,0,0,0,0,0,
0,0,0,0,0,0,0,0,0,0,0,0,0,0,0,0,0,0,0,0,0,0,0,0,0,2135,1817,2136,0,0,0,0,0,0,0,0,0,0,0,0,0,2137,2115,2138,2139,0,0,0,0,0,0,0,0,0,0,0,0,0,0,0,
0,0,0,0,0,0,0,0,0,0,0,0,0,0,0,0,0,0,0,0,0,0,0,0,0,2140,1817,2141,2142,0,0,0,0,0,0,0,0,0,0,0,0,2143,2144,2145,2146,0,0,0,0,0,0,0,0,0,0,0,0,0,0,0,
0,0,0,0,0,0,0,0,0,0,0,0,0,0,0,0,0,0,0,0,0,0,0,0,0,2147,1817,2148,2149,2150,2151,1783,0,0,2152,2153,2154,2155,2156,2157,2158,2159,2160,2161,2162,0,0,0,0,0,0,0,0,0,0,0,0,0,0,0,
0,0,0,0,0,0,0,0,0,0,0,0,0,0,0,0,0,0,0,0,0,0,0,0,0,2163,2164,2165,2166,2167,2168,2169,2170,2171,2172,2173,2174,2175,2176,2177,2178,2179,2180,0,0,0,0,0,0,0,0,0,0,0,0,0,0,0,0,0,
0,0,0,0,0,0,0,0,0,0,0,0,0,0,0,0,0,0,0,0,0,0,0,0,0,0,2181,2182,2183,0,2184,2185,2186,2187,2188,2189,2190,2191,0,0,0,0,0,0,0,0,0,0,0,0,0,0,0,0,0,0,0,0,0,0,
0,0,0,0,0,0,0,0,0,0,0,0,0,0,0,0,0,0,0,0,0,0,0,0,0,0,2192,2193,2194,0,0,0,0,0,0,0,0,0,0,0,0,0,0,0,0,0,0,0,0,0,0,0,0,0,0,0,0,0,0,0,
0,0,0,0,0,0,0,0,0,0,0,0,0,0,0,0,0,0,0,0,0,0,0,0,0,0,2195,1817,2196,0,0,0,0,0,0,0,0,0,0,0,0,0,0,0,0,0,0,0,0,0,0,0,0,0,0,0,0,0,0,0,
0,0,0,0,0,0,0,0,0,0,0,0,0,0,0,0,0,0,0,0,0,0,0,0,0,0,2197,1817,2198,0,0,0,0,0,0,0,0,0,0,0,0,0,0,0,0,0,0,0,0,0,0,0,0,0,0,0,0,0,0,0,
0,0,0,0,0,0,0,0,0,0,0,0,0,0,0,0,0,0,0,0,0,0,0,0,0,0,2199,1817,2200,0,0,0,0,0,0,0,0,0,0,0,0,0,0,0,0,0,0,0,0,0,0,0,0,0,0,0,0,0,0,0,
0,0,0,0,0,0,0,0,0,0,0,0,0,0,0,0,0,0,0,0,0,0,0,0,0,0,2201,1817,2202,0,0,0,0,0,0,0,0,0,0,0,0,0,0,0,0,0,0,0,0,0,0,0,0,0,0,0,0,0,0,0,
0,0,0,0,0,0,0,0,0,0,0,0,0,0,0,0,0,0,0,0,0,0,0,0,0,0,2203,1817,2204,0,0,0,0,0,0,0,0,0,0,0,0,0,0,0,0,0,0,0,0,0,0,0,0,0,0,0,0,0,0,0,
0,0,0,0,0,0,0,0,0,0,0,0,0,0,0,0,0,0,0,0,0,0,0,0,0,0,2205,1817,2206,0,0,0,0,0,0,0,0,0,0,0,0,0,0,0,0,0,0,0,0,0,0,0,0,0,0,0,0,0,0,0,
0,0,0,0,0,0,0,0,0,0,0,0,0,0,0,0,0,0,0,0,0,0,0,0,0,0,2207,1817,2208,0,0,0,0,0,0,0,0,0,0,0,0,0,0,0,0,0,0,0,0,0,0,0,0,0,0,0,0,0,0,0,
0,0,0,0,0,0,0,0,0,0,0,0,0,0,0,0,0,0,0,0,0,0,0,0,0,0,2209,1817,2210,0,0,0,0,0,0,0,0,0,0,0,0,0,0,0,0,0,0,0,0,0,0,0,0,0,0,0,0,0,0,0,
0,0,0,0,0,0,0,0,0,0,0,0,0,0,0,0,0,0,0,0,0,0,0,0,0,0,2211,1817,2212,0,0,0,0,0,0,0,0,0,0,0,0,0,0,0,0,0,0,0,0,0,0,0,0,0,0,0,0,0,0,0,
0,0,0,0,0,0,0,0,0,0,0,0,0,0,0,0,0,0,0,0,0,0,0,0,0,0,2213,1817,2214,0,0,0,0,0,0,0,0,0,0,0,0,0,0,0,0,0,0,0,0,0,0,0,0,0,0,0,0,0,0,0
</data>
 </layer>
 <layer id="4" name="Decor" width="60" height="72">
  <data encoding="csv">
0,0,0,0,0,0,0,0,0,0,0,0,0,0,0,0,0,0,0,0,0,0,0,0,0,0,0,0,0,0,0,0,0,0,0,0,0,0,0,0,0,0,0,0,0,0,0,0,0,0,0,0,0,0,0,0,0,0,0,0,
0,0,0,0,0,0,0,0,0,0,0,0,0,0,0,0,0,0,0,0,0,0,0,0,0,0,0,0,0,0,0,0,0,0,0,0,0,0,0,0,0,0,0,0,0,0,0,0,0,0,0,0,0,0,0,0,0,0,0,0,
0,0,0,0,0,0,0,0,0,0,0,0,0,0,0,0,0,0,0,0,0,0,0,0,0,0,0,0,0,0,0,0,0,0,0,0,0,0,0,0,0,0,0,0,0,0,0,0,0,0,0,0,0,0,0,0,0,0,0,0,
0,0,0,0,0,0,0,0,0,0,0,0,0,0,0,0,0,0,0,0,0,0,0,0,0,0,0,0,0,0,0,0,0,0,0,0,0,0,0,0,0,0,5620,0,0,0,0,0,0,0,5570,0,0,0,0,0,5608,0,0,0,
0,0,0,0,0,0,0,0,0,0,0,0,0,0,0,0,0,0,0,0,0,0,0,0,0,0,0,0,0,0,0,0,0,0,0,0,0,0,0,0,0,0,0,0,0,0,0,0,5597,0,0,0,0,0,0,0,0,0,0,0,
0,0,0,0,0,0,0,0,0,0,0,0,0,0,0,0,0,0,0,0,0,0,0,0,0,0,0,0,5592,0,0,5592,0,0,0,0,0,0,0,0,0,0,0,0,0,0,5591,0,0,0,0,0,0,0,0,0,0,0,0,0,
0,0,0,0,5608,0,0,0,0,0,0,0,0,0,0,0,0,0,0,0,0,0,0,0,0,0,5568,0,0,0,0,0,0,0,0,0,0,0,0,0,0,0,0,0,0,5608,0,5597,0,0,0,0,0,0,0,0,0,0,0,0,
0,0,0,0,0,0,5572,0,0,0,0,0,0,0,0,0,0,0,5570,0,0,0,0,0,0,0,0,0,0,0,0,5614,0,0,5608,0,5608,0,0,0,0,5620,0,0,0,0,0,0,0,0,0,0,0,0,0,5606,0,0,0,0,
0,0,0,0,0,0,0,0,0,0,0,0,0,5561,0,0,0,0,0,0,5596,0,0,0,0,0,0,5570,0,0,0,0,0,0,0,0,0,0,0,5563,0,0,0,0,0,0,0,0,0,0,0,0,0,0,0,0,0,5569,0,0,
0,0,0,0,0,0,0,0,0,0,0,0,0,0,5559,0,0,0,0,0,0,5591,0,0,0,0,0,0,0,0,0,0,0,5572,0,0,0,0,5567,0,0,0,0,0,0,0,0,0,5620,0,0,0,0,0,5616,0,0,0,0,0,
0,0,0,0,0,0,5614,0,0,0,0,0,0,0,0,0,0,0,0,0,0,5561,0,0,5592,0,0,0,5561,0,5569,0,0,0,0,5592,0,0,0,0,0,0,0,0,0,0,0,0,0,0,0,0,0,0,0,0,5614,0,0,0,
0,0,0,0,0,0,0,0,0,0,0,0,0,0,0,0,0,0,0,0,0,0,5596,0,0,0,5606,0,0,0,0,0,0,0,5570,0,0,0,0,0,5558,0,0,0,0,0,0,5606,0,0,0,0,0,0,0,0,0,5616,0,0,
0,0,0,0,5591,0,0,0,0,0,0,0,0,0,0,0,0,0,5597,0,0,0,5606,0,5591,0,5608,0,5592,0,0,5559,0,0,0,0,0,0,0,0,0,0,5597,0,0,5559,0,0,0,0,0,0,0,0,5592,0,0,0,0,0,
0,0,0,0,0,0,0,0,0,0,0,0,0,0,5591,0,5601,0,0,0,5591,0,0,0,5614,0,0,5597,0,0,0,0,0,0,0,0,5591,0,0,5591,5559,0,0,0,0,0,0,0,0,0,0,0,0,0,0,5567,0,0,0,0,
0,0,0,0,0,0,0,0,0,0,0,0,0,0,0,0,0,0,0,0,0,0,0,0,0,0,0,0,0,0,0,0,0,0,0,0,0,0,0,0,0,0,5563,0,0,5559,0,0,0,0,0,0,0,0,0,0,0,0,0,0,
0,0,0,5591,0,0,0,0,0,0,0,0,0,0,0,0,0,0,0,0,0,0,0,0,0,0,0,0,0,5606,0,0,0,0,0,0,0,0,0,0,0,0,5573,0,0,0,0,0,0,0,0,0,0,0,0,0,0,0,0,0,
0,0,0,5592,0,0,0,0,0,0,0,0,0,0,0,0,0,0,0,0,0,0,0,0,0,0,0,0,0,0,0,0,5570,0,5620,5592,5563,0,5600,0,0,0,0,0,0,0,0,0,0,0,0,0,0,0,0,0,0,0,0,0,
0,0,0,0,5597,0,0,0,0,0,0,0,0,0,0,0,0,5559,5572,0,0,0,0,0,0,0,0,0,0,0,5616,0,0,0,0,0,5597,5606,0,0,0,5570,0,0,5603,0,0,0,0,0,0,0,0,0,0,0,5620,0,0,0,
0,0,0,0,0,0,0,0,0,0,0,5580,0,0,0,0,0,0,0,5568,5597,0,0,0,0,0,0,0,5606,5620,0,0,0,0,0,0,5614,0,0,0,0,0,0,0,0,5572,0,0,0,0,0,0,0,0,0,0,0,0,0,0,
0,0,0,0,0,0,0,0,0,0,0,0,0,0,0,0,0,0,0,0,0,0,0,0,0,0,0,0,0,5591,0,0,0,0,0,0,0,0,0,0,0,0,0,5573,0,0,0,0,0,0,0,0,0,0,0,0,0,5592,0,0,
0,0,0,0,5570,0,0,0,0,0,0,0,0,0,0,5570,0,0,0,0,0,0,0,0,0,0,0,0,0,0,0,0,0,0,0,0,0,0,0,0,0,0,0,5591,0,5570,0,0,0,0,0,0,0,0,0,0,0,0,0,0,
0,0,0,0,0,5569,0,0,0,0,0,0,0,0,0,0,5606,0,0,0,0,0,0,0,0,0,0,0,0,0,0,0,0,0,0,0,0,0,0,0,0,0,0,0,0,0,0,0,0,0,0,0,0,0,0,0,0,0,0,0,
0,0,0,0,0,0,0,0,0,0,0,0,0,0,0,0,0,0,0,0,0,0,0,0,0,0,0,0,0,0,0,0,0,0,0,0,0,0,0,0,0,0,0,0,0,0,0,0,0,0,0,0,0,0,0,0,0,0,0,0,
0,0,0,0,0,0,0,0,0,0,0,0,0,0,0,0,0,0,5561,5606,0,0,0,0,0,0,5559,0,0,0,0,0,5608,5591,0,0,0,0,0,0,0,0,0,0,0,0,0,0,0,0,0,0,0,5620,0,5592,0,0,0,0,
0,0,0,0,0,0,0,0,0,0,0,0,0,0,0,0,0,0,0,0,0,0,5559,0,0,0,0,0,0,0,5570,0,5608,5616,0,0,0,0,0,0,0,0,0,0,0,0,0,0,0,0,0,0,0,0,0,0,0,0,0,0,
0,0,0,0,0,0,0,0,0,0,0,5601,0,0,0,0,0,0,5600,0,0,0,0,0,0,5600,0,0,0,0,0,0,0,0,0,0,0,0,0,0,0,0,5583,5606,0,0,0,0,0,0,0,0,5597,5567,0,0,0,0,0,0,
0,0,0,0,0,0,0,0,0,0,0,0,0,0,0,0,0,0,0,5559,0,0,0,0,0,0,0,0,0,0,5563,0,0,5616,0,0,5592,0,0,0,0,0,0,5601,0,0,0,0,0,0,0,0,0,0,0,0,0,0,0,0,
0,0,0,0,0,0,0,0,0,0,0,0,0,0,5608,0,0,0,0,5619,5600,0,0,0,0,0,0,0,0,0,0,0,0,0,0,0,0,0,0,0,0,0,0,0,0,0,0,0,0,0,0,0,0,0,0,0,0,0,0,0,
0,0,0,5592,0,0,0,0,0,0,0,0,0,0,0,0,0,0,5572,0,0,5619,0,5563,0,0,0,0,0,0,0,0,0,0,0,0,0,0,0,0,0,0,0,0,0,0,0,0,0,0,5567,0,0,0,0,0,0,0,0,0,
0,0,0,5559,0,0,0,0,0,0,0,0,0,0,0,5563,0,0,0,0,0,0,0,0,5580,0,0,0,0,0,0,5561,5614,0,0,0,0,0,0,0,0,0,0,0,0,0,0,5614,5608,0,0,0,0,0,0,0,5592,0,0,0,
0,0,0,0,0,0,0,0,0,0,0,5580,0,0,0,0,0,0,0,0,0,0,0,0,0,0,0,0,5558,0,0,0,0,0,0,0,5568,0,0,0,0,0,0,0,0,0,0,0,0,0,0,0,0,0,0,0,0,0,0,0,
0,0,0,0,0,0,0,0,0,0,0,0,0,0,0,0,0,0,0,0,0,0,0,0,5600,0,0,0,0,0,0,0,0,0,0,0,0,5570,0,0,0,0,0,0,5563,0,0,0,5563,0,0,0,0,0,0,0,0,0,0,0,
0,0,0,0,5616,0,0,0,0,0,0,0,0,0,0,0,0,0,0,5559,0,0,0,0,0,0,0,0,0,5591,5569,0,0,0,0,0,0,5583,0,0,0,5558,0,0,0,5606,0,5559,0,0,0,5572,0,0,0,0,0,0,0,0,
0,0,0,0,0,0,0,5338,5339,5340,5341,0,0,0,0,0,0,0,0,0,0,0,0,0,0,0,0,0,0,0,5572,0,0,0,0,0,0,0,0,0,0,0,5619,5608,0,0,0,5559,0,0,5570,0,0,0,0,0,0,0,0,0,
0,0,0,0,0,0,0,5342,5343,5344,5345,0,0,0,0,0,0,5597,0,5596,0,0,5620,0,0,0,0,0,5568,0,0,0,0,0,0,0,0,0,0,0,0,0,0,0,0,0,0,0,0,0,0,0,0,0,0,0,0,0,0,0,
0,0,0,5600,0,0,0,5346,5347,5348,5349,0,0,0,0,0,5614,0,5567,0,0,0,0,0,0,0,0,0,0,0,5572,5563,0,0,0,0,0,5564,0,5597,0,0,0,0,0,0,0,0,0,0,0,0,0,5569,0,0,0,0,0,0,
0,0,0,0,0,0,0,5350,5351,5352,5353,0,0,0,0,0,0,0,0,0,5569,0,0,0,0,0,0,0,0,0,0,0,0,0,0,0,0,5568,0,0,0,0,0,0,0,0,0,0,0,0,0,0,0,0,0,0,0,0,0,0,
0,0,0,0,0,5597,0,0,0,0,0,5597,0,0,0,5583,0,0,0,0,0,0,0,0,0,0,0,0,0,0,5568,0,0,0,0,0,0,0,0,0,0,0,0,0,0,0,5614,0,0,0,0,0,0,0,0,5572,0,0,0,0,
0,0,0,0,5600,0,0,0,0,0,0,0,0,0,0,0,0,5619,0,0,0,5563,0,0,0,0,0,0,0,0,0,0,0,0,0,0,0,0,5620,0,0,0,0,0,0,0,0,0,0,0,0,0,0,0,0,0,0,0,0,0,
0,0,0,0,0,5591,0,0,0,0,0,0,0,0,0,5600,0,0,0,5616,0,0,0,0,0,0,0,0,0,0,5616,0,0,0,0,0,5567,0,0,0,0,0,0,0,0,0,5592,0,0,0,0,0,0,0,0,0,0,5616,0,0,
0,0,0,0,0,0,0,0,0,0,0,0,0,0,0,0,0,0,0,0,0,0,0,0,0,0,0,0,5569,0,0,5614,0,0,0,0,5616,0,0,0,0,0,0,0,0,0,0,0,0,0,0,0,0,0,0,0,0,0,5600,0,
0,0,0,0,0,0,0,0,0,0,0,0,0,0,0,0,0,0,0,0,0,0,0,0,0,0,5605,0,0,0,5563,0,0,0,0,0,5567,5620,0,0,0,0,0,0,0,0,0,0,0,0,0,5572,0,0,0,0,0,0,0,0,
0,0,0,0,0,0,0,0,0,0,0,5558,0,0,0,0,0,5570,0,0,0,0,5568,0,0,0,0,0,0,0,0,0,0,0,0,0,0,0,5559,0,0,0,5606,0,0,5567,0,0,0,5564,0,0,5559,0,5620,0,5620,0,0,0,
0,0,0,0,0,0,0,0,0,0,0,0,0,5616,0,0,0,0,0,0,0,0,0,0,0,0,0,0,0,0,0,0,0,0,0,0,5606,5620,0,0,0,0,0,0,0,0,0,0,0,0,5580,0,5591,0,5567,0,0,0,0,0,
0,0,0,0,0,0,0,0,0,0,0,0,0,0,0,0,0,0,0,0,0,0,0,0,0,0,0,5570,0,0,0,0,0,0,0,0,0,0,0,0,0,0,0,0,0,0,0,0,0,0,0,0,0,0,5614,0,0,0,0,0,
0,0,0,0,0,0,5572,0,0,0,0,0,0,5600,0,0,0,0,0,0,0,0,0,0,0,0,0,0,0,0,0,0,0,0,0,5568,0,0,0,0,0,0,0,0,0,0,0,0,0,0,0,0,0,0,0,0,0,0,0,0,
0,0,0,0,0,0,0,0,0,0,0,0,5592,0,0,0,0,0,0,0,0,0,0,0,0,5583,0,0,5620,0,0,0,0,0,0,0,0,0,0,0,0,0,0,0,0,0,0,0,0,0,5614,0,0,0,0,0,0,0,0,0,
0,0,0,0,0,0,0,0,0,0,0,0,0,0,0,0,0,0,0,5575,0,0,0,0,0,0,0,0,0,0,5572,0,0,0,0,0,0,0,0,0,0,0,0,0,0,0,0,0,0,0,0,0,0,0,0,0,0,0,0,0,
0,0,0,0,0,0,0,0,0,0,0,5606,5596,0,0,0,0,0,0,0,5572,0,5597,0,0,0,0,0,0,5568,0,0,0,0,0,0,0,0,0,0,0,0,0,5559,0,0,0,0,0,0,0,0,0,0,0,0,0,0,5600,0,
0,0,0,0,0,0,0,0,0,0,0,5606,5616,0,0,0,0,0,0,0,0,0,0,0,0,0,0,0,0,0,0,0,0,0,0,0,5608,0,0,0,0,0,0,0,0,0,5580,0,0,0,0,0,0,0,0,0,0,0,0,0,
0,0,0,0,0,0,0,0,0,0,0,0,0,5559,0,0,5559,5603,5616,0,0,0,0,0,0,5618,0,0,0,5563,0,0,0,0,0,0,5591,0,0,0,0,0,0,5558,0,5559,0,0,0,0,0,0,0,0,0,0,5567,0,0,0,
0,0,0,0,0,0,0,0,0,0,0,0,0,0,5573,0,0,0,0,0,0,0,0,0,5591,0,0,0,0,0,0,0,0,0,0,0,0,0,0,0,0,0,0,0,0,0,0,0,0,0,0,0,0,0,5608,0,0,0,0,0,
0,0,0,0,0,0,0,0,0,0,0,0,0,0,0,0,0,0,0,5620,0,0,0,0,0,0,0,0,0,0,0,0,5591,0,5597,0,5559,0,0,5559,5563,0,0,0,0,0,0,0,0,0,0,0,0,0,0,5592,0,0,0,0,
0,0,0,0,0,0,0,0,0,0,0,0,0,0,0,5597,0,0,0,5614,0,0,0,0,0,0,0,0,0,0,5563,5614,0,0,0,0,0,0,0,0,0,0,0,0,0,0,0,0,0,0,0,0,0,5591,0,0,0,0,0,0,
0,0,0,0,0,0,0,0,0,0,0,0,0,5616,0,0,0,0,0,0,0,0,5606,0,0,5619,0,0,5601,0,0,0,0,0,0,0,0,5580,0,0,0,0,0,0,0,0,0,0,5563,5558,0,0,5608,0,0,0,0,0,0,0,
0,0,0,0,0,0,0,0,0,0,0,0,0,0,0,0,0,0,5597,0,0,0,0,5600,0,0,0,0,0,0,0,0,0,0,0,0,0,0,0,0,5561,0,0,0,0,0,0,0,0,0,0,0,0,0,0,5606,0,0,0,0,
0,0,0,0,0,0,0,0,0,0,0,0,0,0,0,0,0,0,0,0,0,5573,5614,5597,0,0,0,0,0,0,0,0,5608,0,0,0,0,0,0,5572,0,0,0,0,0,0,0,5608,0,0,0,0,0,0,0,0,0,0,0,0,
0,0,0,0,0,0,0,0,0,0,0,0,0,0,0,0,0,0,0,0,0,0,0,0,0,0,0,0,0,0,0,0,0,0,0,0,0,0,0,0,0,0,0,0,0,0,0,0,0,0,0,0,0,0,0,0,0,0,0,0,
0,0,0,0,0,0,0,0,0,0,0,0,0,0,0,0,0,0,0,5559,5567,0,0,0,0,0,0,0,0,0,0,0,0,0,0,0,0,0,0,0,0,0,0,0,0,5608,0,0,0,0,0,0,0,0,0,0,0,0,0,0,
0,0,0,0,0,0,0,0,0,0,0,0,0,0,0,0,0,0,0,0,0,0,0,0,5570,0,0,0,0,0,0,0,0,0,0,0,0,0,0,0,0,0,0,0,0,5597,0,5563,5569,0,0,0,5608,0,0,5580,0,0,0,0,
0,0,0,0,0,0,0,0,0,0,0,0,0,0,0,0,0,0,0,0,0,0,0,0,0,0,0,0,5558,0,0,0,0,0,5619,0,0,0,0,0,0,0,5608,0,0,0,0,5620,0,0,0,0,0,0,0,0,0,0,0,0,
0,0,0,0,0,0,0,5618,0,0,0,0,0,0,0,0,0,0,0,0,0,5570,0,0,0,0,0,0,0,5614,5567,0,0,0,0,5570,0,0,0,0,0,0,0,0,0,0,0,0,0,0,0,0,0,0,0,0,0,0,0,0,
0,0,0,0,0,0,0,0,0,0,0,0,0,0,0,0,0,0,5605,0,0,0,0,0,0,0,0,0,0,5570,0,0,0,5559,0,0,0,0,0,0,0,5597,0,0,0,0,0,0,0,0,0,0,0,0,0,0,0,0,0,0,
0,0,0,0,0,0,0,0,5568,0,0,0,0,0,0,0,0,0,5564,0,0,0,5592,0,0,0,0,0,0,0,0,5608,0,0,0,0,0,5570,0,0,0,0,0,0,0,0,0,0,0,0,0,0,0,0,0,0,0,0,0,0,
0,0,0,0,0,0,0,0,0,0,0,0,0,0,0,0,0,0,0,0,0,0,5620,0,0,5570,0,0,0,0,0,0,0,0,0,0,0,0,0,0,5601,0,5606,0,0,0,0,0,0,0,0,0,0,0,0,0,0,0,0,0,
0,0,0,0,0,0,0,0,5606,0,0,0,0,0,0,0,0,0,0,0,0,0,0,0,0,5614,0,0,0,5600,0,0,0,0,0,0,5600,0,5608,0,0,0,0,0,0,0,0,0,0,0,0,0,0,0,0,0,0,0,0,0,
0,0,0,0,0,0,0,0,0,0,0,0,0,0,0,0,0,5600,5568,5620,5614,0,5597,0,0,0,5583,0,0,0,0,0,0,0,0,0,0,0,0,0,0,0,0,0,0,0,0,0,0,0,0,0,0,0,0,0,0,0,0,0,
0,0,0,0,0,0,0,0,0,0,0,0,0,0,0,0,0,0,0,0,0,0,5567,5591,0,0,0,0,0,0,0,0,0,0,0,0,0,0,0,0,0,0,0,0,0,0,0,0,0,0,0,0,0,0,0,0,0,0,0,0,
0,0,0,0,0,0,0,0,0,0,0,0,0,0,0,0,0,0,0,0,0,0,0,5608,0,0,5563,0,5559,0,0,0,0,0,0,0,0,0,0,0,0,0,0,0,0,0,0,0,0,0,0,0,0,0,0,0,0,0,0,0,
0,0,0,0,0,0,0,0,0,0,0,0,0,0,0,0,0,0,0,0,0,0,0,0,0,0,0,0,0,0,5572,0,0,0,0,0,0,5620,0,0,0,0,0,0,0,0,0,0,0,0,0,0,0,0,0,0,0,0,0,0,
0,0,0,0,0,0,0,0,0,0,0,0,0,0,0,0,0,0,0,0,0,0,0,0,0,0,0,0,0,0,0,0,0,0,0,0,0,0,0,0,0,0,0,0,0,0,0,0,0,0,0,0,0,0,0,0,0,0,0,0,
0,0,0,0,0,0,0,0,0,0,0,0,0,0,0,0,0,0,0,0,0,0,0,0,0,0,0,5563,0,0,0,0,0,0,0,0,0,0,0,0,0,0,0,0,0,0,0,0,0,0,0,0,0,0,0,0,0,0,0,0
</data>
 </layer>
 <layer id="5" name="Dynamic" width="60" height="72">
  <data encoding="csv">
0,0,0,0,0,0,0,0,0,0,0,0,0,0,0,0,0,0,0,0,0,0,0,0,0,0,0,0,0,0,0,0,0,0,0,0,0,0,0,0,0,0,0,0,0,0,0,0,0,0,0,0,0,0,0,0,0,0,0,0,
0,0,0,0,0,0,0,0,0,0,0,0,0,0,0,0,0,0,0,0,0,0,0,0,0,0,0,0,0,0,0,0,0,0,0,0,0,0,0,0,0,0,0,0,0,0,0,0,0,0,0,0,0,0,0,0,0,0,0,0,
0,0,0,0,0,0,0,0,0,0,0,0,0,0,0,0,0,0,0,0,0,0,0,0,0,0,0,0,0,0,0,0,0,0,0,0,0,0,0,0,0,0,0,0,0,0,0,0,0,0,0,0,0,0,0,0,0,0,0,0,
0,0,0,0,0,0,0,0,0,0,0,0,0,0,0,0,0,0,0,0,0,0,0,0,0,0,0,0,0,0,0,0,0,0,0,0,0,0,0,0,0,0,0,0,0,0,0,0,0,0,0,0,0,0,0,0,0,0,0,0,
0,0,0,0,0,0,0,0,0,0,0,0,0,0,0,0,0,0,0,0,0,0,0,0,0,0,0,0,0,0,0,0,0,0,0,0,0,0,0,0,0,0,0,0,0,0,0,0,0,0,0,0,0,0,0,0,0,0,0,0,
0,0,0,0,0,0,0,0,0,0,0,0,0,0,0,0,0,0,0,0,0,0,0,0,0,0,0,0,0,0,0,0,0,0,0,0,0,0,0,0,0,0,0,0,0,0,0,0,0,0,0,0,0,0,0,0,0,0,0,0,
0,0,0,0,0,0,0,0,0,0,0,0,0,0,0,0,0,0,0,0,0,0,0,0,0,0,0,0,0,0,0,0,0,0,0,0,0,0,0,0,0,0,0,0,0,0,0,0,0,0,0,0,0,0,0,0,0,0,0,0,
0,0,0,0,0,0,0,0,0,0,0,0,0,0,0,0,0,0,0,0,0,0,0,0,0,0,0,0,0,0,0,0,0,0,0,0,0,0,0,0,0,0,0,0,0,0,0,0,0,0,0,0,0,0,0,0,0,0,0,0,
0,0,0,0,0,0,0,0,0,0,0,0,0,0,0,0,0,0,0,0,0,0,0,0,0,0,0,0,0,0,0,0,0,0,0,0,0,0,0,0,0,0,0,0,0,0,0,0,0,0,0,0,0,0,0,0,0,0,0,0,
0,0,0,0,0,0,0,0,0,0,0,0,0,0,0,0,0,0,0,0,0,0,0,0,0,0,0,0,0,0,0,0,0,0,0,0,0,0,0,0,0,0,0,0,0,0,0,0,0,0,0,0,0,0,0,0,0,0,0,0,
0,0,0,0,0,0,0,0,0,0,0,0,0,0,0,0,0,0,0,0,0,0,0,0,0,0,0,0,0,0,0,0,0,0,0,0,0,0,0,0,0,0,0,0,0,0,0,0,0,0,0,0,0,0,0,0,0,0,0,0,
0,0,0,0,0,0,0,0,0,0,0,0,0,0,0,0,0,0,0,0,0,0,0,0,0,0,0,0,0,0,0,0,0,0,0,0,0,0,0,0,0,0,0,0,0,0,0,0,0,0,0,0,0,0,0,0,0,0,0,0,
0,0,0,0,0,0,0,0,0,0,0,0,0,0,0,0,0,0,0,0,0,0,0,0,0,0,0,0,0,0,0,0,0,0,0,0,0,0,0,0,0,0,0,0,0,0,4504,4482,4483,4504,0,0,0,0,0,0,0,0,0,0,
0,0,0,0,0,0,0,0,0,0,0,0,0,0,0,0,0,0,0,0,0,0,0,0,0,0,0,0,0,0,0,0,0,0,0,0,0,0,0,0,0,0,0,0,0,0,4484,4485,4486,4487,0,0,0,0,0,0,0,0,0,0,
0,0,0,0,0,0,0,0,0,0,0,0,4872,4873,4874,4875,4876,0,0,0,0,0,0,0,0,0,0,0,0,0,0,0,0,0,0,0,0,0,0,0,0,0,0,0,0,0,4488,4489,4490,4491,0,0,0,0,0,0,0,0,0,0,
0,0,0,0,0,0,0,0,0,0,0,0,4877,4878,4879,4880,4881,0,0,0,0,0,0,0,0,0,0,0,0,0,0,0,0,0,0,0,0,0,0,0,0,0,0,0,0,0,4492,4493,4494,4495,0,0,0,0,0,0,0,0,0,0,
0,0,0,0,0,0,0,0,0,0,0,0,4882,4883,4884,4885,4886,0,0,0,0,5067,5067,5067,5067,5067,5025,5067,0,0,0,0,0,0,0,0,0,0,0,0,0,0,0,0,0,0,4496,4497,4498,4499,0,0,0,0,0,0,0,0,0,0,
0,0,0,0,0,0,0,0,0,0,0,0,4887,4888,4889,4890,4891,0,0,0,0,5067,5026,5027,5028,5029,5030,5031,0,0,0,0,0,0,0,0,0,0,0,0,0,0,0,0,0,0,4500,4501,4502,4503,0,0,4334,4316,4317,4334,0,0,0,0,
0,0,0,0,0,0,0,0,0,0,0,0,4892,4893,4894,4895,4896,0,0,0,0,5032,5033,5034,5035,5036,5037,5038,0,0,4897,4898,4899,0,0,0,0,0,0,0,0,0,0,0,0,0,0,0,0,0,0,0,4318,4319,4320,4321,0,0,0,0,
0,0,0,0,0,0,0,0,0,0,0,0,0,0,0,0,0,0,0,0,0,5039,5040,5041,5042,5043,5044,5045,0,0,4900,4901,4902,0,0,3908,3909,3910,3911,3912,0,0,0,0,0,0,0,0,0,0,0,0,4322,4323,4324,4325,0,0,0,0,
0,0,0,0,0,0,0,0,0,0,0,0,0,0,0,0,0,0,0,0,0,5046,5047,5048,5049,5050,5051,5052,0,0,4903,4904,4905,0,0,3913,3914,3915,3916,3917,0,0,0,0,0,0,0,0,0,0,0,0,4326,4327,4328,4329,0,0,0,0,
0,0,0,0,0,0,0,0,0,0,0,0,0,0,0,0,0,0,0,0,0,5053,5054,5055,5056,5057,5058,5059,0,0,4906,4907,4908,0,0,3918,3919,3920,3921,3922,0,0,0,0,0,0,0,0,0,0,0,0,4330,4331,4332,4333,0,0,0,0,
0,0,0,0,0,0,0,0,0,0,0,0,0,0,0,0,0,0,0,0,0,5060,5061,5062,5063,5064,5065,5066,0,0,4909,4910,4911,0,0,3923,3924,3925,3926,3927,0,0,0,0,0,0,0,0,0,0,0,0,0,0,0,0,0,0,0,0,
0,0,0,0,0,0,0,0,0,0,0,0,0,0,0,0,0,0,0,0,0,0,0,0,0,0,0,0,0,0,0,0,0,0,0,3928,3929,3930,3931,3932,0,0,0,0,0,0,0,0,0,0,0,0,0,0,0,0,0,0,0,0,
0,0,0,0,0,0,0,0,0,0,0,0,0,0,0,0,0,0,0,0,0,0,0,0,0,0,0,0,0,0,0,0,0,0,0,0,0,0,0,0,0,0,0,0,0,0,0,0,0,0,0,0,0,0,0,0,0,0,0,0,
0,0,0,0,0,0,0,0,0,0,0,0,0,0,0,0,0,0,0,0,0,0,0,0,0,0,0,0,0,0,0,0,0,0,0,0,0,0,0,0,0,0,0,0,0,0,0,0,0,0,0,0,0,0,0,0,0,0,0,0,
0,0,0,0,0,0,0,0,0,0,0,0,0,0,0,0,0,0,0,0,0,0,0,0,0,0,0,0,0,0,0,0,0,0,0,0,0,0,0,0,0,0,0,0,0,0,0,0,0,0,0,0,0,0,0,0,0,0,0,0,
0,0,0,0,0,0,0,0,0,0,0,0,0,0,0,0,0,0,0,0,0,0,0,0,0,0,0,0,0,0,0,0,0,0,0,0,0,0,0,0,0,0,0,0,0,0,0,0,0,0,0,0,0,0,0,0,0,0,0,0,
0,0,0,0,0,0,0,0,0,0,0,0,0,0,0,0,0,0,0,0,0,0,0,0,0,0,0,0,0,0,0,0,0,0,0,0,0,0,0,0,0,0,0,0,0,0,0,0,0,0,0,0,0,0,0,0,0,0,0,0,
0,0,0,0,0,0,0,0,0,0,0,0,0,0,0,0,0,0,0,0,0,0,0,0,0,0,0,0,0,0,0,0,0,0,0,0,0,0,0,0,0,0,0,0,0,0,0,0,0,0,0,0,0,0,0,0,0,0,0,0,
0,0,0,0,0,0,0,0,0,0,0,0,0,0,0,0,0,0,0,0,0,0,0,0,0,0,0,0,0,0,0,0,0,0,0,0,0,0,0,0,0,0,0,0,0,0,0,0,0,0,0,0,0,0,0,0,0,0,0,0,
0,0,0,0,0,0,0,0,0,0,0,0,0,0,0,0,0,0,0,0,0,0,0,0,0,0,0,0,0,0,0,0,0,0,0,0,0,0,0,0,0,0,0,0,0,0,0,0,0,0,0,0,0,0,0,0,0,0,0,0,
0,0,0,0,0,0,0,0,0,0,0,0,0,0,0,0,0,0,0,0,0,0,0,0,0,0,0,0,0,0,0,0,0,0,0,0,0,0,0,0,0,0,0,0,0,0,0,0,0,0,0,0,0,0,0,0,0,0,0,0,
0,0,0,0,0,0,0,0,0,0,0,0,0,0,0,0,0,0,0,0,0,0,0,0,0,0,0,0,0,0,0,0,0,0,0,0,0,0,0,0,0,0,0,0,0,0,0,0,0,0,0,0,0,0,0,0,0,0,0,0,
0,0,0,0,0,0,0,0,0,0,0,0,0,0,0,0,0,0,0,0,0,0,0,0,0,0,0,0,0,0,0,0,0,0,0,0,0,0,0,0,0,0,0,0,0,0,0,0,0,0,0,0,0,0,0,0,0,0,0,0,
0,0,0,0,0,0,0,0,0,0,0,0,0,0,0,0,0,0,0,0,0,0,0,0,0,0,0,0,0,0,0,0,0,0,0,0,0,0,0,0,0,0,0,0,0,0,0,0,0,0,0,0,0,0,0,0,0,0,0,0,
0,0,0,0,0,0,0,0,0,0,0,0,0,0,0,0,0,0,0,0,0,0,0,0,0,0,0,0,0,0,0,0,0,0,0,0,0,0,0,0,0,0,0,0,0,0,0,0,0,0,0,0,0,0,0,0,0,0,0,0,
0,0,0,0,0,0,0,0,0,0,0,0,0,0,0,0,0,0,0,0,0,0,0,0,0,0,0,0,0,0,0,0,0,0,0,0,0,0,0,0,0,0,0,0,0,0,0,0,0,0,0,0,0,0,0,0,0,0,0,0,
0,0,0,0,0,0,0,0,0,0,0,0,0,0,0,0,0,0,0,0,0,0,0,0,0,0,0,0,0,0,0,0,0,0,0,0,0,0,0,0,0,0,0,0,0,0,0,0,0,0,0,0,0,0,0,0,0,0,0,0,
0,0,0,0,0,0,0,0,0,0,0,0,0,0,0,0,0,0,0,0,0,0,0,0,0,0,0,0,0,0,0,0,0,0,0,0,0,0,0,0,0,0,0,0,0,0,0,0,0,0,0,0,0,0,0,0,0,0,0,0,
0,0,0,0,0,0,0,0,0,0,0,0,0,0,0,0,0,0,0,0,0,0,0,0,0,0,0,0,0,0,0,0,0,0,0,0,0,0,0,0,0,0,0,0,0,0,0,0,0,0,0,0,0,0,0,0,0,0,0,0,
0,0,0,0,0,0,0,0,0,0,0,0,0,0,0,0,0,0,0,0,0,0,0,0,0,0,0,0,0,0,0,0,0,0,0,0,0,0,0,0,0,0,0,0,0,0,0,0,0,0,0,0,0,0,0,0,0,0,0,0,
0,0,0,0,0,0,0,0,0,0,0,0,0,0,0,0,0,0,0,0,0,0,0,0,0,0,0,0,0,0,0,0,0,0,0,0,0,0,0,0,0,0,0,0,0,0,0,0,0,0,0,0,0,0,0,0,0,0,0,0,
0,0,0,0,0,0,0,0,0,0,0,0,0,0,0,0,0,0,0,0,0,0,0,0,0,0,0,0,0,0,0,0,0,0,0,0,0,0,0,0,0,0,0,0,0,0,0,0,0,0,0,0,0,0,0,0,0,0,0,0,
0,0,0,0,0,0,0,0,0,0,0,0,0,0,0,0,0,0,0,0,0,0,0,0,0,0,0,0,0,0,0,0,0,0,0,0,0,0,0,0,0,0,0,0,0,0,0,0,0,0,0,0,0,0,0,0,0,0,0,0,
0,0,0,0,0,0,0,0,0,0,0,0,0,0,0,0,0,0,0,0,0,0,0,0,0,0,0,0,0,0,0,0,0,0,0,0,0,0,0,0,0,0,0,0,0,0,0,0,0,0,0,0,0,0,0,0,0,0,0,0,
0,0,0,0,0,0,0,0,0,0,0,0,0,0,0,0,0,0,0,0,0,0,0,0,0,0,0,0,0,0,0,0,0,0,0,0,0,0,0,0,0,0,0,0,0,0,0,0,0,0,0,0,0,0,0,0,0,0,0,0,
0,0,0,0,0,0,0,0,0,0,0,0,0,0,0,0,0,0,0,0,0,0,0,0,0,0,0,0,0,0,0,0,0,0,0,0,0,0,0,0,0,0,0,0,0,0,0,0,0,0,0,0,0,0,0,0,0,0,0,0,
0,0,0,0,0,0,0,0,0,0,0,0,0,0,0,0,0,0,0,0,0,0,0,0,0,0,0,0,0,0,0,0,0,0,0,0,0,0,0,0,0,0,0,0,0,0,0,0,0,0,0,0,0,0,0,0,0,0,0,0,
0,0,0,0,0,0,0,0,0,0,0,0,0,0,0,0,0,0,0,0,0,0,0,0,0,0,0,0,0,0,0,0,0,0,0,0,0,0,0,0,0,0,0,0,0,0,0,0,0,0,0,0,0,0,0,0,0,0,0,0,
0,0,0,0,0,0,0,0,0,0,0,0,0,0,0,0,0,0,0,0,0,0,0,0,0,0,0,0,0,0,0,0,0,0,0,0,0,0,0,0,0,0,0,0,0,0,0,0,0,0,0,0,0,0,0,0,0,0,0,0,
0,0,0,0,0,0,0,0,0,0,0,0,0,0,0,0,0,0,0,0,0,0,0,0,0,0,0,0,0,0,0,0,0,0,0,0,0,0,0,0,0,0,0,0,0,0,0,0,0,0,0,0,0,0,0,0,0,0,0,0,
0,0,0,0,0,0,0,0,0,0,0,0,0,0,0,0,0,0,0,0,0,0,0,0,0,0,0,0,0,0,0,0,0,0,0,0,0,0,0,0,0,0,0,0,0,0,0,0,0,0,0,0,0,0,0,0,0,0,0,0,
0,0,0,0,0,0,0,0,0,0,0,0,0,0,0,0,0,0,0,0,0,0,0,0,0,0,0,0,0,0,0,0,0,0,0,0,0,0,0,0,0,0,0,0,0,0,0,0,0,0,0,0,0,0,0,0,0,0,0,0,
0,0,0,0,0,0,0,0,0,0,0,0,0,0,0,0,0,0,0,0,0,0,0,0,0,0,0,0,0,0,0,0,0,0,0,0,0,0,0,0,0,0,0,0,0,0,0,0,0,0,0,0,0,0,0,0,0,0,0,0,
0,0,0,0,0,0,0,0,0,0,0,0,0,0,0,0,0,0,0,0,0,0,0,0,0,0,0,0,0,0,0,0,0,0,0,0,0,0,0,0,0,0,0,0,0,0,0,0,0,0,0,0,0,0,0,0,0,0,0,0,
0,0,0,0,0,0,0,0,0,0,0,0,0,0,0,0,0,0,0,0,0,0,0,0,0,0,0,0,0,0,0,0,0,0,0,0,0,0,0,0,0,0,0,0,0,0,0,0,0,0,0,0,0,0,0,0,0,0,0,0,
0,0,0,0,0,0,0,0,0,0,0,0,0,0,0,0,0,0,0,0,0,0,0,0,0,0,0,0,0,0,0,0,0,0,0,0,0,0,0,0,0,0,0,0,0,0,0,0,0,0,0,0,0,0,0,0,0,0,0,0,
0,0,0,0,0,0,0,0,0,0,0,0,0,0,0,0,0,0,0,0,0,0,0,0,0,0,0,0,0,0,0,0,0,0,0,0,0,0,0,0,0,0,0,0,0,0,0,0,0,0,0,0,0,0,0,0,0,0,0,0,
0,0,0,0,0,0,0,0,0,0,0,0,0,0,0,0,0,0,0,0,0,0,0,0,0,0,0,0,0,0,0,0,0,0,0,0,0,0,0,0,0,0,0,0,0,0,0,0,0,0,0,0,0,0,0,0,0,0,0,0,
0,0,0,0,0,0,0,0,0,0,0,0,0,0,0,0,0,0,0,0,0,0,0,0,0,0,0,0,0,0,0,0,0,0,0,0,0,0,0,0,0,0,0,0,0,0,0,0,0,0,0,0,0,0,0,0,0,0,0,0,
0,0,0,0,0,0,0,0,0,0,0,0,0,0,0,0,0,0,0,0,0,0,0,0,0,0,0,0,0,0,0,0,0,0,0,0,0,0,0,0,0,0,0,0,0,0,0,0,0,0,0,0,0,0,0,0,0,0,0,0,
0,0,0,0,0,0,0,0,0,0,0,0,0,0,0,0,0,0,0,0,0,0,0,0,0,0,0,0,0,0,0,0,0,0,0,0,0,0,0,0,0,0,0,0,0,0,0,0,0,0,0,0,0,0,0,0,0,0,0,0,
0,0,0,0,0,0,0,0,0,0,0,0,0,0,0,0,0,0,0,0,0,0,0,0,0,0,0,0,0,0,0,0,0,0,0,0,0,0,0,0,0,0,0,0,0,0,0,0,0,0,0,0,0,0,0,0,0,0,0,0,
0,0,0,0,0,0,0,0,0,0,0,0,0,0,0,0,0,0,0,0,0,0,0,0,0,0,0,0,0,0,0,0,0,0,0,0,0,0,0,0,0,0,0,0,0,0,0,0,0,0,0,0,0,0,0,0,0,0,0,0,
0,0,0,0,0,0,0,0,0,0,0,0,0,0,0,0,0,0,0,0,0,0,0,0,0,0,0,0,0,0,0,0,0,0,0,0,0,0,0,0,0,0,0,0,0,0,0,0,0,0,0,0,0,0,0,0,0,0,0,0,
0,0,0,0,0,0,0,0,0,0,0,0,0,0,0,0,0,0,0,0,0,0,0,0,0,0,0,0,0,0,0,0,0,0,0,0,0,0,0,0,0,0,0,0,0,0,0,0,0,0,0,0,0,0,0,0,0,0,0,0,
0,0,0,0,0,0,0,0,0,0,0,0,0,0,0,0,0,0,0,0,0,0,0,0,0,0,0,0,0,0,0,0,0,0,0,0,0,0,0,0,0,0,0,0,0,0,0,0,0,0,0,0,0,0,0,0,0,0,0,0,
0,0,0,0,0,0,0,0,0,0,0,0,0,0,0,0,0,0,0,0,0,0,0,0,0,0,0,0,0,0,0,0,0,0,0,0,0,0,0,0,0,0,0,0,0,0,0,0,0,0,0,0,0,0,0,0,0,0,0,0,
0,0,0,0,0,0,0,0,0,0,0,0,0,0,0,0,0,0,0,0,0,0,0,0,0,0,0,0,0,0,0,0,0,0,0,0,0,0,0,0,0,0,0,0,0,0,0,0,0,0,0,0,0,0,0,0,0,0,0,0,
0,0,0,0,0,0,0,0,0,0,0,0,0,0,0,0,0,0,0,0,0,0,0,0,0,0,0,0,0,0,0,0,0,0,0,0,0,0,0,0,0,0,0,0,0,0,0,0,0,0,0,0,0,0,0,0,0,0,0,0,
0,0,0,0,0,0,0,0,0,0,0,0,0,0,0,0,0,0,0,0,0,0,0,0,0,0,0,0,0,0,0,0,0,0,0,0,0,0,0,0,0,0,0,0,0,0,0,0,0,0,0,0,0,0,0,0,0,0,0,0
</data>
 </layer>
 <layer id="6" name="Collision" width="60" height="72">
  <data encoding="csv">
5622,5622,5622,5622,5622,5623,5622,5622,5622,5623,5623,5622,5622,5622,5622,5622,5622,5623,5622,5622,5622,5622,5622,5622,5623,5623,5622,5622,5622,5622,5622,5622,5623,5622,5623,5622,5622,5622,5622,5622,5622,5622,5622,5622,5622,5623,5622,5623,5622,5622,5623,5623,5622,5622,5622,5623,5622,5623,5622,5622,
5623,5622,5623,5622,5622,5623,5622,5622,5623,5623,5623,5623,5622,5622,5622,5622,5622,5622,5622,5622,5622,5622,5622,5622,5622,5622,5622,5622,5622,5622,5622,5622,5622,5622,5622,5622,5622,5622,5623,5623,5622,5622,5622,5623,5622,5622,5623,5622,5622,5622,5622,5622,5622,5622,5622,5622,5622,5622,5622,5623,
5622,5622,5622,5622,5622,5622,5622,5623,5623,5623,5623,5623,5623,5622,5622,5623,5622,5623,5623,5622,5622,5622,5622,5623,5623,5622,5622,5622,5623,5622,5623,5622,5622,5623,5622,5622,5623,5622,5623,5622,5622,5622,5622,5622,5622,5622,5622,5622,5622,5623,5623,5622,5622,5623,5622,5623,5622,5622,5622,5622,
5622,5622,5622,5622,5622,5622,5622,5623,5622,5623,5623,5622,5622,5622,5622,5623,5622,5622,5622,5622,5623,5622,5622,5623,5622,5622,5622,5622,5622,5622,5622,5622,5622,5622,5622,5622,5622,5623,5622,5622,5622,5622,5622,5622,5622,5622,5622,5622,5622,5622,5622,5622,5622,5622,5622,5622,5622,5622,5622,5622,
5622,5622,5623,5622,5623,5622,5622,5622,5622,5623,5623,5622,5622,5623,5622,5622,5622,5622,5622,5623,5622,5622,5622,5622,5622,5622,5623,5622,5622,5623,5623,5622,5622,5622,5622,5622,5622,5622,5622,5622,5622,5622,5622,5622,5622,5622,5622,5622,5622,5622,5622,5622,5622,5622,5622,5622,5622,5622,5622,5622,
5622,5623,5622,5622,5622,5622,5623,5622,5622,5623,5623,5622,5622,5623,5622,5622,5622,5622,5622,5622,5622,5622,5623,5622,5622,5623,5622,5622,5622,5623,5622,5622,5622,5622,5622,5622,5622,5622,5622,5622,5622,5622,5622,5622,5622,5622,5622,5622,5622,5622,5622,5622,5622,5622,5622,5622,5622,5622,5622,5622,
5622,5622,5622,5622,5622,5622,5622,5622,5623,5623,5623,5623,5622,5623,5622,5622,5622,5622,5622,5622,5622,5622,5622,5622,5622,5622,5622,5622,5622,5622,5622,5622,5622,5622,5622,5622,5622,5622,5622,5622,5622,5622,5622,5622,5622,5622,5622,5622,5622,5622,5622,5622,5622,5622,5622,5623,5622,5622,5622,5622,
5622,5622,5622,5622,5622,5622,5622,5622,5623,5623,5623,5623,5622,5622,5623,5622,5622,5622,5622,5622,5622,5622,5622,5622,5622,5622,5622,5622,5622,5622,5623,5622,5622,5622,5622,5622,5622,5622,5622,5622,5622,5622,5622,5622,5622,5622,5622,5622,5622,5622,5622,5622,5622,5622,5622,5622,5622,5622,5622,5622,
5622,5622,5623,5622,5622,5622,5622,5622,5623,5623,5623,5623,5622,5622,5622,5622,5622,5622,5622,5623,5622,5622,5622,5622,5622,5622,5622,5622,5622,5622,5622,5622,5623,5622,5622,5622,5622,5622,5622,5622,5622,5623,5623,5622,5623,5622,5623,5622,5623,5622,5623,5623,5622,5623,5622,5622,5622,5622,5622,5622,
5623,5622,5622,5622,5622,5622,5622,5622,5623,5623,5623,5622,5622,5622,5622,5622,5622,5622,5622,5622,5622,5622,5622,5622,5622,5622,5622,5623,5622,5623,5622,5622,5622,5622,5622,5622,5623,5622,5622,5623,5622,5622,5622,5622,5622,5622,5622,5622,5622,5622,5622,5622,5622,5622,5622,5622,5622,5622,5622,5622,
5622,5622,5622,5622,5622,5622,5622,5622,5623,5623,5623,5622,5622,5622,5622,5622,5622,5622,5622,5622,5622,5622,5622,5622,5622,5622,5622,5622,5622,5622,5622,5622,5622,5622,5622,5622,5622,5622,5622,5622,5622,5622,5622,5622,5622,5622,5622,5622,5622,5622,5622,5622,5622,5622,5622,5622,5622,5622,5623,5622,
5622,5622,5622,5623,5622,5622,5622,5623,5623,5623,5622,5622,5622,5622,5622,5622,5622,5622,5622,5622,5622,5622,5622,5622,5622,5622,5622,5622,5622,5622,5622,5622,5622,5622,5622,5622,5622,5622,5622,5622,5622,5623,5623,5622,5623,5622,5623,5622,5623,5622,5623,5623,5622,5623,5622,5623,5622,5622,5622,5622,
5623,5622,5622,5622,5622,5622,5622,5623,5623,5623,5622,5622,5622,5622,5622,5622,5622,5622,5622,5623,5622,5622,5622,5622,5622,5622,5622,5622,5622,5622,5622,5622,5622,5622,5622,5622,5622,5622,5622,5622,5623,5622,5622,5622,5622,5622,5622,5622,5622,5622,5622,5622,5622,5622,5622,5622,5622,5622,5622,5622,
5622,5623,5622,5622,5622,5622,5622,5623,5623,5623,5622,5622,5622,5622,5622,5622,5622,5622,5622,5622,5622,5622,5622,5622,5622,5622,5622,5622,5622,5622,5622,5622,5622,5622,5622,5622,5622,5622,5622,5622,5622,5623,5623,5622,5623,5622,5622,5622,5622,5622,5622,5623,5622,5623,5623,5622,5622,5622,5622,5623,
5622,5622,5622,5622,5622,5622,5622,5623,5623,5623,5623,5622,5622,5622,5622,5622,5622,5622,5622,5622,5622,5622,5622,5622,5622,5622,5622,5622,5622,5622,5622,5622,5622,5622,5622,5622,5622,5622,5622,5623,5622,5622,5622,5622,5622,5622,5623,5623,5623,5623,5622,5622,5622,5622,5622,5622,5622,5622,5622,5622,
5623,5623,5622,5622,5622,5622,5622,5623,5623,5623,5623,5622,5622,5622,5622,5622,5622,5622,5622,5622,5622,5622,5622,5622,5622,5622,5622,5622,5622,5622,5622,5622,5622,5622,5622,5622,5622,5622,5622,5622,5622,5622,5622,5622,5622,5622,5623,5623,5623,5623,5622,5622,5622,5623,5622,5623,5622,5622,5623,5622,
5622,5622,5623,5622,5622,5622,5622,5623,5623,5623,5623,5622,5623,5623,5623,5623,5623,5622,5622,5623,5622,5622,5622,5622,5622,5622,5622,5622,5622,5622,5622,5622,5622,5622,5622,5622,5622,5622,5622,5623,5622,5623,5623,5622,5623,5622,5623,5623,5623,5623,5623,5622,5622,5622,5622,5622,5622,5622,5623,5622,
5622,5622,5622,5622,5622,5622,5622,5623,5623,5623,5623,5622,5623,5623,5623,5623,5623,5622,5622,5622,5622,5622,5622,5622,5622,5622,5622,5622,5622,5622,5622,5622,5622,5622,5622,5622,5622,5622,5622,5622,5622,5622,5622,5622,5622,5623,5623,5622,5622,5623,5622,5622,5622,5622,5622,5622,5622,5622,5622,5622,
5623,5622,5622,5622,5622,5622,5623,5623,5623,5623,5623,5622,5623,5623,5623,5623,5623,5622,5622,5622,5622,5622,5622,5622,5622,5622,5622,5622,5622,5622,5622,5622,5622,5622,5622,5622,5622,5622,5623,5622,5622,5623,5623,5622,5623,5622,5622,5622,5622,5622,5622,5622,5622,5622,5622,5622,5622,5622,5622,5622,
5622,5622,5622,5622,5622,5622,5622,5623,5623,5622,5622,5622,5622,5622,5622,5622,5622,5622,5622,5622,5622,5623,5623,5623,5623,5623,5623,5623,5622,5622,5622,5622,5622,5622,5622,5622,5622,5622,5622,5622,5622,5622,5622,5622,5622,5622,5622,5622,5622,5622,5622,5622,5623,5623,5623,5623,5622,5622,5622,5622,
5623,5622,5622,5622,5622,5622,5622,5623,5623,5622,5622,5623,5622,5622,5622,5622,5622,5623,5623,5622,5622,5623,5623,5623,5623,5623,5623,5623,5622,5622,5623,5623,5623,5622,5622,5622,5622,5622,5622,5622,5622,5622,5622,5622,5622,5622,5622,5622,5622,5623,5622,5622,5623,5623,5623,5623,5622,5622,5622,5622,
5622,5622,5622,5622,5622,5622,5622,5623,5623,5622,5622,5622,5622,5622,5622,5622,5622,5622,5622,5622,5622,5623,5623,5623,5623,5623,5623,5623,5622,5622,5623,5623,5623,5622,5622,5623,5623,5623,5623,5623,5622,5622,5622,5622,5623,5622,5623,5622,5622,5622,5622,5622,5623,5623,5623,5623,5623,5622,5622,5622,
5623,5622,5623,5622,5622,5622,5622,5623,5623,5622,5623,5623,5623,5622,5622,5623,5623,5623,5623,5623,5622,5623,5623,5622,5623,5623,5622,5623,5622,5622,5623,5623,5623,5622,5622,5623,5623,5623,5623,5623,5623,5623,5622,5622,5622,5622,5622,5622,5622,5622,5622,5622,5622,5622,5622,5622,5622,5622,5622,5622,
5622,5622,5623,5622,5622,5622,5622,5623,5623,5623,5622,5622,5622,5622,5622,5622,5622,5622,5622,5622,5622,5623,5622,5622,5622,5623,5622,5622,5622,5622,5622,5622,5622,5622,5622,5623,5623,5623,5623,5623,5622,5622,5622,5622,5622,5622,5622,5622,5622,5622,5622,5622,5622,5622,5622,5622,5622,5622,5622,5622,
5622,5622,5622,5622,5622,5622,5623,5623,5623,5623,5622,5622,5622,5622,5622,5622,5622,5622,5622,5622,5622,5622,5622,5622,5622,5622,5622,5622,5622,5622,5622,5622,5622,5622,5622,5622,5622,5622,5622,5622,5622,5623,5623,5622,5623,5623,5623,5622,5622,5623,5623,5623,5623,5623,5623,5623,5623,5622,5622,5623,
5622,5622,5622,5622,5622,5622,5623,5623,5623,5623,5622,5622,5622,5622,5622,5622,5622,5622,5622,5623,5622,5622,5622,5622,5622,5622,5622,5622,5623,5623,5622,5622,5622,5623,5622,5622,5622,5622,5622,5622,5622,5622,5622,5622,5622,5622,5622,5622,5622,5622,5622,5622,5622,5622,5622,5622,5622,5622,5623,5622,
5622,5622,5623,5622,5622,5622,5622,5623,5623,5623,5622,5622,5622,5622,5622,5622,5622,5622,5622,5622,5622,5622,5622,5622,5622,5622,5622,5622,5622,5622,5622,5622,5622,5622,5622,5622,5622,5622,5622,5622,5622,5622,5622,5622,5622,5622,5622,5622,5622,5622,5622,5622,5622,5622,5622,5622,5622,5622,5622,5622,
5622,5622,5622,5622,5622,5622,5622,5623,5623,5623,5622,5622,5622,5622,5622,5622,5622,5622,5622,5622,5622,5622,5622,5622,5622,5622,5622,5622,5622,5622,5622,5622,5622,5622,5622,5622,5622,5622,5622,5622,5622,5622,5622,5622,5622,5622,5622,5622,5622,5622,5622,5622,5622,5622,5622,5622,5622,5622,5622,5622,
5622,5622,5622,5622,5622,5622,5622,5623,5623,5623,5622,5622,5622,5622,5622,5622,5622,5622,5622,5622,5622,5622,5622,5622,5622,5622,5622,5622,5622,5622,5622,5622,5622,5622,5622,5622,5622,5622,5622,5622,5622,5622,5622,5622,5622,5622,5622,5622,5622,5622,5622,5622,5622,5622,5622,5622,5622,5622,5623,5622,
5622,5622,5622,5622,5622,5622,5622,5623,5623,5623,5622,5622,5622,5622,5622,5622,5622,5622,5622,5622,5622,5622,5622,5622,5622,5622,5622,5622,5622,5622,5622,5622,5622,5622,5622,5622,5622,5622,5622,5622,5622,5622,5622,5622,5622,5622,5622,5622,5622,5622,5622,5622,5622,5622,5622,5622,5622,5623,5622,5622,
5622,5623,5622,5622,5622,5622,5622,5623,5623,5623,5622,5622,5622,5622,5622,5622,5622,5622,5622,5622,5622,5622,5622,5622,5622,5622,5622,5622,5622,5622,5623,5622,5622,5622,5622,5622,5622,5622,5622,5622,5622,5622,5622,5622,5622,5622,5622,5622,5622,5622,5622,5622,5622,5622,5622,5622,5622,5623,5622,5622,
5622,5622,5622,5623,5622,5622,5622,5623,5623,5623,5622,5622,5622,5622,5622,5622,5622,5622,5622,5622,5622,5622,5622,5622,5622,5622,5622,5622,5622,5622,5622,5622,5622,5622,5623,5623,5623,5622,5622,5622,5622,5622,5622,5622,5622,5622,5622,5622,5622,5622,5622,5622,5622,5622,5622,5622,5622,5622,5622,5622,
5623,5622,5622,5622,5622,5622,5622,5623,5623,5623,5622,5622,5622,5622,5622,5622,5622,5622,5622,5622,5622,5622,5622,5622,5622,5622,5622,5622,5622,5622,5622,5622,5622,5623,5622,5622,5622,5622,5622,5622,5622,5622,5623,5623,5623,5622,5622,5622,5622,5622,5622,5622,5622,5622,5622,5622,5622,5622,5622,5622,
5622,5623,5622,5622,5622,5622,5622,5623,5623,5623,5622,5622,5622,5622,5622,5622,5622,5622,5622,5622,5622,5622,5622,5622,5622,5622,5622,5622,5622,5622,5622,5622,5622,5622,5622,5622,5622,5622,5622,5622,5622,5622,5622,5622,5622,5623,5622,5622,5622,5622,5622,5622,5622,5622,5622,5622,5622,5623,5622,5622,
5622,5622,5622,5622,5622,5622,5622,5622,5622,5622,5622,5622,5622,5622,5622,5622,5622,5622,5622,5622,5622,5622,5622,5622,5622,5622,5622,5622,5622,5622,5622,5622,5622,5622,5622,5622,5622,5622,5622,5622,5622,5622,5622,5622,5622,5622,5622,5622,5622,5622,5622,5622,5622,5622,5622,5622,5622,5622,5622,5622,
5622,5622,5622,5622,5622,5622,5622,5622,5622,5622,5622,5622,5622,5622,5622,5622,5622,5622,5622,5622,5622,5622,5622,5622,5622,5622,5622,5622,5622,5622,5622,5622,5622,5622,5622,5622,5622,5622,5622,5622,5622,5622,5622,5622,5622,5622,5622,5622,5622,5622,5622,5622,5622,5622,5622,5622,5623,5622,5622,5623,
5622,5622,5622,5622,5622,5622,5622,5622,5623,5623,5622,5622,5622,5622,5622,5622,5622,5622,5623,5622,5622,5622,5622,5623,5622,5622,5622,5622,5622,5622,5622,5622,5622,5622,5622,5622,5622,5622,5622,5622,5622,5622,5622,5622,5622,5622,5622,5622,5622,5623,5622,5622,5622,5623,5622,5622,5623,5622,5622,5622,
5622,5622,5622,5622,5622,5622,5622,5623,5623,5623,5622,5622,5622,5622,5622,5622,5623,5623,5622,5622,5622,5622,5622,5622,5622,5622,5622,5622,5622,5622,5622,5622,5622,5622,5622,5622,5622,5622,5622,5622,5622,5622,5622,5622,5622,5622,5622,5622,5622,5622,5623,5622,5622,5622,5622,5622,5622,5622,5622,5622,
5623,5622,5622,5622,5622,5622,5622,5623,5623,5623,5622,5622,5622,5622,5622,5622,5622,5622,5623,5622,5622,5622,5622,5622,5622,5622,5622,5622,5622,5622,5622,5622,5622,5622,5622,5622,5622,5622,5622,5622,5622,5622,5622,5622,5622,5622,5622,5622,5622,5623,5622,5622,5622,5622,5622,5622,5622,5622,5622,5623,
5622,5622,5622,5622,5622,5622,5622,5623,5623,5623,5622,5622,5622,5622,5622,5623,5622,5622,5622,5622,5622,5622,5622,5622,5622,5622,5622,5622,5622,5622,5622,5622,5622,5622,5623,5622,5622,5622,5622,5622,5622,5622,5622,5622,5623,5623,5622,5622,5622,5622,5622,5622,5622,5622,5622,5622,5622,5622,5622,5622,
5623,5622,5622,5623,5622,5622,5622,5622,5623,5623,5622,5622,5622,5622,5622,5622,5622,5622,5622,5622,5622,5623,5623,5622,5622,5622,5622,5622,5622,5622,5622,5622,5622,5622,5622,5622,5622,5622,5623,5622,5622,5622,5622,5622,5622,5622,5622,5622,5622,5622,5622,5622,5622,5622,5622,5622,5622,5622,5622,5622,
5622,5622,5623,5622,5622,5622,5622,5622,5623,5623,5623,5622,5622,5622,5622,5622,5622,5622,5622,5622,5623,5622,5623,5622,5622,5622,5622,5622,5622,5622,5622,5622,5622,5622,5622,5622,5622,5622,5622,5622,5622,5622,5622,5623,5622,5622,5622,5622,5622,5622,5622,5622,5622,5622,5622,5622,5622,5622,5622,5622,
5622,5622,5622,5622,5623,5622,5622,5623,5623,5623,5623,5622,5622,5622,5622,5622,5622,5622,5622,5622,5622,5622,5622,5622,5622,5622,5622,5622,5622,5622,5622,5622,5622,5622,5622,5622,5622,5622,5622,5622,5622,5622,5622,5623,5622,5622,5622,5622,5622,5622,5622,5622,5622,5622,5622,5622,5622,5622,5622,5622,
5623,5622,5622,5622,5622,5622,5622,5623,5623,5623,5623,5622,5623,5622,5622,5622,5622,5622,5622,5622,5622,5622,5622,5622,5622,5622,5622,5622,5622,5622,5622,5622,5622,5622,5622,5622,5622,5622,5622,5622,5622,5622,5622,5622,5622,5622,5622,5622,5622,5622,5622,5622,5622,5623,5622,5622,5622,5622,5623,5622,
5622,5623,5622,5622,5622,5622,5622,5623,5623,5623,5623,5622,5622,5622,5622,5622,5622,5622,5622,5622,5622,5622,5622,5622,5622,5622,5622,5622,5622,5622,5622,5622,5623,5623,5623,5622,5623,5623,5623,5622,5622,5622,5622,5622,5622,5622,5622,5622,5622,5622,5622,5622,5622,5622,5622,5622,5622,5622,5622,5622,
5622,5622,5622,5622,5623,5622,5622,5623,5623,5623,5623,5622,5622,5622,5623,5622,5622,5622,5622,5622,5622,5622,5622,5622,5622,5622,5622,5622,5622,5622,5622,5622,5622,5622,5622,5622,5622,5622,5622,5622,5622,5623,5622,5622,5622,5622,5622,5623,5622,5622,5622,5622,5622,5622,5622,5622,5622,5622,5622,5622,
5622,5622,5622,5622,5622,5622,5622,5623,5623,5623,5622,5622,5622,5622,5622,5622,5623,5623,5622,5622,5622,5622,5622,5622,5622,5622,5622,5622,5622,5622,5622,5622,5622,5622,5622,5622,5622,5622,5622,5622,5622,5622,5622,5622,5622,5622,5622,5622,5622,5622,5622,5622,5622,5622,5622,5622,5622,5622,5622,5622,
5622,5622,5623,5622,5622,5623,5622,5622,5623,5623,5623,5622,5622,5622,5622,5622,5622,5622,5622,5622,5622,5622,5622,5622,5622,5622,5622,5622,5622,5622,5622,5622,5622,5622,5622,5622,5622,5623,5623,5623,5622,5622,5622,5623,5623,5622,5622,5622,5622,5622,5622,5622,5622,5622,5622,5622,5622,5622,5622,5622,
5622,5622,5622,5622,5622,5622,5622,5622,5623,5623,5622,5622,5622,5622,5622,5622,5622,5622,5622,5622,5622,5622,5622,5622,5622,5622,5622,5622,5622,5622,5622,5622,5622,5622,5622,5622,5622,5622,5622,5622,5622,5623,5622,5622,5622,5622,5622,5623,5622,5622,5622,5622,5622,5623,5622,5622,5622,5622,5622,5623,
5622,5623,5622,5622,5623,5622,5622,5623,5623,5623,5622,5622,5622,5623,5622,5623,5622,5622,5622,5622,5622,5622,5622,5622,5622,5622,5622,5622,5622,5622,5623,5622,5622,5622,5622,5622,5622,5622,5622,5622,5622,5622,5622,5622,5622,5622,5622,5622,5622,5622,5622,5623,5622,5622,5622,5622,5622,5623,5622,5622,
5622,5622,5622,5622,5622,5623,5622,5622,5623,5623,5623,5622,5622,5622,5622,5622,5622,5622,5622,5622,5622,5623,5622,5622,5622,5622,5622,5622,5622,5622,5622,5622,5622,5622,5622,5622,5622,5622,5622,5622,5622,5622,5622,5622,5622,5622,5622,5622,5622,5622,5622,5622,5622,5622,5622,5622,5622,5622,5622,5622,
5622,5622,5622,5623,5622,5622,5622,5622,5623,5623,5623,5622,5622,5622,5622,5622,5622,5622,5622,5623,5622,5622,5622,5622,5622,5622,5622,5622,5622,5622,5622,5622,5622,5622,5622,5622,5622,5622,5622,5622,5622,5623,5622,5622,5622,5622,5622,5623,5622,5622,5622,5622,5622,5622,5622,5622,5622,5622,5622,5622,
5622,5622,5623,5623,5622,5622,5623,5622,5623,5623,5623,5622,5622,5622,5622,5622,5623,5622,5622,5622,5622,5622,5622,5622,5622,5622,5622,5622,5622,5622,5622,5622,5622,5622,5622,5622,5622,5622,5622,5622,5622,5622,5622,5622,5622,5623,5622,5622,5622,5622,5622,5622,5622,5622,5622,5622,5622,5623,5622,5622,
5622,5623,5622,5622,5622,5622,5622,5622,5622,5623,5623,5622,5622,5622,5622,5622,5622,5622,5622,5622,5622,5622,5622,5622,5622,5622,5622,5622,5622,5622,5622,5622,5622,5622,5622,5622,5622,5622,5622,5622,5622,5622,5622,5622,5622,5622,5622,5622,5622,5622,5622,5622,5622,5622,5622,5622,5622,5622,5623,5622,
5622,5622,5622,5622,5622,5622,5622,5623,5622,5623,5623,5623,5622,5622,5622,5622,5622,5622,5622,5622,5623,5622,5622,5622,5622,5622,5622,5622,5622,5622,5622,5622,5622,5622,5622,5622,5622,5622,5622,5622,5622,5623,5622,5622,5622,5622,5622,5623,5622,5622,5622,5622,5622,5622,5622,5622,5622,5623,5622,5622,
5622,5622,5622,5623,5623,5622,5622,5622,5622,5622,5623,5623,5622,5622,5622,5622,5622,5622,5622,5622,5622,5622,5622,5622,5622,5622,5622,5622,5622,5622,5622,5622,5622,5622,5622,5622,5622,5622,5623,5622,5622,5622,5622,5622,5622,5622,5622,5622,5622,5623,5623,5623,5622,5622,5622,5622,5623,5622,5622,5622,
5622,5622,5623,5623,5622,5622,5622,5622,5622,5622,5623,5623,5622,5622,5622,5622,5622,5622,5623,5622,5622,5622,5622,5622,5622,5622,5622,5622,5622,5622,5622,5622,5622,5622,5622,5622,5622,5622,5622,5622,5622,5622,5623,5622,5622,5623,5622,5622,5622,5622,5622,5622,5622,5622,5622,5622,5622,5622,5622,5623,
5622,5622,5622,5622,5622,5622,5622,5622,5622,5622,5623,5623,5623,5623,5623,5622,5622,5622,5622,5622,5622,5622,5622,5622,5622,5622,5622,5622,5622,5622,5622,5622,5622,5622,5622,5622,5622,5622,5622,5622,5622,5622,5622,5622,5622,5622,5622,5622,5622,5622,5622,5622,5622,5622,5622,5622,5622,5622,5622,5622,
5623,5622,5622,5623,5622,5623,5622,5622,5622,5623,5623,5623,5623,5623,5623,5623,5623,5622,5622,5622,5622,5622,5622,5622,5622,5622,5622,5622,5622,5622,5622,5622,5622,5622,5622,5622,5622,5622,5622,5622,5622,5622,5622,5622,5622,5622,5622,5622,5622,5622,5622,5622,5622,5622,5622,5622,5622,5622,5623,5622,
5622,5622,5623,5622,5622,5622,5622,5622,5622,5623,5623,5623,5623,5623,5623,5623,5623,5623,5622,5622,5622,5622,5622,5622,5622,5622,5622,5622,5622,5622,5622,5622,5622,5622,5622,5622,5622,5622,5622,5622,5622,5622,5622,5622,5622,5622,5622,5622,5622,5622,5622,5622,5622,5622,5622,5622,5622,5622,5622,5622,
5622,5622,5622,5623,5622,5622,5622,5622,5622,5623,5623,5623,5623,5623,5623,5623,5623,5623,5623,5623,5623,5622,5622,5622,5622,5622,5622,5622,5622,5622,5622,5622,5622,5622,5622,5622,5622,5622,5622,5622,5622,5622,5622,5622,5622,5622,5622,5622,5622,5622,5622,5622,5622,5623,5622,5622,5622,5623,5623,5622,
5622,5623,5623,5622,5622,5622,5622,5622,5622,5623,5623,5623,5623,5623,5623,5623,5623,5623,5623,5622,5622,5622,5622,5622,5622,5622,5622,5622,5622,5622,5622,5622,5622,5622,5622,5622,5622,5622,5622,5622,5622,5622,5622,5622,5622,5622,5622,5622,5622,5622,5622,5622,5622,5622,5622,5622,5623,5622,5622,5622,
5622,5622,5622,5622,5622,5623,5622,5622,5622,5623,5623,5623,5623,5623,5623,5623,5623,5623,5622,5622,5622,5623,5623,5622,5622,5622,5622,5622,5622,5622,5622,5622,5622,5622,5622,5622,5622,5622,5622,5622,5622,5622,5622,5622,5622,5622,5622,5622,5622,5622,5622,5623,5623,5622,5622,5622,5622,5623,5622,5622,
5622,5623,5622,5622,5622,5622,5622,5622,5622,5623,5623,5623,5623,5623,5623,5623,5623,5622,5622,5622,5622,5622,5622,5622,5622,5622,5622,5622,5622,5622,5622,5622,5622,5622,5622,5622,5623,5622,5622,5622,5622,5622,5622,5622,5623,5622,5622,5622,5622,5623,5623,5622,5622,5622,5622,5622,5623,5622,5622,5622,
5622,5622,5622,5622,5622,5622,5622,5622,5622,5623,5623,5623,5623,5623,5623,5623,5622,5622,5622,5623,5622,5622,5622,5622,5622,5622,5622,5622,5622,5622,5622,5622,5622,5622,5622,5622,5623,5622,5622,5622,5622,5622,5622,5622,5622,5622,5622,5622,5623,5622,5622,5622,5623,5622,5623,5622,5622,5622,5623,5622,
5622,5622,5622,5623,5622,5623,5622,5622,5622,5622,5623,5623,5623,5622,5622,5622,5622,5622,5622,5622,5622,5623,5623,5623,5622,5622,5622,5622,5622,5622,5622,5622,5623,5622,5622,5622,5622,5622,5622,5623,5622,5623,5622,5622,5622,5622,5622,5623,5622,5622,5622,5622,5622,5623,5622,5622,5622,5622,5623,5622,
5622,5622,5623,5622,5622,5622,5622,5622,5622,5622,5623,5623,5623,5622,5622,5622,5622,5622,5622,5622,5622,5622,5622,5622,5622,5622,5622,5622,5622,5622,5623,5622,5622,5622,5622,5623,5623,5622,5622,5622,5623,5622,5622,5622,5623,5622,5622,5622,5623,5622,5622,5622,5622,5622,5622,5622,5622,5622,5622,5623,
5622,5622,5622,5622,5622,5622,5622,5622,5622,5623,5623,5622,5622,5622,5622,5622,5622,5622,5622,5622,5622,5622,5622,5622,5622,5622,5622,5622,5622,5622,5622,5622,5622,5622,5622,5622,5622,5622,5623,5622,5622,5622,5622,5622,5623,5622,5622,5623,5622,5622,5623,5622,5622,5623,5622,5622,5623,5622,5622,5622,
5622,5622,5622,5622,5622,5622,5622,5622,5623,5623,5623,5622,5622,5622,5622,5622,5622,5622,5622,5622,5622,5622,5622,5622,5622,5622,5622,5622,5622,5622,5622,5623,5622,5622,5622,5622,5622,5622,5622,5622,5622,5622,5622,5622,5622,5622,5622,5622,5622,5622,5622,5622,5622,5623,5622,5622,5622,5622,5622,5622,
5622,5622,5623,5622,5622,5622,5622,5623,5623,5623,5623,5623,5622,5622,5623,5622,5623,5623,5622,5622,5622,5622,5622,5622,5622,5622,5622,5622,5622,5622,5622,5622,5622,5623,5622,5622,5622,5622,5622,5622,5622,5622,5622,5622,5622,5622,5623,5622,5622,5623,5622,5622,5622,5623,5622,5622,5622,5622,5623,5622,
5622,5622,5622,5623,5622,5622,5622,5622,5623,5623,5623,5623,5622,5622,5623,5622,5622,5623,5622,5623,5622,5622,5622,5622,5622,5622,5622,5622,5622,5622,5622,5622,5622,5622,5622,5622,5623,5622,5622,5622,5622,5622,5623,5622,5622,5622,5622,5622,5622,5622,5623,5622,5622,5622,5623,5623,5622,5622,5622,5623,
5622,5622,5623,5622,5622,5622,5623,5622,5622,5623,5623,5622,5622,5623,5622,5622,5623,5622,5622,5622,5622,5623,5622,5623,5622,5622,5622,5622,5622,5622,5622,5623,5622,5623,5622,5622,5622,5622,5622,5623,5622,5622,5622,5622,5622,5622,5623,5623,5622,5622,5622,5622,5622,5622,5622,5622,5622,5622,5622,5622
</data>
 </layer>
 <objectgroup id="7" name="Scenery">
  <object id="1" gid="2147489275" x="30" y="-2" width="64" height="64" />
  <object id="2" gid="2147489272" x="302" y="-2" width="64" height="64" />
  <object id="3" gid="2147489274" x="187" y="-1" width="64" height="64" />
  <object id="4" gid="2147489273" x="436" y="-1" width="64" height="64" />
  <object id="5" gid="5624" x="553" y="0" width="64" height="64" />
  <object id="6" gid="5625" x="50" y="4" width="64" height="64" />
  <object id="7" gid="5626" x="485" y="7" width="64" height="64" />
  <object id="8" gid="2147489272" x="726" y="7" width="64" height="64" />
  <object id="9" gid="5624" x="789" y="7" width="64" height="64" />
  <object id="10" gid="2147489286" x="854" y="8" width="64" height="64" />
  <object id="11" gid="5625" x="779" y="9" width="64" height="64" />
  <object id="12" gid="5626" x="363" y="10" width="64" height="64" />
  <object id="13" gid="2147489286" x="375" y="11" width="64" height="64" />
  <object id="14" gid="5638" x="698" y="11" width="64" height="64" />
  <object id="15" gid="2147489274" x="240" y="13" width="64" height="64" />
  <object id="16" gid="2147489273" x="520" y="14" width="64" height="64" />
  <object id="17" gid="5626" x="893" y="14" width="64" height="64" />
  <object id="18" gid="5624" x="591" y="18" width="64" height="64" />
  <object id="19" gid="2147489272" x="-21" y="19" width="64" height="64" />
  <object id="20" gid="2147489272" x="657" y="19" width="64" height="64" />
  <object id="21" gid="5626" x="101" y="21" width="64" height="64" />
  <object id="22" gid="2147489272" x="602" y="27" width="64" height="64" />
  <object id="23" gid="5638" x="709" y="27" width="64" height="64" />
  <object id="24" gid="5624" x="11" y="30" width="64" height="64" />
  <object id="25" gid="2147489275" x="48" y="30" width="64" height="64" />
  <object id="26" gid="5626" x="925" y="31" width="64" height="64" />
  <object id="27" gid="5626" x="821" y="34" width="64" height="64" />
  <object id="28" gid="5625" x="109" y="35" width="64" height="64" />
  <object id="29" gid="2147489292" x="164" y="35" width="64" height="64" />
  <object id="30" gid="2147489272" x="363" y="36" width="64" height="64" />
  <object id="31" gid="5625" x="248" y="37" width="64" height="64" />
  <object id="32" gid="2147489292" x="270" y="37" width="64" height="64" />
  <object id="33" gid="5638" x="221" y="39" width="64" height="64" />
  <object id="34" gid="5626" x="339" y="42" width="64" height="64" />
  <object id="35" gid="2147489292" x="456" y="42" width="64" height="64" />
  <object id="36" gid="2147489272" x="499" y="42" width="64" height="64" />
  <object id="37" gid="5624" x="756" y="42" width="64" height="64" />
  <object id="38" gid="2147489275" x="83" y="45" width="64" height="64" />
  <object id="39" gid="2147489275" x="768" y="45" width="64" height="64" />
  <object id="40" gid="2147489274" x="427" y="46" width="64" height="64" />
  <object id="41" gid="5624" x="546" y="46" width="64" height="64" />
  <object id="42" gid="2147489286" x="589" y="47" width="64" height="64" />
  <object id="43" gid="5624" x="862" y="47" width="64" height="64" />
  <object id="44" gid="5624" x="293" y="59" width="64" height="64" />
  <object id="45" gid="5627" x="572" y="59" width="64" height="64" />
  <object id="46" gid="2147489274" x="213" y="61" width="64" height="64" />
  <object id="47" gid="2147489274" x="95" y="62" width="64" height="64" />
  <object id="48" gid="2147489274" x="340" y="63" width="64" height="64" />
  <object id="49" gid="2147489272" x="457" y="68" width="64" height="64" />
  <object id="50" gid="5624" x="275" y="69" width="64" height="64" />
  <object id="51" gid="5627" x="-41" y="71" width="64" height="64" />
  <object id="52" gid="5626" x="40" y="71" width="64" height="64" />
  <object id="53" gid="2147489286" x="10" y="72" width="64" height="64" />
  <object id="54" gid="2147489274" x="441" y="74" width="64" height="64" />
  <object id="55" gid="5625" x="188" y="75" width="64" height="64" />
  <object id="56" gid="2147489274" x="388" y="76" width="64" height="64" />
  <object id="57" gid="5625" x="327" y="85" width="64" height="64" />
  <object id="58" gid="5638" x="368" y="86" width="64" height="64" />
  <object id="59" gid="2147489292" x="177" y="87" width="64" height="64" />
  <object id="60" gid="2147489274" x="443" y="87" width="64" height="64" />
  <object id="61" gid="2147489292" x="74" y="88" width="64" height="64" />
  <object id="62" gid="5626" x="928" y="89" width="64" height="64" />
  <object id="63" gid="2147489275" x="-3" y="93" width="64" height="64" />
  <object id="64" gid="2147489275" x="191" y="98" width="64" height="64" />
  <object id="65" gid="5649" x="854.4" y="108.8" width="64" height="64" />
  <object id="66" gid="2147489272" x="462" y="116" width="64" height="64" />
  <object id="67" gid="2147489274" x="192" y="117" width="64" height="64" />
  <object id="68" gid="2147489272" x="-43" y="121" width="64" height="64" />
  <object id="69" gid="5627" x="15" y="134" width="64" height="64" />
  <object id="70" gid="5746" x="654.4" y="137.6" width="64" height="64" />
  <object id="71" gid="5714" x="683.84" y="137.6" width="64" height="64" />
  <object id="72" gid="5704" x="711.36" y="137.6" width="64" height="64" />
  <object id="73" gid="5670" x="740.8" y="137.6" width="64" height="64" />
  <object id="74" gid="5716" x="770.24" y="137.6" width="64" height="64" />
  <object id="75" gid="5665" x="791.36" y="137.6" width="64" height="64" />
  <object id="76" gid="5703" x="820.8" y="137.6" width="64" height="64" />
  <object id="77" gid="5631" x="627.2" y="137.6" width="64" height="64" />
  <object id="78" gid="2147489368" x="485" y="138" width="64" height="64" />
  <object id="79" gid="2147489274" x="277" y="139" width="64" height="64" />
  <object id="80" gid="5624" x="558" y="145" width="64" height="64" />
  <object id="81" gid="5721" x="442" y="148" width="64" height="64" />
  <object id="82" gid="2147489274" x="-22" y="153" width="64" height="64" />
  <object id="83" gid="5720" x="601.6" y="153.6" width="64" height="64" />
  <object id="84" gid="2147489274" x="403" y="160" width="64" height="64" />
  <object id="85" gid="2147489273" x="908" y="165" width="64" height="64" />
  <object id="86" gid="5714" x="628.32" y="179.2" width="64" height="64" />
  <object id="87" gid="5752" x="652.16" y="179.2" width="64" height="64" />
  <object id="88" gid="5712" x="681.6" y="179.2" width="64" height="64" />
  <object id="89" gid="5704" x="714.72" y="179.2" width="64" height="64" />
  <object id="90" gid="5716" x="738.56" y="179.2" width="64" height="64" />
  <object id="91" gid="5713" x="768" y="179.2" width="64" height="64" />
  <object id="92" gid="5715" x="794.72" y="179.2" width="64" height="64" />
  <object id="93" gid="5673" x="818.56" y="179.2" width="64" height="64" />
  <object id="94" gid="5650" x="848" y="179.2" width="64" height="64" />
  <object id="95" gid="5624" x="30" y="182" width="64" height="64" />
  <object id="96" gid="2147489273" x="-23" y="193" width="64" height="64" />
  <object id="97" gid="5721" x="608" y="195.2" width="64" height="64" />
  <object id="98" gid="2147489272" x="277" y="196" width="64" height="64" />
  <object id="99" gid="5714" x="624.96" y="220.8" width="64" height="64" />
  <object id="100" gid="5714" x="683.84" y="220.8" width="64" height="64" />
  <object id="101" gid="5755" x="792.48" y="220.8" width="64" height="64" />
  <object id="102" gid="5661" x="821.92" y="220.8" width="64" height="64" />
  <object id="103" gid="5718" x="845.76" y="220.8" width="64" height="64" />
  <object id="104" gid="5648" x="654.4" y="220.8" width="64" height="64" />
  <object id="105" gid="5626" x="-5" y="221" width="64" height="64" />
  <object id="106" gid="5626" x="926" y="222" width="64" height="64" />
  <object id="107" gid="5705" x="598.4" y="230.4" width="64" height="64" />
  <object id="108" gid="5625" x="899" y="243" width="64" height="64" />
  <object id="109" gid="5625" x="-2" y="245" width="64" height="64" />
  <object id="110" gid="5625" x="-23" y="250" width="64" height="64" />
  <object id="111" gid="5665" x="820.8" y="256" width="64" height="64" />
  <object id="112" gid="5703" x="850.24" y="256" width="64" height="64" />
  <object id="113" gid="5644" x="897" y="259" width="64" height="64" />
  <object id="114" gid="5752" x="652.16" y="262.4" width="64" height="64" />
  <object id="115" gid="5648" x="627.2" y="262.4" width="64" height="64" />
  <object id="116" gid="5743" x="681.6" y="262.4" width="64" height="64" />
  <object id="117" gid="5626" x="275.2" y="265.6" width="64" height="64" />
  <object id="118" gid="5641" x="780.8" y="265.6" width="64" height="64" />
  <object id="119" gid="2147489368" x="606.4" y="265.6" width="64" height="64" />
  <object id="120" gid="5644" x="3" y="266" width="64" height="64" />
  <object id="121" gid="5682" x="691.2" y="281.6" width="64" height="64" />
  <object id="122" gid="5624" x="585.6" y="291.2" width="64" height="64" />
  <object id="123" gid="2147489353" x="143" y="293" width="64" height="64" />
  <object id="124" gid="5627" x="-20" y="294" width="64" height="64" />
  <object id="125" gid="5746" x="626.08" y="304" width="64" height="64" />
  <object id="126" gid="5746" x="679.36" y="304" width="64" height="64" />
  <object id="127" gid="5706" x="654.4" y="304" width="64" height="64" />
  <object id="128" gid="2147489368" x="74" y="304" width="64" height="64" />
  <object id="129" gid="5666" x="147.2" y="329.6" width="64" height="64" />
  <object id="130" gid="5678" x="256" y="332.8" width="64" height="64" />
  <object id="131" gid="5710" x="761.6" y="332.8" width="64" height="64" />
  <object id="132" gid="5626" x="-23" y="335" width="64" height="64" />
  <object id="133" gid="5680" x="870.4" y="339.2" width="64" height="64" />
  <object id="134" gid="5722" x="704" y="342.4" width="64" height="64" />
  <object id="135" gid="5760" x="684.8" y="348.8" width="64" height="64" />
  <object id="136" gid="5626" x="-27" y="357" width="64" height="64" />
  <object id="137" gid="5627" x="3" y="362" width="64" height="64" />
  <object id="138" gid="5640" x="630.4" y="366.4" width="64" height="64" />
  <object id="139" gid="5633" x="192" y="368" width="64" height="64" />
  <object id="140" gid="5639" x="145.6" y="368" width="64" height="64" />
  <object id="141" gid="5639" x="238.4" y="368" width="64" height="64" />
  <object id="142" gid="5679" x="268.8" y="368" width="64" height="64" />
  <object id="143" gid="5707" x="313.6" y="371.2" width="64" height="64" />
  <object id="144" gid="5707" x="374.4" y="371.2" width="64" height="64" />
  <object id="145" gid="2147489272" x="3" y="374" width="64" height="64" />
  <object id="146" gid="2147489274" x="921" y="388" width="64" height="64" />
  <object id="147" gid="5750" x="662.4" y="396.8" width="64" height="64" />
  <object id="148" gid="5633" x="736" y="400" width="64" height="64" />
  <object id="149" gid="5639" x="689.6" y="400" width="64" height="64" />
  <object id="150" gid="5679" x="632" y="400" width="64" height="64" />
  <object id="151" gid="5639" x="782.4" y="400" width="64" height="64" />
  <object id="152" gid="5639" x="811.2" y="400" width="64" height="64" />
  <object id="153" gid="5679" x="840" y="400" width="64" height="64" />
  <object id="154" gid="5639" x="868.8" y="400" width="64" height="64" />
  <object id="155" gid="5659" x="432" y="409.6" width="64" height="64" />
  <object id="156" gid="5654" x="505.6" y="409.6" width="64" height="64" />
  <object id="157" gid="5654" x="281.6" y="412.8" width="64" height="64" />
  <object id="158" gid="5627" x="-35" y="415" width="64" height="64" />
  <object id="159" gid="2147489274" x="902" y="416" width="64" height="64" />
  <object id="160" gid="2147489272" x="7" y="430" width="64" height="64" />
  <object id="161" gid="5626" x="899" y="450" width="64" height="64" />
  <object id="162" gid="2147489272" x="-37" y="471" width="64" height="64" />
  <object id="163" gid="2147489286" x="891" y="473" width="64" height="64" />
  <object id="164" gid="5733" x="409.6" y="476.8" width="64" height="64" />
  <object id="165" gid="5734" x="454.4" y="483.2" width="64" height="64" />
  <object id="166" gid="5627" x="-4" y="490" width="64" height="64" />
  <object id="167" gid="2147489273" x="895" y="490" width="64" height="64" />
  <object id="168" gid="5628" x="534.4" y="505.6" width="64" height="64" />
  <object id="169" gid="2147489273" x="28" y="511" width="64" height="64" />
  <object id="170" gid="2147489276" x="665.6" y="518.4" width="64" height="64" />
  <object id="171" gid="5627" x="-25" y="523" width="64" height="64" />
  <object id="172" gid="5761" x="496" y="524.8" width="64" height="64" />
  <object id="173" gid="5626" x="-1" y="530" width="64" height="64" />
  <object id="174" gid="5750" x="624" y="537.6" width="64" height="64" />
  <object id="175" gid="5624" x="889" y="539" width="64" height="64" />
  <object id="176" gid="5701" x="700.8" y="540.8" width="64" height="64" />
  <object id="177" gid="5624" x="865" y="567" width="64" height="64" />
  <object id="178" gid="5638" x="926" y="568" width="64" height="64" />
  <object id="179" gid="5695" x="336" y="582.4" width="64" height="64" />
  <object id="180" gid="5626" x="823" y="584" width="64" height="64" />
  <object id="181" gid="5701" x="268.8" y="585.6" width="64" height="64" />
  <object id="182" gid="5624" x="754" y="589" width="64" height="64" />
  <object id="183" gid="5624" x="874" y="590" width="64" height="64" />
  <object id="184" gid="5683" x="233.6" y="598.4" width="64" height="64" />
  <object id="185" gid="5624" x="774" y="599" width="64" height="64" />
  <object id="186" gid="2147489353" x="86" y="610" width="64" height="64" />
  <object id="187" gid="5626" x="-17" y="613" width="64" height="64" />
  <object id="188" gid="5761" x="262.4" y="614.4" width="64" height="64" />
  <object id="189" gid="5624" x="913" y="617" width="64" height="64" />
  <object id="190" gid="5750" x="204.8" y="617.6" width="64" height="64" />
  <object id="191" gid="5721" x="753" y="623" width="64" height="64" />
  <object id="192" gid="5720" x="90" y="628" width="64" height="64" />
  <object id="193" gid="2147489369" x="524" y="632" width="64" height="64" />
  <object id="194" gid="2147489272" x="700" y="638" width="64" height="64" />
  <object id="195" gid="2147489274" x="672" y="640" width="64" height="64" />
  <object id="196" gid="2147489378" x="218" y="640" width="64" height="64" />
  <object id="197" gid="5705" x="579" y="641" width="64" height="64" />
  <object id="198" gid="5645" x="323.2" y="643.2" width="64" height="64" />
  <object id="199" gid="5624" x="-27" y="649" width="64" height="64" />
  <object id="200" gid="5624" x="21" y="653" width="64" height="64" />
  <object id="201" gid="5627" x="4" y="664" width="64" height="64" />
  <object id="202" gid="2147489272" x="660" y="668" width="64" height="64" />
  <object id="203" gid="5684" x="294.4" y="668.8" width="64" height="64" />
  <object id="204" gid="5706" x="332.8" y="672" width="64" height="64" />
  <object id="205" gid="5624" x="671" y="679" width="64" height="64" />
  <object id="206" gid="2147489369" x="33" y="687" width="64" height="64" />
  <object id="207" gid="5626" x="827" y="689" width="64" height="64" />
  <object id="208" gid="2147489369" x="911" y="689" width="64" height="64" />
  <object id="209" gid="5644" x="169.6" y="694.4" width="64" height="64" />
  <object id="210" gid="5626" x="-31" y="699" width="64" height="64" />
  <object id="211" gid="5638" x="566.4" y="710.4" width="64" height="64" />
  <object id="212" gid="5624" x="-6" y="718" width="64" height="64" />
  <object id="213" gid="5629" x="496" y="720" width="64" height="64" />
  <object id="214" gid="5636" x="198.4" y="723.2" width="64" height="64" />
  <object id="215" gid="5626" x="36" y="730" width="64" height="64" />
  <object id="216" gid="5652" x="729.6" y="732.8" width="64" height="64" />
  <object id="217" gid="5660" x="633.6" y="732.8" width="64" height="64" />
  <object id="218" gid="5720" x="130" y="754" width="64" height="64" />
  <object id="219" gid="5765" x="428.8" y="755.2" width="64" height="64" />
  <object id="220" gid="5767" x="226.56" y="758.4" width="128" height="128" />
  <object id="221" gid="5683" x="672" y="761.6" width="64" height="64" />
  <object id="222" gid="5628" x="585.6" y="761.6" width="64" height="64" />
  <object id="223" gid="5624" x="63" y="763" width="64" height="64" />
  <object id="224" gid="2147489272" x="11" y="765" width="64" height="64" />
  <object id="225" gid="2147489292" x="-39" y="766" width="64" height="64" />
  <object id="226" gid="5642" x="624" y="774.4" width="64" height="64" />
  <object id="227" gid="2147489290" x="720" y="774.4" width="64" height="64" />
  <object id="228" gid="2147489272" x="918" y="782" width="64" height="64" />
  <object id="229" gid="2147489274" x="828" y="784" width="64" height="64" />
  <object id="230" gid="5638" x="-9" y="786" width="64" height="64" />
  <object id="231" gid="5624" x="894" y="787" width="64" height="64" />
  <object id="232" gid="2147489353" x="454" y="789" width="64" height="64" />
  <object id="233" gid="5670" x="179.2" y="790.4" width="64" height="64" />
  <object id="234" gid="5648" x="208" y="790.4" width="64" height="64" />
  <object id="235" gid="2147489273" x="45" y="791" width="64" height="64" />
  <object id="236" gid="5631" x="784" y="793.6" width="64" height="64" />
  <object id="237" gid="5625" x="56" y="808" width="64" height="64" />
  <object id="238" gid="5751" x="316.8" y="816" width="64" height="64" />
  <object id="239" gid="2147489275" x="-44" y="820" width="64" height="64" />
  <object id="240" gid="5642" x="624" y="822.4" width="64" height="64" />
  <object id="241" gid="2147489272" x="21" y="824" width="64" height="64" />
  <object id="242" gid="5648" x="272" y="825.6" width="64" height="64" />
  <object id="243" gid="5761" x="723.2" y="825.6" width="64" height="64" />
  <object id="244" gid="5626" x="886" y="835" width="64" height="64" />
  <object id="245" gid="2147489272" x="28" y="840" width="64" height="64" />
  <object id="246" gid="2147489275" x="3" y="842" width="64" height="64" />
  <object id="247" gid="2147489284" x="227.2" y="844.8" width="64" height="64" />
  <object id="248" gid="5674" x="694.4" y="848" width="64" height="64" />
  <object id="249" gid="2147489275" x="75" y="848" width="64" height="64" />
  <object id="250" gid="2147489274" x="902" y="855" width="64" height="64" />
  <object id="251" gid="5638" x="-11" y="864" width="64" height="64" />
  <object id="252" gid="5636" x="297.6" y="870.4" width="64" height="64" />
  <object id="253" gid="5642" x="624" y="870.4" width="64" height="64" />
  <object id="254" gid="2147489290" x="720" y="870.4" width="64" height="64" />
  <object id="255" gid="2147489273" x="882" y="871" width="64" height="64" />
  <object id="256" gid="5638" x="81" y="874" width="64" height="64" />
  <object id="257" gid="2147489272" x="31" y="881" width="64" height="64" />
  <object id="258" gid="2147489273" x="41" y="884" width="64" height="64" />
  <object id="259" gid="5641" x="582.4" y="886.4" width="64" height="64" />
  <object id="260" gid="5764" x="371.2" y="889.6" width="64" height="64" />
  <object id="261" gid="2147489276" x="774.4" y="889.6" width="64" height="64" />
  <object id="262" gid="2147489292" x="870" y="893" width="64" height="64" />
  <object id="263" gid="5625" x="29" y="899" width="64" height="64" />
  <object id="264" gid="2147489275" x="927" y="903" width="64" height="64" />
  <object id="265" gid="5670" x="262.4" y="905.6" width="64" height="64" />
  <object id="266" gid="2147489274" x="10" y="911" width="64" height="64" />
  <object id="267" gid="5630" x="675.2" y="912" width="64" height="64" />
  <object id="268" gid="2147489272" x="52" y="929" width="64" height="64" />
  <object id="269" gid="2147489273" x="900" y="930" width="64" height="64" />
  <object id="270" gid="5624" x="-18" y="939" width="64" height="64" />
  <object id="271" gid="5627" x="23" y="941" width="64" height="64" />
  <object id="272" gid="5626" x="7" y="949" width="64" height="64" />
  <object id="273" gid="5626" x="902" y="961" width="64" height="64" />
  <object id="274" gid="5625" x="883" y="963" width="64" height="64" />
  <object id="275" gid="5664" x="284.8" y="966.4" width="64" height="64" />
  <object id="276" gid="5625" x="28" y="967" width="64" height="64" />
  <object id="277" gid="5705" x="824" y="969" width="64" height="64" />
  <object id="278" gid="5762" x="428.8" y="976" width="64" height="64" />
  <object id="279" gid="2147489272" x="4" y="983" width="64" height="64" />
  <object id="280" gid="2147489272" x="-15" y="984" width="64" height="64" />
  <object id="281" gid="2147489272" x="867" y="984" width="64" height="64" />
  <object id="282" gid="2147489273" x="60" y="993" width="64" height="64" />
  <object id="283" gid="2147489378" x="808" y="994" width="64" height="64" />
  <object id="284" gid="5627" x="886" y="995" width="64" height="64" />
  <object id="285" gid="2147489353" x="793" y="1000" width="64" height="64" />
  <object id="286" gid="2147489369" x="317" y="1006" width="64" height="64" />
  <object id="287" gid="5721" x="329" y="1008" width="64" height="64" />
  <object id="288" gid="2147489274" x="876" y="1009" width="64" height="64" />
  <object id="289" gid="2147489272" x="-3" y="1014" width="64" height="64" />
  <object id="290" gid="5627" x="762" y="1014" width="64" height="64" />
  <object id="291" gid="5730" x="547" y="1018" width="64" height="64" />
  <object id="292" gid="2147489272" x="778" y="1020" width="64" height="64" />
  <object id="293" gid="5705" x="676" y="1022" width="64" height="64" />
  <object id="294" gid="5624" x="809" y="1026" width="64" height="64" />
  <object id="295" gid="2147489274" x="911" y="1029" width="64" height="64" />
  <object id="296" gid="5705" x="282" y="1036" width="64" height="64" />
  <object id="297" gid="5626" x="843" y="1037" width="64" height="64" />
  <object id="298" gid="2147489353" x="552" y="1038" width="64" height="64" />
  <object id="299" gid="2147489275" x="751" y="1040" width="64" height="64" />
  <object id="300" gid="2147489275" x="824" y="1043" width="64" height="64" />
  <object id="301" gid="5625" x="905" y="1043" width="64" height="64" />
  <object id="302" gid="2147489353" x="492" y="1046" width="64" height="64" />
  <object id="303" gid="2147489273" x="19" y="1047" width="64" height="64" />
  <object id="304" gid="2147489272" x="56" y="1050" width="64" height="64" />
  <object id="305" gid="5720" x="605" y="1051" width="64" height="64" />
  <object id="306" gid="5644" x="725" y="1052" width="64" height="64" />
  <object id="307" gid="5627" x="-40" y="1054" width="64" height="64" />
  <object id="308" gid="5720" x="630" y="1054" width="64" height="64" />
  <object id="309" gid="2147489277" x="320" y="1056" width="64" height="64" />
  <object id="310" gid="2147489378" x="163" y="1057" width="64" height="64" />
  <object id="311" gid="5626" x="677" y="1058" width="64" height="64" />
  <object id="312" gid="2147489369" x="462" y="1060" width="64" height="64" />
  <object id="313" gid="2147489368" x="613" y="1064" width="64" height="64" />
  <object id="314" gid="5721" x="534" y="1065" width="64" height="64" />
  <object id="315" gid="5626" x="11" y="1067" width="64" height="64" />
  <object id="316" gid="5720" x="550" y="1068" width="64" height="64" />
  <object id="317" gid="5626" x="917" y="1070" width="64" height="64" />
  <object id="318" gid="2147489273" x="743" y="1072" width="64" height="64" />
  <object id="319" gid="5626" x="721" y="1075" width="64" height="64" />
  <object id="320" gid="5638" x="878" y="1075" width="64" height="64" />
  <object id="321" gid="5626" x="824" y="1077" width="64" height="64" />
  <object id="322" gid="2147489368" x="584" y="1079" width="64" height="64" />
  <object id="323" gid="5624" x="677" y="1084" width="64" height="64" />
  <object id="324" gid="5627" x="776" y="1086" width="64" height="64" />
  <object id="325" gid="2147489274" x="818" y="1099" width="64" height="64" />
  <object id="326" gid="5705" x="476" y="1102" width="64" height="64" />
  <object id="327" gid="5644" x="899" y="1105" width="64" height="64" />
  <object id="328" gid="2147489368" x="511" y="1106" width="64" height="64" />
  <object id="329" gid="5624" x="234" y="1107" width="64" height="64" />
  <object id="330" gid="2147489273" x="4" y="1110" width="64" height="64" />
  <object id="331" gid="2147489272" x="192" y="1110" width="64" height="64" />
  <object id="332" gid="2147489275" x="250" y="1110" width="64" height="64" />
  <object id="333" gid="2147489274" x="708" y="1110" width="64" height="64" />
  <object id="334" gid="5626" x="93" y="1112" width="64" height="64" />
  <object id="335" gid="5626" x="755" y="1114" width="64" height="64" />
  <object id="336" gid="2147489273" x="830" y="1114" width="64" height="64" />
  <object id="337" gid="2147489274" x="-34" y="1115" width="64" height="64" />
  <object id="338" gid="5644" x="284" y="1124" width="64" height="64" />
  <object id="339" gid="2147489272" x="194" y="1125" width="64" height="64" />
  <object id="340" gid="2147489274" x="921" y="1125" width="64" height="64" />
  <object id="341" gid="5644" x="255" y="1126" width="64" height="64" />
  <object id="342" gid="2147489286" x="778" y="1127" width="64" height="64" />
  <object id="343" gid="2147489274" x="860" y="1127" width="64" height="64" />
  <object id="344" gid="2147489273" x="555" y="1128" width="64" height="64" />
  <object id="345" gid="2147489274" x="841" y="1130" width="64" height="64" />
  <object id="346" gid="5624" x="24" y="1135" width="64" height="64" />
  <object id="347" gid="2147489274" x="651" y="1135" width="64" height="64" />
  <object id="348" gid="5627" x="73" y="1137" width="64" height="64" />
  <object id="349" gid="2147489272" x="467" y="1137" width="64" height="64" />
  <object id="350" gid="2147489274" x="312" y="1138" width="64" height="64" />
  <object id="351" gid="2147489275" x="601" y="1139" width="64" height="64" />
  <object id="352" gid="5625" x="11" y="1140" width="64" height="64" />
  <object id="353" gid="2147489275" x="735" y="1141" width="64" height="64" />
  <object id="354" gid="2147489272" x="178" y="1142" width="64" height="64" />
  <object id="355" gid="2147489286" x="706" y="1143" width="64" height="64" />
  <object id="356" gid="5627" x="509" y="1144" width="64" height="64" />
  <object id="357" gid="2147489274" x="231" y="1151" width="64" height="64" />
  <object id="358" gid="5638" x="339" y="1152" width="64" height="64" />
  <object id="359" gid="5626" x="311" y="1159" width="64" height="64" />
  <object id="360" gid="5626" x="498" y="1159" width="64" height="64" />
  <object id="361" gid="5624" x="672" y="1160" width="64" height="64" />
  <object id="362" gid="5625" x="468" y="1161" width="64" height="64" />
  <object id="363" gid="5638" x="-29" y="1163" width="64" height="64" />
  <object id="364" gid="2147489275" x="112" y="1163" width="64" height="64" />
  <object id="365" gid="5626" x="653" y="1164" width="64" height="64" />
  <object id="366" gid="2147489272" x="561" y="1165" width="64" height="64" />
  <object id="367" gid="5624" x="823" y="1165" width="64" height="64" />
  <object id="368" gid="2147489274" x="862" y="1165" width="64" height="64" />
  <object id="369" gid="2147489275" x="57" y="1166" width="64" height="64" />
  <object id="370" gid="5625" x="714" y="1166" width="64" height="64" />
  <object id="371" gid="2147489272" x="896" y="1166" width="64" height="64" />
  <object id="372" gid="5624" x="170" y="1168" width="64" height="64" />
  <object id="373" gid="2147489274" x="248" y="1168" width="64" height="64" />
  <object id="374" gid="5624" x="770" y="1168" width="64" height="64" />
  <object id="375" gid="2147489274" x="2" y="1169" width="64" height="64" />
  <object id="376" gid="5625" x="157" y="1170" width="64" height="64" />
  <object id="377" gid="5624" x="611" y="1172" width="64" height="64" />
 </objectgroup>
 <objectgroup id="8" name="Objects">
  <object id="378" x="32" y="560" name="start" type="start">
   <point />
  </object>
  <object id="379" x="368" y="352" name="chapel-door" type="warp" width="16" height="16">
   <properties>
    <property name="goto" value="GloomhollowChapel,8,13.5" />
   </properties>
  </object>
  <object id="380" x="416" y="352" name="chapel-side-door" type="warp" width="16" height="16">
   <properties>
    <property name="goto" value="GloomhollowChapel,18,13.5" />
   </properties>
  </object>
  <object id="381" x="752" y="272" name="crypt" type="warp" width="32" height="16">
   <properties>
    <property name="goto" value="GloomhollowCrypt,7,11.5" />
   </properties>
  </object>
  <object id="382" x="0" y="544" name="frostmere-trail" type="warp" width="32" height="32">
   <properties>
    <property name="goto" value="Frostmere,61.5,35" />
   </properties>
  </object>
  <object id="383" x="416" y="1120" name="glimmercap-path" type="warp" width="48" height="32">
   <properties>
    <property name="goto" value="Glimmercap,24.5,2.5" />
   </properties>
  </object>
  <object id="384" x="176" y="368" name="haunted-streets" type="marker" width="464" height="240" />
  <object id="385" x="640" y="96" name="churchyard" type="marker" width="272" height="272" />
  <object id="386" x="192" y="656" name="gallows-field" type="marker" width="176" height="288" />
  <object id="387" x="528" y="688" name="abbey-ruins" type="marker" width="336" height="272" />
  <object id="388" x="80" y="880" name="drowned-pool" type="marker" width="224" height="160" />
  <object id="389" x="0" y="0" name="gloomhollow" type="soundscape" width="960" height="1152">
   <properties>
    <property name="channel1" value="audio/music/forest.flac, 0.24" />
    <property name="channel2" value="audio/ambient/forest_air.flac, 0.3" />
   </properties>
  </object>
  <object id="390" x="80" y="0" name="brook" type="soundscape" width="144" height="1152">
   <properties>
    <property name="channel4" value="audio/ambient/lapping_water.flac, 0.3" />
    <property name="emit" value="2.0" type="float" />
   </properties>
  </object>
  <object id="391" x="640" y="96" name="churchyard" type="soundscape" width="272" height="304">
   <properties>
    <property name="channel3" value="audio/ambient/stone_hum.flac, 0.29" />
    <property name="emit" value="3.0" type="float" />
   </properties>
  </object>
  <object id="392" x="528" y="688" name="abbey" type="soundscape" width="336" height="272">
   <properties>
    <property name="channel3" value="audio/ambient/stone_hum.flac, 0.29" />
    <property name="emit" value="3.0" type="float" />
   </properties>
  </object>
  <object id="393" x="160" y="192" name="manor" type="soundscape" width="160" height="160">
   <properties>
    <property name="channel3" value="audio/ambient/timbers.flac, 0.3" />
    <property name="emit" value="2.0" type="float" />
   </properties>
  </object>
 </objectgroup>
</map>