<?xml version='1.0' encoding='UTF-8'?>
<map version="1.10" tiledversion="1.11.0" orientation="orthogonal" renderorder="right-down" width="24" height="16" tilewidth="16" tileheight="16" infinite="0" nextlayerid="9" nextobjectid="23">
 <tileset firstgid="1" source="../tilesets/gloomhollow-chapel-terrain.tsx" />
 <tileset firstgid="41" source="../tilesets/gloomhollow-chapel-decor.tsx" />
 <tileset firstgid="49" source="../tilesets/gloomhollow-chapel-furniture.tsx" />
 <tileset firstgid="852" source="../tilesets/collision.tsx" />
 <tileset firstgid="854" source="../tilesets/gloomhollow-chapel-props.tsx" />
 <layer id="1" name="Floor" width="24" height="16">
  <data encoding="csv">
1,1,1,1,1,1,1,1,1,1,1,1,1,1,1,1,1,1,1,1,1,1,1,1,
1,1,1,1,1,1,1,1,1,1,1,1,1,1,1,1,1,1,1,1,1,1,1,1,
1,1,1,1,1,1,1,1,1,1,1,1,1,1,1,1,1,1,1,1,1,1,1,1,
1,1,1,1,1,1,1,1,1,1,1,1,1,1,1,1,1,1,1,1,1,1,1,1,
1,1,1,1,1,1,1,1,1,1,1,1,1,1,1,1,1,1,1,1,1,1,1,1,
1,1,1,1,1,1,1,1,1,1,1,1,1,1,1,1,1,1,1,1,1,1,1,1,
1,1,1,1,1,1,1,1,1,1,1,1,1,1,1,1,1,1,1,1,1,1,1,1,
1,1,1,1,1,1,1,1,1,1,1,1,1,1,1,1,1,1,1,1,1,1,1,1,
1,1,1,1,1,1,1,1,1,1,1,1,1,1,1,1,1,1,1,1,1,1,1,1,
1,1,1,1,1,1,1,1,1,1,1,1,1,1,1,1,1,1,1,1,1,1,1,1,
1,1,1,1,1,1,1,1,1,1,1,1,1,1,1,1,1,1,1,1,1,1,1,1,
1,1,1,1,1,1,1,1,1,1,1,1,1,1,1,1,1,1,1,1,1,1,1,1,
1,1,1,1,1,1,1,1,1,1,1,1,1,1,1,1,1,1,1,1,1,1,1,1,
1,1,1,1,1,1,1,1,1,1,1,1,1,1,1,1,1,1,1,1,1,1,1,1,
1,1,1,1,1,1,1,1,1,1,1,1,1,1,1,1,1,1,1,1,1,1,1,1,
1,1,1,1,1,1,1,1,1,1,1,1,1,1,1,1,1,1,1,1,1,1,1,1
</data>
 </layer>
 <layer id="2" name="Walls" width="24" height="16">
  <data encoding="csv">
7,7,7,7,7,7,7,7,7,7,7,7,7,7,7,7,7,7,7,7,7,7,7,7,
12,13,13,13,13,13,13,13,13,13,13,13,13,13,13,19,12,13,13,13,13,13,13,19,
15,16,16,16,16,16,16,16,16,16,16,16,16,16,16,22,15,16,16,16,16,16,16,22,
9,0,0,0,0,0,0,0,0,0,0,0,0,0,0,6,9,0,0,0,0,0,0,6,
9,0,0,0,0,0,0,0,0,0,0,0,0,0,0,6,9,0,0,0,0,0,0,6,
9,0,0,0,0,0,0,0,0,0,0,0,0,0,0,18,14,0,0,0,0,0,0,6,
9,0,0,0,0,0,0,0,0,0,0,0,0,0,0,21,17,0,0,0,0,0,0,6,
9,0,0,0,0,0,0,0,0,0,0,0,0,0,0,0,0,0,0,0,0,0,0,6,
9,0,0,0,0,0,0,0,0,0,0,0,0,0,0,0,0,0,0,0,0,0,0,6,
9,0,0,0,0,0,0,0,0,0,0,0,0,0,0,2,4,0,0,0,0,0,0,6,
9,0,0,0,0,0,0,0,0,0,0,0,0,0,0,5,9,0,0,0,0,0,0,6,
9,0,0,0,0,0,0,0,0,0,0,0,0,0,0,6,9,0,0,0,0,0,0,6,
9,0,0,0,0,0,0,0,0,0,0,0,0,0,0,6,9,0,0,0,0,0,0,6,
9,0,0,0,0,0,0,0,0,0,0,0,0,0,0,6,9,0,0,0,0,0,0,6,
10,3,3,3,3,3,4,0,0,2,3,3,3,3,3,11,9,0,0,2,3,3,3,11,
7,7,7,7,7,7,9,0,0,5,7,7,7,7,7,7,9,0,0,5,7,7,7,7
</data>
 </layer>
 <layer id="3" name="Rug" width="24" height="16">
  <data encoding="csv">
0,0,0,0,0,0,0,0,0,0,0,0,0,0,0,0,0,0,0,0,0,0,0,0,
0,0,0,0,0,0,0,0,0,0,0,0,0,0,0,0,0,0,0,0,0,0,0,0,
0,0,0,0,0,0,0,0,0,0,0,0,0,0,0,0,0,0,0,0,0,0,0,0,
0,0,0,0,0,0,0,0,0,0,0,0,0,0,0,0,0,0,0,0,0,0,0,0,
0,0,0,0,0,0,32,34,34,35,0,0,0,0,0,0,0,0,0,0,0,0,0,0,
0,0,0,0,0,0,36,37,37,27,0,0,0,0,0,0,0,0,0,0,0,0,0,0,
0,0,0,0,0,0,36,37,37,27,0,0,0,0,0,0,0,0,0,0,0,0,0,0,
0,0,0,0,0,0,36,37,37,27,0,0,0,0,0,0,0,0,0,0,0,0,0,0,
0,0,0,0,0,0,36,37,37,27,0,0,0,0,0,0,0,0,0,0,0,0,0,0,
0,0,0,0,0,0,36,37,37,27,0,0,0,0,0,0,0,0,0,0,0,0,0,0,
0,0,0,0,0,0,36,37,37,27,0,0,0,0,0,0,0,0,0,0,0,0,0,0,
0,0,0,0,0,0,36,37,37,27,0,0,0,0,0,0,0,0,0,0,0,0,0,0,
0,0,0,0,0,0,36,37,37,27,0,0,0,0,0,0,0,0,0,0,0,0,0,0,
0,0,0,0,0,0,36,37,37,27,0,0,0,0,0,0,0,0,0,0,0,0,0,0,
0,0,0,0,0,0,0,29,29,0,0,0,0,0,0,0,0,0,0,0,0,0,0,0,
0,0,0,0,0,0,0,0,0,0,0,0,0,0,0,0,0,0,0,0,0,0,0,0
</data>
 </layer>
 <layer id="4" name="Decor" width="24" height="16">
  <data encoding="csv">
0,0,0,0,0,0,0,0,0,0,0,0,0,0,0,0,0,0,0,0,0,0,0,0,
0,0,0,45,0,0,0,41,42,0,0,45,0,0,0,0,0,0,0,0,0,47,0,0,
0,0,0,46,0,0,0,43,44,0,0,46,0,0,0,0,0,0,0,0,0,48,0,0,
0,0,0,0,0,0,0,0,0,0,0,0,0,0,0,0,0,0,0,0,0,0,0,0,
0,0,0,0,0,0,0,0,0,0,0,0,0,0,0,0,0,0,0,0,0,0,0,0,
0,0,0,0,0,0,0,0,0,0,0,0,0,0,0,0,0,0,0,0,0,0,0,0,
0,0,0,0,0,0,0,0,0,0,0,0,0,0,0,0,0,0,0,0,0,0,0,0,
0,0,0,0,0,0,0,0,0,0,0,0,0,0,0,0,0,0,0,0,0,0,0,0,
0,0,0,0,0,0,0,0,0,0,0,0,0,0,0,0,0,0,0,0,0,0,0,0,
0,0,0,0,0,0,0,0,0,0,0,0,0,0,0,0,0,0,0,0,0,0,0,0,
0,0,0,0,0,0,0,0,0,0,0,0,0,0,0,0,0,0,0,0,0,0,0,0,
0,0,0,0,0,0,0,0,0,0,0,0,0,0,0,0,0,0,0,0,0,0,0,0,
0,0,0,0,0,0,0,0,0,0,0,0,0,0,0,0,0,0,0,0,0,0,0,0,
0,0,0,0,0,0,0,0,0,0,0,0,0,0,0,0,0,0,0,0,0,0,0,0,
0,0,0,0,0,0,0,0,0,0,0,0,0,0,0,0,0,0,0,0,0,0,0,0,
0,0,0,0,0,0,0,0,0,0,0,0,0,0,0,0,0,0,0,0,0,0,0,0
</data>
 </layer>
 <layer id="5" name="Dynamic" width="24" height="16">
  <data encoding="csv">
0,0,0,0,0,0,0,0,0,0,0,0,0,0,0,0,0,0,0,0,0,0,0,0,
0,0,0,0,0,0,0,0,0,0,0,0,0,0,0,0,0,0,0,0,0,0,0,0,
0,0,0,0,0,0,0,0,0,0,0,0,0,0,0,0,0,0,0,0,0,0,0,0,
0,57,58,0,0,0,0,53,54,0,0,0,0,0,0,0,0,515,516,0,0,0,0,0,
0,59,60,0,0,0,0,55,56,0,0,0,0,0,0,0,0,517,518,0,0,0,0,0,
0,0,0,0,0,0,0,0,0,0,0,0,0,0,0,0,0,0,0,0,0,0,0,0,
0,0,49,50,49,50,0,0,0,0,49,50,49,50,0,0,0,231,232,0,0,277,278,0,
0,0,51,52,51,52,0,0,0,0,51,52,51,52,0,0,0,233,234,0,0,279,280,0,
0,0,49,50,49,50,0,0,0,0,49,50,49,50,0,0,0,0,0,0,0,0,0,0,
0,0,51,52,51,52,0,0,0,0,51,52,51,52,0,0,0,227,228,0,0,0,0,0,
0,0,49,50,49,50,0,0,0,0,49,50,49,50,0,0,0,229,230,0,0,0,0,0,
0,0,51,52,51,52,0,0,0,0,51,52,51,52,0,0,0,0,0,0,0,153,154,0,
0,0,0,0,0,0,0,0,0,0,0,0,0,0,0,0,0,0,0,0,0,155,156,0,
0,0,0,0,0,0,0,0,0,0,0,0,0,0,0,0,0,0,0,0,0,0,0,0,
0,0,0,0,0,0,0,0,0,0,0,0,0,0,0,0,0,0,0,0,0,0,0,0,
0,0,0,0,0,0,0,0,0,0,0,0,0,0,0,0,0,0,0,0,0,0,0,0
</data>
 </layer>
 <layer id="6" name="Collision" width="24" height="16">
  <data encoding="csv">
853,853,853,853,853,853,853,853,853,853,853,853,853,853,853,853,853,853,853,853,853,853,853,853,
853,853,853,853,853,853,853,853,853,853,853,853,853,853,853,853,853,853,853,853,853,853,853,853,
853,853,853,853,853,853,853,853,853,853,853,853,853,853,853,853,853,853,853,853,853,853,853,853,
853,852,852,852,852,852,852,852,852,852,852,852,852,852,852,853,853,852,852,852,852,852,852,853,
853,853,853,852,852,852,853,853,853,853,852,852,852,853,852,853,853,853,853,853,852,853,852,853,
853,852,852,852,852,852,852,852,852,852,852,853,852,852,852,853,853,852,852,852,852,852,852,853,
853,852,852,852,852,852,852,852,852,852,852,852,852,852,852,853,853,852,852,853,852,852,852,853,
853,852,853,853,853,853,852,852,852,852,853,853,853,853,852,852,852,853,853,853,852,853,853,853,
853,852,852,852,852,852,852,852,852,852,852,852,852,852,852,852,852,852,852,852,852,852,852,853,
853,852,853,853,853,853,852,852,852,852,853,853,853,853,852,853,853,852,852,852,852,852,852,853,
853,852,852,852,852,852,852,852,852,852,852,852,852,852,852,853,853,853,853,852,852,852,852,853,
853,852,853,853,853,853,852,852,852,852,853,853,853,853,852,853,853,852,852,852,852,852,852,853,
853,852,852,852,852,852,852,852,852,852,852,852,852,853,852,853,853,852,852,852,852,853,853,853,
853,852,852,852,853,852,853,852,852,852,853,853,852,853,852,853,853,852,852,852,852,852,852,853,
853,853,853,853,853,853,853,852,852,853,853,853,853,853,853,853,853,852,852,853,853,853,853,853,
853,853,853,853,853,853,853,852,852,853,853,853,853,853,853,853,853,852,852,853,853,853,853,853
</data>
 </layer>
 <objectgroup id="7" name="Scenery">
  <object id="1" gid="859" x="72" y="78" width="64" height="64" />
  <object id="2" gid="859" x="120" y="78" width="64" height="64" />
  <object id="3" gid="879" x="312" y="78" width="64" height="64" />
  <object id="4" gid="857" x="185.6" y="78.4" width="64" height="64" />
  <object id="5" gid="899" x="280" y="78.4" width="64" height="64" />
  <object id="6" gid="858" x="144" y="94.4" width="64" height="64" />
  <object id="7" gid="912" x="280" y="110" width="64" height="64" />
  <object id="8" gid="944" x="280" y="126" width="64" height="64" />
  <object id="9" gid="884" x="326.4" y="158.4" width="64" height="64" />
  <object id="10" gid="935" x="184" y="206" width="64" height="64" />
  <object id="11" gid="881" x="72" y="222" width="64" height="64" />
  <object id="12" gid="889" x="44.8" y="222.4" width="64" height="64" />
  <object id="13" gid="874" x="137.6" y="222.4" width="64" height="64" />
  <object id="14" gid="1065" x="190.4" y="222.4" width="64" height="64" />
 </objectgroup>
 <objectgroup id="8" name="Objects">
  <object id="15" x="128" y="216" name="start" type="start">
   <point />
  </object>
  <object id="16" x="112" y="224" name="nave-door" type="warp" width="32" height="32">
   <properties>
    <property name="goto" value="Gloomhollow,23.5,23.5" />
   </properties>
  </object>
  <object id="17" x="272" y="224" name="quarters-door" type="warp" width="32" height="32">
   <properties>
    <property name="goto" value="Gloomhollow,26.5,23.5" />
   </properties>
  </object>
  <object id="18" x="192" y="200" name="gravedigger-pew" type="marker">
   <point />
  </object>
  <object id="19" x="312" y="136" name="priest-study" type="marker">
   <point />
  </object>
  <object id="20" x="16" y="48" type="safe-zone" width="352" height="176" />
  <object id="21" x="16" y="48" name="nave" type="soundscape" width="224" height="176">
   <properties>
    <property name="channel3" value="audio/ambient/stone_hum.flac, 0.29" />
    <property name="emit" value="4.0" type="float" />
   </properties>
  </object>
  <object id="22" x="272" y="48" name="hearth" type="soundscape" width="48" height="48">
   <properties>
    <property name="channel4" value="audio/ambient/campfire.flac, 0.29" />
    <property name="emit" value="3.0" type="float" />
   </properties>
  </object>
 </objectgroup>
</map>