<?xml version='1.0' encoding='UTF-8'?>
<map version="1.10" tiledversion="1.11.0" orientation="orthogonal" renderorder="right-down" width="14" height="12" tilewidth="16" tileheight="16" infinite="0" nextlayerid="9" nextobjectid="8">
 <tileset firstgid="1" source="../tilesets/mirefen-stilt-terrain.tsx" />
 <tileset firstgid="41" source="../tilesets/mirefen-stilt-decor.tsx" />
 <tileset firstgid="60" source="../tilesets/mirefen-stilt-furniture.tsx" />
 <tileset firstgid="458" source="../tilesets/collision.tsx" />
 <tileset firstgid="460" source="../tilesets/mirefen-stilt-props.tsx" />
 <layer id="1" name="Floor" width="14" height="12">
  <data encoding="csv">
1,1,1,1,1,1,1,1,1,1,1,1,1,1,
1,1,1,1,1,1,1,1,1,1,1,1,1,1,
1,1,1,1,1,1,1,1,1,1,1,1,1,1,
1,1,1,1,1,1,1,1,1,1,1,1,1,1,
1,1,1,1,1,1,1,1,1,1,1,1,1,1,
1,1,1,1,1,1,1,1,1,1,1,1,1,1,
1,1,1,1,1,1,1,1,1,1,1,1,1,1,
1,1,1,1,1,1,1,1,1,1,1,1,1,1,
1,1,1,1,1,1,1,1,1,1,1,1,1,1,
1,1,1,1,1,1,1,1,1,1,1,1,1,1,
1,1,1,1,1,1,1,1,1,1,1,1,1,1,
1,1,1,1,1,1,1,1,1,1,1,1,1,1
</data>
 </layer>
 <layer id="2" name="Walls" width="14" height="12">
  <data encoding="csv">
7,7,7,7,7,7,7,7,7,7,7,7,7,7,
12,13,13,13,13,13,13,13,13,13,13,13,13,19,
15,16,16,16,16,16,16,16,16,16,16,16,16,22,
9,0,0,0,0,0,0,0,0,0,0,0,0,6,
9,0,0,0,0,0,0,0,0,0,0,0,0,6,
9,0,0,0,0,0,0,0,0,0,0,0,0,6,
9,0,0,0,0,0,0,0,0,0,0,0,0,6,
9,0,0,0,0,0,0,0,0,0,0,0,0,6,
9,0,0,0,0,0,0,0,0,0,0,0,0,6,
9,0,0,0,0,0,0,0,0,0,0,0,0,6,
10,3,3,3,4,0,0,2,3,3,3,3,3,11,
7,7,7,7,9,0,0,5,7,7,7,7,7,7
</data>
 </layer>
 <layer id="3" name="Rug" width="14" height="12">
  <data encoding="csv">
0,0,0,0,0,0,0,0,0,0,0,0,0,0,
0,0,0,0,0,0,0,0,0,0,0,0,0,0,
0,0,0,0,0,0,0,0,0,0,0,0,0,0,
0,0,0,0,0,0,0,0,0,0,0,0,0,0,
0,0,0,0,0,0,0,0,0,0,0,0,0,0,
0,0,0,0,32,34,34,34,34,35,0,0,0,0,
0,0,0,0,36,37,37,37,37,27,0,0,0,0,
0,0,0,0,36,37,37,37,37,27,0,0,0,0,
0,0,0,0,28,29,29,29,29,31,0,0,0,0,
0,0,0,0,0,0,0,0,0,0,0,0,0,0,
0,0,0,0,0,0,0,0,0,0,0,0,0,0,
0,0,0,0,0,0,0,0,0,0,0,0,0,0
</data>
 </layer>
 <layer id="4" name="Decor" width="14" height="12">
  <data encoding="csv">
0,0,0,0,0,0,0,0,0,0,0,0,0,0,
0,0,56,57,41,42,0,0,45,48,49,52,53,0,
0,0,58,59,43,44,0,46,47,50,51,54,55,0,
0,0,0,0,0,0,0,0,0,0,0,0,0,0,
0,0,0,0,0,0,0,0,0,0,0,0,0,0,
0,0,0,0,0,0,0,0,0,0,0,0,0,0,
0,0,0,0,0,0,0,0,0,0,0,0,0,0,
0,0,0,0,0,0,0,0,0,0,0,0,0,0,
0,0,0,0,0,0,0,0,0,0,0,0,0,0,
0,0,0,0,0,0,0,0,0,0,0,0,0,0,
0,0,0,0,0,0,0,0,0,0,0,0,0,0,
0,0,0,0,0,0,0,0,0,0,0,0,0,0
</data>
 </layer>
 <layer id="5" name="Dynamic" width="14" height="12">
  <data encoding="csv">
0,0,0,0,0,0,0,0,0,0,0,0,0,0,
0,0,0,0,0,0,0,0,0,0,0,0,0,0,
0,0,0,0,0,0,0,0,0,0,0,0,0,0,
0,212,213,0,76,77,224,225,0,0,164,165,68,69,
0,214,215,0,78,79,226,227,0,0,166,167,70,71,
0,300,301,0,0,0,0,0,0,0,0,0,118,119,
0,302,303,0,0,142,296,297,172,173,0,0,120,121,
0,0,0,0,0,143,298,299,174,175,0,0,0,0,
0,60,61,84,85,0,0,0,176,177,72,73,204,205,
0,62,63,86,87,0,0,0,178,179,74,75,206,207,
0,0,0,0,0,0,0,0,0,0,0,0,0,0,
0,0,0,0,0,0,0,0,0,0,0,0,0,0
</data>
 </layer>
 <layer id="6" name="Collision" width="14" height="12">
  <data encoding="csv">
459,459,459,459,459,459,459,459,459,459,459,459,459,459,
459,459,459,459,459,459,459,459,459,459,459,459,459,459,
459,459,459,459,459,459,459,459,459,459,459,459,459,459,
459,458,458,459,458,458,458,458,458,458,458,458,458,459,
459,459,459,458,459,459,459,459,458,458,459,459,459,459,
459,458,458,458,458,458,458,458,458,458,458,458,458,459,
459,459,459,458,458,458,458,458,458,458,459,458,459,459,
459,458,458,458,458,459,459,459,459,459,458,458,458,459,
459,458,458,458,458,458,458,458,458,458,458,458,458,459,
459,459,459,459,459,458,458,458,459,459,459,459,459,459,
459,459,459,459,459,458,458,459,459,459,459,459,459,459,
459,459,459,459,459,458,458,459,459,459,459,459,459,459
</data>
 </layer>
 <objectgroup id="7" name="Scenery">
  <object id="1" gid="527" x="24" y="62" width="64" height="64" />
  <object id="2" gid="528" x="136" y="110" width="64" height="64" />
 </objectgroup>
 <objectgroup id="8" name="Objects">
  <object id="3" x="96" y="152" name="start" type="start">
   <point />
  </object>
  <object id="4" x="80" y="160" name="front-door" type="warp" width="32" height="32">
   <properties>
    <property name="goto" value="Mirefen,41,22.5" />
   </properties>
  </object>
  <object id="5" x="168" y="120" name="net-frame" type="marker">
   <point />
  </object>
  <object id="6" x="0" y="0" name="under-the-floor" type="soundscape" width="224" height="192">
   <properties>
    <property name="channel3" value="audio/ambient/lapping_water.flac, 0.29" />
   </properties>
  </object>
  <object id="7" x="64" y="48" name="stove" type="soundscape" width="32" height="32">
   <properties>
    <property name="channel4" value="audio/ambient/campfire.flac, 0.22" />
    <property name="emit" value="2.0" type="float" />
   </properties>
  </object>
 </objectgroup>
</map>