<?xml version='1.0' encoding='UTF-8'?>
<map version="1.10" tiledversion="1.11.0" orientation="orthogonal" renderorder="right-down" width="18" height="14" tilewidth="16" tileheight="16" infinite="0" nextlayerid="9" nextobjectid="9">
 <tileset firstgid="1" source="../tilesets/mirefen-witch-terrain.tsx" />
 <tileset firstgid="41" source="../tilesets/mirefen-witch-overlay.tsx" />
 <tileset firstgid="57" source="../tilesets/mirefen-witch-rug.tsx" />
 <tileset firstgid="1657" source="../tilesets/mirefen-witch-decor.tsx" />
 <tileset firstgid="1677" source="../tilesets/mirefen-witch-furniture.tsx" />
 <tileset firstgid="2112" source="../tilesets/collision.tsx" />
 <tileset firstgid="2114" source="../tilesets/mirefen-witch-props.tsx" />
 <layer id="1" name="Floor" width="18" height="14">
  <data encoding="csv">
1,1,1,1,1,1,1,1,1,1,1,1,1,1,1,1,1,1,
1,1,1,1,1,1,1,1,1,1,1,1,1,1,1,1,1,1,
1,1,1,1,1,1,1,1,1,1,1,1,1,1,1,1,1,1,
1,1,1,1,1,1,1,1,1,1,1,1,1,1,1,1,1,1,
1,1,1,1,1,1,1,1,1,1,1,1,1,1,1,1,1,1,
1,1,1,1,1,1,1,1,1,1,1,1,1,1,1,1,1,1,
1,1,1,1,1,1,1,1,1,1,1,1,1,1,1,1,1,1,
1,1,1,1,1,1,1,1,1,1,1,1,1,1,1,1,1,1,
1,1,1,1,1,1,1,1,1,1,1,1,1,1,1,1,1,1,
1,1,1,1,1,1,1,1,1,1,1,1,1,1,1,1,1,1,
1,1,1,1,1,1,1,1,1,1,1,1,1,1,1,1,1,1,
1,1,1,1,1,1,1,1,1,1,1,1,1,1,1,1,1,1,
1,1,1,1,1,1,1,1,1,1,1,1,1,1,1,1,1,1,
1,1,1,1,1,1,1,1,1,1,1,1,1,1,1,1,1,1
</data>
 </layer>
 <layer id="2" name="Walls" width="18" height="14">
  <data encoding="csv">
7,7,7,7,7,7,7,7,7,7,7,7,7,7,7,7,7,7,
12,13,13,13,13,19,12,13,13,13,13,13,13,13,13,13,13,19,
15,16,16,16,16,22,15,16,16,16,16,16,16,16,16,16,16,22,
9,0,0,0,0,6,9,0,0,0,0,0,0,0,0,0,0,6,
9,0,0,0,0,6,9,0,0,0,0,0,0,0,0,0,0,6,
9,0,0,0,0,18,14,0,0,0,0,0,0,0,0,0,0,6,
9,0,0,0,0,21,17,0,0,0,0,0,0,0,0,0,0,6,
9,0,0,0,0,0,0,0,0,0,0,0,0,0,0,0,0,6,
9,0,0,0,0,0,0,0,0,0,0,0,0,0,0,0,0,6,
9,0,0,0,0,2,4,0,0,0,0,0,0,0,0,0,0,6,
9,0,0,0,0,5,9,0,0,0,0,0,0,0,0,0,0,6,
9,0,0,0,0,6,9,0,0,0,0,0,0,0,0,0,0,6,
10,3,3,3,3,11,9,0,0,2,3,3,3,3,3,3,3,11,
7,7,7,7,7,7,9,0,0,5,7,7,7,7,7,7,7,7
</data>
 </layer>
 <layer id="3" name="Rug" width="18" height="14">
  <data encoding="csv">
0,0,0,0,0,0,0,0,0,0,0,0,0,0,0,0,0,0,
0,0,0,0,0,0,0,0,0,0,0,0,0,0,0,0,0,0,
0,0,0,0,0,0,0,0,0,0,0,0,0,0,0,0,0,0,
0,0,0,0,0,0,0,0,0,0,0,0,0,0,0,0,0,0,
0,0,0,0,0,0,0,0,0,0,0,0,0,0,0,0,0,0,
0,0,0,0,0,0,0,0,0,0,0,0,0,0,0,0,0,0,
0,0,0,0,0,0,0,0,0,0,0,0,0,0,0,0,0,0,
0,0,0,0,0,0,0,0,0,0,0,0,0,0,0,0,0,0,
0,0,0,0,0,0,0,0,0,41,42,43,44,45,46,0,0,0,
0,0,0,0,0,0,0,0,0,47,427,428,429,430,48,0,0,0,
0,0,0,0,0,0,0,0,0,49,467,468,469,470,50,0,0,0,
0,0,0,0,0,0,0,0,0,51,52,53,54,55,56,0,0,0,
0,0,0,0,0,0,0,0,0,0,0,0,0,0,0,0,0,0,
0,0,0,0,0,0,0,0,0,0,0,0,0,0,0,0,0,0
</data>
 </layer>
 <layer id="4" name="Decor" width="18" height="14">
  <data encoding="csv">
0,0,0,0,0,0,0,0,0,0,0,0,0,0,0,0,0,0,
0,0,1673,1674,0,0,0,1657,1658,0,0,0,1661,1662,1665,1666,0,0,
0,0,1675,1676,0,0,0,1659,1660,0,0,0,1663,1664,1667,1668,0,0,
0,0,0,0,0,0,0,0,0,0,0,0,0,0,0,0,0,0,
0,0,0,0,0,0,0,0,0,0,0,0,0,0,0,0,0,0,
0,0,0,0,0,0,0,0,0,0,0,0,0,0,0,0,0,0,
0,0,0,0,0,0,0,0,0,0,0,0,0,0,0,0,0,0,
0,1669,1670,0,0,0,0,0,0,0,0,0,0,0,0,0,0,0,
0,1671,1672,0,0,0,0,0,0,0,0,0,0,0,0,0,0,0,
0,0,0,0,0,0,0,0,0,0,0,0,0,0,0,0,0,0,
0,0,0,0,0,0,0,0,0,0,0,0,0,0,0,0,0,0,
0,0,0,0,0,0,0,0,0,0,0,0,0,0,0,0,0,0,
0,0,0,0,0,0,0,0,0,0,0,0,0,0,0,0,0,0,
0,0,0,0,0,0,0,0,0,0,0,0,0,0,0,0,0,0
</data>
 </layer>
 <layer id="5" name="Dynamic" width="18" height="14">
  <data encoding="csv">
0,0,0,0,0,0,0,0,0,0,0,0,0,0,0,0,0,0,
0,0,0,0,0,0,0,0,0,0,0,0,0,0,0,0,0,0,
0,0,0,0,0,0,0,0,0,0,0,0,0,0,0,0,0,0,
0,1701,1702,1787,1788,0,0,1681,1682,0,1733,1734,1705,1706,0,1697,1698,0,
0,1703,1704,1789,1790,0,0,1683,1684,0,1735,1736,1707,1708,0,1699,1700,0,
0,1937,1940,0,0,0,0,0,0,0,1677,1678,0,0,0,1783,1784,0,
0,1938,1939,0,0,0,0,0,0,0,1679,1680,0,0,0,1785,1786,0,
0,0,0,0,0,0,0,0,0,0,0,0,0,1685,1686,1757,1758,0,
0,0,0,0,0,0,0,0,0,0,0,0,0,1687,1688,1759,1760,0,
0,0,0,0,0,0,0,1689,1690,0,0,0,0,0,0,0,0,0,
0,1745,1746,1827,1828,0,0,1691,1692,0,1769,1770,1693,1694,0,1867,1868,0,
0,1747,1748,1829,1830,0,0,0,0,0,1771,1772,1695,1696,0,1869,1870,0,
0,0,0,0,0,0,0,0,0,0,0,0,0,0,0,0,0,0,
0,0,0,0,0,0,0,0,0,0,0,0,0,0,0,0,0,0
</data>
 </layer>
 <layer id="6" name="Collision" width="18" height="14">
  <data encoding="csv">
2113,2113,2113,2113,2113,2113,2113,2113,2113,2113,2113,2113,2113,2113,2113,2113,2113,2113,
2113,2113,2113,2113,2113,2113,2113,2113,2113,2113,2113,2113,2113,2113,2113,2113,2113,2113,
2113,2113,2113,2113,2113,2113,2113,2113,2113,2113,2113,2113,2113,2113,2113,2113,2113,2113,
2113,2112,2112,2112,2112,2113,2113,2112,2112,2112,2112,2112,2112,2112,2112,2112,2112,2113,
2113,2113,2113,2113,2113,2113,2113,2113,2113,2112,2113,2113,2113,2113,2112,2113,2113,2113,
2113,2112,2112,2112,2112,2113,2113,2112,2112,2112,2112,2112,2112,2112,2112,2112,2112,2113,
2113,2113,2113,2112,2113,2113,2113,2112,2112,2112,2113,2113,2112,2112,2112,2113,2113,2113,
2113,2112,2112,2112,2112,2112,2112,2112,2112,2112,2112,2112,2112,2112,2112,2112,2112,2113,
2113,2112,2112,2112,2112,2112,2112,2112,2112,2112,2112,2112,2113,2113,2113,2113,2113,2113,
2113,2112,2112,2112,2112,2113,2113,2112,2112,2112,2112,2112,2112,2112,2112,2112,2113,2113,
2113,2112,2112,2112,2112,2113,2113,2113,2113,2112,2112,2112,2112,2112,2112,2112,2112,2113,
2113,2113,2113,2113,2113,2113,2113,2112,2112,2112,2113,2113,2113,2113,2113,2113,2113,2113,
2113,2113,2113,2113,2113,2113,2113,2112,2112,2113,2113,2113,2113,2113,2113,2113,2113,2113,
2113,2113,2113,2113,2113,2113,2113,2112,2112,2113,2113,2113,2113,2113,2113,2113,2113,2113
</data>
 </layer>
 <objectgroup id="7" name="Scenery">
  <object id="1" gid="2178" x="40" y="110" width="64" height="64" />
  <object id="2" gid="2183" x="168" y="142" width="64" height="64" />
  <object id="3" gid="2205" x="232" y="158" width="64" height="64" />
  <object id="4" gid="2127" x="200" y="190" width="64" height="64" />
 </objectgroup>
 <objectgroup id="8" name="Objects">
  <object id="5" x="128" y="184" name="start" type="start">
   <point />
  </object>
  <object id="6" x="112" y="192" name="front-door" type="warp" width="32" height="32">
   <properties>
    <property name="goto" value="Mirefen,12.5,24.5" />
   </properties>
  </object>
  <object id="7" x="176" y="136" name="cauldron" type="marker">
   <point />
  </object>
  <object id="8" x="160" y="48" name="cauldron" type="soundscape" width="48" height="64">
   <properties>
    <property name="channel3" value="audio/ambient/campfire.flac, 0.27" />
    <property name="emit" value="3.0" type="float" />
   </properties>
  </object>
 </objectgroup>
</map>