<?xml version='1.0' encoding='UTF-8'?>
<map version="1.10" tiledversion="1.11.0" orientation="orthogonal" renderorder="right-down" width="96" height="58" tilewidth="16" tileheight="16" infinite="0" nextlayerid="9" nextobjectid="482">
 <tileset firstgid="1" source="../tilesets/mirefen-ground.tsx" />
 <tileset firstgid="1601" source="../tilesets/mirefen-overlay.tsx" />
 <tileset firstgid="2581" source="../tilesets/mirefen-water.tsx" />
 <tileset firstgid="4181" source="../tilesets/mirefen-path.tsx" />
 <tileset firstgid="5781" source="../tilesets/buildings.tsx" />
 <tileset firstgid="7524" source="../tilesets/mirefen-decor.tsx" />
 <tileset firstgid="7605" source="../tilesets/collision.tsx" />
 <tileset firstgid="7607" source="../tilesets/embellishments.tsx" />
 <tileset firstgid="7655" source="../tilesets/mirefen-props.tsx" />
 <tileset firstgid="7798" source="../tilesets/mirefen-large-props.tsx" />
 <layer id="1" name="Ground" width="96" height="58">
  <data encoding="csv">
1,2,3,4,5,6,7,8,9,10,11,12,13,14,15,16,17,18,19,20,21,22,23,24,25,26,27,28,29,30,31,32,33,34,35,36,37,38,39,40,1,2,3,4,5,6,7,8,9,10,11,12,13,14,15,16,17,18,19,20,21,22,23,24,25,26,27,28,29,30,31,32,33,34,35,36,37,38,39,40,1,2,3,4,5,6,7,8,9,10,11,12,13,14,15,16,
41,42,43,44,45,46,47,48,49,50,51,52,53,54,55,56,57,58,59,60,61,62,63,64,65,66,67,68,69,70,71,72,73,74,75,76,77,78,79,80,41,42,43,44,45,46,47,48,49,50,51,52,53,54,55,56,57,58,59,60,61,62,63,64,65,66,67,68,69,70,71,72,73,74,75,76,77,78,79,80,41,42,43,44,45,46,47,48,49,50,51,52,53,54,55,56,
81,82,83,84,85,86,87,88,89,90,91,92,93,94,95,96,97,98,99,100,101,102,103,104,105,106,107,108,109,110,111,112,113,114,115,116,117,118,119,120,81,82,83,84,85,86,87,88,89,90,91,92,93,94,95,96,97,98,99,100,101,102,103,104,105,106,107,108,109,110,111,112,113,114,115,116,117,118,119,120,81,82,83,84,85,86,87,88,89,90,91,92,93,94,95,96,
121,122,123,124,125,126,127,128,129,130,131,132,133,134,135,136,137,138,139,140,141,142,143,144,145,146,147,148,149,150,151,152,153,154,155,156,157,158,159,160,121,122,123,124,125,126,127,128,129,130,131,132,133,134,135,136,137,138,139,140,141,142,143,144,145,146,147,148,149,150,151,152,153,154,155,156,157,158,159,160,121,122,123,124,125,126,127,128,129,130,131,132,133,134,135,136,
161,162,163,164,165,166,167,168,169,170,171,172,173,174,175,176,177,178,179,180,181,182,183,184,185,186,187,188,189,190,191,192,193,194,195,196,197,198,199,200,161,162,163,164,165,166,167,168,169,170,171,172,173,174,175,176,177,178,179,180,181,182,183,184,185,186,187,188,189,190,191,192,193,194,195,196,197,198,199,200,161,162,163,164,165,166,167,168,169,170,171,172,173,174,175,176,
201,202,203,204,205,206,207,208,209,210,211,212,213,214,215,216,217,218,219,220,221,222,223,224,225,226,227,228,229,230,231,232,233,234,235,236,237,238,239,240,201,202,203,204,205,206,207,208,209,210,211,212,213,214,215,216,217,218,219,220,221,222,223,224,225,226,227,228,229,230,231,232,233,234,235,236,237,238,239,240,201,202,203,204,205,206,207,208,209,210,211,212,213,214,215,216,
241,242,243,244,245,246,247,248,249,250,251,252,253,254,255,256,257,258,259,260,261,262,263,264,265,266,267,268,269,270,271,272,273,274,275,276,277,278,279,280,241,242,243,244,245,246,247,248,249,250,251,252,253,254,255,256,257,258,259,260,261,262,263,264,265,266,267,268,269,270,271,272,273,274,275,276,277,278,279,280,241,242,243,244,245,246,247,248,249,250,251,252,253,254,255,256,
281,282,283,284,285,286,287,288,289,290,291,292,293,294,295,296,297,298,299,300,301,302,303,304,305,306,307,308,309,310,311,312,313,314,315,316,317,318,319,320,281,282,283,284,285,286,287,288,289,290,291,292,293,294,295,296,297,298,299,300,301,302,303,304,305,306,307,308,309,310,311,312,313,314,315,316,317,318,319,320,281,282,283,284,285,286,287,288,289,290,291,292,293,294,295,296,
321,322,323,324,325,326,327,328,329,330,331,332,333,334,335,336,337,338,339,340,341,342,343,344,345,346,347,348,349,350,351,352,353,354,355,356,357,358,359,360,321,322,323,324,325,326,327,328,329,330,331,332,333,334,335,336,337,338,339,340,341,342,343,344,345,346,347,348,349,350,351,352,353,354,355,356,357,358,359,360,321,322,323,324,325,326,327,328,329,330,331,332,333,334,335,336,
361,362,363,364,365,366,367,368,369,370,371,372,373,374,375,376,377,378,379,380,381,382,383,384,385,386,387,388,389,390,391,392,393,394,395,396,397,398,399,400,361,362,363,364,365,366,367,368,369,370,371,372,373,374,375,376,377,378,379,380,381,382,383,384,385,386,387,388,389,390,391,392,393,394,395,396,397,398,399,400,361,362,363,364,365,366,367,368,369,370,371,372,373,374,375,376,
401,402,403,404,405,406,407,408,409,410,411,412,413,414,415,416,417,418,419,420,421,422,423,424,425,426,427,428,429,430,431,432,433,434,435,436,437,438,439,440,401,402,403,404,405,406,407,408,409,410,411,412,413,414,415,416,417,418,419,420,421,422,423,424,425,426,427,428,429,430,431,432,433,434,435,436,437,438,439,440,401,402,403,404,405,406,407,408,409,410,411,412,413,414,415,416,
441,442,443,444,445,446,447,448,449,450,451,452,453,454,455,456,457,458,459,460,461,462,463,464,465,466,467,468,469,470,471,472,473,474,475,476,477,478,479,480,441,442,443,444,445,446,447,448,449,450,451,452,453,454,455,456,457,458,459,460,461,462,463,464,465,466,467,468,469,470,471,472,473,474,475,476,477,478,479,480,441,442,443,444,445,446,447,448,449,450,451,452,453,454,455,456,
481,482,483,484,485,486,487,488,489,490,491,492,493,494,495,496,497,498,499,500,501,502,503,504,505,506,507,508,509,510,511,512,513,514,515,516,517,518,519,520,481,482,483,484,485,486,487,488,489,490,491,492,493,494,495,496,497,498,499,500,501,502,503,504,505,506,507,508,509,510,511,512,513,514,515,516,517,518,519,520,481,482,483,484,485,486,487,488,489,490,491,492,493,494,495,496,
521,522,523,524,525,526,527,528,529,530,531,532,533,534,535,536,537,538,539,540,541,542,543,544,545,546,547,548,549,550,551,552,553,554,555,556,557,558,559,560,521,522,523,524,525,526,527,528,529,530,531,532,533,534,535,536,537,538,539,540,541,542,543,544,545,546,547,548,549,550,551,552,553,554,555,556,557,558,559,560,521,522,523,524,525,526,527,528,529,530,531,532,533,534,535,536,
561,562,563,564,565,566,567,568,569,570,571,572,573,574,575,576,577,578,579,580,581,582,583,584,585,586,587,588,589,590,591,592,593,594,595,596,597,598,599,600,561,562,563,564,565,566,567,568,569,570,571,572,573,574,575,576,577,578,579,580,581,582,583,584,585,586,587,588,589,590,591,592,593,594,595,596,597,598,599,600,561,562,563,564,565,566,567,568,569,570,571,572,573,574,575,576,
601,602,603,604,605,606,607,608,609,610,611,612,613,614,615,616,617,618,619,620,621,622,623,624,625,626,627,628,629,630,631,632,633,634,635,636,637,638,639,640,601,602,603,604,605,606,607,608,609,610,611,612,613,614,615,616,617,618,619,620,621,622,623,624,625,626,627,628,629,630,631,632,633,634,635,636,637,638,639,640,601,602,603,604,605,606,607,608,609,610,611,612,613,614,615,616,
641,642,643,644,645,646,647,648,649,650,651,652,653,654,655,656,657,658,659,660,661,662,663,664,665,666,667,668,669,670,671,672,673,674,675,676,677,678,679,680,641,642,643,644,645,646,647,648,649,650,651,652,653,654,655,656,657,658,659,660,661,662,663,664,665,666,667,668,669,670,671,672,673,674,675,676,677,678,679,680,641,642,643,644,645,646,647,648,649,650,651,652,653,654,655,656,
681,682,683,684,685,686,687,688,689,690,691,692,693,694,695,696,697,698,699,700,701,702,703,704,705,706,707,708,709,710,711,712,713,714,715,716,717,718,719,720,681,682,683,684,685,686,687,688,689,690,691,692,693,694,695,696,697,698,699,700,701,702,703,704,705,706,707,708,709,710,711,712,713,714,715,716,717,718,719,720,681,682,683,684,685,686,687,688,689,690,691,692,693,694,695,696,
721,722,723,724,725,726,727,728,729,730,731,732,733,734,735,736,737,738,739,740,741,742,743,744,745,746,747,748,749,750,751,752,753,754,755,756,757,758,759,760,721,722,723,724,725,726,727,728,729,730,731,732,733,734,735,736,737,738,739,740,741,742,743,744,745,746,747,748,749,750,751,752,753,754,755,756,757,758,759,760,721,722,723,724,725,726,727,728,729,730,731,732,733,734,735,736,
761,762,763,764,765,766,767,768,769,770,771,772,773,774,775,776,777,778,779,780,781,782,783,784,785,786,787,788,789,790,791,792,793,794,795,796,797,798,799,800,761,762,763,764,765,766,767,768,769,770,771,772,773,774,775,776,777,778,779,780,781,782,783,784,785,786,787,788,789,790,791,792,793,794,795,796,797,798,799,800,761,762,763,764,765,766,767,768,769,770,771,772,773,774,775,776,
801,802,803,804,805,806,807,808,809,810,811,812,813,814,815,816,817,818,819,820,821,822,823,824,825,826,827,828,829,830,831,832,833,834,835,836,837,838,839,840,801,802,803,804,805,806,807,808,809,810,811,812,813,814,815,816,817,818,819,820,821,822,823,824,825,826,827,828,829,830,831,832,833,834,835,836,837,838,839,840,801,802,803,804,805,806,807,808,809,810,811,812,813,814,815,816,
841,842,843,844,845,846,847,848,849,850,851,852,853,854,855,856,857,858,859,860,861,862,863,864,865,866,867,868,869,870,871,872,873,874,875,876,877,878,879,880,841,842,843,844,845,846,847,848,849,850,851,852,853,854,855,856,857,858,859,860,861,862,863,864,865,866,867,868,869,870,871,872,873,874,875,876,877,878,879,880,841,842,843,844,845,846,847,848,849,850,851,852,853,854,855,856,
881,882,883,884,885,886,887,888,889,890,891,892,893,894,895,896,897,898,899,900,901,902,903,904,905,906,907,908,909,910,911,912,913,914,915,916,917,918,919,920,881,882,883,884,885,886,887,888,889,890,891,892,893,894,895,896,897,898,899,900,901,902,903,904,905,906,907,908,909,910,911,912,913,914,915,916,917,918,919,920,881,882,883,884,885,886,887,888,889,890,891,892,893,894,895,896,
921,922,923,924,925,926,927,928,929,930,931,932,933,934,935,936,937,938,939,940,941,942,943,944,945,946,947,948,949,950,951,952,953,954,955,956,957,958,959,960,921,922,923,924,925,926,927,928,929,930,931,932,933,934,935,936,937,938,939,940,941,942,943,944,945,946,947,948,949,950,951,952,953,954,955,956,957,958,959,960,921,922,923,924,925,926,927,928,929,930,931,932,933,934,935,936,
961,962,963,964,965,966,967,968,969,970,971,972,973,974,975,976,977,978,979,980,981,982,983,984,985,986,987,988,989,990,991,992,993,994,995,996,997,998,999,1000,961,962,963,964,965,966,967,968,969,970,971,972,973,974,975,976,977,978,979,980,981,982,983,984,985,986,987,988,989,990,991,992,993,994,995,996,997,998,999,1000,961,962,963,964,965,966,967,968,969,970,971,972,973,974,975,976,
1001,1002,1003,1004,1005,1006,1007,1008,1009,1010,1011,1012,1013,1014,1015,1016,1017,1018,1019,1020,1021,1022,1023,1024,1025,1026,1027,1028,1029,1030,1031,1032,1033,1034,1035,1036,1037,1038,1039,1040,1001,1002,1003,1004,1005,1006,1007,1008,1009,1010,1011,1012,1013,1014,1015,1016,1017,1018,1019,1020,1021,1022,1023,1024,1025,1026,1027,1028,1029,1030,1031,1032,1033,1034,1035,1036,1037,1038,1039,1040,1001,1002,1003,1004,1005,1006,1007,1008,1009,1010,1011,1012,1013,1014,1015,1016,
1041,1042,1043,1044,1045,1046,1047,1048,1049,1050,1051,1052,1053,1054,1055,1056,1057,1058,1059,1060,1061,1062,1063,1064,1065,1066,1067,1068,1069,1070,1071,1072,1073,1074,1075,1076,1077,1078,1079,1080,1041,1042,1043,1044,1045,1046,1047,1048,1049,1050,1051,1052,1053,1054,1055,1056,1057,1058,1059,1060,1061,1062,1063,1064,1065,1066,1067,1068,1069,1070,1071,1072,1073,1074,1075,1076,1077,1078,1079,1080,1041,1042,1043,1044,1045,1046,1047,1048,1049,1050,1051,1052,1053,1054,1055,1056,
1081,1082,1083,1084,1085,1086,1087,1088,1089,1090,1091,1092,1093,1094,1095,1096,1097,1098,1099,1100,1101,1102,1103,1104,1105,1106,1107,1108,1109,1110,1111,1112,1113,1114,1115,1116,1117,1118,1119,1120,1081,1082,1083,1084,1085,1086,1087,1088,1089,1090,1091,1092,1093,1094,1095,1096,1097,1098,1099,1100,1101,1102,1103,1104,1105,1106,1107,1108,1109,1110,1111,1112,1113,1114,1115,1116,1117,1118,1119,1120,1081,1082,1083,1084,1085,1086,1087,1088,1089,1090,1091,1092,1093,1094,1095,1096,
1121,1122,1123,1124,1125,1126,1127,1128,1129,1130,1131,1132,1133,1134,1135,1136,1137,1138,1139,1140,1141,1142,1143,1144,1145,1146,1147,1148,1149,1150,1151,1152,1153,1154,1155,1156,1157,1158,1159,1160,1121,1122,1123,1124,1125,1126,1127,1128,1129,1130,1131,1132,1133,1134,1135,1136,1137,1138,1139,1140,1141,1142,1143,1144,1145,1146,1147,1148,1149,1150,1151,1152,1153,1154,1155,1156,1157,1158,1159,1160,1121,1122,1123,1124,1125,1126,1127,1128,1129,1130,1131,1132,1133,1134,1135,1136,
1161,1162,1163,1164,1165,1166,1167,1168,1169,1170,1171,1172,1173,1174,1175,1176,1177,1178,1179,1180,1181,1182,1183,1184,1185,1186,1187,1188,1189,1190,1191,1192,1193,1194,1195,1196,1197,1198,1199,1200,1161,1162,1163,1164,1165,1166,1167,1168,1169,1170,1171,1172,1173,1174,1175,1176,1177,1178,1179,1180,1181,1182,1183,1184,1185,1186,1187,1188,1189,1190,1191,1192,1193,1194,1195,1196,1197,1198,1199,1200,1161,1162,1163,1164,1165,1166,1167,1168,1169,1170,1171,1172,1173,1174,1175,1176,
1201,1202,1203,1204,1205,1206,1207,1208,1209,1210,1211,1212,1213,1214,1215,1216,1217,1218,1219,1220,1221,1222,1223,1224,1225,1226,1227,1228,1229,1230,1231,1232,1233,1234,1235,1236,1237,1238,1239,1240,1201,1202,1203,1204,1205,1206,1207,1208,1209,1210,1211,1212,1213,1214,1215,1216,1217,1218,1219,1220,1221,1222,1223,1224,1225,1226,1227,1228,1229,1230,1231,1232,1233,1234,1235,1236,1237,1238,1239,1240,1201,1202,1203,1204,1205,1206,1207,1208,1209,1210,1211,1212,1213,1214,1215,1216,
1241,1242,1243,1244,1245,1246,1247,1248,1249,1250,1251,1252,1253,1254,1255,1256,1257,1258,1259,1260,1261,1262,1263,1264,1265,1266,1267,1268,1269,1270,1271,1272,1273,1274,1275,1276,1277,1278,1279,1280,1241,1242,1243,1244,1245,1246,1247,1248,1249,1250,1251,1252,1253,1254,1255,1256,1257,1258,1259,1260,1261,1262,1263,1264,1265,1266,1267,1268,1269,1270,1271,1272,1273,1274,1275,1276,1277,1278,1279,1280,1241,1242,1243,1244,1245,1246,1247,1248,1249,1250,1251,1252,1253,1254,1255,1256,
1281,1282,1283,1284,1285,1286,1287,1288,1289,1290,1291,1292,1293,1294,1295,1296,1297,1298,1299,1300,1301,1302,1303,1304,1305,1306,1307,1308,1309,1310,1311,1312,1313,1314,1315,1316,1317,1318,1319,1320,1281,1282,1283,1284,1285,1286,1287,1288,1289,1290,1291,1292,1293,1294,1295,1296,1297,1298,1299,1300,1301,1302,1303,1304,1305,1306,1307,1308,1309,1310,1311,1312,1313,1314,1315,1316,1317,1318,1319,1320,1281,1282,1283,1284,1285,1286,1287,1288,1289,1290,1291,1292,1293,1294,1295,1296,
1321,1322,1323,1324,1325,1326,1327,1328,1329,1330,1331,1332,1333,1334,1335,1336,1337,1338,1339,1340,1341,1342,1343,1344,1345,1346,1347,1348,1349,1350,1351,1352,1353,1354,1355,1356,1357,1358,1359,1360,1321,1322,1323,1324,1325,1326,1327,1328,1329,1330,1331,1332,1333,1334,1335,1336,1337,1338,1339,1340,1341,1342,1343,1344,1345,1346,1347,1348,1349,1350,1351,1352,1353,1354,1355,1356,1357,1358,1359,1360,1321,1322,1323,1324,1325,1326,1327,1328,1329,1330,1331,1332,1333,1334,1335,1336,
1361,1362,1363,1364,1365,1366,1367,1368,1369,1370,1371,1372,1373,1374,1375,1376,1377,1378,1379,1380,1381,1382,1383,1384,1385,1386,1387,1388,1389,1390,1391,1392,1393,1394,1395,1396,1397,1398,1399,1400,1361,1362,1363,1364,1365,1366,1367,1368,1369,1370,1371,1372,1373,1374,1375,1376,1377,1378,1379,1380,1381,1382,1383,1384,1385,1386,1387,1388,1389,1390,1391,1392,1393,1394,1395,1396,1397,1398,1399,1400,1361,1362,1363,1364,1365,1366,1367,1368,1369,1370,1371,1372,1373,1374,1375,1376,
1401,1402,1403,1404,1405,1406,1407,1408,1409,1410,1411,1412,1413,1414,1415,1416,1417,1418,1419,1420,1421,1422,1423,1424,1425,1426,1427,1428,1429,1430,1431,1432,1433,1434,1435,1436,1437,1438,1439,1440,1401,1402,1403,1404,1405,1406,1407,1408,1409,1410,1411,1412,1413,1414,1415,1416,1417,1418,1419,1420,1421,1422,1423,1424,1425,1426,1427,1428,1429,1430,1431,1432,1433,1434,1435,1436,1437,1438,1439,1440,1401,1402,1403,1404,1405,1406,1407,1408,1409,1410,1411,1412,1413,1414,1415,1416,
1441,1442,1443,1444,1445,1446,1447,1448,1449,1450,1451,1452,1453,1454,1455,1456,1457,1458,1459,1460,1461,1462,1463,1464,1465,1466,1467,1468,1469,1470,1471,1472,1473,1474,1475,1476,1477,1478,1479,1480,1441,1442,1443,1444,1445,1446,1447,1448,1449,1450,1451,1452,1453,1454,1455,1456,1457,1458,1459,1460,1461,1462,1463,1464,1465,1466,1467,1468,1469,1470,1471,1472,1473,1474,1475,1476,1477,1478,1479,1480,1441,1442,1443,1444,1445,1446,1447,1448,1449,1450,1451,1452,1453,1454,1455,1456,
1481,1482,1483,1484,1485,1486,1487,1488,1489,1490,1491,1492,1493,1494,1495,1496,1497,1498,1499,1500,1501,1502,1503,1504,1505,1506,1507,1508,1509,1510,1511,1512,1513,1514,1515,1516,1517,1518,1519,1520,1481,1482,1483,1484,1485,1486,1487,1488,1489,1490,1491,1492,1493,1494,1495,1496,1497,1498,1499,1500,1501,1502,1503,1504,1505,1506,1507,1508,1509,1510,1511,1512,1513,1514,1515,1516,1517,1518,1519,1520,1481,1482,1483,1484,1485,1486,1487,1488,1489,1490,1491,1492,1493,1494,1495,1496,
1521,1522,1523,1524,1525,1526,1527,1528,1529,1530,1531,1532,1533,1534,1535,1536,1537,1538,1539,1540,1541,1542,1543,1544,1545,1546,1547,1548,1549,1550,1551,1552,1553,1554,1555,1556,1557,1558,1559,1560,1521,1522,1523,1524,1525,1526,1527,1528,1529,1530,1531,1532,1533,1534,1535,1536,1537,1538,1539,1540,1541,1542,1543,1544,1545,1546,1547,1548,1549,1550,1551,1552,1553,1554,1555,1556,1557,1558,1559,1560,1521,1522,1523,1524,1525,1526,1527,1528,1529,1530,1531,1532,1533,1534,1535,1536,
1561,1562,1563,1564,1565,1566,1567,1568,1569,1570,1571,1572,1573,1574,1575,1576,1577,1578,1579,1580,1581,1582,1583,1584,1585,1586,1587,1588,1589,1590,1591,1592,1593,1594,1595,1596,1597,1598,1599,1600,1561,1562,1563,1564,1565,1566,1567,1568,1569,1570,1571,1572,1573,1574,1575,1576,1577,1578,1579,1580,1581,1582,1583,1584,1585,1586,1587,1588,1589,1590,1591,1592,1593,1594,1595,1596,1597,1598,1599,1600,1561,1562,1563,1564,1565,1566,1567,1568,1569,1570,1571,1572,1573,1574,1575,1576,
1,2,3,4,5,6,7,8,9,10,11,12,13,14,15,16,17,18,19,20,21,22,23,24,25,26,27,28,29,30,31,32,33,34,35,36,37,38,39,40,1,2,3,4,5,6,7,8,9,10,11,12,13,14,15,16,17,18,19,20,21,22,23,24,25,26,27,28,29,30,31,32,33,34,35,36,37,38,39,40,1,2,3,4,5,6,7,8,9,10,11,12,13,14,15,16,
41,42,43,44,45,46,47,48,49,50,51,52,53,54,55,56,57,58,59,60,61,62,63,64,65,66,67,68,69,70,71,72,73,74,75,76,77,78,79,80,41,42,43,44,45,46,47,48,49,50,51,52,53,54,55,56,57,58,59,60,61,62,63,64,65,66,67,68,69,70,71,72,73,74,75,76,77,78,79,80,41,42,43,44,45,46,47,48,49,50,51,52,53,54,55,56,
81,82,83,84,85,86,87,88,89,90,91,92,93,94,95,96,97,98,99,100,101,102,103,104,105,106,107,108,109,110,111,112,113,114,115,116,117,118,119,120,81,82,83,84,85,86,87,88,89,90,91,92,93,94,95,96,97,98,99,100,101,102,103,104,105,106,107,108,109,110,111,112,113,114,115,116,117,118,119,120,81,82,83,84,85,86,87,88,89,90,91,92,93,94,95,96,
121,122,123,124,125,126,127,128,129,130,131,132,133,134,135,136,137,138,139,140,141,142,143,144,145,146,147,148,149,150,151,152,153,154,155,156,157,158,159,160,121,122,123,124,125,126,127,128,129,130,131,132,133,134,135,136,137,138,139,140,141,142,143,144,145,146,147,148,149,150,151,152,153,154,155,156,157,158,159,160,121,122,123,124,125,126,127,128,129,130,131,132,133,134,135,136,
161,162,163,164,165,166,167,168,169,170,171,172,173,174,175,176,177,178,179,180,181,182,183,184,185,186,187,188,189,190,191,192,193,194,195,196,197,198,199,200,161,162,163,164,165,166,167,168,169,170,171,172,173,174,175,176,177,178,179,180,181,182,183,184,185,186,187,188,189,190,191,192,193,194,195,196,197,198,199,200,161,162,163,164,165,166,167,168,169,170,171,172,173,174,175,176,
201,202,203,204,205,206,207,208,209,210,211,212,213,214,215,216,217,218,219,220,221,222,223,224,225,226,227,228,229,230,231,232,233,234,235,236,237,238,239,240,201,202,203,204,205,206,207,208,209,210,211,212,213,214,215,216,217,218,219,220,221,222,223,224,225,226,227,228,229,230,231,232,233,234,235,236,237,238,239,240,201,202,203,204,205,206,207,208,209,210,211,212,213,214,215,216,
241,242,243,244,245,246,247,248,249,250,251,252,253,254,255,256,257,258,259,260,261,262,263,264,265,266,267,268,269,270,271,272,273,274,275,276,277,278,279,280,241,242,243,244,245,246,247,248,249,250,251,252,253,254,255,256,257,258,259,260,261,262,263,264,265,266,267,268,269,270,271,272,273,274,275,276,277,278,279,280,241,242,243,244,245,246,247,248,249,250,251,252,253,254,255,256,
281,282,283,284,285,286,287,288,289,290,291,292,293,294,295,296,297,298,299,300,301,302,303,304,305,306,307,308,309,310,311,312,313,314,315,316,317,318,319,320,281,282,283,284,285,286,287,288,289,290,291,292,293,294,295,296,297,298,299,300,301,302,303,304,305,306,307,308,309,310,311,312,313,314,315,316,317,318,319,320,281,282,283,284,285,286,287,288,289,290,291,292,293,294,295,296,
321,322,323,324,325,326,327,328,329,330,331,332,333,334,335,336,337,338,339,340,341,342,343,344,345,346,347,348,349,350,351,352,353,354,355,356,357,358,359,360,321,322,323,324,325,326,327,328,329,330,331,332,333,334,335,336,337,338,339,340,341,342,343,344,345,346,347,348,349,350,351,352,353,354,355,356,357,358,359,360,321,322,323,324,325,326,327,328,329,330,331,332,333,334,335,336,
361,362,363,364,365,366,367,368,369,370,371,372,373,374,375,376,377,378,379,380,381,382,383,384,385,386,387,388,389,390,391,392,393,394,395,396,397,398,399,400,361,362,363,364,365,366,367,368,369,370,371,372,373,374,375,376,377,378,379,380,381,382,383,384,385,386,387,388,389,390,391,392,393,394,395,396,397,398,399,400,361,362,363,364,365,366,367,368,369,370,371,372,373,374,375,376,
401,402,403,404,405,406,407,408,409,410,411,412,413,414,415,416,417,418,419,420,421,422,423,424,425,426,427,428,429,430,431,432,433,434,435,436,437,438,439,440,401,402,403,404,405,406,407,408,409,410,411,412,413,414,415,416,417,418,419,420,421,422,423,424,425,426,427,428,429,430,431,432,433,434,435,436,437,438,439,440,401,402,403,404,405,406,407,408,409,410,411,412,413,414,415,416,
441,442,443,444,445,446,447,448,449,450,451,452,453,454,455,456,457,458,459,460,461,462,463,464,465,466,467,468,469,470,471,472,473,474,475,476,477,478,479,480,441,442,443,444,445,446,447,448,449,450,451,452,453,454,455,456,457,458,459,460,461,462,463,464,465,466,467,468,469,470,471,472,473,474,475,476,477,478,479,480,441,442,443,444,445,446,447,448,449,450,451,452,453,454,455,456,
481,482,483,484,485,486,487,488,489,490,491,492,493,494,495,496,497,498,499,500,501,502,503,504,505,506,507,508,509,510,511,512,513,514,515,516,517,518,519,520,481,482,483,484,485,486,487,488,489,490,491,492,493,494,495,496,497,498,499,500,501,502,503,504,505,506,507,508,509,510,511,512,513,514,515,516,517,518,519,520,481,482,483,484,485,486,487,488,489,490,491,492,493,494,495,496,
521,522,523,524,525,526,527,528,529,530,531,532,533,534,535,536,537,538,539,540,541,542,543,544,545,546,547,548,549,550,551,552,553,554,555,556,557,558,559,560,521,522,523,524,525,526,527,528,529,530,531,532,533,534,535,536,537,538,539,540,541,542,543,544,545,546,547,548,549,550,551,552,553,554,555,556,557,558,559,560,521,522,523,524,525,526,527,528,529,530,531,532,533,534,535,536,
561,562,563,564,565,566,567,568,569,570,571,572,573,574,575,576,577,578,579,580,581,582,583,584,585,586,587,588,589,590,591,592,593,594,595,596,597,598,599,600,561,562,563,564,565,566,567,568,569,570,571,572,573,574,575,576,577,578,579,580,581,582,583,584,585,586,587,588,589,590,591,592,593,594,595,596,597,598,599,600,561,562,563,564,565,566,567,568,569,570,571,572,573,574,575,576,
601,602,603,604,605,606,607,608,609,610,611,612,613,614,615,616,617,618,619,620,621,622,623,624,625,626,627,628,629,630,631,632,633,634,635,636,637,638,639,640,601,602,603,604,605,606,607,608,609,610,611,612,613,614,615,616,617,618,619,620,621,622,623,624,625,626,627,628,629,630,631,632,633,634,635,636,637,638,639,640,601,602,603,604,605,606,607,608,609,610,611,612,613,614,615,616,
641,642,643,644,645,646,647,648,649,650,651,652,653,654,655,656,657,658,659,660,661,662,663,664,665,666,667,668,669,670,671,672,673,674,675,676,677,678,679,680,641,642,643,644,645,646,647,648,649,650,651,652,653,654,655,656,657,658,659,660,661,662,663,664,665,666,667,668,669,670,671,672,673,674,675,676,677,678,679,680,641,642,643,644,645,646,647,648,649,650,651,652,653,654,655,656,
681,682,683,684,685,686,687,688,689,690,691,692,693,694,695,696,697,698,699,700,701,702,703,704,705,706,707,708,709,710,711,712,713,714,715,716,717,718,719,720,681,682,683,684,685,686,687,688,689,690,691,692,693,694,695,696,697,698,699,700,701,702,703,704,705,706,707,708,709,710,711,712,713,714,715,716,717,718,719,720,681,682,683,684,685,686,687,688,689,690,691,692,693,694,695,696
</data>
 </layer>
 <layer id="2" name="Terrain" width="96" height="58">
  <data encoding="csv">
0,0,0,0,0,0,0,0,0,0,0,0,0,0,0,0,0,0,0,0,0,0,0,0,0,0,0,0,0,0,0,0,0,0,0,0,0,0,0,0,0,0,0,0,0,0,0,0,0,0,0,0,0,0,0,0,0,0,0,0,0,0,0,0,0,0,0,0,0,0,0,0,0,0,0,0,0,0,0,0,0,0,0,0,0,0,0,0,0,0,0,0,0,0,0,0,
0,0,0,0,0,0,0,0,0,0,0,0,0,0,0,0,0,0,0,0,0,0,0,0,0,0,0,0,0,0,0,0,0,0,0,0,0,0,0,0,0,0,0,0,0,0,0,0,0,0,0,0,0,0,0,0,0,0,0,0,0,0,0,0,0,0,0,0,0,0,0,0,0,0,0,0,0,0,0,0,0,0,0,0,0,0,0,0,0,0,0,0,0,0,0,0,
0,0,0,0,0,0,0,0,0,0,0,0,0,0,0,0,0,0,0,0,0,0,0,0,0,0,0,0,0,0,0,0,0,0,0,0,0,0,0,0,0,0,0,0,0,0,0,0,0,0,0,0,0,0,0,0,0,0,0,0,0,0,0,0,0,0,0,0,0,0,0,0,0,0,0,0,0,0,0,0,0,0,0,0,0,0,0,0,0,0,0,0,0,0,0,0,
0,0,0,0,0,0,0,0,0,0,0,0,0,0,0,0,0,0,0,0,0,0,0,0,0,0,0,0,0,0,0,0,0,0,0,0,0,0,0,0,0,0,0,0,0,0,0,0,0,0,0,0,0,0,0,0,0,0,0,0,0,0,0,0,0,0,0,0,0,0,0,0,0,0,0,0,0,0,0,0,0,0,0,0,0,0,0,0,0,0,0,0,0,0,0,0,
0,0,0,0,0,0,0,0,0,0,0,0,0,0,0,0,0,0,0,0,0,0,0,0,0,0,0,0,0,0,0,0,0,0,0,0,0,0,0,0,0,0,1601,1602,1603,1604,1605,0,0,0,0,0,0,1606,1607,1608,1609,0,0,0,0,0,0,0,0,0,0,0,0,0,0,0,0,0,0,0,0,0,0,0,0,0,0,0,0,0,0,0,0,0,0,0,0,0,0,0,
0,0,0,0,0,0,0,0,0,0,0,0,0,0,0,0,0,0,0,0,0,0,0,0,0,0,0,0,0,0,0,0,0,0,0,0,0,0,0,0,1610,1611,1612,1613,2785,2786,1614,1615,1616,1617,0,0,1618,1619,2795,2796,1620,1621,1622,1623,0,0,0,0,0,0,0,0,0,0,0,0,0,0,0,0,0,0,0,0,0,0,0,0,0,0,0,0,0,0,0,0,0,0,0,0,
0,0,0,0,0,0,0,0,0,0,0,0,0,0,0,0,0,0,0,0,0,0,0,0,0,0,0,0,0,0,0,0,0,0,0,0,0,0,1624,1625,1626,2822,2823,2824,2825,2826,2827,2828,2829,1627,1628,1629,1630,2834,2835,2836,2837,2838,2839,1631,1632,1633,1634,1635,0,0,0,0,0,0,0,0,0,0,0,0,0,0,0,0,0,0,0,0,0,0,0,0,0,0,0,0,0,0,0,0,
0,0,0,0,0,0,0,0,0,0,0,0,0,0,0,0,0,0,0,0,0,0,0,0,0,0,0,0,0,0,0,0,0,0,0,0,1636,1637,1638,2900,2861,2862,2863,2864,2865,2866,2867,2868,2869,2870,2871,2872,2873,2874,2875,2876,2877,2878,2879,2880,2881,2882,2883,1639,1640,0,0,0,0,0,0,0,0,0,0,0,0,0,0,0,0,0,0,0,0,0,0,0,0,0,0,0,0,0,0,0,
0,0,0,0,0,0,0,0,0,0,0,0,0,0,0,0,0,0,0,0,0,0,0,0,0,0,0,0,0,0,0,0,0,0,0,1641,1642,2938,2939,2940,2901,2902,2903,2904,2905,2906,2907,2908,2909,2910,2911,2912,2913,2914,2915,2916,2917,2918,2919,2920,2921,2922,2923,2924,1643,1644,0,0,0,0,0,0,0,0,0,0,0,0,0,0,0,0,0,0,0,0,0,0,0,0,0,0,0,0,0,0,
0,0,0,0,0,0,0,0,0,0,0,0,0,0,0,0,0,0,0,0,0,0,0,0,0,0,0,0,0,0,0,0,0,0,1645,1646,2977,2978,2979,2980,2941,2942,2943,2944,2945,2946,2947,2948,2949,2950,2951,2952,2953,2954,2955,2956,2957,2958,2959,2960,2961,2962,2963,2964,1647,1648,0,0,0,0,0,0,0,0,0,0,0,0,0,0,0,0,0,0,0,0,0,0,0,0,0,0,0,0,0,0,
0,0,0,0,0,0,0,0,0,0,0,0,0,0,0,0,0,0,0,0,0,0,0,0,0,0,0,0,0,0,0,0,0,1649,1650,3016,3017,3018,3019,3020,2981,2982,2983,2984,2985,2986,2987,2988,2989,2990,2991,2992,2993,2994,2995,2996,2997,2998,2999,3000,3001,3002,1651,1652,1653,0,0,0,0,0,0,0,0,0,0,0,1654,1655,0,0,0,0,0,0,0,0,0,0,0,0,0,0,0,0,0,0,
0,0,0,0,0,0,0,0,0,0,0,0,0,0,0,0,0,0,0,0,0,0,0,0,0,0,0,0,0,0,0,0,0,1656,3055,3056,3057,3058,3059,3060,3021,3022,3023,3024,3025,3026,3027,3028,3029,3030,3031,3032,3033,3034,3035,3036,3037,3038,3039,1657,1658,1659,1660,0,0,0,0,0,0,0,0,0,0,1661,1662,1663,1664,1665,1666,1667,1668,0,0,0,0,0,0,0,0,0,0,0,0,0,0,0,
0,0,0,0,0,0,0,0,0,0,0,0,0,0,0,0,0,0,0,0,0,0,0,0,0,0,0,0,0,0,0,0,0,1669,1670,3096,3097,3098,3099,3100,3061,3062,3063,3064,3065,3066,3067,3068,3069,3070,3071,3072,3073,3074,3075,3076,3077,3078,1671,1672,0,0,0,0,0,0,0,0,0,0,0,1673,1674,1675,3095,3096,3097,3098,3099,3100,1676,0,0,0,0,0,0,0,0,0,0,0,0,0,0,0,
0,0,0,0,0,0,0,0,0,0,0,0,0,0,0,0,0,0,0,0,0,0,0,0,0,0,0,0,0,0,0,0,0,0,1677,3136,3137,3138,3139,3140,3101,3102,3103,3104,3105,3106,3107,3108,3109,3110,3111,3112,3113,3114,3115,3116,3117,3118,1678,0,0,0,0,0,0,0,0,0,0,0,1679,1680,3133,3134,3135,3136,3137,3138,3139,3140,1681,0,0,0,0,0,0,0,0,0,0,0,0,0,0,0,
0,0,0,0,0,0,0,0,0,0,0,0,0,0,0,0,0,0,0,0,0,0,0,0,0,0,0,0,0,0,0,0,0,0,1682,3176,3177,3178,3179,3180,3141,3142,3143,3144,3145,3146,3147,3148,3149,3150,3151,3152,3153,3154,3155,3156,3157,3158,1683,1684,1685,0,0,0,0,0,0,0,0,0,1686,1687,3173,3174,3175,3176,3177,3178,3179,1688,1689,0,0,0,0,0,0,0,0,0,0,0,0,0,0,0,
0,0,0,0,0,0,0,0,0,0,0,0,0,0,0,0,0,0,0,0,0,0,0,0,0,0,0,0,0,0,0,0,0,0,1690,1691,1692,3218,3219,3220,3181,3182,3183,3184,3185,3186,3187,3188,3189,3190,3191,3192,3193,3194,3195,3196,3197,3198,3199,3200,1693,1694,0,0,0,0,0,0,0,0,0,1695,1696,1697,1698,3216,3217,3218,3219,1699,1700,0,0,0,0,0,0,0,0,0,0,0,0,0,0,0,
0,0,0,0,0,0,0,0,0,0,0,0,0,0,0,0,0,0,0,0,0,0,0,0,0,0,0,0,0,0,0,0,0,0,0,0,1701,1702,3259,3260,3221,3222,3223,3224,3225,3226,3227,3228,3229,3230,3231,3232,3233,3234,3235,3236,3237,3238,3239,3240,3241,1703,1704,0,0,0,0,0,0,0,0,0,0,0,1705,1706,1707,1708,1709,1710,0,0,0,0,0,0,0,0,0,0,0,0,0,0,0,0,
0,0,0,0,0,0,0,0,0,0,0,0,0,0,0,0,0,0,0,0,0,0,0,0,0,0,0,0,0,0,0,0,0,0,0,0,0,1711,1712,3300,3261,3262,3263,3264,3265,3266,3267,3268,3269,3270,3271,3272,3273,3274,3275,3276,3277,3278,3279,3280,3281,1713,1714,0,0,0,0,0,0,0,0,0,0,0,0,0,0,1715,1716,0,0,0,0,0,0,0,0,0,0,0,0,0,0,0,0,0,
0,0,0,0,0,0,0,0,0,0,0,0,0,0,0,0,0,1717,1718,1719,1720,1721,0,0,0,0,0,0,0,0,0,0,0,0,0,0,0,1722,1723,3340,3301,3302,3303,3304,3305,3306,3307,3308,3309,3310,3311,3312,3313,3314,3315,3316,3317,3318,3319,3320,1724,1725,0,0,0,0,0,0,0,0,0,0,0,0,0,0,0,0,0,0,0,0,0,0,0,1726,1727,1728,0,0,0,0,0,0,0,0,
0,0,0,0,0,0,0,0,0,0,0,0,0,0,0,0,1729,1730,3359,3360,3361,1731,1732,1733,0,0,0,0,0,0,0,0,0,0,0,0,0,0,1734,3380,3341,3342,3343,3344,3345,3346,3347,3348,3349,3350,3351,3352,3353,3354,3355,3356,3357,3358,3359,3360,1735,0,0,0,0,0,0,0,0,0,0,0,0,0,0,0,0,0,0,0,0,0,0,0,1736,1737,3347,1738,1739,1740,1741,0,0,0,0,0,
0,0,0,0,0,0,0,0,0,0,0,0,0,0,0,0,1742,3398,3399,3400,3401,3402,1743,1744,1745,0,0,0,0,0,0,0,0,0,0,0,0,0,1746,1747,3381,3382,3383,3384,3385,3386,3387,3388,3389,3390,3391,3392,3393,1748,1749,1750,1751,3398,3399,1752,1753,0,0,0,0,0,0,0,0,0,0,0,0,0,0,0,0,0,0,0,0,0,0,1754,1755,3386,3387,3388,3389,3390,1756,0,0,0,0,0,
0,0,0,0,0,0,0,0,0,0,0,0,0,0,0,0,1757,3438,3439,3440,3441,3442,3443,3444,1758,0,0,0,0,0,0,0,0,0,0,0,0,0,0,1759,1760,1761,1762,1763,1764,1765,1766,1767,1768,1769,1770,1771,1772,1773,0,0,1774,1775,1776,3440,1777,1778,0,0,0,0,0,0,0,0,0,0,0,0,0,0,0,0,0,0,0,0,1779,1780,3425,3426,3427,3428,3429,3430,1781,1782,0,0,0,0,
0,0,0,0,0,0,0,0,0,0,0,0,0,0,0,0,1783,3478,3479,3480,3481,3482,3483,1784,1785,0,0,0,0,0,0,0,0,0,0,0,0,0,0,0,0,0,0,0,0,0,0,0,0,0,0,0,0,0,0,0,0,0,1786,3480,1787,1788,0,0,0,0,0,0,0,0,0,0,0,0,0,0,0,0,0,0,0,1789,1790,3464,3465,3466,3467,3468,3469,3470,3471,1791,0,0,0,0,
0,0,0,0,0,0,0,0,0,0,0,0,0,0,0,0,1792,1793,3519,3520,3521,3522,1794,1795,0,0,0,0,0,0,0,0,0,0,0,0,0,0,0,0,0,0,0,0,0,0,0,0,0,0,0,0,0,0,0,0,0,0,1796,3520,3521,1797,1798,0,0,0,0,0,0,0,0,0,0,0,0,0,0,0,0,0,0,1799,1800,3504,3505,3506,3507,3508,3509,3510,1801,1802,0,0,0,0,
0,0,0,0,0,0,0,0,0,0,0,0,0,0,0,0,0,1803,1804,3560,3561,1805,1806,0,0,0,0,0,0,0,0,0,0,0,0,0,0,0,0,0,0,0,0,0,0,0,0,0,0,0,0,0,0,0,0,0,0,0,1807,1808,3561,1809,1810,0,0,0,0,0,0,0,0,0,0,0,0,0,0,0,0,0,0,0,1811,1812,3545,1813,1814,1815,1816,1817,1818,0,0,0,0,0,
0,0,0,0,0,0,0,0,0,0,0,0,0,0,0,0,0,0,1819,3600,3601,1820,0,0,0,0,0,0,0,0,0,0,0,0,0,0,0,0,0,0,0,0,0,0,0,0,0,0,0,0,0,0,0,0,0,0,0,0,0,1821,3601,3602,1822,0,0,0,0,0,0,0,0,0,0,0,0,0,0,0,0,0,0,0,0,1823,1824,1825,0,0,0,0,0,0,0,0,0,0,
0,0,0,0,0,0,0,0,0,0,0,0,0,0,0,0,0,0,1826,3640,3641,1827,0,0,0,0,0,0,0,0,0,0,0,0,0,0,0,0,0,0,0,0,0,0,0,0,0,0,0,0,0,0,0,0,0,0,0,0,0,1828,3641,3642,1829,0,0,0,0,0,0,0,0,0,0,0,0,0,0,0,0,0,0,0,0,0,0,0,0,0,0,0,0,0,0,0,0,0,
0,0,0,0,0,0,0,0,0,0,0,0,0,0,0,0,0,0,1830,3680,3681,1831,0,0,0,0,0,0,0,0,0,0,0,0,0,0,0,0,0,0,0,0,0,0,0,0,0,0,0,0,0,0,0,0,0,0,0,0,0,1832,3681,3682,1833,0,0,0,0,0,0,0,0,0,0,0,0,0,0,0,0,0,0,0,0,0,0,0,0,0,0,0,0,0,0,0,0,0,
0,0,0,0,0,0,0,0,0,0,0,0,0,0,0,0,0,1834,1835,3720,3721,1836,1837,0,0,0,0,0,0,0,0,0,0,0,0,0,0,0,0,0,0,0,0,0,0,0,0,0,0,0,0,0,0,0,0,0,0,0,0,1838,3721,3722,1839,0,0,0,0,0,0,0,0,0,0,0,0,0,0,0,0,0,0,0,0,0,0,0,0,0,0,0,0,0,0,0,0,0,
0,0,0,0,0,0,0,0,0,0,0,0,0,0,0,0,1840,1841,3759,3760,3761,3762,1842,1843,0,0,0,0,0,0,0,0,0,0,0,0,0,0,0,0,0,0,0,0,0,0,0,0,0,0,0,0,0,0,0,0,0,0,0,1844,3761,3762,1845,0,0,0,0,0,0,0,0,0,0,0,0,0,0,0,0,0,0,0,0,0,0,0,0,0,0,0,0,0,0,0,0,0,
0,0,0,0,0,0,0,0,0,0,0,0,0,0,0,1846,1847,3798,3799,3800,3801,3802,1848,1849,1850,0,0,0,0,0,0,0,0,0,0,0,0,0,0,0,0,0,0,0,0,0,0,0,0,0,0,0,0,0,0,0,0,0,0,1851,3801,3802,1852,0,0,0,0,0,0,0,0,0,0,0,0,0,0,0,0,0,0,0,0,0,0,0,0,0,0,0,0,0,0,0,0,0,
0,0,0,0,0,0,0,0,0,0,0,0,0,0,0,1853,1854,3838,3839,3840,3841,3842,3843,1855,1856,0,0,0,0,0,0,0,0,0,0,0,0,0,0,0,0,0,0,0,0,0,0,0,0,0,0,0,0,0,0,0,0,0,0,1857,3841,3842,1858,1859,0,0,0,0,0,0,0,0,0,0,0,0,0,0,0,0,0,0,0,0,0,0,0,0,0,0,0,0,0,0,0,0,
0,0,0,0,0,0,0,0,0,0,0,0,0,0,0,1860,1861,3878,3879,3880,3881,3882,3883,1862,1863,0,0,0,0,0,0,0,0,0,0,0,0,0,0,0,0,0,0,0,0,0,0,0,0,0,0,0,0,0,0,0,0,0,0,1864,3881,3882,1865,1866,0,0,0,0,0,0,0,0,0,0,0,0,0,0,0,0,0,0,0,0,0,0,0,0,0,0,0,0,0,0,0,0,
0,0,0,0,0,0,0,0,0,0,0,0,0,0,0,0,1867,1868,1869,1870,1871,1872,1873,1874,0,0,0,0,0,0,0,0,0,0,0,0,0,0,0,0,0,0,0,0,0,0,0,0,1875,1876,1877,1878,1879,1880,1881,1882,1883,1884,1885,1886,3921,3922,1887,0,0,0,0,0,0,0,0,0,0,0,0,0,0,0,0,0,0,0,0,0,0,0,0,0,0,0,0,0,0,0,0,0,
0,0,0,0,0,0,0,0,0,0,0,0,0,0,0,0,0,0,0,0,1888,1889,0,0,0,0,0,0,0,0,0,0,0,0,1890,1891,1892,1893,1894,0,0,0,0,0,0,1895,1896,1897,1898,3950,3951,3952,1899,3954,3955,3956,3957,3958,3959,3960,3961,1900,1901,0,0,0,0,0,0,0,0,0,0,1902,1903,0,0,0,0,0,0,0,0,0,0,0,0,0,0,0,0,0,0,0,0,0,
0,0,0,0,0,0,0,0,0,0,0,0,0,0,0,0,0,0,0,0,0,0,0,0,0,0,0,0,0,0,0,1904,1905,1906,1907,4016,4017,4018,1908,1909,1910,1911,1912,1913,1914,1915,1916,3988,3989,3990,3991,3992,3993,3994,3995,3996,3997,3998,1917,1918,1919,1920,0,0,0,0,0,0,0,0,1921,1922,1923,1924,1925,1926,1927,0,0,0,0,0,0,0,0,0,0,0,0,0,0,0,0,0,0,0,
0,0,0,0,0,0,0,0,0,0,0,0,0,0,0,1928,1929,0,0,0,0,0,0,0,0,0,0,0,0,1930,1931,1932,4053,4054,4055,4056,4057,4058,4059,4060,4021,4022,4023,4024,4025,4026,4027,1933,1934,1935,1936,1937,1938,1939,1940,1941,1942,1943,1944,1945,0,0,0,0,0,0,0,0,0,1946,1947,4052,4053,4054,4055,4056,1948,1949,0,0,0,0,0,0,0,0,0,0,0,0,0,0,0,0,0,0,
0,0,0,0,0,0,0,0,0,0,1950,1951,1952,1953,1954,1955,1956,1957,1958,1959,1960,1961,1962,0,0,0,0,1963,1964,1965,4091,4092,4093,4094,4095,4096,4097,4098,4099,4100,4061,4062,4063,4064,4065,1966,1967,1968,1969,0,0,0,0,0,0,0,0,0,0,0,0,0,0,0,0,0,0,0,0,1970,4091,4092,4093,4094,4095,4096,1971,1972,0,0,0,0,0,0,0,0,0,0,0,0,0,0,0,0,0,0,
1973,1974,1975,1976,1977,1978,1979,1980,1981,1982,1983,4112,4113,4114,4115,4116,4117,4118,4119,4120,4121,4122,1984,1985,1986,1987,1988,1989,4129,4130,4131,1990,1991,1992,1993,4136,4137,1994,1995,1996,1997,1998,1999,2000,2001,2002,0,0,0,0,0,0,0,0,0,0,0,0,0,0,0,0,0,0,0,0,0,0,0,2003,2004,4132,4133,4134,4135,4136,2005,2006,0,0,0,0,0,0,0,0,0,0,0,0,0,0,0,0,0,0,
2007,4142,4143,4144,4145,4146,4147,4148,4149,4150,4151,4152,4153,4154,4155,4156,4157,4158,4159,4160,4161,4162,4163,4164,4165,4166,4167,4168,4169,4170,2008,2009,2010,0,2011,2012,2013,2014,0,0,0,2015,2016,0,0,0,0,0,0,0,0,0,0,0,0,0,0,0,0,0,0,0,0,0,0,0,0,0,0,0,2017,2018,2019,2020,2021,2022,2023,0,0,0,0,0,0,0,0,0,0,0,0,0,0,0,0,0,0,0,
2024,2582,2583,2584,2585,2586,2587,2588,2589,2590,2591,2592,2025,2026,2027,2028,2029,2030,2031,2032,2033,2034,2035,2604,2605,2606,2607,2608,2036,2037,2038,0,0,0,0,0,0,0,0,0,0,0,0,0,0,0,0,0,0,0,0,0,0,0,0,0,0,0,0,0,0,0,0,0,0,0,0,0,0,0,0,0,0,0,2039,2040,0,0,0,0,0,0,0,0,0,0,0,0,0,0,0,0,0,0,0,0,
2041,2042,2043,2624,2625,2626,2627,2628,2629,2044,2045,2046,2047,0,0,0,0,0,0,0,0,2048,2049,2050,2051,2052,2053,2054,2055,2056,2057,2058,2059,2060,0,0,0,0,0,0,0,0,0,0,0,0,0,0,0,0,0,0,0,0,0,0,0,0,0,0,0,0,0,0,0,0,0,0,0,0,0,0,0,0,0,0,0,0,0,0,0,0,0,0,0,0,0,0,0,2061,2062,0,0,0,0,0,
0,2063,2064,2065,2066,2067,2068,2069,2070,2071,0,0,0,0,0,0,0,0,0,0,0,0,0,0,0,0,0,0,2072,2073,2691,2692,2693,2074,2075,0,0,0,0,0,0,0,0,0,0,0,0,0,0,0,0,0,0,0,0,0,0,0,0,0,0,0,0,0,0,0,0,0,0,0,0,0,0,0,0,0,0,0,0,0,0,0,0,0,0,2076,2077,2078,2079,2080,2081,2082,0,0,0,0,
0,0,0,0,0,0,0,0,0,0,0,0,0,0,0,0,0,0,0,0,0,0,0,0,0,0,0,0,2083,2084,2731,2732,2733,2085,2086,0,0,0,0,0,0,0,0,0,0,0,0,0,0,0,0,0,0,0,0,0,0,0,0,0,0,0,0,0,0,0,0,0,0,0,0,0,0,0,0,0,0,0,0,0,0,0,0,0,2087,2088,2707,2708,2709,2710,2711,2089,2090,0,0,0,
0,0,0,0,0,0,0,0,0,0,0,0,0,0,0,0,0,0,0,0,0,0,0,0,0,0,0,0,0,2091,2092,2093,2094,2095,0,0,0,0,0,0,0,0,0,0,0,0,0,0,0,0,0,0,0,0,0,0,0,0,0,0,0,0,0,0,0,0,0,0,0,0,0,0,0,0,0,0,0,0,0,0,0,0,0,0,2096,2097,2747,2748,2749,2750,2751,2098,2099,0,0,0,
0,0,0,0,0,0,0,0,0,0,0,0,0,0,0,0,0,0,0,0,0,0,0,0,0,0,0,0,0,0,0,2100,2101,0,0,0,0,0,0,0,0,0,0,0,0,0,0,0,0,0,0,0,0,0,0,0,0,0,0,0,0,0,0,0,0,0,0,0,0,0,0,0,0,0,0,0,0,0,0,0,0,0,0,0,2102,2103,2787,2788,2789,2790,2104,2105,0,0,0,0,
0,0,0,0,0,0,0,0,0,0,2106,2107,2108,2109,2110,0,0,0,0,0,0,0,0,0,0,0,0,0,0,0,0,0,0,0,0,0,0,0,0,0,0,0,0,0,0,0,0,0,0,0,0,0,0,0,0,0,0,0,0,0,0,0,0,0,0,0,0,0,0,0,0,0,0,0,0,0,0,0,0,0,0,0,0,0,0,2111,2112,2113,2829,2114,2115,0,0,0,0,0,
0,0,0,0,0,0,0,0,0,2116,2117,2872,2873,2874,2118,2119,2120,0,0,0,0,0,0,0,0,0,0,0,0,0,0,0,0,0,0,0,0,0,0,0,0,0,0,0,0,0,0,0,0,0,0,0,0,0,0,0,0,0,0,0,0,0,0,0,0,0,0,0,0,0,0,0,0,0,0,0,0,0,0,0,0,0,0,0,0,0,0,2121,2122,2123,0,0,0,0,0,0,
0,0,0,0,0,0,0,0,0,2124,2125,2912,2913,2914,2915,2916,2126,0,0,0,0,0,0,0,0,0,0,0,0,0,0,0,0,0,0,0,0,0,0,0,0,0,0,0,0,0,0,0,0,0,0,0,0,0,0,0,0,0,0,0,0,0,0,0,0,0,0,0,0,0,0,0,0,0,0,0,0,2127,2128,2129,2130,0,0,0,0,0,0,0,0,0,0,0,0,0,0,0,
0,0,0,0,0,0,0,0,0,2131,2132,2952,2953,2954,2955,2133,2134,0,0,0,0,0,0,0,2135,2136,2137,2138,2139,0,0,0,0,0,0,0,0,0,0,0,0,0,0,0,0,0,0,0,0,0,0,0,0,0,0,0,0,0,0,0,0,0,0,0,0,0,0,0,0,0,0,0,0,0,0,0,2140,2141,2979,2142,2143,2144,2145,0,0,0,0,0,0,0,0,0,0,0,0,0,
0,0,0,0,0,0,0,0,0,0,2146,2147,2148,2149,2150,2151,0,0,0,0,0,0,0,2152,2153,3006,3007,3008,2154,2155,0,0,0,0,0,0,0,0,0,0,0,0,0,0,0,0,0,0,0,0,0,0,0,0,0,0,0,0,0,0,0,0,0,0,0,0,0,0,0,0,0,0,0,0,0,0,2156,3018,3019,3020,2981,2982,2157,0,0,0,0,0,0,0,0,0,0,0,0,0,
0,0,0,0,0,0,0,0,0,0,0,0,0,0,0,0,0,0,0,0,0,0,0,2158,2159,3046,3047,3048,2160,2161,0,0,0,0,0,0,0,0,0,0,0,0,0,0,0,0,0,0,0,0,0,0,0,0,0,0,0,0,0,0,0,0,0,0,0,0,0,0,0,0,0,0,0,0,0,0,2162,3058,3059,3060,3021,2163,2164,0,0,0,0,0,0,0,0,0,0,0,0,0,
0,0,0,0,0,0,0,0,0,0,0,0,0,0,0,0,0,0,0,0,0,0,0,0,2165,2166,3087,2167,2168,0,0,0,0,0,0,0,0,0,0,0,0,0,0,0,0,0,0,0,0,0,0,0,0,0,0,0,0,0,0,0,0,0,0,0,0,0,0,0,0,0,0,0,0,0,0,0,2169,2170,2171,2172,2173,2174,0,0,0,0,0,0,0,0,0,0,0,0,0,0,
0,0,0,0,0,0,0,0,0,0,0,0,0,0,0,0,0,0,0,0,0,0,0,0,0,2175,2176,2177,0,0,0,0,0,0,0,0,0,0,0,0,0,0,0,0,0,0,0,0,0,0,0,0,0,0,0,0,0,0,0,0,0,0,0,0,0,0,0,0,0,0,0,0,0,0,0,0,0,0,0,0,0,0,0,0,0,0,0,0,0,0,0,0,0,0,0,0,
0,0,0,0,0,0,0,0,0,0,0,0,0,0,0,0,0,0,0,0,0,0,0,0,0,0,0,0,0,0,0,0,0,0,0,0,0,0,0,0,0,0,0,0,0,0,0,0,0,0,0,0,0,0,0,0,0,0,0,0,0,0,0,0,0,0,0,0,0,0,0,0,0,0,0,0,0,0,0,0,0,0,0,0,0,0,0,0,0,0,0,0,0,0,0,0,
0,0,0,0,0,0,0,0,0,0,0,0,0,0,0,0,0,0,0,0,0,0,0,0,0,0,0,0,0,0,0,0,0,0,0,0,0,0,0,0,0,0,0,0,0,0,0,0,0,0,0,0,0,0,0,0,0,0,0,0,0,0,0,0,0,0,0,0,0,0,0,0,0,0,0,0,0,0,0,0,0,0,0,0,0,0,0,0,0,0,0,0,0,0,0,0,
0,0,0,0,0,0,0,0,0,0,0,0,0,0,0,0,0,0,0,0,0,0,0,0,0,0,0,0,0,0,0,0,0,0,0,0,0,0,0,0,0,0,0,0,0,0,0,0,0,0,0,0,0,0,0,0,0,0,0,0,0,0,0,0,0,0,0,0,0,0,0,0,0,0,0,0,0,0,0,0,0,0,0,0,0,0,0,0,0,0,0,0,0,0,0,0,
0,0,0,0,0,0,0,0,0,0,0,0,0,0,0,0,0,0,0,0,0,0,0,0,0,0,0,0,0,0,0,0,0,0,0,0,0,0,0,0,0,0,0,0,0,0,0,0,0,0,0,0,0,0,0,0,0,0,0,0,0,0,0,0,0,0,0,0,0,0,0,0,0,0,0,0,0,0,0,0,0,0,0,0,0,0,0,0,0,0,0,0,0,0,0,0
</data>
 </layer>
 <layer id="3" name="Overlay" width="96" height="58">
  <data encoding="csv">
0,0,0,0,0,0,0,0,0,0,0,0,0,0,0,0,0,0,0,0,0,0,0,0,0,0,2178,2179,2180,2181,0,0,0,0,0,0,0,0,0,0,0,0,0,0,0,0,0,0,0,0,0,0,0,0,0,0,0,0,0,0,0,0,0,0,0,0,0,0,0,0,0,0,0,0,0,0,0,0,0,0,0,0,0,0,0,0,0,0,0,0,0,0,0,0,0,0,
0,0,0,0,0,0,0,0,0,0,0,0,0,0,0,0,0,0,0,0,0,0,0,0,0,0,0,2182,2183,2184,0,0,0,0,0,0,0,0,0,0,0,0,0,0,0,0,0,0,0,0,0,0,0,0,0,0,0,0,0,0,0,0,0,0,0,0,0,0,0,0,0,0,0,0,0,0,0,0,0,0,0,0,0,0,0,0,0,0,0,0,0,0,0,0,0,0,
0,0,0,0,0,0,0,0,0,0,0,0,0,0,0,0,0,0,0,0,0,0,0,0,0,0,0,2185,2186,0,0,0,0,0,0,0,0,0,0,0,0,0,0,0,0,0,0,0,0,0,0,0,0,0,0,0,0,0,0,0,0,0,0,0,0,0,0,0,0,0,0,0,0,0,0,0,0,0,0,0,0,0,0,0,0,0,0,0,0,0,0,0,0,0,0,0,
0,0,0,0,0,0,0,0,0,0,0,0,0,0,0,0,0,0,0,0,0,0,0,0,0,0,0,2187,2188,2189,0,0,0,0,0,0,0,0,0,0,0,0,0,0,0,0,0,0,0,0,0,0,0,0,0,0,0,0,0,0,0,0,0,0,0,0,0,0,0,0,0,0,0,0,0,0,0,0,0,0,0,0,0,0,0,0,0,0,0,0,0,0,0,0,0,0,
0,0,0,0,0,0,0,0,0,0,0,0,0,0,0,0,0,0,0,0,0,0,0,0,0,0,0,2190,2191,2192,0,0,0,0,0,0,0,0,0,0,0,0,0,0,0,0,0,0,0,0,0,0,0,0,0,0,0,0,0,0,0,0,0,0,0,0,0,0,0,0,0,0,0,0,0,0,0,0,0,0,0,0,0,0,0,0,0,0,0,0,0,0,0,0,0,0,
0,0,0,0,0,0,0,0,0,0,0,0,0,0,0,0,0,0,0,0,0,0,0,0,0,0,0,2193,4409,2194,0,0,0,0,0,0,0,0,0,0,0,0,0,0,0,0,0,0,0,0,0,0,0,0,0,0,0,0,0,0,0,0,0,0,0,0,0,0,0,0,0,0,0,0,0,0,0,0,0,0,0,0,0,0,0,0,0,0,0,0,0,0,0,0,0,0,
0,0,0,0,0,0,0,0,0,0,0,0,0,0,0,0,0,0,0,0,0,0,0,0,0,0,0,2195,4449,2196,0,0,0,0,0,0,0,0,0,0,0,0,0,0,0,0,0,0,0,0,0,0,0,0,0,0,0,0,0,0,0,0,0,0,0,0,0,0,0,0,0,0,0,0,0,0,0,0,0,0,0,0,0,0,0,0,0,0,0,0,0,0,0,0,0,0,
0,0,0,0,0,0,0,0,0,0,0,0,0,0,0,0,0,0,0,0,0,0,0,0,0,0,0,2197,4489,2198,2199,0,0,0,0,0,0,0,0,0,0,0,0,0,0,0,0,0,0,0,0,0,0,0,0,0,0,0,0,0,0,0,0,0,0,0,0,0,0,0,0,0,0,0,0,0,0,0,0,0,0,0,0,0,0,0,0,0,0,0,0,0,0,0,0,0,
0,0,0,0,0,0,0,0,0,0,0,0,0,0,0,0,0,0,0,0,0,0,0,0,0,0,0,2200,2201,4530,2202,0,0,0,0,0,0,0,0,0,0,0,0,0,0,0,0,0,0,0,0,0,0,0,0,0,0,0,0,0,0,0,0,0,0,0,0,0,0,0,0,0,0,0,0,0,0,0,0,0,0,0,0,0,0,0,0,0,0,0,0,0,0,0,0,0,
0,0,0,0,0,0,0,0,0,0,0,0,0,0,0,0,0,0,0,0,0,0,0,0,0,0,0,0,2203,4570,2204,0,0,0,0,0,0,0,0,0,0,0,0,0,0,0,0,0,0,0,0,0,0,0,0,0,0,0,0,0,0,0,0,0,0,0,0,0,0,0,0,0,0,0,0,0,0,0,0,0,0,0,0,0,0,0,0,0,0,0,0,0,0,0,0,0,
0,0,0,0,0,0,0,0,0,0,0,0,0,0,0,0,0,0,0,0,0,0,0,0,0,0,0,0,2205,4610,2206,2207,0,0,0,0,0,0,0,0,0,0,0,0,0,0,0,0,0,0,0,0,0,0,0,0,0,0,0,0,0,0,0,0,0,0,0,0,0,0,0,0,0,0,0,0,0,0,0,0,0,0,0,0,0,0,0,0,0,0,0,0,0,0,0,0,
0,0,0,0,0,0,0,0,0,0,0,0,0,0,0,0,0,0,0,0,0,0,0,0,0,0,0,0,2208,2209,4651,2210,0,0,0,0,0,0,0,0,0,0,0,0,0,0,0,0,0,0,0,0,0,0,0,0,0,0,0,0,0,0,0,0,0,0,0,0,0,0,0,0,0,0,0,0,0,0,0,0,0,0,0,0,0,0,0,0,0,0,0,0,0,0,0,0,
0,0,0,0,0,0,0,0,0,0,0,0,0,0,0,0,0,0,0,0,0,0,0,0,0,0,0,0,0,2211,4691,2212,0,0,0,0,0,0,0,0,0,0,0,0,0,0,0,0,0,0,0,0,0,0,0,0,0,0,0,0,0,0,0,0,0,0,0,0,0,0,0,0,0,0,0,0,0,0,0,0,0,0,0,0,0,0,0,0,0,0,0,0,0,0,0,0,
0,0,0,0,0,0,0,0,0,0,0,0,0,0,0,0,0,0,0,0,0,0,0,0,0,0,0,0,0,2213,4731,2214,2215,0,0,0,0,0,0,0,0,0,0,0,0,0,0,0,0,0,0,0,0,0,0,0,0,0,0,0,0,0,0,0,0,0,0,0,0,0,0,0,0,0,0,0,0,0,0,0,0,0,0,0,0,0,0,0,0,0,0,0,0,0,0,0,
0,0,0,0,0,0,0,0,0,0,0,0,0,0,0,0,0,0,0,0,0,0,0,0,0,0,0,0,0,2216,2217,2218,2219,0,0,0,0,0,0,0,0,0,0,0,0,0,0,0,0,0,0,0,0,0,0,0,0,0,0,0,0,0,0,0,0,0,0,0,0,0,0,0,0,0,0,0,0,0,0,0,0,0,0,0,0,0,0,0,0,0,0,0,0,0,0,0,
0,0,0,0,0,0,0,0,0,0,0,0,0,0,0,0,0,0,0,0,0,0,0,0,0,0,0,0,0,0,2220,4812,2221,0,0,0,0,0,0,0,0,0,0,0,0,0,0,0,0,0,0,0,0,0,0,0,0,0,0,0,0,0,0,0,0,0,0,0,0,0,0,0,0,0,0,0,0,0,0,0,0,0,0,0,0,0,0,0,0,0,0,0,0,0,0,0,
0,0,0,0,0,0,0,0,0,0,0,0,0,0,0,0,0,0,0,0,0,0,0,0,0,0,0,0,0,0,2222,2223,2224,2225,0,0,0,0,0,0,0,0,0,0,0,0,0,0,0,0,0,0,0,0,0,0,0,0,0,0,0,0,0,0,0,0,0,0,0,0,0,0,0,0,0,0,0,0,0,0,0,0,0,0,0,0,0,0,0,0,0,0,0,0,0,0,
0,0,0,0,0,0,0,0,0,0,0,0,0,0,0,0,0,0,0,0,0,0,0,0,0,0,0,0,0,0,0,2226,4893,2227,0,0,0,0,0,0,0,0,0,0,0,0,0,0,0,0,0,0,0,0,0,0,0,0,0,0,0,0,0,0,0,0,0,0,0,0,0,0,0,0,0,0,0,0,0,0,0,0,0,0,0,0,0,0,0,0,0,0,0,0,0,0,
0,0,0,0,0,0,0,0,0,0,0,0,0,0,0,0,0,0,0,0,0,0,0,0,0,0,0,0,0,0,0,2228,2229,2230,2231,0,0,0,0,0,0,0,0,0,0,0,0,0,0,0,0,0,0,0,0,0,0,0,0,0,0,0,0,0,0,0,0,0,0,0,0,0,0,0,0,0,0,0,0,0,0,0,0,0,0,0,0,0,0,0,0,0,0,0,0,0,
0,0,0,0,0,0,0,0,0,0,0,0,0,0,0,0,0,0,0,0,0,0,0,0,0,0,0,0,0,0,0,0,2232,4974,2233,2234,0,0,0,0,0,0,0,0,0,0,0,0,0,0,0,0,0,0,0,0,0,0,0,0,0,0,0,0,0,0,0,0,0,0,0,0,0,0,0,0,0,0,0,0,0,0,0,0,0,0,0,0,0,0,0,0,0,0,0,0,
0,0,0,0,0,0,0,0,0,0,0,0,0,0,0,0,0,0,0,0,0,0,0,0,0,0,0,0,0,0,0,0,2235,2236,2237,2238,0,0,0,0,2239,2240,0,0,0,0,0,0,0,0,0,2241,0,0,0,0,0,0,0,0,0,0,0,0,0,0,0,0,0,0,0,0,0,0,0,0,0,0,0,0,0,0,0,0,0,0,0,0,0,0,0,0,0,0,0,0,
0,0,0,0,0,0,0,0,0,0,0,0,0,0,0,0,0,0,0,0,0,0,0,0,0,0,0,0,0,0,0,2242,2243,2244,2245,2246,2247,2248,0,0,2249,2250,0,0,0,0,0,0,0,0,2251,2252,2253,0,0,0,0,0,0,0,0,0,0,0,0,0,0,0,0,0,0,0,0,0,0,0,0,0,0,0,0,0,0,0,0,0,0,0,0,0,0,0,0,0,0,0,
0,0,0,0,0,0,0,0,0,0,0,2254,2255,2256,0,0,0,0,0,0,0,0,0,0,0,0,0,0,0,2257,2258,2259,2260,2261,2262,2263,5097,2264,2265,2266,2267,2268,0,0,0,0,0,2269,2270,2271,2272,2273,2274,0,0,0,0,0,0,0,0,0,0,0,0,0,0,0,0,0,0,0,0,0,0,0,0,0,0,0,0,0,0,0,0,0,0,0,0,0,0,0,0,0,0,0,
0,0,0,0,0,0,0,0,0,0,0,2275,2276,2277,0,0,0,0,0,0,0,0,0,0,0,0,0,0,2278,2279,2280,2281,2282,0,0,2283,2284,5138,5139,2285,2286,2287,2288,2289,2290,2291,2292,2293,2294,2295,2296,2297,2298,2299,2300,0,0,0,0,0,0,0,0,0,0,0,0,0,0,0,0,0,0,0,0,0,0,0,0,0,0,0,0,0,0,0,0,0,0,0,0,0,0,0,0,0,
0,0,0,0,0,0,0,0,0,0,0,2301,2302,2303,0,0,0,0,0,0,0,0,0,0,0,0,0,2304,2305,2306,2307,2308,0,0,0,0,2309,2310,2311,2312,5141,2313,5143,5144,5145,5146,2314,2315,2316,2317,5151,5152,5153,2318,2319,2320,0,0,0,0,0,0,0,0,0,0,0,0,0,0,0,0,0,0,0,0,0,0,0,0,0,0,0,0,0,0,0,0,0,0,0,0,0,0,0,0,
0,0,0,0,0,0,0,0,0,0,0,2321,2322,2323,2324,2325,0,0,2326,2327,2328,2329,0,2330,2331,2332,2333,2334,2335,2336,0,0,0,0,0,0,0,0,2337,2338,2339,2340,2341,2342,2343,2344,2345,2346,2347,2348,2349,2350,2351,2352,5195,2353,2300,0,0,0,0,0,0,0,0,0,0,0,0,0,0,0,0,0,0,0,0,0,0,0,0,0,0,0,0,0,0,0,0,0,0,0,0,0,0,0,
0,0,0,0,0,0,0,0,0,0,0,0,2354,2355,2356,2357,2358,2359,2360,2361,2362,2363,2364,2365,2366,2367,2368,2369,2370,0,0,0,0,0,0,0,0,0,0,0,0,0,0,0,0,0,0,0,0,0,0,0,0,2371,2372,2373,2374,2375,2376,2377,2378,2379,0,0,0,0,0,2380,2381,0,0,0,0,0,0,0,0,0,0,0,0,0,0,0,0,0,0,0,0,0,0,0,0,0,0,0,
0,0,0,0,0,0,0,0,0,0,0,0,0,2321,2382,2383,2384,2385,2386,2387,2388,2389,2390,2391,2392,2393,0,0,0,0,0,0,0,0,0,0,0,0,0,0,0,0,0,0,0,0,0,0,0,0,0,0,0,0,2394,2395,5277,2396,2397,2398,2399,2400,2401,2402,2403,2404,2405,2406,2407,0,0,0,0,0,0,0,0,0,0,0,0,0,0,0,0,0,0,0,0,0,0,0,0,0,0,0,
0,0,0,0,0,0,0,0,0,0,0,0,0,0,0,0,0,0,0,0,0,0,0,0,0,0,0,0,0,0,0,0,0,0,0,0,0,0,0,0,0,0,0,0,0,0,0,0,0,0,0,0,0,0,0,2408,5317,2409,2410,2411,2412,2413,2414,2415,2416,2417,2418,2419,2420,0,0,0,0,0,0,0,0,0,0,0,0,0,0,0,0,0,0,0,0,0,0,0,0,0,0,0,
0,0,0,0,0,0,0,0,0,0,0,0,0,0,0,0,0,0,0,0,0,0,0,0,0,0,0,0,0,0,0,0,0,0,0,0,0,0,0,0,0,0,0,0,0,0,0,0,0,0,0,0,0,0,0,2421,5357,2422,0,0,0,0,0,0,0,2423,2424,2425,2426,2427,2428,0,0,0,0,0,0,0,0,0,0,0,0,0,0,0,0,0,0,0,0,0,0,0,0,0,
0,0,0,0,0,0,0,0,0,0,0,0,0,0,0,0,0,0,0,0,0,0,0,0,0,0,0,0,0,0,0,0,0,0,0,0,0,0,0,0,0,0,0,0,0,0,0,0,0,0,0,0,0,0,0,2429,5397,2430,0,0,0,0,0,0,0,0,0,2431,2432,2433,2434,2435,2436,2437,2438,2439,2440,2441,2442,2443,2444,2445,2446,2447,0,0,0,0,0,0,0,0,0,0,0,0,
0,0,0,0,0,0,0,0,0,0,0,0,0,0,0,0,0,0,0,0,0,0,0,0,0,0,0,0,0,0,0,0,0,0,0,0,0,0,0,0,0,0,0,0,0,0,0,0,0,0,0,0,0,0,0,2448,5437,2449,0,0,0,0,0,0,0,0,0,0,0,2450,2451,2452,2453,2454,2455,5456,2456,2457,2458,2459,2460,2461,2462,2463,2464,0,0,0,0,0,0,0,0,0,0,0,
0,0,0,0,0,0,0,0,0,0,0,0,0,0,0,0,0,0,0,0,0,0,0,0,0,0,0,0,0,0,0,0,0,0,0,0,0,0,0,0,0,0,0,0,0,0,0,0,0,0,0,0,0,0,0,2465,5477,2466,0,0,0,0,0,0,0,0,0,0,0,0,0,0,0,2467,2468,2469,2470,2471,0,0,0,0,2472,2473,2474,0,0,0,0,0,0,0,0,0,0,0,
0,0,0,0,0,0,0,0,0,0,0,0,0,0,0,0,0,0,0,0,0,0,0,0,0,0,0,0,0,0,0,0,0,0,0,0,0,0,0,0,0,0,0,0,0,0,0,0,0,0,0,0,0,0,0,2475,5517,2476,0,0,0,0,0,0,0,0,0,0,0,0,0,0,0,0,0,0,0,0,0,0,0,0,0,0,0,0,0,0,0,0,0,0,0,0,0,0,
0,0,0,0,0,0,0,0,0,0,0,0,0,0,0,0,0,0,0,0,0,0,0,0,0,0,0,0,0,0,0,0,0,0,0,0,0,0,0,0,0,0,0,0,0,0,0,0,0,0,0,0,0,0,0,2477,2478,2479,0,0,0,0,0,0,0,0,0,0,0,0,0,0,0,0,0,0,0,0,0,0,0,0,0,0,0,0,0,0,0,0,0,0,0,0,0,0,
0,0,0,0,0,0,0,0,0,0,0,0,0,0,0,0,0,0,0,0,0,0,0,0,0,0,0,0,0,0,0,0,0,0,0,0,0,0,0,0,0,0,0,0,0,0,0,0,0,0,0,0,0,0,0,2480,2481,2482,0,0,0,0,0,0,0,0,0,0,0,0,0,0,0,0,0,0,0,0,0,0,0,0,0,0,0,0,0,0,0,0,0,0,0,0,0,0,
0,0,0,0,0,0,0,0,0,0,0,0,0,0,0,0,0,0,0,0,0,0,0,0,0,0,0,0,0,0,0,0,0,0,0,0,0,0,0,0,0,0,0,0,0,0,0,0,0,0,0,0,0,0,0,2483,5637,2484,0,0,0,0,0,0,0,0,0,0,0,0,0,0,0,0,0,0,0,0,0,0,0,0,0,0,0,0,0,0,0,0,0,0,0,0,0,0,
0,0,0,0,0,0,0,0,0,0,0,0,0,0,0,0,0,0,0,0,0,0,0,0,0,0,0,0,0,0,0,0,0,0,0,0,0,0,0,0,0,0,0,0,0,0,0,0,0,0,0,0,0,0,0,2485,5677,2486,0,0,0,0,0,0,0,0,0,0,0,0,0,0,0,0,0,0,0,0,0,0,0,0,0,0,0,0,0,0,0,0,0,0,0,0,0,0,
0,0,0,0,0,0,0,0,0,0,0,0,0,0,0,0,0,0,0,0,0,0,0,0,0,0,0,0,0,0,0,0,0,0,0,0,0,0,0,0,0,0,0,0,0,0,0,0,0,0,0,0,0,0,0,2487,5717,2488,0,0,0,0,0,0,0,0,0,0,0,0,0,0,0,0,0,0,0,0,0,0,0,0,0,0,0,0,0,0,0,0,0,0,0,0,0,0,
0,0,0,0,0,0,0,0,0,0,0,0,0,0,0,0,0,0,0,0,0,0,0,0,0,0,0,0,0,0,0,0,0,0,0,0,0,0,0,0,0,0,0,0,0,0,0,0,0,0,0,0,0,0,0,2489,5757,2490,0,0,0,0,0,0,0,0,0,0,0,0,0,0,0,0,0,0,0,0,0,0,0,0,0,0,0,0,0,0,0,0,0,0,0,0,0,0,
0,0,0,0,0,0,0,0,0,0,0,0,0,0,0,0,0,0,0,0,0,0,0,0,0,0,0,0,0,0,0,0,0,0,0,0,0,0,0,0,0,0,0,0,0,0,0,0,0,0,0,0,2491,2492,2493,2494,4197,2495,2496,0,0,0,0,0,0,0,0,0,0,0,0,0,0,0,0,0,0,0,0,0,0,0,0,0,0,0,0,0,0,0,0,0,0,0,0,0,
0,0,0,0,0,0,0,0,0,0,0,0,0,0,0,0,0,0,0,0,0,0,0,0,0,0,0,0,0,0,0,0,0,0,0,0,0,0,0,0,0,0,0,0,0,2497,2498,2499,2500,2501,2502,2503,2504,2505,2506,2507,2508,2509,2510,0,0,0,0,0,0,0,0,0,0,0,0,0,0,0,0,0,0,0,0,0,0,0,0,0,0,0,0,0,0,0,0,0,0,0,0,0,
0,0,0,0,0,0,0,0,0,0,0,0,0,0,0,0,0,0,0,0,0,0,0,0,0,0,0,0,0,0,0,0,0,0,0,0,0,0,0,0,0,2330,2511,2512,2513,2514,2515,2516,2517,2518,2519,2520,2521,0,0,0,2522,4278,2523,0,0,0,0,0,0,0,0,0,0,0,0,0,0,0,0,0,0,0,0,0,0,0,0,0,0,0,0,0,0,0,0,0,0,0,0,0,
0,0,0,0,0,0,0,0,0,0,0,0,0,0,0,0,0,0,0,0,0,0,0,0,0,0,0,0,0,0,0,0,0,0,0,0,0,0,2524,2525,2526,2527,2528,2529,2530,2531,2532,2533,0,0,0,0,0,0,0,0,2534,4318,2535,0,0,0,0,0,0,0,0,0,0,0,0,0,0,0,0,0,0,0,0,0,0,0,0,0,0,0,0,0,0,0,0,0,0,0,0,0,
0,0,0,0,0,0,0,0,0,0,0,0,0,0,0,0,0,0,0,0,0,0,0,0,0,0,0,0,0,0,0,0,0,0,0,0,0,2536,2537,2538,2539,2540,2541,0,0,0,0,0,0,0,0,0,0,0,0,0,2542,2543,2544,2545,0,0,0,0,0,0,0,0,0,0,0,0,0,0,0,0,0,0,0,0,0,0,0,0,0,0,0,0,0,0,0,0,0,0,0,0,
0,0,0,0,0,0,0,0,0,0,0,0,0,0,0,0,0,0,0,0,0,0,0,0,0,0,0,0,0,0,0,0,0,0,0,0,0,2546,2547,2548,0,0,0,0,0,0,0,0,0,0,0,0,0,0,0,0,0,2549,4399,2550,0,0,0,0,0,0,0,0,0,0,0,0,0,0,0,0,0,0,0,0,0,0,0,0,0,0,0,0,0,0,0,0,0,0,0,0,
0,0,0,0,0,0,0,0,0,0,0,0,0,0,0,0,0,0,0,0,0,0,0,0,0,0,0,0,0,0,0,0,0,0,0,0,0,0,0,0,0,0,0,0,0,0,0,0,0,0,0,0,0,0,0,0,0,2551,2552,2553,2234,0,0,0,0,0,0,0,0,0,0,0,0,0,0,0,0,0,0,0,0,0,0,0,0,0,0,0,0,0,0,0,0,0,0,0,
0,0,0,0,0,0,0,0,0,0,0,0,0,0,0,0,0,0,0,0,0,0,0,0,0,0,0,0,0,0,0,0,0,0,0,0,0,0,0,0,0,0,0,0,0,0,0,0,0,0,0,0,0,0,0,0,0,0,2554,2555,2556,0,0,0,0,0,0,0,0,0,0,0,0,0,0,0,0,0,0,0,0,0,0,0,0,0,0,0,0,0,0,0,0,0,0,0,
0,0,0,0,0,0,0,0,0,0,0,0,0,0,0,0,0,0,0,0,0,0,0,0,0,0,0,0,0,0,0,0,0,0,0,0,0,0,0,0,0,0,0,0,0,0,0,0,0,0,0,0,0,0,0,0,0,0,2557,2558,2559,0,0,0,0,0,0,0,0,0,0,0,0,0,0,0,0,0,0,0,0,0,0,0,0,0,0,0,0,0,0,0,0,0,0,0,
0,0,0,0,0,0,0,0,0,0,0,0,0,0,0,0,0,0,0,0,0,0,0,0,0,0,0,0,0,0,0,0,0,0,0,0,0,0,0,0,0,0,0,0,0,0,0,0,0,0,0,0,0,0,0,0,0,0,2560,2561,2562,2563,0,0,0,0,0,0,0,0,0,0,0,0,0,0,0,0,0,0,0,0,0,0,0,0,0,0,0,0,0,0,0,0,0,0,
0,0,0,0,0,0,0,0,0,0,0,0,0,0,0,0,0,0,0,0,0,0,0,0,0,0,0,0,0,0,0,0,0,0,0,0,0,0,0,0,0,0,0,0,0,0,0,0,0,0,0,0,0,0,0,0,0,0,2321,2564,4601,2565,0,0,0,0,0,0,0,0,0,0,0,0,0,0,0,0,0,0,0,0,0,0,0,0,0,0,0,0,0,0,0,0,0,0,
0,0,0,0,0,0,0,0,0,0,0,0,0,0,0,0,0,0,0,0,0,0,0,0,0,0,0,0,0,0,0,0,0,0,0,0,0,0,0,0,0,0,0,0,0,0,0,0,0,0,0,0,0,0,0,0,0,0,0,2566,4641,2567,0,0,0,0,0,0,0,0,0,0,0,0,0,0,0,0,0,0,0,0,0,0,0,0,0,0,0,0,0,0,0,0,0,0,
0,0,0,0,0,0,0,0,0,0,0,0,0,0,0,0,0,0,0,0,0,0,0,0,0,0,0,0,0,0,0,0,0,0,0,0,0,0,0,0,0,0,0,0,0,0,0,0,0,0,0,0,0,0,0,0,0,0,0,2568,4681,2569,0,0,0,0,0,0,0,0,0,0,0,0,0,0,0,0,0,0,0,0,0,0,0,0,0,0,0,0,0,0,0,0,0,0,
0,0,0,0,0,0,0,0,0,0,0,0,0,0,0,0,0,0,0,0,0,0,0,0,0,0,0,0,0,0,0,0,0,0,0,0,0,0,0,0,0,0,0,0,0,0,0,0,0,0,0,0,0,0,0,0,0,0,0,2570,4721,2571,0,0,0,0,0,0,0,0,0,0,0,0,0,0,0,0,0,0,0,0,0,0,0,0,0,0,0,0,0,0,0,0,0,0,
0,0,0,0,0,0,0,0,0,0,0,0,0,0,0,0,0,0,0,0,0,0,0,0,0,0,0,0,0,0,0,0,0,0,0,0,0,0,0,0,0,0,0,0,0,0,0,0,0,0,0,0,0,0,0,0,0,0,0,2572,4761,2573,0,0,0,0,0,0,0,0,0,0,0,0,0,0,0,0,0,0,0,0,0,0,0,0,0,0,0,0,0,0,0,0,0,0,
0,0,0,0,0,0,0,0,0,0,0,0,0,0,0,0,0,0,0,0,0,0,0,0,0,0,0,0,0,0,0,0,0,0,0,0,0,0,0,0,0,0,0,0,0,0,0,0,0,0,0,0,0,0,0,0,0,0,0,2574,4801,2575,0,0,0,0,0,0,0,0,0,0,0,0,0,0,0,0,0,0,0,0,0,0,0,0,0,0,0,0,0,0,0,0,0,0,
0,0,0,0,0,0,0,0,0,0,0,0,0,0,0,0,0,0,0,0,0,0,0,0,0,0,0,0,0,0,0,0,0,0,0,0,0,0,0,0,0,0,0,0,0,0,0,0,0,0,0,0,0,0,0,0,0,0,0,2576,4841,2577,0,0,0,0,0,0,0,0,0,0,0,0,0,0,0,0,0,0,0,0,0,0,0,0,0,0,0,0,0,0,0,0,0,0,
0,0,0,0,0,0,0,0,0,0,0,0,0,0,0,0,0,0,0,0,0,0,0,0,0,0,0,0,0,0,0,0,0,0,0,0,0,0,0,0,0,0,0,0,0,0,0,0,0,0,0,0,0,0,0,0,0,0,0,2578,2579,2580,0,0,0,0,0,0,0,0,0,0,0,0,0,0,0,0,0,0,0,0,0,0,0,0,0,0,0,0,0,0,0,0,0,0
</data>
 </layer>
 <layer id="4" name="Decor" width="96" height="58">
  <data encoding="csv">
0,0,0,0,0,0,0,0,0,0,0,0,0,0,0,0,0,0,0,0,0,0,0,0,0,0,0,0,0,0,0,0,0,0,0,0,0,0,0,0,0,0,0,0,0,0,0,0,0,0,0,0,0,0,0,0,0,0,0,0,0,0,0,0,0,0,0,0,0,0,0,0,0,0,0,0,0,0,0,0,0,0,0,0,0,0,0,0,0,0,0,0,0,0,0,0,
0,0,0,0,0,0,0,0,0,0,0,0,0,0,0,0,0,0,0,0,0,0,0,0,0,0,0,0,0,0,0,0,0,0,0,0,0,0,0,0,0,0,0,0,0,0,0,0,0,0,0,0,0,0,0,0,0,0,0,0,0,0,0,0,0,0,0,0,0,0,0,0,0,0,0,0,0,0,0,0,0,0,0,0,0,0,0,0,0,0,0,0,0,0,0,0,
0,0,0,0,0,0,0,0,0,0,0,0,0,0,0,0,0,0,0,0,0,0,0,0,0,0,0,0,0,0,0,0,0,0,0,0,0,0,0,0,0,0,0,0,0,0,0,0,0,0,0,0,0,0,0,0,0,0,0,0,0,0,0,0,0,0,0,0,0,0,0,0,0,0,0,0,0,0,0,0,0,0,0,0,0,0,0,0,0,0,0,0,0,0,0,0,
0,0,0,0,0,0,0,0,0,0,0,0,0,0,0,0,0,0,0,0,0,0,0,0,0,0,0,0,0,0,0,0,0,0,0,0,0,0,0,0,0,0,0,0,7557,0,0,0,0,7527,0,0,0,0,0,0,0,0,7552,0,0,0,0,0,0,0,0,0,0,0,0,0,0,0,0,0,0,0,0,0,0,0,0,0,0,0,0,0,0,0,0,0,0,0,0,0,
0,0,0,0,0,0,0,0,0,0,0,0,0,0,0,0,0,0,0,0,7573,0,0,0,0,0,0,0,0,0,0,0,0,0,0,0,0,0,0,0,0,7537,0,0,0,0,0,7549,0,0,0,0,0,0,0,0,0,0,0,0,0,0,0,0,0,0,0,0,0,0,0,0,0,0,0,0,0,0,0,7536,0,0,0,0,0,0,0,0,0,0,0,0,0,0,0,0,
0,0,0,0,0,0,0,0,0,0,0,0,0,0,0,0,0,0,0,0,0,0,0,0,0,0,0,0,0,0,0,0,0,0,0,0,0,0,0,0,0,0,0,0,0,0,0,0,0,0,0,0,0,0,0,0,0,0,0,0,0,0,0,0,0,0,0,0,0,0,0,0,0,0,0,0,0,0,0,0,0,0,0,0,0,0,0,0,0,0,0,0,0,0,0,0,
0,0,0,0,0,0,0,0,0,0,0,0,0,0,0,0,0,0,0,0,0,0,0,0,0,0,0,0,0,0,0,0,0,0,0,0,0,0,0,0,0,0,0,0,0,0,0,7524,0,0,0,0,0,0,0,0,7524,0,0,0,0,0,0,0,0,0,0,0,0,0,0,0,0,7541,7536,0,7544,0,7576,0,0,0,0,0,0,0,0,0,0,0,0,0,0,0,0,0,
0,0,0,0,0,0,0,0,0,0,0,0,0,0,0,0,0,0,0,0,0,0,0,0,0,0,0,0,0,0,0,0,0,0,0,0,0,0,0,0,0,0,0,0,0,0,0,0,0,0,0,0,0,0,0,0,0,0,0,0,0,0,0,0,0,0,0,0,0,0,0,0,0,0,0,0,0,0,0,0,0,0,0,0,7584,0,0,0,0,7527,0,0,0,0,0,0,
0,0,0,0,0,0,0,0,0,7525,7530,0,0,0,0,0,0,0,0,0,0,0,7544,0,7576,0,0,0,0,0,0,0,0,0,0,0,0,0,0,0,0,0,0,7524,0,0,0,0,0,0,0,7548,0,0,0,0,7524,0,0,0,7556,0,0,0,0,0,0,0,0,0,0,0,0,0,0,0,0,0,0,0,0,0,0,0,0,0,0,0,0,0,7536,7560,0,0,0,0,
0,0,0,0,0,0,0,0,0,0,7536,0,0,0,0,0,0,0,0,0,0,0,0,0,0,7552,0,0,0,0,0,0,7540,0,0,0,0,0,0,0,0,0,0,0,0,0,0,7572,0,0,0,0,0,0,0,0,0,0,0,0,0,0,0,0,0,0,0,0,0,0,0,0,0,0,0,0,0,0,0,0,0,0,0,0,0,0,0,0,0,0,0,0,0,0,0,0,
0,0,0,0,7527,0,0,0,0,0,0,0,0,0,0,0,0,0,0,0,0,0,0,7537,0,0,0,0,0,0,0,7568,0,0,0,0,0,0,0,0,7548,0,0,0,0,0,0,0,0,0,0,0,0,0,0,0,0,0,0,0,0,0,0,0,0,0,0,0,0,0,0,0,0,0,7530,0,0,0,7527,0,0,0,0,0,0,0,0,0,0,0,0,0,0,0,0,0,
0,0,0,0,0,0,7552,0,0,0,0,0,0,0,0,0,0,0,0,0,0,7549,0,0,0,7540,0,0,0,0,0,0,0,0,0,0,0,0,0,0,0,0,0,0,0,0,0,0,7548,0,0,7524,0,0,0,0,0,0,0,0,0,0,0,0,0,7535,0,0,0,0,7541,0,0,0,0,0,0,0,0,0,0,0,0,0,0,0,0,0,0,0,0,0,0,0,0,0,
0,0,0,0,7552,0,0,7560,0,7573,0,0,0,0,0,0,0,0,0,0,7581,0,0,0,0,0,0,0,0,0,0,0,0,0,0,0,0,7548,0,0,0,0,0,0,0,0,0,0,0,0,0,0,0,0,0,0,0,0,0,0,0,0,0,0,0,0,0,0,0,7581,0,0,0,0,0,0,7524,0,0,0,0,0,0,7537,0,0,0,0,0,0,0,0,7577,0,0,0,
0,0,0,0,0,7530,0,0,0,0,0,0,0,0,7583,0,0,0,0,0,0,7573,0,0,0,0,0,0,0,0,0,0,0,0,0,7548,0,0,0,0,7548,0,7532,0,0,0,0,0,0,0,7556,0,0,0,0,0,0,0,0,0,0,0,0,0,0,7557,0,0,0,7557,0,0,0,0,0,0,0,0,0,0,0,0,7576,7567,0,0,0,0,0,0,0,0,0,0,0,0,
0,0,0,0,0,0,0,0,0,0,0,7583,0,0,0,0,0,7577,0,0,0,7557,0,0,7540,0,7540,0,0,7536,0,0,0,0,0,0,0,0,0,0,0,0,7524,0,0,7524,0,0,0,0,0,0,0,0,7532,0,0,0,0,0,0,0,0,7536,0,0,0,0,0,0,0,0,0,0,0,0,7532,0,0,7532,0,0,0,0,0,0,0,0,0,0,0,7567,0,0,0,0,
0,0,0,0,0,0,0,0,0,0,0,0,0,0,0,0,0,0,0,0,0,7537,7584,0,0,0,0,0,0,0,0,0,0,0,0,0,0,0,7532,0,0,0,0,0,0,7548,0,0,0,0,0,0,0,7532,0,0,0,0,0,0,0,0,0,0,0,0,0,0,7530,0,0,0,0,0,0,0,0,0,0,0,0,0,0,0,7576,0,0,0,0,0,0,7576,0,0,0,0,
0,0,0,7540,0,0,0,0,0,0,0,0,0,7536,0,0,0,7584,0,0,7528,0,0,0,0,0,0,0,0,0,0,0,0,0,0,0,0,0,0,0,0,0,0,0,0,7532,0,0,0,0,0,7572,7524,0,0,0,0,0,0,0,7548,0,0,7541,0,0,7530,0,0,0,0,0,0,0,0,0,0,0,0,0,0,0,0,0,0,0,0,0,0,0,0,7541,0,0,0,0,
0,0,0,0,7584,0,0,0,0,0,0,0,0,0,0,7576,0,0,0,0,0,0,0,0,0,0,0,0,0,0,0,0,0,0,0,0,0,0,0,0,0,0,0,0,0,0,0,0,0,0,0,0,0,0,7572,0,0,0,0,0,0,0,0,0,0,0,0,0,0,7581,0,0,0,0,0,0,0,0,0,0,0,0,0,0,0,0,0,0,0,0,0,0,0,7541,0,0,
0,0,0,0,0,0,0,0,0,0,0,0,0,0,0,0,0,0,0,0,0,0,0,7564,0,0,0,0,0,0,0,0,0,0,0,0,0,0,0,0,0,0,0,0,7532,0,0,0,7556,0,0,0,0,0,0,0,0,7532,0,0,0,0,0,0,0,7529,0,0,0,0,0,0,0,0,0,0,0,0,7576,0,0,0,0,0,0,0,0,0,0,0,0,0,0,0,0,0,
0,0,0,0,0,0,0,7557,0,0,0,0,0,0,0,0,0,0,0,0,0,0,0,0,0,0,7527,0,0,0,7584,0,0,0,0,0,0,7564,0,0,0,0,0,0,0,0,0,0,0,0,0,0,0,0,0,0,0,0,0,0,0,0,0,0,7527,0,0,0,0,0,0,0,0,0,0,0,0,0,0,0,0,0,0,0,0,0,0,0,0,0,0,0,0,0,0,0,
0,0,0,0,0,0,0,0,0,0,0,0,0,0,0,0,0,7556,0,0,0,7572,7548,0,0,0,0,0,0,0,0,0,0,0,0,0,0,0,0,0,0,0,0,0,0,0,0,0,7556,0,0,0,0,0,0,0,0,0,0,0,0,7560,0,0,0,0,0,0,0,0,0,0,0,0,0,0,0,0,7581,0,0,0,0,0,0,0,0,0,7524,0,0,7545,0,0,0,0,
0,0,0,0,0,0,0,0,0,0,0,0,0,0,0,0,0,0,7524,0,0,0,0,0,0,0,0,0,0,7536,0,0,0,0,0,0,0,0,7576,0,0,0,0,0,0,0,0,0,0,0,0,0,0,0,0,0,0,0,0,0,0,0,0,0,0,7584,0,0,0,0,0,0,0,0,0,0,0,0,7545,0,7576,0,0,0,0,0,0,0,0,7572,0,0,0,0,0,0,
0,0,0,7541,0,0,0,0,0,0,0,0,0,0,0,0,0,0,7556,0,0,0,0,0,0,7584,0,0,0,0,0,0,0,0,0,0,0,0,0,0,0,0,0,0,0,0,0,0,0,0,0,0,0,0,0,0,0,0,0,0,0,0,7528,7530,0,0,0,0,7573,7577,0,0,0,0,0,0,0,0,0,0,0,0,0,0,7524,0,0,0,0,0,0,0,0,0,0,0,
0,0,0,0,0,0,0,0,0,0,0,0,0,0,0,0,0,0,0,0,7548,0,0,0,0,0,0,0,0,0,0,0,0,0,0,0,0,0,0,0,0,0,0,0,0,0,0,0,0,0,0,0,0,0,0,0,0,0,0,0,0,0,0,0,0,0,0,0,0,0,0,0,0,0,0,0,0,0,0,7549,0,0,0,0,0,0,0,0,0,0,0,0,0,0,0,0,
0,0,0,0,0,0,0,0,7577,0,0,0,0,0,0,0,0,0,0,0,0,0,0,0,7567,7560,0,0,0,0,0,0,0,0,7557,0,0,0,0,0,0,0,0,0,0,0,0,0,0,0,0,0,0,0,0,0,0,0,0,0,7548,0,0,0,0,7577,0,0,0,0,0,0,0,0,0,0,0,0,0,0,0,0,0,0,0,0,0,0,0,0,0,0,0,0,0,0,
0,0,0,0,0,0,0,0,0,0,0,0,0,0,0,0,0,0,7292,7293,7294,7295,0,0,7560,0,0,0,0,0,0,0,0,0,7573,0,0,0,0,0,0,0,0,0,0,0,0,0,0,7560,0,0,0,0,0,0,0,0,0,0,0,0,0,0,0,0,0,0,0,0,0,0,0,0,0,7564,0,0,0,0,0,0,0,0,0,0,0,7557,0,0,0,0,0,0,0,0,
0,0,0,0,0,0,0,0,0,0,0,0,0,0,0,0,0,0,7296,7297,7298,7299,0,0,0,0,0,0,0,0,0,0,0,0,0,0,0,0,0,0,0,0,0,0,0,0,0,0,0,0,0,7529,0,0,0,0,0,0,7525,7292,7293,7294,7295,0,0,0,0,0,0,0,0,0,0,0,7576,0,0,0,0,0,0,0,0,0,0,7564,0,0,0,0,0,0,0,0,0,0,
0,0,0,0,7541,7530,0,0,0,0,0,0,0,0,0,0,0,0,7300,7301,7302,7303,0,0,0,0,0,0,0,0,0,0,0,0,7583,0,0,0,0,0,0,0,0,0,0,0,7537,0,0,0,0,0,0,0,0,0,0,0,0,7296,7297,7298,7299,0,0,0,0,0,0,0,0,0,0,0,0,0,0,0,0,0,0,0,0,0,0,0,0,0,0,0,0,0,0,0,0,0,
0,0,0,0,0,0,0,0,0,0,0,0,0,0,0,0,0,0,0,7548,0,0,0,0,7549,0,0,0,7552,0,0,0,0,0,0,0,0,0,0,0,0,0,0,0,0,0,0,0,0,0,0,0,0,7560,0,0,0,0,0,7300,7301,7302,7303,0,0,0,0,0,0,0,0,0,0,0,0,0,0,0,0,0,0,7573,0,0,0,7567,0,0,0,0,0,0,0,0,0,0,
0,0,0,0,0,0,0,0,0,0,0,0,0,0,0,0,0,0,0,0,0,0,0,0,0,0,7541,0,0,0,0,0,0,0,0,0,0,0,0,0,0,0,0,0,0,0,0,0,0,0,0,7577,0,0,0,0,0,0,0,0,7532,0,0,0,0,7584,0,0,0,0,0,7581,0,0,0,0,0,0,0,0,0,0,0,0,0,0,0,0,0,0,0,0,0,0,0,0,
0,0,0,0,0,0,0,0,0,0,0,0,0,0,0,0,0,0,0,0,0,0,0,0,0,0,0,0,0,0,0,0,0,0,0,0,0,7537,0,0,0,0,0,0,0,0,0,0,0,0,0,0,0,0,0,0,0,0,0,0,0,0,0,0,0,0,0,0,0,0,0,0,0,0,0,0,0,0,0,0,0,0,0,0,0,0,0,7537,0,0,0,0,0,0,0,0,
0,0,0,0,0,0,0,0,0,0,0,0,0,0,0,0,7556,0,0,0,0,0,0,0,0,7529,0,0,0,0,0,0,0,0,0,0,0,0,0,0,0,0,7573,0,7557,0,0,7567,0,0,0,0,0,0,0,0,0,0,0,0,0,7524,0,0,0,0,0,0,0,0,0,0,0,0,0,0,0,0,0,0,0,0,0,0,0,7530,0,0,0,0,0,0,0,0,0,0,
0,0,0,0,0,7525,0,0,0,0,0,0,0,0,7568,0,0,0,0,0,0,0,0,0,0,0,7530,0,0,0,0,0,0,0,7549,0,0,0,0,0,0,0,0,0,0,0,0,0,0,0,0,7528,0,0,0,0,0,0,0,0,0,7532,0,0,0,0,0,0,0,0,0,0,0,0,7557,0,0,0,0,0,0,0,0,0,0,0,0,0,0,0,0,0,0,0,0,0,
0,0,0,0,0,0,0,7544,0,0,0,0,0,0,0,0,0,0,0,0,0,0,0,0,0,0,0,0,0,7581,0,0,7541,0,0,0,0,0,0,0,0,0,0,0,0,0,0,0,0,0,0,0,0,0,0,7380,7381,7382,0,0,0,0,0,0,7583,0,0,0,0,0,0,0,0,0,0,0,0,0,0,0,0,0,0,0,7549,0,7567,0,7530,0,0,0,0,0,0,0,
0,0,0,0,0,0,0,0,0,0,0,7560,0,0,0,0,0,0,0,0,0,0,0,0,0,7584,0,0,0,0,0,0,7584,0,0,0,0,0,0,0,0,0,7544,0,0,0,0,0,0,0,0,0,0,0,0,7383,7384,7385,0,0,0,0,0,0,0,0,0,7568,0,0,0,0,0,0,0,0,0,0,0,0,0,0,0,0,0,0,0,0,0,0,0,0,0,0,0,0,
0,0,0,0,0,0,0,0,0,0,0,0,7577,0,0,0,0,0,0,7576,0,0,0,0,0,0,0,0,0,0,0,0,0,0,0,0,0,0,0,0,0,0,0,0,0,0,0,0,0,0,0,0,0,0,0,7386,7387,7388,0,0,0,0,0,0,0,0,0,0,0,0,0,0,0,0,0,0,0,0,0,0,0,0,0,0,0,0,0,0,0,0,0,0,0,0,0,0,
0,0,0,0,0,0,0,0,0,0,0,7525,0,0,0,0,0,0,0,0,0,0,0,7537,0,0,0,0,0,0,0,0,0,0,0,0,0,0,0,0,0,0,7524,0,0,7532,0,0,0,0,0,0,0,0,0,7389,7390,7391,0,0,7583,0,0,0,0,0,0,0,0,0,0,0,0,0,0,0,0,0,0,0,0,0,0,0,0,0,0,7527,0,0,7525,0,0,0,0,0,
0,0,0,0,0,0,0,0,0,0,0,0,0,0,0,0,0,0,0,0,0,0,0,0,0,0,0,0,0,0,0,0,0,0,0,0,0,7556,0,0,0,0,7532,0,0,0,0,0,0,0,0,0,0,0,0,0,0,0,0,0,0,0,0,0,0,0,0,0,0,0,0,0,0,0,7556,0,0,0,0,0,0,0,0,0,0,0,0,0,0,0,0,0,0,0,0,0,
0,0,0,0,0,0,0,0,0,0,0,0,0,0,0,0,0,0,0,0,0,0,0,0,0,0,0,0,0,0,0,7548,0,0,0,0,0,0,0,0,0,0,0,0,0,0,0,7536,0,0,0,0,0,0,0,0,0,0,0,0,0,0,0,0,0,0,0,0,0,0,0,0,0,0,0,0,0,0,0,0,0,0,7568,0,0,0,0,0,0,0,0,0,0,0,0,0,
0,7556,0,0,0,0,0,0,7572,0,7556,0,7524,0,0,0,7556,0,7532,0,7556,0,0,7524,0,0,0,0,0,0,0,0,0,0,0,0,0,0,0,0,0,0,0,0,0,0,0,0,0,0,0,0,0,0,0,0,0,0,0,0,7564,7557,0,0,0,0,0,0,0,0,0,0,0,0,0,0,0,0,0,0,0,0,0,0,0,0,0,0,0,0,0,0,0,0,0,0,
0,0,7556,0,7532,0,7572,0,0,0,0,0,0,0,0,0,0,0,0,0,0,0,0,0,0,0,7548,0,0,0,0,0,0,0,0,0,0,0,0,0,0,0,0,7583,0,0,0,0,0,0,0,0,0,0,0,0,0,0,0,0,7529,0,0,0,0,0,0,0,0,0,0,0,0,0,0,0,0,0,0,0,0,0,0,0,0,0,0,0,0,0,0,0,0,0,0,0,
0,0,0,0,0,0,0,0,0,0,0,0,0,0,0,0,0,0,0,0,0,0,0,0,0,0,0,0,0,0,0,0,0,0,0,0,0,7564,0,0,0,0,0,0,0,0,0,0,0,0,0,0,0,0,0,0,0,0,0,0,0,0,0,0,0,0,0,0,0,0,0,0,0,0,0,0,0,0,0,0,0,0,0,7544,0,0,0,0,0,0,0,0,0,0,0,0,
0,0,0,0,0,0,0,0,0,0,0,0,0,0,0,7535,0,0,0,0,0,0,7560,0,0,0,0,0,0,0,7572,0,0,0,0,0,0,0,0,0,0,0,0,0,0,0,0,0,0,0,0,0,0,0,0,0,0,0,0,0,0,0,0,0,0,0,0,0,0,7584,0,0,0,0,0,0,0,0,0,0,7581,0,0,0,0,0,0,0,0,0,0,0,0,0,0,0,
0,0,0,0,0,0,0,0,0,0,0,0,0,0,0,0,0,0,0,0,0,0,0,0,0,0,0,0,0,0,7532,7572,7556,0,0,0,0,7527,0,0,0,0,0,0,0,0,0,0,0,0,0,0,0,0,0,0,0,0,0,0,0,0,0,0,0,0,0,0,0,0,0,0,0,7544,0,0,0,0,7573,0,0,7564,7537,0,0,0,0,0,0,7548,0,0,0,0,0,0,
0,0,0,0,0,0,0,0,0,0,0,7592,7593,0,0,7557,7594,7595,7596,7588,7589,0,0,0,0,0,0,0,0,0,0,0,0,0,0,0,7573,0,0,0,0,0,7573,0,0,0,0,0,0,0,0,0,0,0,0,0,0,0,0,0,0,0,0,0,0,0,0,0,0,0,0,0,0,0,7583,0,0,0,0,7545,0,0,0,0,0,0,0,0,0,0,0,0,0,0,0,0,
0,0,0,0,0,0,0,7588,7589,0,7529,0,0,0,0,7597,7598,7599,7600,7590,7591,0,0,0,0,0,0,0,0,0,0,0,0,7537,0,0,0,0,0,7581,0,0,0,7573,0,0,0,0,0,0,0,0,0,0,0,0,0,0,0,0,0,0,0,0,0,0,0,0,0,0,0,7573,0,0,0,0,0,0,0,0,0,0,0,0,0,0,0,0,0,0,0,0,0,0,0,0,
0,0,0,0,0,0,0,7590,7591,0,0,0,0,0,0,7601,7602,7603,7604,0,0,0,0,0,0,0,0,0,7592,7593,0,0,0,0,0,0,0,0,0,0,0,0,0,0,0,0,0,0,0,0,0,0,0,0,0,0,0,0,0,0,0,0,0,0,0,0,0,0,0,0,0,0,0,0,0,0,0,0,0,0,7537,0,0,0,0,0,0,0,7532,0,0,0,0,0,0,0,
0,0,0,0,0,0,0,0,0,0,0,0,0,7572,0,0,0,0,0,0,0,0,0,0,0,7536,0,7527,0,0,0,0,0,0,0,0,0,0,0,0,0,0,0,0,0,0,0,0,0,0,0,0,0,0,0,0,0,0,0,0,0,0,0,0,0,0,0,0,0,0,0,0,0,0,0,0,0,0,7545,7528,0,0,0,0,0,0,0,0,0,0,0,0,0,0,0,0,
0,0,0,0,7594,7595,7596,0,0,0,0,0,0,0,0,7572,0,0,0,0,0,0,0,7588,7589,0,0,0,7567,0,0,0,0,0,0,0,0,0,0,0,0,0,0,7537,0,0,0,0,0,0,0,0,0,0,0,0,0,0,0,0,0,0,0,0,0,0,0,0,0,7540,0,0,0,0,0,0,0,0,0,0,0,0,0,0,0,0,0,0,0,7568,0,0,0,0,0,0,
0,0,0,7597,7598,7599,7600,0,0,0,0,0,0,0,7524,0,0,0,0,0,0,0,0,7590,7591,0,0,0,0,0,0,7541,0,0,0,0,0,0,0,0,0,0,0,0,0,0,0,0,0,0,0,0,0,0,0,0,0,0,0,0,0,0,0,0,0,0,0,7564,0,0,0,0,0,0,0,0,0,0,0,0,0,0,0,0,0,0,0,0,0,0,0,0,0,0,0,0,
0,0,0,7601,7602,7603,7604,0,0,0,0,0,0,0,0,0,0,0,0,0,0,0,0,0,0,0,0,0,0,0,0,0,0,0,7588,7589,0,0,0,0,0,0,0,0,0,0,0,0,0,0,0,0,0,0,0,7560,0,7583,0,0,0,0,0,0,0,0,0,0,7564,0,0,0,0,0,0,0,0,0,0,7524,7524,0,0,0,0,0,0,0,0,7549,7564,0,0,0,0,0,
0,0,0,0,0,7530,0,0,0,7540,0,0,0,0,0,7588,7589,0,0,0,0,0,0,0,0,0,0,0,0,0,0,0,0,0,7590,7591,0,0,0,0,0,0,0,0,0,0,0,0,0,0,0,0,0,7525,0,0,0,0,0,0,0,0,0,0,0,0,0,0,0,0,0,0,0,7537,0,7583,0,0,0,0,0,0,0,0,0,0,0,0,0,0,0,0,0,0,0,0,
0,0,0,0,0,7568,0,0,0,7592,7593,0,0,0,0,7590,7591,0,0,0,0,0,0,0,0,0,0,0,0,0,7594,7595,7596,0,0,0,0,0,0,0,0,0,0,0,0,0,0,0,0,0,0,0,0,0,0,0,0,0,0,0,0,0,0,0,0,0,0,0,0,7560,0,0,0,0,0,0,0,0,0,0,0,0,0,0,0,0,7568,0,0,0,0,0,0,0,0,0,
0,0,0,0,0,0,0,0,0,0,0,0,0,0,0,0,0,0,0,7564,0,0,0,0,0,0,0,0,0,7597,7598,7599,7600,0,0,0,0,0,0,0,0,0,0,0,0,0,0,0,0,0,0,0,0,0,0,0,0,0,0,0,0,0,0,0,0,0,0,0,0,0,0,0,7544,0,0,0,0,0,0,0,0,0,0,0,0,0,7544,0,0,0,0,0,0,0,0,0,
0,0,0,0,0,0,0,0,0,0,0,0,0,0,0,0,0,0,0,0,0,0,0,0,0,0,0,0,0,7601,7602,7603,7604,0,0,0,0,0,0,0,0,0,0,0,0,0,0,0,0,0,0,0,0,0,0,0,0,0,0,0,0,0,0,0,0,0,0,0,0,0,0,7528,0,0,0,0,0,0,0,0,0,0,0,0,0,0,7564,7527,0,0,0,7535,0,0,0,0,
0,0,0,0,0,0,0,0,0,0,0,0,0,0,0,0,0,0,0,0,0,0,0,0,0,0,0,0,0,0,0,0,0,0,7549,0,0,0,0,0,0,0,0,0,0,0,0,0,0,0,0,0,0,0,0,0,0,0,0,0,0,0,0,0,0,0,0,0,0,0,0,0,0,0,0,0,0,0,0,0,0,0,0,0,0,0,0,0,0,0,0,0,0,0,0,0,
0,0,0,0,0,0,0,0,0,0,0,0,0,0,0,0,0,0,0,0,0,0,0,0,0,0,0,0,0,0,0,0,0,0,0,0,0,0,0,0,0,0,0,0,0,0,0,0,0,0,0,0,0,0,0,0,0,0,0,0,0,0,0,0,0,0,0,0,0,0,0,0,0,0,0,0,0,0,0,0,0,0,0,0,0,0,0,0,0,0,0,0,0,0,0,0,
0,0,0,0,0,0,0,0,0,0,0,0,0,0,0,0,0,0,0,0,0,0,0,0,0,0,0,0,0,0,0,0,0,0,0,0,0,0,0,0,0,0,0,0,0,0,0,0,0,0,0,0,0,0,0,0,0,0,0,0,0,0,0,0,0,0,0,0,0,0,0,0,0,0,0,0,0,0,0,0,0,0,0,0,0,0,0,0,0,0,0,0,0,0,0,0
</data>
 </layer>
 <layer id="5" name="Dynamic" width="96" height="58">
  <data encoding="csv">
0,0,0,0,0,0,0,0,0,0,0,0,0,0,0,0,0,0,0,0,0,0,0,0,0,0,0,0,0,0,0,0,0,0,0,0,0,0,0,0,0,0,0,0,0,0,0,0,0,0,0,0,0,0,0,0,0,0,0,0,0,0,0,0,0,0,0,0,0,0,0,0,0,0,0,0,0,0,0,0,0,0,0,0,0,0,0,0,0,0,0,0,0,0,0,0,
0,0,0,0,0,0,0,0,0,0,0,0,0,0,0,0,0,0,0,0,0,0,0,0,0,0,0,0,0,0,0,0,0,0,0,0,0,0,0,0,0,0,0,0,0,0,0,0,0,0,0,0,0,0,0,0,0,0,0,0,0,0,0,0,0,0,0,0,0,0,0,0,0,0,0,0,0,0,0,0,0,0,0,0,0,0,0,0,0,0,0,0,0,0,0,0,
0,0,0,0,0,0,0,0,0,0,0,0,0,0,0,0,0,0,0,0,0,0,0,0,0,0,0,0,0,0,0,0,0,0,0,0,0,0,0,0,0,0,0,0,0,0,0,0,0,0,0,0,0,0,0,0,0,0,0,0,0,0,0,0,0,0,0,0,0,0,0,0,0,0,0,0,0,0,0,0,0,0,0,0,0,0,0,0,0,0,0,0,0,0,0,0,
0,0,0,0,0,0,0,0,0,0,0,0,0,0,0,0,0,0,0,0,0,0,0,0,0,0,0,0,0,0,0,0,0,0,0,0,0,0,0,0,0,0,0,0,0,0,0,0,0,0,0,0,0,0,0,0,0,0,0,0,0,0,0,0,0,0,0,0,0,0,0,0,0,0,0,0,0,0,0,0,0,0,0,0,0,0,0,0,0,0,0,0,0,0,0,0,
0,0,0,0,0,0,0,0,0,0,0,0,0,0,0,0,0,0,0,0,0,0,0,0,0,0,0,0,0,0,0,0,0,0,0,0,0,0,0,0,0,0,0,0,0,0,0,0,0,0,0,0,0,0,0,0,0,0,0,0,0,0,0,0,0,0,0,0,0,0,0,0,0,0,0,0,0,0,0,0,0,0,0,0,0,0,0,0,0,0,0,0,0,0,0,0,
0,0,0,0,0,0,0,0,0,0,0,0,0,0,0,0,0,0,0,0,0,0,0,0,0,0,0,0,0,0,0,0,0,0,0,0,0,0,0,0,0,0,0,0,0,0,0,0,0,0,0,0,0,0,0,0,0,0,0,0,0,0,0,0,0,0,0,0,0,0,0,0,0,0,0,0,0,0,0,0,0,0,0,0,0,0,0,0,0,0,0,0,0,0,0,0,
0,0,0,0,0,0,0,0,0,0,0,0,0,0,0,0,0,0,0,0,0,0,0,0,0,0,0,0,0,0,0,0,0,0,0,0,0,0,0,0,0,0,0,0,0,0,0,0,0,0,0,0,0,0,0,0,0,0,0,0,0,0,0,0,0,0,0,0,0,0,0,0,0,0,0,0,0,0,0,0,0,0,0,0,0,0,0,0,0,0,0,0,0,0,0,0,
0,0,0,0,0,0,0,0,0,0,0,0,0,0,0,0,0,0,0,0,0,0,0,0,0,0,0,0,0,0,0,0,0,0,0,0,0,0,0,0,0,0,0,0,0,0,0,0,0,0,0,0,0,0,0,0,0,0,0,0,0,0,0,0,0,0,0,0,0,0,0,0,0,0,0,0,0,0,0,0,0,0,0,0,0,0,0,0,0,0,0,0,0,0,0,0,
0,0,0,0,0,0,0,0,0,0,0,0,0,0,0,0,0,0,0,0,0,0,0,0,0,0,0,0,0,0,0,0,0,0,0,0,0,0,0,0,0,0,0,0,0,0,0,0,0,0,0,0,0,0,0,0,0,0,0,0,0,0,0,0,0,0,0,0,0,0,0,0,0,0,0,0,0,0,0,0,0,0,0,0,0,0,0,0,0,0,0,0,0,0,0,0,
0,0,0,0,0,0,0,0,0,0,0,0,0,0,0,0,0,0,0,0,0,0,0,0,0,0,0,0,0,0,0,0,0,0,0,0,0,0,0,0,0,0,0,0,0,0,0,0,0,0,0,0,0,0,0,0,0,0,0,0,0,0,0,0,0,0,0,0,0,0,0,0,0,0,0,0,0,0,0,0,0,0,0,0,0,0,0,0,0,0,0,0,0,0,0,0,
0,0,0,0,0,0,0,0,0,0,0,0,0,0,0,0,0,0,0,0,0,0,0,0,0,0,0,0,0,0,0,0,0,0,0,0,0,0,0,0,0,0,0,0,0,0,0,0,0,0,0,0,0,0,0,0,0,0,0,0,0,0,0,0,0,0,0,0,0,0,0,0,0,0,0,0,0,0,0,0,0,0,0,0,0,0,0,0,0,0,0,0,0,0,0,0,
0,0,0,0,0,0,0,0,0,0,0,0,0,0,0,0,0,0,0,0,0,0,0,0,0,0,0,0,0,0,0,0,0,0,0,0,0,0,0,0,0,0,0,0,0,0,0,0,0,0,0,0,0,0,0,0,0,0,0,0,0,0,0,0,0,0,0,0,0,0,0,0,0,0,0,0,0,0,0,0,0,0,0,0,0,0,0,0,0,0,0,0,0,0,0,0,
0,0,0,0,0,0,0,0,0,0,0,0,0,0,0,0,0,0,0,0,0,0,0,0,0,0,0,0,0,0,0,0,0,0,0,0,0,0,0,0,0,0,0,0,0,0,0,0,0,0,0,0,0,0,0,0,0,0,0,0,0,0,0,0,0,0,0,0,0,0,0,0,0,0,0,0,0,0,0,0,0,0,0,0,0,0,0,0,0,0,0,0,0,0,0,0,
0,0,0,0,0,0,0,0,0,0,0,0,0,0,0,0,0,0,0,0,0,0,0,0,0,0,0,0,0,0,0,0,0,0,0,0,0,0,0,0,0,0,0,0,0,0,0,0,0,0,0,0,0,0,0,0,0,0,0,0,0,0,0,0,0,0,0,0,0,0,0,0,0,0,0,0,0,0,0,0,0,0,0,0,0,0,0,0,0,0,0,0,0,0,0,0,
0,0,0,0,0,0,0,0,0,0,0,0,0,0,0,0,0,0,0,0,0,0,0,0,0,0,0,0,0,0,0,0,0,0,0,0,0,0,0,0,0,0,0,0,0,0,0,0,0,0,0,0,0,0,0,0,0,0,0,0,0,0,0,0,0,0,0,0,0,0,0,0,0,0,0,0,0,0,0,0,0,0,0,0,0,0,0,0,0,0,0,0,0,0,0,0,
0,0,0,0,0,0,0,0,0,0,0,0,0,0,0,0,0,0,0,0,0,0,0,0,0,0,0,0,0,0,0,0,0,0,0,0,0,0,0,0,0,0,0,0,0,0,0,0,0,0,0,0,0,0,0,0,0,0,0,0,0,0,0,0,0,0,0,0,0,0,0,0,0,0,0,0,0,0,0,0,0,0,0,0,0,0,0,0,0,0,0,0,0,0,0,0,
0,0,0,0,0,0,0,0,0,0,0,0,0,0,0,0,0,0,0,0,0,0,0,0,0,0,0,0,0,0,0,0,0,0,0,0,0,0,0,0,0,0,0,0,0,0,0,0,0,0,0,0,0,0,0,0,0,0,0,0,0,0,0,0,0,0,0,0,0,0,0,0,0,0,0,0,0,0,0,0,0,0,0,0,0,0,0,0,0,0,0,0,0,0,0,0,
0,0,0,0,0,0,0,0,0,0,0,0,0,0,0,0,0,0,0,0,0,0,0,0,0,0,0,0,0,0,0,0,0,0,0,0,0,0,0,5849,5850,5851,5852,5853,0,0,0,0,0,6342,6319,6320,6321,6342,0,0,0,0,0,0,0,0,0,0,0,0,0,0,0,0,0,0,0,0,0,0,0,0,0,0,0,0,0,0,0,0,0,0,0,0,0,0,0,0,0,0,
0,0,0,0,0,0,0,0,0,0,6641,6641,6641,6621,6641,6641,0,0,0,0,0,0,0,0,0,0,0,0,0,0,0,0,0,0,0,0,0,0,0,5854,5855,5856,5857,5858,0,0,0,0,0,6322,6323,6324,6325,6326,0,0,0,0,0,0,0,0,0,0,0,0,0,0,0,0,0,0,0,0,0,0,0,0,0,0,0,0,0,0,0,0,0,0,0,0,0,0,0,0,0,0,
0,0,0,0,0,0,0,0,0,0,6641,6641,6622,6623,6624,6641,0,0,0,0,0,0,0,0,0,0,0,0,0,0,0,0,0,0,0,0,0,0,0,5859,5860,5861,5862,5863,0,0,0,0,0,6327,6328,6329,6330,6331,0,0,0,0,0,0,0,0,0,0,0,0,0,0,0,0,0,0,0,0,0,0,0,0,0,0,0,0,0,0,0,0,0,0,0,0,0,0,0,0,0,0,
0,0,0,0,0,0,0,0,0,0,6641,6625,6626,6627,6628,6641,0,0,0,0,0,0,0,0,0,0,0,0,0,0,0,0,0,0,0,0,0,0,0,5864,5865,5866,5867,5868,0,0,0,0,0,6332,6333,6334,6335,6336,0,0,0,0,0,0,0,0,0,0,0,0,0,0,0,0,0,0,0,0,0,0,0,0,0,0,0,0,0,0,0,0,0,0,0,0,0,0,0,0,0,0,
0,0,0,0,0,0,0,0,0,0,6641,6629,6630,6631,6632,6641,0,0,0,0,0,0,0,0,0,0,0,0,0,0,0,0,0,0,0,0,0,0,0,5869,5870,5871,5872,5873,0,0,0,0,0,6337,6338,6339,6340,6341,0,0,0,0,0,0,0,0,0,0,0,0,0,0,0,0,0,0,0,0,0,0,0,0,0,0,0,0,0,0,0,0,0,0,0,0,0,0,0,0,0,0,
0,0,0,0,0,0,0,0,0,0,6641,6633,6634,6635,6636,6641,0,0,0,0,0,0,0,0,0,0,0,0,0,0,0,0,0,0,0,0,0,0,0,0,0,0,0,0,0,0,0,0,0,0,0,0,0,0,0,0,0,0,0,0,0,0,0,0,0,0,0,0,0,0,0,0,0,0,0,0,0,0,0,0,0,0,0,0,0,0,0,0,0,0,0,0,0,0,0,0,
0,0,0,0,0,0,0,0,0,0,6641,6637,6638,6639,6640,6641,0,0,0,0,0,0,0,0,0,0,0,0,0,0,0,0,0,0,0,0,0,0,0,0,0,0,0,0,0,0,0,0,0,0,0,0,0,0,0,0,0,0,0,0,0,0,0,0,0,0,5922,5899,5900,5901,5922,0,0,0,0,0,0,0,0,0,0,0,0,0,0,0,0,0,0,0,0,0,0,0,0,0,
0,0,0,0,0,0,0,0,0,0,0,0,0,0,0,0,0,0,0,0,0,0,0,0,0,0,0,0,0,0,0,0,0,0,0,0,0,0,0,0,0,0,0,0,0,0,0,0,0,0,0,0,0,0,0,0,0,0,0,0,0,0,0,0,0,0,5902,5903,5904,5905,5906,0,0,0,0,0,0,0,0,0,0,0,0,0,0,0,0,0,0,0,0,0,0,0,0,0,
0,0,0,0,0,0,0,0,0,0,0,0,0,0,0,0,0,0,0,0,0,0,0,0,0,0,0,0,0,0,0,0,0,0,0,0,0,0,0,0,0,0,0,0,0,0,0,0,0,0,0,0,0,0,0,0,0,0,0,0,0,0,0,0,0,0,5907,5908,5909,5910,5911,0,0,0,0,0,0,0,0,0,0,0,0,0,0,0,0,0,0,0,0,0,0,0,0,0,
0,0,0,0,0,0,0,0,0,0,0,0,0,0,0,0,0,0,0,0,0,0,0,0,0,0,0,0,0,0,0,0,0,0,0,0,0,0,0,0,0,0,0,0,0,0,0,0,0,0,0,0,0,0,0,0,0,0,0,0,0,0,0,0,0,0,5912,5913,5914,5915,5916,0,0,0,0,0,0,0,0,0,0,0,0,0,0,0,0,0,0,0,0,0,0,0,0,0,
0,0,0,0,0,0,0,0,0,0,0,0,0,0,0,0,0,0,0,0,0,0,0,0,0,0,0,0,0,0,0,0,0,0,0,0,0,0,0,0,0,0,0,0,0,0,0,0,0,0,0,0,0,0,0,0,0,0,0,0,0,0,0,0,0,0,5917,5918,5919,5920,5921,0,0,0,0,0,0,0,0,0,0,0,0,0,0,0,0,0,0,0,0,0,0,0,0,0,
0,0,0,0,0,0,0,0,0,0,0,0,0,0,0,0,0,0,0,0,0,0,0,0,0,0,0,0,0,0,0,0,0,0,0,0,0,0,0,0,0,0,0,0,0,0,0,0,0,0,0,0,0,0,0,0,0,0,0,0,0,0,0,0,0,0,0,0,0,0,0,0,0,0,0,0,0,0,0,0,0,0,0,0,0,0,0,0,0,0,0,0,0,0,0,0,
0,0,0,0,0,0,0,0,0,0,0,0,0,0,0,0,0,0,0,0,0,0,0,0,0,0,0,0,0,0,0,0,0,0,0,0,0,0,0,0,0,0,0,0,0,0,0,0,0,0,0,0,0,0,0,0,0,0,0,0,0,0,0,0,0,0,0,0,0,0,0,0,0,0,0,0,0,0,0,0,0,0,0,0,0,0,0,0,0,0,0,0,0,0,0,0,
0,0,0,0,0,0,0,0,0,0,0,0,0,0,0,0,0,0,0,0,0,0,0,0,0,0,0,0,0,0,0,0,0,0,0,0,0,0,0,0,0,0,0,0,0,0,0,0,0,0,0,0,0,0,0,0,0,0,0,0,0,0,0,0,0,0,0,0,0,0,0,0,0,0,0,0,0,0,0,0,0,0,0,0,0,0,0,0,0,0,0,0,0,0,0,0,
0,0,0,0,0,0,0,0,0,0,0,0,0,0,0,0,0,0,0,0,0,0,0,0,0,0,0,0,0,0,0,0,0,0,0,0,0,0,0,0,0,0,0,0,0,0,0,0,0,0,0,0,0,0,0,0,0,0,0,0,0,0,0,0,0,0,0,0,0,0,0,0,0,0,0,0,0,0,0,0,0,0,0,0,0,0,0,0,0,0,0,0,0,0,0,0,
0,0,0,0,0,0,0,0,0,0,0,0,0,0,0,0,0,0,0,0,0,0,0,0,0,0,0,0,0,0,0,0,0,0,0,0,0,0,0,0,0,0,0,0,0,0,0,0,0,0,0,0,0,0,0,0,0,0,0,0,0,0,0,0,0,0,0,0,0,0,0,0,0,0,0,0,0,0,0,0,0,0,0,0,0,0,0,0,0,0,0,0,0,0,0,0,
0,0,0,0,0,0,0,0,0,0,0,0,0,0,0,0,0,0,0,0,0,0,0,0,0,0,0,0,0,0,0,0,0,0,0,0,0,0,0,0,0,0,0,0,0,0,0,0,0,0,0,0,0,0,0,0,0,0,0,0,0,0,0,0,0,0,0,0,0,0,0,0,0,0,0,0,0,0,0,0,0,0,0,0,0,0,0,0,0,0,0,0,0,0,0,0,
0,0,0,0,0,0,0,0,0,0,0,0,0,0,0,0,0,0,0,0,0,0,0,0,0,0,0,0,0,0,0,0,0,0,0,0,0,0,0,0,0,0,0,0,0,0,0,0,0,0,0,0,0,0,0,0,0,0,0,0,0,0,0,0,0,0,0,0,0,0,0,0,0,0,0,0,0,0,0,0,0,0,0,0,0,0,0,0,0,0,0,0,0,0,0,0,
0,0,0,0,0,0,0,0,0,0,0,0,0,0,0,0,0,0,0,0,0,0,0,0,0,0,0,0,0,0,0,0,0,0,0,0,0,0,0,0,0,0,0,0,0,0,0,0,0,0,0,0,0,0,0,0,0,0,0,0,0,0,0,0,0,0,0,0,0,0,0,0,0,0,0,0,0,0,0,0,0,0,0,0,0,0,0,0,0,0,0,0,0,0,0,0,
0,0,0,0,0,0,0,0,0,0,0,0,0,0,0,0,0,0,0,0,0,0,0,0,0,0,0,0,0,0,0,0,0,0,0,0,0,0,0,0,0,0,0,0,0,0,0,0,0,0,0,0,0,0,0,0,0,0,0,0,0,0,0,0,0,0,0,0,0,0,0,0,0,0,0,0,0,0,0,0,0,0,0,0,0,0,0,0,0,0,0,0,0,0,0,0,
0,0,0,0,0,0,0,0,0,0,0,0,0,0,0,0,0,0,0,0,0,0,0,0,0,0,0,0,0,0,0,0,0,0,0,0,0,0,0,0,0,0,0,0,0,0,0,0,0,0,0,0,0,0,0,0,0,0,0,0,0,0,0,0,0,0,0,0,0,0,0,0,0,0,0,0,0,0,0,0,0,0,0,0,0,0,0,0,0,0,0,0,0,0,0,0,
0,0,0,0,0,0,0,0,0,0,0,0,0,0,0,0,0,0,0,0,0,0,0,0,0,0,0,0,0,0,0,0,0,0,0,0,0,0,0,0,0,0,0,0,0,0,0,0,0,0,0,0,0,0,0,0,0,0,0,0,0,0,0,0,0,0,0,0,0,0,0,0,0,0,0,0,0,0,0,0,0,0,0,0,0,0,0,0,0,0,0,0,0,0,0,0,
0,0,0,0,0,0,0,0,0,0,0,0,0,0,0,0,0,0,0,0,0,0,0,0,0,0,0,0,0,0,0,0,0,0,0,0,0,0,0,0,0,0,0,0,0,0,0,0,0,0,0,0,0,0,0,0,0,0,0,0,0,0,0,0,0,0,0,0,0,0,0,0,0,0,0,0,0,0,0,0,0,0,0,0,0,0,0,0,0,0,0,0,0,0,0,0,
0,0,0,0,0,0,0,0,0,0,0,0,0,0,0,0,0,0,0,0,0,0,0,0,0,0,0,0,0,0,0,0,0,0,0,0,0,0,0,0,0,0,0,0,0,0,0,0,0,0,0,0,0,0,0,0,0,0,0,0,0,0,0,0,0,0,0,0,0,0,0,0,0,0,0,0,0,0,0,0,0,0,0,0,0,0,0,0,0,0,0,0,0,0,0,0,
0,0,0,0,0,0,0,0,0,0,0,0,0,0,0,0,0,0,0,0,0,0,0,0,0,0,0,0,0,0,0,0,0,0,0,0,0,0,0,0,0,0,0,0,0,0,0,0,0,0,0,0,0,0,0,0,0,0,0,0,0,0,0,0,0,0,0,0,0,0,0,0,0,0,0,0,0,0,0,0,0,0,0,0,0,0,0,0,0,0,0,0,0,0,0,0,
0,0,0,0,0,0,0,0,0,0,0,0,0,0,0,0,0,0,0,0,0,0,0,0,0,0,0,0,0,0,0,0,0,0,0,0,0,0,0,0,0,0,0,0,0,0,0,0,0,0,0,0,0,0,0,0,0,0,0,0,0,0,0,0,0,0,0,0,0,0,0,0,0,0,0,0,0,0,0,0,0,0,0,0,0,0,0,0,0,0,0,0,0,0,0,0,
0,0,0,0,0,0,0,0,0,0,0,0,0,0,0,0,0,0,0,0,0,0,0,0,0,0,0,0,0,0,0,0,0,0,0,0,0,0,0,0,0,0,0,0,0,0,0,0,0,0,0,0,0,0,0,0,0,0,0,0,0,0,0,0,0,0,0,0,0,0,0,0,0,0,0,0,0,0,0,0,0,0,0,0,0,0,0,0,0,0,0,0,0,0,0,0,
0,0,0,0,0,0,0,0,0,0,0,0,0,0,0,0,0,0,0,0,0,0,0,0,0,0,0,0,0,0,0,0,0,0,0,0,0,0,0,0,0,0,0,0,0,0,0,0,0,0,0,0,0,0,0,0,0,0,0,0,0,0,0,0,0,0,0,0,0,0,0,0,0,0,0,0,0,0,0,0,0,0,0,0,0,0,0,0,0,0,0,0,0,0,0,0,
0,0,0,0,0,0,0,0,0,0,0,0,0,0,0,0,0,0,0,0,0,0,0,0,0,0,0,0,0,0,0,0,0,0,0,0,0,0,0,0,0,0,0,0,0,0,0,0,0,0,0,0,0,0,0,0,0,0,0,0,0,0,0,0,0,0,0,0,0,0,0,0,0,0,0,0,0,0,0,0,0,0,0,0,0,0,0,0,0,0,0,0,0,0,0,0,
0,0,0,0,0,0,0,0,0,0,0,0,0,0,0,0,0,0,0,0,0,0,0,0,0,0,0,0,0,0,0,0,0,0,0,0,0,0,0,0,0,0,0,0,0,0,0,0,0,0,0,0,0,0,0,0,0,0,0,0,0,0,0,0,0,0,0,0,0,0,0,0,0,0,0,0,0,0,0,0,0,0,0,0,0,0,0,0,0,0,0,0,0,0,0,0,
0,0,0,0,0,0,0,0,0,0,0,0,0,0,0,0,0,0,0,0,0,0,0,0,0,0,0,0,0,0,0,0,0,0,0,0,0,0,0,0,0,0,0,0,0,0,0,0,0,0,0,0,0,0,0,0,0,0,0,0,0,0,0,0,0,0,0,0,0,0,0,0,0,0,0,0,0,0,0,0,0,0,0,0,0,0,0,0,0,0,0,0,0,0,0,0,
0,0,0,0,0,0,0,0,0,0,0,0,0,0,0,0,0,0,0,0,0,0,0,0,0,0,0,0,0,0,0,0,0,0,0,0,0,0,0,0,0,0,0,0,0,0,0,0,0,0,0,0,0,0,0,0,0,0,0,0,0,0,0,0,0,0,0,0,0,0,0,0,0,0,0,0,0,0,0,0,0,0,0,0,0,0,0,0,0,0,0,0,0,0,0,0,
0,0,0,0,0,0,0,0,0,0,0,0,0,0,0,0,0,0,0,0,0,0,0,0,0,0,0,0,0,0,0,0,0,0,0,0,0,0,0,0,0,0,0,0,0,0,0,0,0,0,0,0,0,0,0,0,0,0,0,0,0,0,0,0,0,0,0,0,0,0,0,0,0,0,0,0,0,0,0,0,0,0,0,0,0,0,0,0,0,0,0,0,0,0,0,0,
0,0,0,0,0,0,0,0,0,0,0,0,0,0,0,0,0,0,0,0,0,0,0,0,0,0,0,0,0,0,0,0,0,0,0,0,0,0,0,0,0,0,0,0,0,0,0,0,0,0,0,0,0,0,0,0,0,0,0,0,0,0,0,0,0,0,0,0,0,0,0,0,0,0,0,0,0,0,0,0,0,0,0,0,0,0,0,0,0,0,0,0,0,0,0,0,
0,0,0,0,0,0,0,0,0,0,0,0,0,0,0,0,0,0,0,0,0,0,0,0,0,0,0,0,0,0,0,0,0,0,0,0,0,0,0,0,0,0,0,0,0,0,0,0,0,0,0,0,0,0,0,0,0,0,0,0,0,0,0,0,0,0,0,0,0,0,0,0,0,0,0,0,0,0,0,0,0,0,0,0,0,0,0,0,0,0,0,0,0,0,0,0,
0,0,0,0,0,0,0,0,0,0,0,0,0,0,0,0,0,0,0,0,0,0,0,0,0,0,0,0,0,0,0,0,0,0,0,0,0,0,0,0,0,0,0,0,0,0,0,0,0,0,0,0,0,0,0,0,0,0,0,0,0,0,0,0,0,0,0,0,0,0,0,0,0,0,0,0,0,0,0,0,0,0,0,0,0,0,0,0,0,0,0,0,0,0,0,0,
0,0,0,0,0,0,0,0,0,0,0,0,0,0,0,0,0,0,0,0,0,0,0,0,0,0,0,0,0,0,0,0,0,0,0,0,0,0,0,0,0,0,0,0,0,0,0,0,0,0,0,0,0,0,0,0,0,0,0,0,0,0,0,0,0,0,0,0,0,0,0,0,0,0,0,0,0,0,0,0,0,0,0,0,0,0,0,0,0,0,0,0,0,0,0,0,
0,0,0,0,0,0,0,0,0,0,0,0,0,0,0,0,0,0,0,0,0,0,0,0,0,0,0,0,0,0,0,0,0,0,0,0,0,0,0,0,0,0,0,0,0,0,0,0,0,0,0,0,0,0,0,0,0,0,0,0,0,0,0,0,0,0,0,0,0,0,0,0,0,0,0,0,0,0,0,0,0,0,0,0,0,0,0,0,0,0,0,0,0,0,0,0,
0,0,0,0,0,0,0,0,0,0,0,0,0,0,0,0,0,0,0,0,0,0,0,0,0,0,0,0,0,0,0,0,0,0,0,0,0,0,0,0,0,0,0,0,0,0,0,0,0,0,0,0,0,0,0,0,0,0,0,0,0,0,0,0,0,0,0,0,0,0,0,0,0,0,0,0,0,0,0,0,0,0,0,0,0,0,0,0,0,0,0,0,0,0,0,0,
0,0,0,0,0,0,0,0,0,0,0,0,0,0,0,0,0,0,0,0,0,0,0,0,0,0,0,0,0,0,0,0,0,0,0,0,0,0,0,0,0,0,0,0,0,0,0,0,0,0,0,0,0,0,0,0,0,0,0,0,0,0,0,0,0,0,0,0,0,0,0,0,0,0,0,0,0,0,0,0,0,0,0,0,0,0,0,0,0,0,0,0,0,0,0,0,
0,0,0,0,0,0,0,0,0,0,0,0,0,0,0,0,0,0,0,0,0,0,0,0,0,0,0,0,0,0,0,0,0,0,0,0,0,0,0,0,0,0,0,0,0,0,0,0,0,0,0,0,0,0,0,0,0,0,0,0,0,0,0,0,0,0,0,0,0,0,0,0,0,0,0,0,0,0,0,0,0,0,0,0,0,0,0,0,0,0,0,0,0,0,0,0
</data>
 </layer>
 <layer id="6" name="Collision" width="96" height="58">
  <data encoding="csv">
7605,7605,7605,7605,7605,7606,7605,7605,7605,7605,7606,7605,7605,7606,7605,7605,7606,7606,7605,7605,7605,7605,7605,7605,7605,7605,7605,7605,7605,7605,7605,7606,7605,7605,7606,7605,7606,7605,7606,7605,7605,7605,7605,7606,7605,7605,7605,7605,7606,7605,7605,7605,7606,7605,7605,7605,7605,7605,7606,7605,7606,7606,7605,7605,7605,7605,7605,7605,7606,7605,7605,7605,7605,7605,7606,7605,7606,7605,7605,7605,7605,7605,7606,7605,7605,7606,7605,7605,7605,7606,7605,7605,7606,7606,7605,7605,
7606,7605,7605,7605,7605,7606,7606,7605,7606,7605,7605,7605,7605,7605,7606,7605,7605,7605,7605,7605,7606,7605,7605,7605,7605,7606,7605,7605,7605,7605,7605,7605,7605,7606,7605,7605,7605,7605,7605,7605,7606,7606,7605,7605,7605,7605,7606,7605,7605,7605,7605,7605,7605,7605,7606,7605,7606,7605,7605,7605,7605,7605,7605,7605,7605,7605,7605,7605,7605,7605,7606,7605,7605,7605,7605,7605,7605,7605,7606,7605,7606,7605,7605,7606,7605,7606,7605,7605,7605,7605,7605,7605,7606,7605,7606,7605,
7606,7605,7605,7605,7605,7605,7605,7605,7606,7605,7605,7605,7606,7605,7605,7605,7606,7605,7605,7605,7606,7605,7605,7606,7605,7605,7605,7605,7605,7605,7606,7605,7605,7605,7606,7605,7605,7606,7605,7605,7605,7605,7606,7605,7605,7605,7605,7605,7605,7606,7606,7605,7606,7605,7605,7605,7605,7605,7606,7605,7606,7605,7605,7605,7605,7606,7605,7605,7605,7606,7605,7605,7606,7605,7605,7606,7605,7605,7605,7605,7605,7606,7605,7605,7605,7605,7606,7605,7605,7605,7605,7605,7605,7605,7605,7605,
7606,7605,7605,7605,7606,7605,7605,7605,7605,7605,7605,7606,7605,7605,7605,7605,7605,7605,7606,7605,7605,7606,7605,7605,7605,7605,7605,7605,7605,7605,7605,7605,7605,7605,7606,7605,7605,7606,7605,7605,7605,7605,7605,7605,7605,7605,7605,7605,7605,7605,7605,7605,7605,7605,7605,7605,7605,7605,7605,7605,7605,7605,7605,7605,7605,7605,7605,7605,7605,7605,7605,7605,7605,7605,7605,7605,7605,7605,7605,7605,7605,7605,7605,7605,7605,7605,7605,7605,7606,7606,7605,7605,7606,7605,7605,7605,
7605,7605,7605,7606,7605,7605,7605,7606,7605,7605,7605,7605,7606,7605,7605,7605,7606,7605,7605,7605,7605,7605,7606,7605,7605,7605,7605,7605,7605,7605,7605,7606,7605,7605,7605,7605,7605,7605,7605,7605,7605,7605,7605,7606,7605,7605,7605,7605,7605,7605,7605,7605,7605,7605,7606,7606,7605,7605,7605,7605,7605,7605,7605,7605,7605,7606,7605,7605,7606,7605,7605,7605,7605,7605,7605,7605,7605,7605,7605,7605,7605,7605,7605,7606,7605,7605,7606,7605,7605,7605,7605,7605,7605,7605,7605,7606,
7605,7605,7605,7605,7606,7605,7605,7605,7605,7605,7605,7605,7605,7605,7605,7605,7605,7606,7605,7605,7605,7605,7605,7605,7605,7605,7605,7605,7605,7605,7606,7605,7605,7605,7605,7605,7605,7605,7605,7605,7605,7605,7606,7606,7606,7606,7606,7606,7606,7605,7605,7605,7605,7606,7606,7606,7606,7606,7606,7605,7605,7605,7605,7605,7605,7605,7605,7605,7605,7606,7605,7605,7605,7605,7605,7605,7605,7605,7605,7605,7605,7605,7605,7605,7605,7605,7605,7605,7605,7605,7605,7605,7605,7606,7605,7605,
7605,7606,7605,7605,7605,7605,7605,7605,7605,7605,7605,7605,7605,7605,7605,7605,7605,7605,7605,7605,7605,7605,7605,7605,7605,7605,7605,7605,7605,7605,7605,7605,7605,7605,7605,7605,7605,7605,7605,7605,7606,7606,7606,7606,7606,7606,7606,7606,7606,7606,7606,7606,7606,7606,7606,7606,7606,7606,7606,7606,7606,7605,7605,7606,7605,7605,7606,7605,7605,7605,7605,7605,7605,7605,7605,7605,7605,7605,7605,7605,7605,7605,7605,7605,7605,7606,7605,7605,7605,7605,7605,7605,7605,7605,7605,7605,
7605,7605,7605,7606,7605,7605,7605,7605,7606,7605,7605,7605,7605,7605,7605,7605,7605,7605,7605,7605,7605,7605,7605,7605,7605,7605,7605,7605,7605,7605,7605,7605,7605,7605,7605,7605,7605,7606,7606,7606,7606,7606,7606,7606,7606,7606,7606,7606,7606,7606,7606,7606,7606,7606,7606,7606,7606,7606,7606,7606,7606,7606,7606,7606,7605,7605,7605,7605,7605,7605,7605,7605,7605,7605,7605,7605,7605,7605,7605,7605,7605,7605,7605,7605,7605,7605,7605,7605,7605,7605,7605,7605,7605,7605,7606,7605,
7606,7605,7605,7605,7605,7605,7605,7605,7605,7605,7605,7605,7605,7605,7605,7605,7605,7605,7605,7605,7606,7605,7605,7605,7605,7605,7605,7605,7605,7605,7605,7605,7605,7605,7605,7605,7606,7606,7606,7606,7606,7606,7606,7606,7606,7606,7606,7606,7606,7606,7606,7606,7606,7606,7606,7606,7606,7606,7606,7606,7606,7606,7606,7606,7606,7606,7605,7605,7605,7606,7606,7605,7605,7605,7605,7605,7605,7605,7605,7605,7605,7605,7606,7605,7605,7605,7605,7605,7605,7605,7605,7605,7605,7605,7605,7605,
7606,7605,7605,7605,7605,7605,7606,7605,7605,7605,7605,7605,7605,7605,7605,7605,7605,7606,7605,7605,7605,7605,7606,7605,7606,7605,7605,7605,7605,7605,7605,7605,7605,7605,7605,7606,7606,7606,7606,7606,7606,7606,7606,7606,7606,7606,7606,7606,7606,7606,7606,7606,7606,7606,7606,7606,7606,7606,7606,7606,7606,7606,7606,7606,7606,7605,7606,7605,7605,7605,7605,7605,7605,7605,7605,7605,7605,7605,7605,7605,7605,7605,7605,7605,7605,7605,7605,7605,7605,7605,7605,7605,7605,7605,7605,7606,
7605,7605,7605,7606,7605,7605,7605,7605,7605,7605,7605,7606,7605,7605,7605,7605,7605,7605,7605,7605,7605,7606,7605,7605,7605,7605,7605,7605,7605,7605,7605,7605,7606,7606,7606,7606,7606,7606,7606,7606,7606,7606,7606,7606,7606,7606,7606,7606,7606,7606,7606,7606,7606,7606,7606,7606,7606,7606,7606,7606,7606,7606,7606,7606,7605,7606,7605,7605,7605,7605,7605,7605,7605,7605,7605,7605,7605,7605,7605,7605,7605,7605,7605,7605,7605,7605,7605,7606,7605,7605,7605,7605,7605,7605,7605,7605,
7605,7605,7605,7605,7606,7605,7605,7605,7605,7605,7605,7605,7605,7605,7605,7605,7605,7605,7605,7605,7605,7605,7605,7605,7605,7605,7605,7605,7605,7605,7605,7605,7605,7606,7606,7606,7606,7606,7606,7606,7606,7606,7606,7606,7606,7606,7606,7606,7606,7606,7606,7606,7606,7606,7606,7606,7606,7606,7606,7606,7606,7606,7605,7605,7605,7605,7605,7605,7605,7605,7605,7605,7605,7605,7605,7605,7606,7606,7606,7605,7606,7606,7605,7605,7606,7605,7605,7605,7605,7605,7605,7605,7605,7605,7605,7605,
7605,7606,7605,7606,7605,7605,7605,7605,7605,7605,7605,7606,7605,7605,7606,7605,7605,7605,7605,7605,7605,7605,7605,7605,7605,7605,7605,7605,7605,7605,7605,7605,7605,7605,7606,7606,7606,7606,7606,7606,7606,7606,7606,7606,7606,7606,7606,7606,7606,7606,7606,7606,7606,7606,7606,7606,7606,7606,7606,7605,7606,7605,7605,7605,7605,7605,7605,7605,7605,7605,7605,7605,7606,7606,7606,7606,7606,7606,7606,7606,7605,7605,7605,7605,7605,7605,7605,7605,7605,7605,7606,7606,7605,7605,7605,7606,
7605,7605,7605,7605,7605,7605,7605,7606,7605,7605,7605,7605,7605,7605,7605,7605,7605,7605,7605,7605,7605,7605,7605,7605,7605,7605,7605,7605,7605,7605,7605,7605,7605,7605,7605,7606,7606,7606,7606,7606,7606,7606,7606,7606,7606,7606,7606,7606,7606,7606,7606,7606,7606,7606,7606,7606,7606,7606,7606,7605,7605,7605,7605,7605,7605,7605,7605,7605,7605,7605,7605,7606,7606,7606,7606,7606,7606,7606,7606,7606,7605,7605,7605,7605,7605,7605,7605,7605,7605,7605,7605,7605,7605,7605,7605,7605,
7605,7606,7606,7605,7605,7605,7605,7605,7605,7606,7605,7605,7605,7605,7605,7605,7605,7605,7605,7605,7605,7605,7605,7605,7605,7605,7605,7605,7605,7605,7605,7605,7605,7605,7605,7606,7606,7606,7606,7606,7606,7606,7606,7606,7606,7606,7606,7606,7606,7606,7606,7606,7606,7606,7606,7606,7606,7606,7606,7605,7606,7605,7605,7605,7605,7605,7605,7605,7605,7605,7605,7606,7606,7606,7606,7606,7606,7606,7606,7606,7605,7605,7605,7605,7605,7606,7605,7605,7605,7605,7605,7605,7605,7605,7605,7605,
7605,7605,7605,7605,7605,7605,7606,7605,7605,7605,7605,7605,7605,7605,7605,7605,7605,7605,7605,7605,7605,7605,7605,7605,7605,7605,7605,7605,7605,7605,7605,7605,7605,7605,7606,7605,7606,7606,7606,7606,7606,7606,7606,7606,7606,7606,7606,7606,7606,7606,7606,7606,7606,7606,7606,7606,7606,7606,7606,7606,7606,7605,7605,7605,7605,7605,7605,7605,7605,7605,7605,7605,7606,7606,7606,7606,7606,7606,7606,7606,7605,7605,7605,7605,7605,7605,7605,7605,7606,7605,7605,7605,7605,7605,7605,7605,
7605,7605,7605,7605,7605,7605,7605,7605,7605,7605,7605,7605,7605,7605,7605,7605,7605,7605,7605,7605,7605,7605,7605,7605,7605,7605,7605,7605,7605,7605,7605,7605,7605,7605,7605,7606,7605,7606,7606,7606,7606,7606,7606,7606,7606,7606,7606,7606,7606,7606,7606,7606,7606,7606,7606,7606,7606,7606,7606,7606,7606,7606,7605,7605,7605,7605,7605,7605,7605,7605,7605,7605,7605,7605,7605,7605,7605,7606,7606,7605,7605,7605,7605,7606,7606,7606,7605,7605,7605,7605,7605,7605,7605,7605,7606,7605,
7605,7605,7606,7605,7605,7605,7605,7605,7605,7605,7605,7605,7605,7605,7605,7605,7606,7605,7605,7605,7605,7605,7605,7605,7605,7605,7605,7605,7605,7605,7605,7605,7605,7605,7605,7605,7605,7605,7606,7606,7606,7606,7606,7606,7606,7606,7606,7606,7606,7606,7606,7606,7606,7606,7606,7606,7606,7606,7606,7606,7606,7606,7605,7605,7605,7605,7605,7605,7605,7605,7605,7605,7605,7605,7605,7605,7605,7605,7605,7605,7605,7605,7605,7605,7605,7605,7605,7605,7605,7605,7605,7605,7605,7605,7605,7605,
7606,7605,7606,7605,7605,7606,7605,7605,7605,7605,7605,7605,7605,7605,7605,7605,7605,7605,7606,7605,7605,7605,7605,7605,7605,7605,7605,7606,7605,7605,7605,7605,7605,7605,7605,7605,7605,7605,7606,7606,7606,7606,7606,7606,7606,7606,7606,7606,7606,7606,7606,7606,7606,7606,7606,7606,7606,7606,7606,7606,7606,7605,7606,7605,7605,7605,7605,7605,7605,7605,7605,7605,7605,7606,7605,7605,7605,7605,7605,7605,7605,7605,7605,7605,7605,7605,7605,7605,7605,7605,7606,7605,7605,7605,7606,7605,
7605,7605,7605,7605,7605,7605,7605,7605,7605,7605,7605,7605,7605,7605,7605,7605,7605,7606,7606,7606,7606,7606,7605,7605,7605,7605,7605,7605,7605,7605,7605,7605,7605,7605,7605,7605,7605,7605,7606,7606,7606,7606,7606,7606,7606,7606,7606,7606,7606,7606,7606,7606,7606,7606,7606,7606,7606,7606,7606,7606,7605,7605,7605,7605,7605,7605,7605,7605,7605,7606,7606,7606,7605,7605,7605,7605,7605,7605,7605,7605,7605,7605,7605,7605,7605,7606,7606,7606,7606,7606,7605,7605,7605,7605,7605,7606,
7605,7605,7605,7605,7605,7605,7605,7605,7605,7605,7605,7606,7606,7606,7606,7605,7606,7606,7606,7606,7606,7606,7606,7606,7605,7605,7605,7605,7606,7605,7605,7605,7605,7605,7605,7605,7605,7605,7605,7606,7606,7606,7606,7606,7606,7606,7606,7606,7606,7606,7606,7606,7606,7606,7605,7606,7606,7606,7606,7606,7606,7605,7605,7605,7605,7605,7605,7605,7605,7605,7605,7605,7605,7605,7605,7605,7605,7605,7605,7605,7605,7605,7605,7605,7606,7606,7606,7606,7606,7606,7606,7605,7605,7605,7605,7605,
7606,7605,7605,7605,7605,7605,7605,7606,7605,7605,7605,7606,7606,7606,7606,7605,7606,7606,7606,7606,7606,7606,7606,7606,7605,7605,7605,7605,7605,7605,7605,7605,7605,7605,7605,7605,7605,7605,7605,7606,7605,7605,7606,7606,7605,7605,7606,7606,7606,7605,7606,7606,7606,7606,7605,7605,7605,7606,7606,7606,7606,7605,7605,7605,7605,7605,7605,7605,7605,7605,7605,7605,7605,7605,7606,7605,7605,7605,7605,7605,7605,7605,7605,7606,7606,7606,7606,7606,7606,7606,7606,7605,7605,7605,7605,7605,
7605,7605,7606,7605,7605,7605,7605,7605,7605,7605,7605,7606,7606,7606,7606,7605,7606,7606,7606,7606,7606,7606,7606,7606,7605,7605,7605,7605,7605,7605,7605,7605,7605,7605,7605,7605,7606,7606,7605,7605,7605,7605,7605,7605,7606,7606,7605,7605,7605,7605,7605,7605,7605,7605,7606,7606,7606,7606,7605,7606,7606,7605,7605,7605,7605,7605,7605,7605,7605,7605,7605,7605,7605,7605,7605,7605,7605,7605,7605,7605,7605,7605,7606,7606,7606,7606,7606,7606,7606,7606,7606,7605,7605,7605,7605,7605,
7605,7606,7605,7605,7605,7605,7605,7606,7605,7605,7606,7606,7605,7606,7606,7606,7606,7606,7606,7606,7606,7606,7606,7605,7605,7605,7605,7605,7605,7605,7605,7606,7605,7605,7605,7605,7605,7605,7605,7605,7605,7605,7605,7605,7605,7605,7605,7605,7606,7605,7605,7605,7605,7605,7605,7605,7605,7605,7606,7606,7606,7606,7605,7605,7605,7605,7605,7605,7605,7605,7605,7605,7605,7605,7605,7605,7605,7605,7605,7605,7605,7605,7606,7606,7606,7606,7606,7606,7606,7606,7606,7605,7605,7606,7605,7606,
7605,7605,7605,7605,7605,7605,7605,7605,7605,7605,7605,7605,7605,7605,7605,7605,7605,7605,7606,7606,7606,7606,7605,7605,7605,7605,7605,7605,7605,7605,7605,7605,7605,7605,7605,7606,7606,7605,7605,7605,7605,7605,7605,7605,7605,7605,7605,7605,7605,7605,7605,7605,7605,7605,7605,7605,7605,7605,7605,7606,7606,7606,7605,7605,7605,7605,7605,7605,7605,7605,7605,7606,7605,7605,7605,7605,7605,7605,7606,7606,7605,7606,7605,7606,7606,7606,7606,7606,7606,7606,7605,7605,7605,7605,7605,7605,
7605,7605,7606,7605,7605,7605,7605,7606,7606,7606,7605,7605,7605,7605,7605,7605,7606,7605,7606,7606,7606,7605,7606,7605,7605,7605,7605,7605,7605,7605,7605,7605,7605,7605,7605,7605,7605,7605,7605,7605,7605,7605,7605,7605,7605,7605,7605,7605,7605,7605,7605,7605,7605,7605,7605,7605,7605,7605,7605,7605,7606,7606,7605,7605,7606,7605,7606,7606,7606,7606,7606,7605,7606,7606,7605,7605,7605,7605,7605,7605,7605,7605,7605,7605,7605,7605,7605,7605,7605,7605,7605,7605,7605,7605,7606,7605,
7606,7605,7605,7605,7606,7605,7605,7605,7605,7605,7605,7605,7605,7605,7605,7605,7605,7605,7605,7605,7605,7605,7605,7605,7605,7605,7605,7605,7605,7605,7605,7605,7605,7605,7605,7605,7606,7605,7605,7605,7605,7605,7605,7605,7605,7605,7605,7605,7605,7605,7605,7605,7605,7605,7605,7605,7605,7605,7605,7605,7606,7606,7605,7606,7605,7605,7606,7606,7606,7606,7606,7605,7605,7605,7605,7605,7605,7605,7605,7605,7605,7605,7605,7605,7605,7605,7605,7606,7605,7605,7605,7605,7605,7605,7605,7605,
7605,7606,7605,7605,7605,7605,7605,7605,7605,7606,7606,7605,7605,7605,7605,7605,7605,7605,7605,7606,7606,7606,7605,7605,7605,7605,7605,7605,7605,7605,7605,7605,7605,7605,7605,7605,7605,7605,7605,7605,7605,7606,7606,7606,7606,7606,7605,7606,7606,7605,7606,7606,7605,7605,7605,7605,7605,7605,7605,7605,7605,7605,7605,7605,7605,7605,7606,7606,7606,7606,7606,7605,7605,7606,7606,7605,7605,7605,7605,7605,7605,7605,7605,7605,7605,7605,7605,7605,7605,7605,7605,7605,7605,7605,7606,7605,
7605,7605,7605,7605,7605,7605,7606,7606,7605,7605,7605,7605,7606,7605,7605,7605,7606,7605,7606,7606,7606,7606,7606,7605,7605,7605,7605,7605,7605,7605,7605,7605,7605,7605,7605,7605,7605,7605,7605,7605,7605,7605,7605,7605,7605,7605,7605,7605,7605,7605,7605,7605,7605,7605,7605,7605,7605,7605,7605,7606,7606,7606,7605,7605,7605,7605,7605,7605,7605,7605,7605,7605,7605,7605,7605,7606,7605,7605,7605,7605,7605,7605,7605,7605,7605,7605,7605,7605,7605,7605,7605,7606,7606,7605,7605,7605,
7605,7605,7605,7605,7605,7605,7605,7605,7605,7605,7605,7605,7605,7605,7605,7605,7605,7606,7606,7606,7606,7606,7606,7605,7605,7605,7605,7605,7605,7605,7605,7606,7605,7605,7605,7605,7605,7605,7605,7605,7606,7606,7605,7605,7605,7605,7605,7606,7605,7605,7605,7605,7606,7605,7605,7605,7605,7605,7605,7606,7606,7606,7605,7606,7605,7605,7605,7605,7605,7605,7605,7605,7605,7605,7605,7605,7605,7605,7605,7605,7605,7605,7606,7605,7605,7605,7605,7605,7606,7605,7605,7605,7605,7605,7606,7605,
7605,7606,7605,7606,7605,7605,7605,7605,7605,7605,7605,7605,7605,7605,7606,7606,7606,7606,7606,7606,7606,7606,7606,7606,7605,7605,7605,7606,7605,7605,7605,7605,7605,7605,7605,7605,7605,7605,7605,7605,7605,7605,7605,7606,7605,7606,7606,7605,7606,7605,7605,7605,7605,7605,7605,7605,7605,7605,7605,7606,7606,7606,7605,7605,7606,7605,7605,7605,7605,7605,7605,7605,7605,7605,7605,7605,7605,7605,7605,7605,7605,7605,7605,7605,7606,7606,7605,7605,7605,7605,7605,7605,7605,7605,7605,7606,
7605,7605,7605,7605,7605,7606,7605,7605,7605,7605,7605,7605,7605,7605,7605,7605,7606,7606,7606,7606,7606,7606,7606,7606,7605,7605,7605,7605,7605,7605,7605,7605,7605,7605,7605,7605,7605,7605,7605,7605,7605,7605,7605,7605,7605,7605,7605,7605,7605,7605,7605,7605,7605,7605,7605,7605,7605,7605,7605,7606,7606,7606,7606,7605,7605,7605,7605,7605,7605,7605,7605,7605,7605,7605,7605,7605,7605,7605,7605,7605,7605,7605,7605,7605,7605,7605,7605,7605,7605,7605,7605,7605,7605,7606,7605,7605,
7605,7605,7605,7606,7605,7605,7605,7605,7605,7605,7605,7605,7605,7605,7605,7605,7606,7606,7606,7606,7606,7606,7606,7606,7605,7605,7605,7605,7605,7605,7605,7605,7605,7605,7605,7605,7605,7605,7606,7605,7605,7605,7605,7605,7605,7605,7605,7605,7605,7605,7605,7605,7605,7605,7605,7605,7605,7605,7605,7606,7606,7606,7606,7605,7605,7605,7605,7605,7605,7605,7605,7605,7605,7605,7605,7605,7605,7605,7605,7605,7605,7605,7605,7605,7605,7605,7605,7605,7605,7605,7605,7605,7605,7605,7605,7606,
7606,7605,7605,7605,7605,7605,7606,7605,7605,7605,7605,7605,7605,7605,7605,7605,7605,7605,7605,7605,7606,7606,7605,7605,7605,7605,7605,7605,7605,7605,7605,7605,7605,7605,7605,7605,7605,7605,7605,7606,7606,7605,7605,7605,7605,7605,7605,7605,7605,7606,7606,7605,7605,7605,7605,7605,7605,7605,7605,7606,7606,7606,7606,7605,7605,7605,7605,7605,7605,7605,7605,7605,7606,7605,7605,7605,7605,7605,7605,7605,7605,7605,7605,7606,7605,7605,7605,7606,7605,7605,7605,7605,7605,7605,7605,7605,
7605,7605,7605,7606,7605,7605,7605,7605,7605,7605,7605,7605,7605,7605,7605,7605,7605,7605,7606,7605,7605,7605,7605,7605,7605,7605,7605,7605,7605,7606,7605,7605,7605,7605,7605,7606,7606,7606,7605,7605,7605,7605,7605,7605,7605,7605,7605,7606,7606,7606,7606,7606,7606,7606,7606,7606,7605,7606,7606,7606,7606,7606,7605,7605,7605,7605,7605,7605,7605,7605,7605,7605,7605,7605,7605,7605,7605,7605,7605,7606,7605,7605,7605,7605,7605,7605,7605,7605,7605,7605,7605,7605,7606,7605,7605,7605,
7605,7605,7606,7605,7605,7605,7605,7605,7605,7605,7605,7605,7605,7605,7605,7605,7605,7605,7605,7605,7605,7605,7605,7605,7605,7605,7605,7605,7605,7605,7605,7605,7605,7605,7606,7606,7606,7606,7606,7605,7605,7606,7606,7606,7605,7606,7606,7606,7606,7606,7606,7606,7606,7606,7606,7606,7605,7606,7606,7606,7605,7605,7605,7605,7605,7605,7605,7605,7605,7605,7605,7605,7606,7606,7606,7605,7605,7605,7605,7605,7605,7605,7605,7605,7605,7605,7605,7605,7605,7605,7605,7605,7605,7605,7605,7605,
7606,7605,7606,7605,7605,7605,7605,7605,7605,7605,7605,7605,7605,7605,7605,7605,7606,7605,7605,7605,7605,7605,7605,7605,7605,7605,7605,7605,7605,7605,7606,7606,7606,7606,7606,7606,7606,7606,7606,7606,7606,7606,7606,7606,7606,7606,7606,7606,7606,7606,7606,7605,7605,7605,7606,7605,7605,7605,7605,7605,7605,7605,7605,7605,7606,7605,7605,7606,7605,7605,7606,7606,7606,7606,7606,7606,7606,7606,7605,7605,7605,7605,7605,7605,7605,7605,7605,7605,7605,7606,7605,7605,7606,7605,7605,7605,
7605,7606,7605,7605,7605,7605,7605,7605,7605,7605,7605,7605,7606,7605,7606,7606,7606,7606,7606,7606,7606,7606,7605,7605,7605,7605,7605,7605,7606,7606,7606,7606,7606,7606,7606,7606,7606,7606,7606,7606,7606,7606,7606,7606,7606,7606,7605,7605,7605,7605,7605,7605,7605,7605,7605,7605,7605,7605,7605,7605,7605,7605,7605,7605,7605,7605,7605,7605,7605,7605,7606,7606,7606,7606,7606,7606,7606,7605,7605,7605,7605,7605,7606,7605,7605,7605,7605,7605,7605,7605,7605,7605,7605,7605,7605,7605,
7605,7605,7605,7606,7605,7606,7606,7606,7606,7606,7606,7606,7606,7606,7606,7606,7606,7606,7606,7606,7606,7606,7606,7605,7605,7605,7605,7606,7606,7606,7606,7606,7606,7605,7606,7606,7606,7606,7606,7606,7606,7606,7606,7605,7605,7605,7605,7605,7605,7605,7605,7605,7605,7605,7605,7605,7605,7605,7605,7605,7605,7605,7606,7605,7605,7605,7605,7606,7605,7605,7606,7606,7606,7606,7606,7606,7606,7605,7605,7605,7605,7605,7605,7605,7605,7605,7605,7605,7605,7606,7606,7605,7605,7606,7605,7606,
7606,7606,7606,7606,7606,7606,7606,7606,7606,7606,7606,7606,7606,7606,7606,7606,7606,7606,7606,7606,7606,7606,7606,7606,7606,7606,7606,7606,7606,7606,7606,7605,7605,7605,7606,7606,7606,7605,7605,7605,7605,7605,7605,7605,7605,7605,7605,7605,7605,7605,7605,7605,7605,7605,7605,7605,7605,7605,7605,7605,7605,7605,7605,7606,7605,7606,7605,7605,7605,7605,7605,7606,7606,7606,7606,7606,7605,7605,7605,7605,7605,7605,7605,7605,7605,7605,7605,7605,7605,7605,7605,7605,7605,7605,7605,7605,
7606,7606,7606,7606,7606,7606,7606,7606,7606,7606,7606,7606,7606,7606,7606,7606,7605,7605,7605,7606,7606,7606,7606,7606,7606,7606,7606,7606,7606,7605,7605,7605,7605,7605,7605,7605,7605,7605,7605,7605,7605,7605,7606,7605,7605,7605,7605,7605,7605,7605,7605,7605,7605,7605,7605,7605,7605,7605,7605,7605,7605,7605,7605,7605,7605,7605,7605,7606,7605,7605,7605,7606,7605,7605,7605,7606,7606,7605,7605,7605,7605,7605,7605,7605,7605,7605,7605,7605,7605,7605,7605,7605,7605,7606,7605,7605,
7605,7606,7606,7606,7606,7606,7606,7606,7606,7606,7605,7606,7605,7605,7605,7606,7605,7605,7605,7605,7605,7605,7605,7605,7606,7606,7606,7606,7605,7605,7606,7605,7605,7605,7605,7605,7605,7605,7605,7605,7605,7605,7605,7605,7606,7606,7605,7605,7605,7605,7605,7605,7605,7605,7605,7605,7605,7605,7605,7605,7605,7605,7605,7605,7605,7606,7606,7605,7605,7605,7605,7605,7605,7605,7605,7605,7605,7605,7606,7605,7605,7605,7605,7605,7605,7605,7605,7605,7605,7605,7605,7606,7605,7606,7605,7606,
7605,7605,7605,7605,7606,7606,7606,7606,7605,7605,7605,7606,7605,7605,7605,7605,7605,7605,7605,7605,7605,7605,7605,7605,7606,7605,7605,7605,7606,7606,7606,7606,7606,7606,7605,7605,7605,7605,7605,7605,7605,7605,7605,7605,7605,7605,7605,7605,7605,7605,7605,7605,7605,7605,7605,7605,7605,7605,7605,7605,7605,7605,7606,7605,7605,7605,7605,7605,7606,7605,7605,7605,7605,7605,7605,7605,7605,7605,7605,7605,7605,7605,7605,7605,7605,7605,7605,7605,7605,7606,7606,7605,7605,7605,7605,7605,
7605,7605,7605,7605,7605,7605,7605,7605,7605,7605,7605,7605,7605,7605,7605,7605,7605,7605,7605,7605,7605,7605,7605,7605,7605,7605,7605,7605,7605,7606,7606,7606,7606,7606,7605,7605,7605,7605,7606,7606,7605,7605,7605,7605,7605,7605,7605,7605,7605,7605,7605,7605,7605,7605,7605,7605,7605,7605,7605,7605,7605,7605,7606,7605,7605,7605,7605,7605,7605,7605,7606,7605,7605,7605,7605,7605,7605,7605,7605,7605,7605,7605,7605,7605,7605,7606,7606,7606,7606,7606,7606,7606,7605,7606,7605,7605,
7605,7605,7605,7605,7605,7605,7606,7605,7605,7605,7605,7605,7605,7605,7606,7605,7605,7606,7605,7605,7605,7605,7605,7605,7605,7605,7605,7605,7605,7605,7605,7606,7606,7605,7605,7605,7605,7605,7605,7605,7605,7605,7605,7605,7605,7605,7605,7605,7605,7605,7605,7606,7605,7605,7605,7605,7605,7605,7605,7605,7606,7605,7605,7605,7606,7605,7605,7605,7605,7605,7605,7605,7605,7605,7605,7605,7605,7605,7605,7605,7605,7606,7605,7605,7605,7606,7606,7606,7606,7606,7606,7606,7606,7605,7605,7605,
7605,7605,7606,7605,7606,7605,7605,7605,7605,7606,7605,7605,7605,7605,7605,7605,7605,7605,7605,7605,7605,7605,7605,7605,7605,7605,7605,7605,7606,7605,7605,7605,7605,7605,7605,7605,7605,7605,7605,7605,7606,7605,7605,7605,7605,7605,7605,7605,7605,7605,7605,7605,7605,7605,7605,7605,7605,7605,7605,7605,7605,7606,7605,7605,7605,7605,7606,7605,7606,7605,7605,7605,7605,7605,7605,7605,7605,7605,7605,7605,7605,7605,7605,7605,7605,7606,7606,7606,7606,7606,7606,7605,7605,7606,7605,7605,
7605,7605,7605,7606,7605,7605,7605,7605,7605,7605,7605,7605,7605,7605,7605,7605,7605,7605,7605,7605,7606,7605,7606,7605,7606,7605,7605,7605,7605,7605,7605,7605,7605,7605,7606,7606,7605,7606,7605,7605,7606,7606,7605,7605,7605,7605,7605,7605,7606,7605,7605,7605,7605,7605,7605,7605,7605,7605,7605,7605,7605,7605,7605,7606,7605,7605,7605,7605,7605,7605,7605,7605,7606,7605,7605,7605,7605,7605,7605,7605,7605,7605,7605,7605,7605,7606,7605,7606,7606,7606,7605,7605,7605,7605,7605,7605,
7605,7606,7605,7605,7605,7605,7605,7605,7605,7605,7606,7606,7606,7606,7606,7605,7605,7605,7605,7605,7605,7605,7605,7605,7605,7605,7605,7605,7605,7605,7606,7606,7605,7605,7605,7605,7605,7605,7605,7605,7605,7605,7605,7605,7606,7605,7606,7605,7605,7605,7605,7605,7606,7605,7605,7605,7605,7605,7605,7605,7605,7605,7605,7606,7605,7605,7605,7605,7605,7605,7605,7605,7605,7605,7605,7605,7605,7605,7605,7605,7605,7605,7605,7605,7605,7605,7605,7605,7605,7605,7605,7605,7606,7605,7605,7605,
7605,7605,7606,7605,7605,7605,7605,7605,7605,7605,7606,7606,7606,7606,7606,7606,7605,7606,7605,7605,7605,7605,7605,7605,7605,7605,7605,7605,7605,7605,7605,7605,7605,7605,7605,7605,7605,7605,7605,7605,7605,7605,7605,7605,7605,7605,7605,7605,7606,7605,7605,7605,7605,7605,7605,7605,7605,7605,7605,7605,7605,7605,7605,7605,7605,7606,7605,7605,7605,7605,7605,7605,7605,7605,7606,7605,7605,7605,7606,7605,7605,7606,7605,7605,7605,7605,7605,7605,7605,7605,7605,7605,7605,7606,7605,7605,
7605,7605,7605,7605,7605,7605,7605,7605,7605,7605,7606,7606,7606,7606,7606,7606,7605,7605,7605,7605,7605,7605,7605,7605,7605,7606,7606,7606,7605,7605,7605,7605,7605,7605,7605,7605,7605,7606,7605,7605,7605,7606,7605,7605,7606,7605,7605,7605,7606,7605,7606,7605,7606,7605,7605,7605,7605,7605,7605,7605,7605,7605,7605,7605,7606,7605,7606,7605,7605,7605,7605,7605,7605,7605,7605,7605,7605,7606,7606,7606,7606,7605,7605,7605,7605,7605,7605,7605,7605,7605,7605,7605,7605,7606,7605,7606,
7605,7606,7605,7605,7605,7605,7605,7606,7605,7605,7605,7606,7606,7606,7605,7606,7605,7605,7606,7606,7605,7605,7605,7605,7606,7606,7606,7606,7606,7605,7605,7605,7605,7605,7605,7605,7605,7605,7605,7605,7605,7605,7605,7605,7605,7605,7606,7605,7605,7606,7605,7605,7605,7605,7605,7605,7605,7605,7605,7605,7605,7605,7605,7606,7605,7605,7605,7605,7605,7605,7605,7605,7605,7605,7605,7605,7606,7606,7606,7606,7606,7606,7605,7605,7605,7605,7605,7605,7605,7605,7605,7605,7605,7605,7606,7605,
7605,7605,7605,7605,7605,7605,7605,7605,7605,7605,7605,7605,7605,7606,7605,7605,7605,7605,7605,7605,7605,7605,7605,7606,7606,7606,7606,7606,7606,7605,7606,7605,7605,7605,7605,7605,7605,7605,7605,7605,7605,7605,7605,7605,7605,7606,7605,7605,7605,7605,7605,7606,7605,7605,7605,7605,7605,7605,7605,7605,7605,7605,7605,7605,7605,7605,7606,7605,7605,7605,7605,7605,7605,7605,7605,7605,7606,7606,7606,7606,7606,7606,7606,7605,7605,7605,7605,7606,7605,7605,7605,7605,7605,7605,7605,7605,
7605,7606,7605,7605,7605,7605,7605,7605,7605,7605,7605,7605,7605,7605,7605,7605,7605,7605,7605,7605,7605,7605,7605,7605,7605,7606,7606,7606,7605,7606,7605,7605,7605,7606,7605,7605,7605,7605,7605,7605,7605,7605,7605,7606,7605,7605,7605,7605,7605,7606,7606,7605,7605,7605,7605,7605,7605,7605,7605,7605,7605,7605,7605,7605,7606,7605,7606,7605,7605,7605,7605,7605,7605,7605,7605,7605,7605,7605,7605,7606,7606,7605,7605,7605,7606,7605,7605,7605,7605,7605,7605,7605,7605,7606,7605,7606,
7605,7605,7605,7605,7605,7605,7606,7606,7605,7605,7605,7605,7605,7605,7605,7605,7605,7605,7605,7605,7606,7605,7605,7605,7605,7605,7605,7605,7605,7605,7605,7605,7605,7605,7605,7605,7605,7605,7605,7605,7605,7605,7605,7605,7606,7605,7605,7606,7605,7605,7605,7605,7605,7605,7605,7605,7605,7605,7605,7605,7605,7605,7605,7605,7605,7605,7606,7605,7605,7605,7605,7605,7605,7605,7605,7605,7605,7605,7605,7605,7605,7605,7605,7605,7605,7605,7605,7605,7605,7605,7605,7605,7605,7605,7606,7605,
7606,7605,7606,7605,7605,7605,7605,7605,7605,7605,7605,7605,7605,7605,7605,7605,7605,7605,7605,7606,7605,7605,7605,7605,7605,7605,7605,7605,7605,7605,7605,7605,7605,7605,7605,7605,7605,7605,7605,7605,7605,7605,7605,7605,7605,7605,7606,7605,7605,7605,7606,7605,7606,7605,7605,7605,7605,7605,7605,7605,7605,7605,7605,7605,7605,7605,7605,7606,7605,7606,7605,7605,7605,7605,7605,7605,7605,7605,7606,7605,7605,7605,7605,7605,7605,7605,7605,7605,7605,7605,7605,7605,7605,7605,7605,7605,
7605,7605,7605,7605,7605,7605,7605,7605,7605,7605,7606,7605,7605,7606,7605,7606,7605,7605,7605,7605,7605,7605,7605,7605,7605,7605,7605,7605,7606,7605,7605,7605,7605,7605,7605,7605,7605,7605,7606,7605,7605,7606,7605,7605,7605,7605,7605,7605,7605,7605,7605,7605,7605,7605,7605,7605,7605,7605,7605,7605,7605,7605,7605,7605,7605,7605,7605,7605,7605,7605,7605,7605,7605,7606,7605,7605,7605,7605,7605,7605,7605,7605,7605,7605,7606,7605,7605,7605,7605,7605,7605,7605,7606,7605,7605,7605,
7605,7605,7606,7606,7605,7605,7605,7605,7605,7605,7605,7605,7605,7605,7605,7606,7605,7605,7605,7605,7605,7605,7606,7605,7605,7605,7605,7605,7605,7605,7605,7606,7605,7605,7605,7605,7605,7606,7605,7605,7605,7605,7605,7605,7606,7606,7605,7605,7605,7606,7605,7605,7606,7606,7605,7605,7605,7605,7606,7605,7605,7605,7605,7605,7606,7605,7605,7606,7605,7606,7605,7605,7605,7605,7605,7605,7606,7605,7605,7606,7605,7606,7605,7605,7605,7605,7605,7605,7605,7605,7605,7605,7606,7605,7605,7605,
7605,7605,7605,7605,7606,7605,7605,7605,7605,7605,7605,7606,7605,7605,7606,7605,7605,7606,7606,7605,7605,7605,7605,7605,7606,7605,7605,7605,7606,7605,7605,7605,7605,7605,7605,7605,7605,7605,7606,7605,7605,7605,7605,7605,7606,7605,7605,7605,7605,7605,7605,7605,7606,7605,7605,7605,7606,7605,7605,7605,7605,7605,7605,7605,7605,7605,7606,7606,7605,7605,7606,7605,7605,7605,7606,7605,7605,7605,7605,7605,7605,7605,7605,7605,7606,7605,7605,7605,7606,7605,7605,7606,7605,7605,7605,7605
</data>
 </layer>
 <objectgroup id="7" name="Scenery">
  <object id="1" gid="2147491303" x="30" y="-2" width="64" height="64" />
  <object id="2" gid="7655" x="1026" y="-2" width="64" height="64" />
  <object id="3" gid="7656" x="755" y="-1" width="64" height="64" />
  <object id="4" gid="7656" x="358" y="0" width="64" height="64" />
  <object id="5" gid="2147491307" x="130" y="2" width="64" height="64" />
  <object id="6" gid="7656" x="467" y="2" width="64" height="64" />
  <object id="7" gid="2147491304" x="668" y="3" width="64" height="64" />
  <object id="8" gid="2147491304" x="1064" y="3" width="64" height="64" />
  <object id="9" gid="2147491303" x="1330" y="3" width="64" height="64" />
  <object id="10" gid="7656" x="50" y="4" width="64" height="64" />
  <object id="11" gid="7659" x="224" y="4" width="64" height="64" />
  <object id="12" gid="7659" x="555" y="4" width="64" height="64" />
  <object id="13" gid="7798" x="1249" y="4" width="128" height="128" />
  <object id="14" gid="2147491446" x="872" y="6" width="128" height="128" />
  <object id="15" gid="2147491303" x="254" y="7" width="64" height="64" />
  <object id="16" gid="7656" x="1156" y="8" width="64" height="64" />
  <object id="17" gid="7655" x="1456" y="8" width="64" height="64" />
  <object id="18" gid="7798" x="151" y="9" width="128" height="128" />
  <object id="19" gid="2147491446" x="1361" y="9" width="128" height="128" />
  <object id="20" gid="2147491446" x="1416" y="9" width="128" height="128" />
  <object id="21" gid="2147491446" x="487" y="12" width="128" height="128" />
  <object id="22" gid="2147491304" x="738" y="13" width="64" height="64" />
  <object id="23" gid="7669" x="588" y="14" width="64" height="64" />
  <object id="24" gid="2147491304" x="800" y="15" width="64" height="64" />
  <object id="25" gid="2147491307" x="954" y="15" width="64" height="64" />
  <object id="26" gid="7656" x="1196" y="15" width="64" height="64" />
  <object id="27" gid="7659" x="932" y="16" width="64" height="64" />
  <object id="28" gid="7655" x="298" y="18" width="64" height="64" />
  <object id="29" gid="7669" x="626" y="18" width="64" height="64" />
  <object id="30" gid="2147491307" x="-21" y="19" width="64" height="64" />
  <object id="31" gid="7656" x="1219" y="19" width="64" height="64" />
  <object id="32" gid="7656" x="834" y="20" width="64" height="64" />
  <object id="33" gid="2147491307" x="1092" y="20" width="64" height="64" />
  <object id="34" gid="2147491304" x="1310" y="20" width="64" height="64" />
  <object id="35" gid="7798" x="69" y="21" width="128" height="128" />
  <object id="36" gid="2147491307" x="52" y="28" width="64" height="64" />
  <object id="37" gid="7657" x="206" y="28" width="64" height="64" />
  <object id="38" gid="2147491303" x="864" y="28" width="64" height="64" />
  <object id="39" gid="7798" x="342" y="29" width="128" height="128" />
  <object id="40" gid="2147491307" x="712" y="30" width="64" height="64" />
  <object id="41" gid="2147491305" x="1259" y="30" width="64" height="64" />
  <object id="42" gid="7659" x="69" y="31" width="64" height="64" />
  <object id="43" gid="2147491304" x="1479" y="31" width="64" height="64" />
  <object id="44" gid="2147491317" x="500" y="32" width="64" height="64" />
  <object id="45" gid="2147491307" x="621" y="32" width="64" height="64" />
  <object id="46" gid="2147491307" x="1342" y="32" width="64" height="64" />
  <object id="47" gid="7659" x="1447" y="32" width="64" height="64" />
  <object id="48" gid="7655" x="759" y="33" width="64" height="64" />
  <object id="49" gid="2147491303" x="298" y="34" width="64" height="64" />
  <object id="50" gid="2147491303" x="1350" y="34" width="64" height="64" />
  <object id="51" gid="7659" x="228" y="35" width="64" height="64" />
  <object id="52" gid="7659" x="1075" y="36" width="64" height="64" />
  <object id="53" gid="2147491303" x="1120" y="36" width="64" height="64" />
  <object id="54" gid="2147491307" x="527" y="37" width="64" height="64" />
  <object id="55" gid="7656" x="774" y="37" width="64" height="64" />
  <object id="56" gid="2147491317" x="902" y="39" width="64" height="64" />
  <object id="57" gid="2147491303" x="1273" y="40" width="64" height="64" />
  <object id="58" gid="7659" x="107" y="42" width="64" height="64" />
  <object id="59" gid="2147491304" x="564" y="42" width="64" height="64" />
  <object id="60" gid="2147491307" x="645" y="44" width="64" height="64" />
  <object id="61" gid="7655" x="812" y="44" width="64" height="64" />
  <object id="62" gid="7655" x="940" y="45" width="64" height="64" />
  <object id="63" gid="2147491446" x="131" y="46" width="128" height="128" />
  <object id="64" gid="7656" x="1010" y="46" width="64" height="64" />
  <object id="65" gid="7656" x="338" y="47" width="64" height="64" />
  <object id="66" gid="2147491307" x="461" y="47" width="64" height="64" />
  <object id="67" gid="7669" x="-19" y="48" width="64" height="64" />
  <object id="68" gid="7659" x="1172" y="48" width="64" height="64" />
  <object id="69" gid="2147491317" x="1393" y="50" width="64" height="64" />
  <object id="70" gid="2147491304" x="565" y="56" width="64" height="64" />
  <object id="71" gid="2147491304" x="156" y="57" width="64" height="64" />
  <object id="72" gid="7657" x="46" y="59" width="64" height="64" />
  <object id="73" gid="7659" x="258" y="60" width="64" height="64" />
  <object id="74" gid="2147491303" x="522" y="60" width="64" height="64" />
  <object id="75" gid="2147491307" x="1386" y="60" width="64" height="64" />
  <object id="76" gid="7659" x="-19" y="62" width="64" height="64" />
  <object id="77" gid="7659" x="311" y="63" width="64" height="64" />
  <object id="78" gid="7656" x="1449" y="64" width="64" height="64" />
  <object id="79" gid="2147491303" x="471" y="65" width="64" height="64" />
  <object id="80" gid="7655" x="173" y="66" width="64" height="64" />
  <object id="81" gid="7655" x="21" y="68" width="64" height="64" />
  <object id="82" gid="7798" x="1318" y="69" width="128" height="128" />
  <object id="83" gid="2147491304" x="1063" y="70" width="64" height="64" />
  <object id="84" gid="7798" x="202" y="72" width="128" height="128" />
  <object id="85" gid="7656" x="1304" y="72" width="64" height="64" />
  <object id="86" gid="7798" x="984" y="74" width="128" height="128" />
  <object id="87" gid="7659" x="1489" y="76" width="64" height="64" />
  <object id="88" gid="2147491304" x="89" y="78" width="64" height="64" />
  <object id="89" gid="2147491303" x="334" y="78" width="64" height="64" />
  <object id="90" gid="2147491382" x="670" y="78" width="64" height="64" />
  <object id="91" gid="2147491307" x="1076" y="85" width="64" height="64" />
  <object id="92" gid="2147491303" x="255" y="86" width="64" height="64" />
  <object id="93" gid="7659" x="1466" y="87" width="64" height="64" />
  <object id="94" gid="7655" x="37" y="89" width="64" height="64" />
  <object id="95" gid="7673" x="448" y="89.6" width="64" height="64" />
  <object id="96" gid="2147491307" x="991" y="99" width="64" height="64" />
  <object id="97" gid="2147491317" x="-5" y="100" width="64" height="64" />
  <object id="98" gid="2147491307" x="1027" y="107" width="64" height="64" />
  <object id="99" gid="2147491326" x="1335" y="109" width="64" height="64" />
  <object id="100" gid="7669" x="1483" y="115" width="64" height="64" />
  <object id="101" gid="7659" x="20" y="121" width="64" height="64" />
  <object id="102" gid="2147491383" x="108" y="122" width="64" height="64" />
  <object id="103" gid="7656" x="-21" y="129" width="64" height="64" />
  <object id="104" gid="2147491307" x="1291" y="129" width="64" height="64" />
  <object id="105" gid="2147491304" x="1010" y="130" width="64" height="64" />
  <object id="106" gid="2147491303" x="1073" y="130" width="64" height="64" />
  <object id="107" gid="2147491304" x="289" y="130" width="64" height="64" />
  <object id="108" gid="2147491307" x="1096" y="133" width="64" height="64" />
  <object id="109" gid="7698" x="672" y="144" width="64" height="64" />
  <object id="110" gid="7659" x="1496" y="149" width="64" height="64" />
  <object id="111" gid="7656" x="240" y="152" width="64" height="64" />
  <object id="112" gid="2147491303" x="-23" y="154" width="64" height="64" />
  <object id="113" gid="7655" x="328" y="154" width="64" height="64" />
  <object id="114" gid="7655" x="68" y="155" width="64" height="64" />
  <object id="115" gid="7655" x="364" y="157" width="64" height="64" />
  <object id="116" gid="2147491307" x="1036" y="159" width="64" height="64" />
  <object id="117" gid="7656" x="28" y="161" width="64" height="64" />
  <object id="118" gid="2147491305" x="1373" y="162" width="64" height="64" />
  <object id="119" gid="7710" x="1015" y="162" width="64" height="64" />
  <object id="120" gid="7724" x="489.6" y="163.2" width="64" height="64" />
  <object id="121" gid="7735" x="146" y="166" width="64" height="64" />
  <object id="122" gid="2147491304" x="304" y="166" width="64" height="64" />
  <object id="123" gid="7724" x="502.4" y="171.2" width="64" height="64" />
  <object id="124" gid="2147491307" x="32" y="178" width="64" height="64" />
  <object id="125" gid="7656" x="-35" y="180" width="64" height="64" />
  <object id="126" gid="7659" x="1270" y="182" width="64" height="64" />
  <object id="127" gid="2147491307" x="1327" y="186" width="64" height="64" />
  <object id="128" gid="2147491326" x="1248" y="189" width="64" height="64" />
  <object id="129" gid="2147491348" x="931" y="195" width="64" height="64" />
  <object id="130" gid="7798" x="1392" y="198.4" width="128" height="128" />
  <object id="131" gid="2147491304" x="144" y="199" width="64" height="64" />
  <object id="132" gid="7659" x="-1" y="203" width="64" height="64" />
  <object id="133" gid="7656" x="1491" y="204" width="64" height="64" />
  <object id="134" gid="7655" x="194" y="204" width="64" height="64" />
  <object id="135" gid="2147491305" x="26" y="206" width="64" height="64" />
  <object id="136" gid="7656" x="92" y="217" width="64" height="64" />
  <object id="137" gid="2147491304" x="1" y="230" width="64" height="64" />
  <object id="138" gid="7698" x="825.6" y="230.4" width="64" height="64" />
  <object id="139" gid="2147491303" x="119" y="231" width="64" height="64" />
  <object id="140" gid="7660" x="1331" y="233" width="64" height="64" />
  <object id="141" gid="7768" x="937" y="234" width="64" height="64" />
  <object id="142" gid="7669" x="-11" y="236" width="64" height="64" />
  <object id="143" gid="2147491358" x="513" y="249" width="64" height="64" />
  <object id="144" gid="7678" x="1384" y="255" width="64" height="64" />
  <object id="145" gid="2147491326" x="72" y="255" width="64" height="64" />
  <object id="146" gid="2147491348" x="533" y="260" width="64" height="64" />
  <object id="147" gid="2147491304" x="1477" y="269" width="64" height="64" />
  <object id="148" gid="7660" x="1318.4" y="272" width="64" height="64" />
  <object id="149" gid="2147491307" x="6" y="279" width="64" height="64" />
  <object id="150" gid="7657" x="230.4" y="288" width="64" height="64" />
  <object id="151" gid="7655" x="-31" y="293" width="64" height="64" />
  <object id="152" gid="2147491305" x="1142" y="295" width="64" height="64" />
  <object id="153" gid="7734" x="960" y="295" width="64" height="64" />
  <object id="154" gid="2147491326" x="60" y="296" width="64" height="64" />
  <object id="155" gid="7657" x="1418" y="298" width="64" height="64" />
  <object id="156" gid="7656" x="10" y="299" width="64" height="64" />
  <object id="157" gid="7659" x="1485" y="300" width="64" height="64" />
  <object id="158" gid="2147491330" x="409" y="303" width="64" height="64" />
  <object id="159" gid="7658" x="1097.6" y="313.6" width="64" height="64" />
  <object id="160" gid="2147491317" x="1497" y="316" width="64" height="64" />
  <object id="161" gid="7795" x="681.6" y="323.2" width="64" height="64" />
  <object id="162" gid="2147491330" x="425" y="332" width="64" height="64" />
  <object id="163" gid="7710" x="936" y="336" width="64" height="64" />
  <object id="164" gid="2147491307" x="-21" y="337" width="64" height="64" />
  <object id="165" gid="7657" x="89.6" y="348.8" width="64" height="64" />
  <object id="166" gid="7733" x="739.2" y="350.4" width="64" height="64" />
  <object id="167" gid="7749" x="654.4" y="350.4" width="64" height="64" />
  <object id="168" gid="2147491305" x="1163" y="351" width="64" height="64" />
  <object id="169" gid="7676" x="712" y="351.2" width="64" height="64" />
  <object id="170" gid="7728" x="880" y="353.6" width="64" height="64" />
  <object id="171" gid="7738" x="688" y="355.2" width="64" height="64" />
  <object id="172" gid="7669" x="13" y="356" width="64" height="64" />
  <object id="173" gid="7724" x="846.4" y="361.6" width="64" height="64" />
  <object id="174" gid="7738" x="680" y="366" width="64" height="64" />
  <object id="175" gid="7714" x="566.4" y="366.4" width="64" height="64" />
  <object id="176" gid="7724" x="860.8" y="368" width="64" height="64" />
  <object id="177" gid="7628" x="211" y="372" width="64" height="64" />
  <object id="178" gid="7627" x="142" y="373" width="64" height="64" />
  <object id="179" gid="7742" x="748.8" y="374" width="64" height="64" />
  <object id="180" gid="7673" x="464" y="374.4" width="64" height="64" />
  <object id="181" gid="7655" x="1498" y="377" width="64" height="64" />
  <object id="182" gid="7725" x="902.4" y="377.6" width="64" height="64" />
  <object id="183" gid="2147491307" x="1462" y="379" width="64" height="64" />
  <object id="184" gid="7656" x="-9" y="380" width="64" height="64" />
  <object id="185" gid="7710" x="236" y="380" width="64" height="64" />
  <object id="186" gid="7730" x="80" y="384" width="64" height="64" />
  <object id="187" gid="7715" x="1104" y="390.4" width="64" height="64" />
  <object id="188" gid="2147491303" x="1216" y="391" width="64" height="64" />
  <object id="189" gid="7674" x="537.6" y="393.6" width="64" height="64" />
  <object id="190" gid="7740" x="329.6" y="403.2" width="64" height="64" />
  <object id="191" gid="7712" x="1001.6" y="403.2" width="64" height="64" />
  <object id="192" gid="7735" x="87" y="406" width="64" height="64" />
  <object id="193" gid="7692" x="238.4" y="406.4" width="64" height="64" />
  <object id="194" gid="7695" x="1251.2" y="406.4" width="64" height="64" />
  <object id="195" gid="2147491304" x="10" y="409" width="64" height="64" />
  <object id="196" gid="2147491304" x="1479" y="409" width="64" height="64" />
  <object id="197" gid="7672" x="115.2" y="409.6" width="64" height="64" />
  <object id="198" gid="7718" x="1129.6" y="416" width="64" height="64" />
  <object id="199" gid="7682" x="44.8" y="419.2" width="64" height="64" />
  <object id="200" gid="7692" x="976" y="419.2" width="64" height="64" />
  <object id="201" gid="7798" x="-50" y="420" width="128" height="128" />
  <object id="202" gid="7675" x="547.2" y="425.6" width="64" height="64" />
  <object id="203" gid="7659" x="1365" y="427" width="64" height="64" />
  <object id="204" gid="7671" x="636.8" y="438.4" width="64" height="64" />
  <object id="205" gid="7716" x="768" y="438.4" width="64" height="64" />
  <object id="206" gid="7793" x="1161.6" y="438.4" width="64" height="64" />
  <object id="207" gid="7655" x="1484" y="441" width="64" height="64" />
  <object id="208" gid="7721" x="688" y="441.6" width="64" height="64" />
  <object id="209" gid="7696" x="729.6" y="444.8" width="64" height="64" />
  <object id="210" gid="7714" x="128" y="444.8" width="64" height="64" />
  <object id="211" gid="7688" x="660.8" y="448" width="64" height="64" />
  <object id="212" gid="7744" x="784" y="448" width="64" height="64" />
  <object id="213" gid="7712" x="1136" y="448" width="64" height="64" />
  <object id="214" gid="2147491307" x="-8" y="448" width="64" height="64" />
  <object id="215" gid="2147491421" x="1452" y="453" width="64" height="64" />
  <object id="216" gid="7664" x="86.4" y="454.4" width="64" height="64" />
  <object id="217" gid="7709" x="169.6" y="457.6" width="64" height="64" />
  <object id="218" gid="7683" x="332.8" y="457.6" width="64" height="64" />
  <object id="219" gid="7766" x="1177.6" y="457.6" width="64" height="64" />
  <object id="220" gid="7692" x="238.4" y="460.8" width="64" height="64" />
  <object id="221" gid="7659" x="1438" y="462" width="64" height="64" />
  <object id="222" gid="7656" x="-39" y="463" width="64" height="64" />
  <object id="223" gid="7783" x="729.6" y="470.4" width="64" height="64" />
  <object id="224" gid="7671" x="620.8" y="473.6" width="64" height="64" />
  <object id="225" gid="7677" x="812.8" y="473.6" width="64" height="64" />
  <object id="226" gid="7692" x="976" y="473.6" width="64" height="64" />
  <object id="227" gid="7659" x="1480" y="476" width="64" height="64" />
  <object id="228" gid="7677" x="1286.4" y="476.8" width="64" height="64" />
  <object id="229" gid="7694" x="1120" y="478.4" width="64" height="64" />
  <object id="230" gid="7736" x="464" y="479" width="64" height="64" />
  <object id="231" gid="7677" x="1382.4" y="480" width="64" height="64" />
  <object id="232" gid="7668" x="1334.4" y="483.2" width="64" height="64" />
  <object id="233" gid="2147491383" x="400" y="484" width="64" height="64" />
  <object id="234" gid="7664" x="201.6" y="486.4" width="64" height="64" />
  <object id="235" gid="7697" x="704" y="489.6" width="64" height="64" />
  <object id="236" gid="7683" x="998.4" y="489.6" width="64" height="64" />
  <object id="237" gid="2147491307" x="1490" y="493" width="64" height="64" />
  <object id="238" gid="7656" x="-2" y="494" width="64" height="64" />
  <object id="239" gid="2147491303" x="27" y="494" width="64" height="64" />
  <object id="240" gid="7737" x="668.8" y="496" width="64" height="64" />
  <object id="241" gid="7737" x="739.2" y="496" width="64" height="64" />
  <object id="242" gid="7698" x="294.4" y="505.6" width="64" height="64" />
  <object id="243" gid="2147491304" x="1458" y="510" width="64" height="64" />
  <object id="244" gid="2147491303" x="60" y="512" width="64" height="64" />
  <object id="245" gid="2147491303" x="581" y="518" width="64" height="64" />
  <object id="246" gid="2147491307" x="20" y="519" width="64" height="64" />
  <object id="247" gid="7659" x="1489" y="523" width="64" height="64" />
  <object id="248" gid="2147491317" x="-20" y="530" width="64" height="64" />
  <object id="249" gid="2147491304" x="606" y="533" width="64" height="64" />
  <object id="250" gid="7706" x="1123.2" y="534.4" width="64" height="64" />
  <object id="251" gid="7677" x="1296" y="537.6" width="64" height="64" />
  <object id="252" gid="7677" x="1372.8" y="540.8" width="64" height="64" />
  <object id="253" gid="2147491304" x="620" y="543" width="64" height="64" />
  <object id="254" gid="2147491383" x="67" y="544" width="64" height="64" />
  <object id="255" gid="2147491326" x="439" y="545" width="64" height="64" />
  <object id="256" gid="2147491416" x="268" y="546" width="64" height="64" />
  <object id="257" gid="7655" x="1451" y="551" width="64" height="64" />
  <object id="258" gid="2147491307" x="29" y="557" width="64" height="64" />
  <object id="259" gid="2147491307" x="1236" y="558" width="64" height="64" />
  <object id="260" gid="7655" x="7" y="565" width="64" height="64" />
  <object id="261" gid="2147491326" x="1397" y="580" width="64" height="64" />
  <object id="262" gid="7655" x="1454" y="581" width="64" height="64" />
  <object id="263" gid="7798" x="1008" y="585" width="128" height="128" />
  <object id="264" gid="2147491416" x="237" y="585" width="64" height="64" />
  <object id="265" gid="2147491307" x="1002" y="586" width="64" height="64" />
  <object id="266" gid="7773" x="1209" y="586" width="64" height="64" />
  <object id="267" gid="7669" x="12" y="587" width="64" height="64" />
  <object id="268" gid="7798" x="-57" y="591" width="128" height="128" />
  <object id="269" gid="2147491416" x="769" y="591" width="64" height="64" />
  <object id="270" gid="7659" x="1289" y="600" width="64" height="64" />
  <object id="271" gid="2147491358" x="171" y="606" width="64" height="64" />
  <object id="272" gid="7700" x="430" y="607" width="64" height="64" />
  <object id="273" gid="2147491307" x="-9" y="608" width="64" height="64" />
  <object id="274" gid="7659" x="1460" y="611" width="64" height="64" />
  <object id="275" gid="7655" x="27" y="614" width="64" height="64" />
  <object id="276" gid="7667" x="1408" y="617.6" width="64" height="64" />
  <object id="277" gid="2147491303" x="1044" y="618" width="64" height="64" />
  <object id="278" gid="2147491307" x="975" y="621" width="64" height="64" />
  <object id="279" gid="7669" x="1496" y="624" width="64" height="64" />
  <object id="280" gid="7659" x="1009" y="638" width="64" height="64" />
  <object id="281" gid="7700" x="519" y="638" width="64" height="64" />
  <object id="282" gid="2147491446" x="946" y="640" width="128" height="128" />
  <object id="283" gid="2147491317" x="1112" y="644" width="64" height="64" />
  <object id="284" gid="7700" x="652" y="647" width="64" height="64" />
  <object id="285" gid="7656" x="1047" y="649" width="64" height="64" />
  <object id="286" gid="7665" x="1184" y="649.6" width="64" height="64" />
  <object id="287" gid="7657" x="1459" y="654" width="64" height="64" />
  <object id="288" gid="7689" x="1225.6" y="659.2" width="64" height="64" />
  <object id="289" gid="7734" x="219" y="661" width="64" height="64" />
  <object id="290" gid="7659" x="1503" y="662" width="64" height="64" />
  <object id="291" gid="2147491307" x="1469" y="663" width="64" height="64" />
  <object id="292" gid="7718" x="681.6" y="665.6" width="64" height="64" />
  <object id="293" gid="2147491307" x="1035" y="669" width="64" height="64" />
  <object id="294" gid="7669" x="1427" y="671" width="64" height="64" />
  <object id="295" gid="7656" x="1012" y="672" width="64" height="64" />
  <object id="296" gid="7700" x="146" y="674" width="64" height="64" />
  <object id="297" gid="7659" x="968" y="681" width="64" height="64" />
  <object id="298" gid="7655" x="1068" y="682" width="64" height="64" />
  <object id="299" gid="2147491384" x="365" y="682" width="64" height="64" />
  <object id="300" gid="7669" x="430" y="682" width="64" height="64" />
  <object id="301" gid="2147491446" x="928" y="690" width="128" height="128" />
  <object id="302" gid="2147491307" x="1463" y="693" width="64" height="64" />
  <object id="303" gid="7798" x="-73" y="697" width="128" height="128" />
  <object id="304" gid="7705" x="585.6" y="697.6" width="64" height="64" />
  <object id="305" gid="2147491303" x="1102" y="704" width="64" height="64" />
  <object id="306" gid="2147491304" x="792" y="706" width="64" height="64" />
  <object id="307" gid="7659" x="1001" y="707" width="64" height="64" />
  <object id="308" gid="2147491307" x="939" y="708" width="64" height="64" />
  <object id="309" gid="2147491307" x="1446" y="710" width="64" height="64" />
  <object id="310" gid="7704" x="73.6" y="713.6" width="64" height="64" />
  <object id="311" gid="7659" x="1274" y="717" width="64" height="64" />
  <object id="312" gid="2147491305" x="254" y="719" width="64" height="64" />
  <object id="313" gid="7678" x="204" y="720" width="64" height="64" />
  <object id="314" gid="7657" x="35" y="721" width="64" height="64" />
  <object id="315" gid="7657" x="5" y="723" width="64" height="64" />
  <object id="316" gid="7659" x="1025" y="724" width="64" height="64" />
  <object id="317" gid="7669" x="948" y="725" width="64" height="64" />
  <object id="318" gid="2147491330" x="416" y="727" width="64" height="64" />
  <object id="319" gid="7742" x="612.8" y="730.8" width="64" height="64" />
  <object id="320" gid="2147491303" x="1464" y="731" width="64" height="64" />
  <object id="321" gid="2147491384" x="113" y="732" width="64" height="64" />
  <object id="322" gid="7656" x="1062" y="736" width="64" height="64" />
  <object id="323" gid="7656" x="989" y="738" width="64" height="64" />
  <object id="324" gid="7659" x="748" y="740" width="64" height="64" />
  <object id="325" gid="7705" x="617.6" y="742.4" width="64" height="64" />
  <object id="326" gid="7706" x="566.4" y="742.4" width="64" height="64" />
  <object id="327" gid="7704" x="326.4" y="745.6" width="64" height="64" />
  <object id="328" gid="7773" x="299" y="748" width="64" height="64" />
  <object id="329" gid="2147491303" x="31" y="751" width="64" height="64" />
  <object id="330" gid="7773" x="1343" y="751" width="64" height="64" />
  <object id="331" gid="2147491421" x="354" y="751" width="64" height="64" />
  <object id="332" gid="7705" x="534.4" y="752" width="64" height="64" />
  <object id="333" gid="2147491303" x="1125" y="752" width="64" height="64" />
  <object id="334" gid="7661" x="470.4" y="755.2" width="64" height="64" />
  <object id="335" gid="7659" x="-14" y="756" width="64" height="64" />
  <object id="336" gid="2147491317" x="714" y="756" width="64" height="64" />
  <object id="337" gid="2147491307" x="991" y="761" width="64" height="64" />
  <object id="338" gid="7798" x="655" y="766" width="128" height="128" />
  <object id="339" gid="2147491317" x="1445" y="767" width="64" height="64" />
  <object id="340" gid="7656" x="810" y="768" width="64" height="64" />
  <object id="341" gid="7798" x="714" y="769" width="128" height="128" />
  <object id="342" gid="2147491317" x="1022" y="769" width="64" height="64" />
  <object id="343" gid="2147491446" x="1427" y="769" width="128" height="128" />
  <object id="344" gid="2147491303" x="1223" y="770" width="64" height="64" />
  <object id="345" gid="7773" x="1154" y="772" width="64" height="64" />
  <object id="346" gid="2147491326" x="1270" y="772" width="64" height="64" />
  <object id="347" gid="2147491421" x="255" y="772" width="64" height="64" />
  <object id="348" gid="7659" x="7" y="780" width="64" height="64" />
  <object id="349" gid="2147491307" x="1460" y="787" width="64" height="64" />
  <object id="350" gid="2147491384" x="564" y="789" width="64" height="64" />
  <object id="351" gid="7656" x="686" y="791" width="64" height="64" />
  <object id="352" gid="2147491384" x="637" y="793" width="64" height="64" />
  <object id="353" gid="2147491305" x="749" y="794" width="64" height="64" />
  <object id="354" gid="7798" x="1007" y="794" width="128" height="128" />
  <object id="355" gid="7656" x="811" y="796" width="64" height="64" />
  <object id="356" gid="2147491307" x="992" y="796" width="64" height="64" />
  <object id="357" gid="2147491307" x="1493" y="797" width="64" height="64" />
  <object id="358" gid="2147491317" x="781" y="798" width="64" height="64" />
  <object id="359" gid="2147491304" x="1479" y="805" width="64" height="64" />
  <object id="360" gid="7661" x="265.6" y="806.4" width="64" height="64" />
  <object id="361" gid="2147491446" x="954" y="807" width="128" height="128" />
  <object id="362" gid="7659" x="708" y="809" width="64" height="64" />
  <object id="363" gid="7682" x="92" y="810" width="64" height="64" />
  <object id="364" gid="2147491305" x="208" y="810" width="64" height="64" />
  <object id="365" gid="7656" x="-11" y="812" width="64" height="64" />
  <object id="366" gid="2147491446" x="724" y="814" width="128" height="128" />
  <object id="367" gid="7656" x="689" y="821" width="64" height="64" />
  <object id="368" gid="2147491304" x="1025" y="821" width="64" height="64" />
  <object id="369" gid="7656" x="798" y="823" width="64" height="64" />
  <object id="370" gid="7704" x="454.4" y="825.6" width="64" height="64" />
  <object id="371" gid="7773" x="1284" y="827" width="64" height="64" />
  <object id="372" gid="2147491326" x="341" y="827" width="64" height="64" />
  <object id="373" gid="2147491384" x="179" y="829" width="64" height="64" />
  <object id="374" gid="2147491421" x="1366" y="830" width="64" height="64" />
  <object id="375" gid="2147491304" x="761" y="835" width="64" height="64" />
  <object id="376" gid="7798" x="1004" y="835" width="128" height="128" />
  <object id="377" gid="7659" x="1489" y="835" width="64" height="64" />
  <object id="378" gid="7659" x="777" y="840" width="64" height="64" />
  <object id="379" gid="2147491307" x="1462" y="840" width="64" height="64" />
  <object id="380" gid="2147491446" x="973" y="842" width="128" height="128" />
  <object id="381" gid="7655" x="665" y="843" width="64" height="64" />
  <object id="382" gid="2147491421" x="1319" y="846" width="64" height="64" />
  <object id="383" gid="2147491330" x="445" y="847" width="64" height="64" />
  <object id="384" gid="2147491384" x="507" y="847" width="64" height="64" />
  <object id="385" gid="2147491307" x="-16" y="848" width="64" height="64" />
  <object id="386" gid="7682" x="303" y="850" width="64" height="64" />
  <object id="387" gid="7659" x="720" y="851" width="64" height="64" />
  <object id="388" gid="2147491304" x="1027" y="862" width="64" height="64" />
  <object id="389" gid="7656" x="678" y="863" width="64" height="64" />
  <object id="390" gid="7661" x="73.6" y="864" width="64" height="64" />
  <object id="391" gid="7659" x="1473" y="864" width="64" height="64" />
  <object id="392" gid="7656" x="801" y="868" width="64" height="64" />
  <object id="393" gid="2147491304" x="-32" y="871" width="64" height="64" />
  <object id="394" gid="7655" x="712" y="874" width="64" height="64" />
  <object id="395" gid="7657" x="1052" y="874" width="64" height="64" />
  <object id="396" gid="7678" x="1221" y="875" width="64" height="64" />
  <object id="397" gid="7659" x="5" y="876" width="64" height="64" />
  <object id="398" gid="2147491304" x="771" y="876" width="64" height="64" />
  <object id="399" gid="7669" x="279" y="876" width="64" height="64" />
  <object id="400" gid="7798" x="1051" y="879" width="128" height="128" />
  <object id="401" gid="7669" x="190" y="881" width="64" height="64" />
  <object id="402" gid="7736" x="431" y="881" width="64" height="64" />
  <object id="403" gid="2147491304" x="134" y="882" width="64" height="64" />
  <object id="404" gid="2147491303" x="213" y="883" width="64" height="64" />
  <object id="405" gid="2147491304" x="1444" y="883" width="64" height="64" />
  <object id="406" gid="2147491384" x="589" y="885" width="64" height="64" />
  <object id="407" gid="2147491326" x="1324" y="890" width="64" height="64" />
  <object id="408" gid="2147491303" x="630" y="893" width="64" height="64" />
  <object id="409" gid="2147491307" x="1142" y="895" width="64" height="64" />
  <object id="410" gid="7655" x="1455" y="897" width="64" height="64" />
  <object id="411" gid="2147491317" x="1" y="898" width="64" height="64" />
  <object id="412" gid="2147491304" x="28" y="898" width="64" height="64" />
  <object id="413" gid="7659" x="1053" y="899" width="64" height="64" />
  <object id="414" gid="7798" x="292" y="900" width="128" height="128" />
  <object id="415" gid="2147491304" x="470" y="901" width="64" height="64" />
  <object id="416" gid="2147491304" x="565" y="901" width="64" height="64" />
  <object id="417" gid="7659" x="757" y="901" width="64" height="64" />
  <object id="418" gid="2147491304" x="993" y="901" width="64" height="64" />
  <object id="419" gid="2147491307" x="901" y="902" width="64" height="64" />
  <object id="420" gid="7659" x="817" y="904" width="64" height="64" />
  <object id="421" gid="2147491305" x="802" y="905" width="64" height="64" />
  <object id="422" gid="7659" x="1266" y="905" width="64" height="64" />
  <object id="423" gid="7798" x="671" y="906" width="128" height="128" />
  <object id="424" gid="7656" x="673" y="907" width="64" height="64" />
  <object id="425" gid="2147491304" x="1241" y="908" width="64" height="64" />
  <object id="426" gid="7659" x="1086" y="910" width="64" height="64" />
  <object id="427" gid="7655" x="1187" y="911" width="64" height="64" />
  <object id="428" gid="2147491317" x="218" y="912" width="64" height="64" />
  <object id="429" gid="7655" x="159" y="913" width="64" height="64" />
  <object id="430" gid="2147491304" x="252" y="913" width="64" height="64" />
  <object id="431" gid="7669" x="876" y="913" width="64" height="64" />
  <object id="432" gid="2147491304" x="809" y="920" width="64" height="64" />
  <object id="433" gid="2147491317" x="687" y="921" width="64" height="64" />
  <object id="434" gid="2147491446" x="1023" y="921" width="128" height="128" />
  <object id="435" gid="2147491304" x="39" y="922" width="64" height="64" />
  <object id="436" gid="2147491303" x="196" y="924" width="64" height="64" />
  <object id="437" gid="2147491303" x="1154" y="924" width="64" height="64" />
  <object id="438" gid="2147491307" x="361" y="925" width="64" height="64" />
  <object id="439" gid="7655" x="589" y="925" width="64" height="64" />
  <object id="440" gid="7659" x="1385" y="925" width="64" height="64" />
  <object id="441" gid="2147491317" x="418" y="926" width="64" height="64" />
  <object id="442" gid="7798" x="992" y="926" width="128" height="128" />
  <object id="443" gid="7659" x="257" y="927" width="64" height="64" />
  <object id="444" gid="2147491304" x="1095" y="927" width="64" height="64" />
  <object id="445" gid="2147491446" x="1402" y="927" width="128" height="128" />
  <object id="446" gid="2147491446" x="1289" y="928" width="128" height="128" />
  <object id="447" gid="2147491307" x="145" y="929" width="64" height="64" />
  <object id="448" gid="7655" x="511" y="929" width="64" height="64" />
  <object id="449" gid="7656" x="1257" y="929" width="64" height="64" />
  <object id="450" gid="2147491307" x="387" y="931" width="64" height="64" />
  <object id="451" gid="2147491307" x="1469" y="931" width="64" height="64" />
  <object id="452" gid="7655" x="1191" y="933" width="64" height="64" />
  <object id="453" gid="2147491307" x="25" y="934" width="64" height="64" />
  <object id="454" gid="7655" x="460" y="935" width="64" height="64" />
  <object id="455" gid="7656" x="838" y="935" width="64" height="64" />
  <object id="456" gid="7659" x="899" y="935" width="64" height="64" />
  <object id="457" gid="7655" x="1343" y="936" width="64" height="64" />
  <object id="458" gid="2147491303" x="652" y="938" width="64" height="64" />
  <object id="459" gid="7659" x="319" y="939" width="64" height="64" />
  <object id="460" gid="2147491304" x="733" y="939" width="64" height="64" />
  <object id="461" gid="2147491446" x="524" y="940" width="128" height="128" />
  <object id="462" gid="7659" x="769" y="940" width="64" height="64" />
  <object id="463" gid="7659" x="-36" y="941" width="64" height="64" />
  <object id="464" gid="7659" x="219" y="941" width="64" height="64" />
  <object id="465" gid="2147491307" x="1211" y="941" width="64" height="64" />
 </objectgroup>
 <objectgroup id="8" name="Objects">
  <object id="466" x="448" y="40" name="start" type="start">
   <point />
  </object>
  <object id="467" x="640" y="336" name="fisher-stilt" type="warp" width="32" height="16">
   <properties>
    <property name="goto" value="MirefenStilt,6,9.5" />
   </properties>
  </object>
  <object id="468" x="192" y="368" name="witch-hut" type="warp" width="16" height="16">
   <properties>
    <property name="goto" value="MirefenWitch,8,11.5" />
   </properties>
  </object>
  <object id="469" x="432" y="0" name="bloomvale-path" type="warp" width="32" height="32">
   <properties>
    <property name="goto" value="Bloomvale,46.5,61.5" />
   </properties>
  </object>
  <object id="470" x="960" y="896" name="jungle-path" type="warp" width="32" height="32">
   <properties>
    <property name="goto" value="Verdant,21.5,2.5" />
   </properties>
  </object>
  <object id="471" x="744" y="368" name="eel-landing" type="marker">
   <point />
  </object>
  <object id="472" x="1088" y="64" name="lurker-fen" type="marker" width="416" height="800" />
  <object id="473" x="48" y="672" name="slime-bog" type="marker" width="656" height="192" />
  <object id="474" x="64" y="0" type="safe-zone" width="928" height="528" />
  <object id="475" x="736" y="528" type="safe-zone" width="288" height="400" />
  <object id="476" x="0" y="0" name="mirefen" type="soundscape" width="1536" height="928">
   <properties>
    <property name="channel1" value="audio/music/lagoon.flac, 0.24" />
    <property name="channel2" value="audio/ambient/forest_air.flac, 0.3" />
   </properties>
  </object>
  <object id="477" x="544" y="64" name="eelmere" type="soundscape" width="480" height="272">
   <properties>
    <property name="channel4" value="audio/ambient/lake.flac, 0.29" />
   </properties>
  </object>
  <object id="478" x="688" y="304" name="landing" type="soundscape" width="112" height="80">
   <properties>
    <property name="channel3" value="audio/ambient/lapping_water.flac, 0.32" />
    <property name="emit" value="3.0" type="float" />
   </properties>
  </object>
  <object id="479" x="688" y="416" name="smokehouse" type="soundscape" width="80" height="48">
   <properties>
    <property name="channel3" value="audio/ambient/campfire.flac, 0.29" />
    <property name="emit" value="3.0" type="float" />
   </properties>
  </object>
  <object id="480" x="1056" y="64" name="deep-fen" type="soundscape" width="448" height="832">
   <properties>
    <property name="channel4" value="audio/ambient/jungle.flac, 0.32" />
   </properties>
  </object>
  <object id="481" x="32" y="640" name="sinking-bog" type="soundscape" width="672" height="256">
   <properties>
    <property name="channel4" value="audio/ambient/jungle.flac, 0.3" />
   </properties>
  </object>
 </objectgroup>
</map>