<?xml version='1.0' encoding='UTF-8'?>
<map version="1.10" tiledversion="1.11.0" orientation="orthogonal" renderorder="right-down" width="16" height="14" tilewidth="16" tileheight="16" infinite="0" nextlayerid="9" nextobjectid="7">
 <tileset firstgid="1" source="../tilesets/sakura-pagoda-terrain.tsx" />
 <tileset firstgid="41" source="../tilesets/sakura-pagoda-furniture.tsx" />
 <tileset firstgid="436" source="../tilesets/collision.tsx" />
 <tileset firstgid="438" source="../tilesets/sakura-pagoda-props.tsx" />
 <layer id="1" name="Floor" width="16" height="14">
  <data encoding="csv">
1,1,1,1,1,1,1,1,1,1,1,1,1,1,1,1,
1,1,1,1,1,1,1,1,1,1,1,1,1,1,1,1,
1,1,1,1,1,1,1,1,1,1,1,1,1,1,1,1,
1,1,1,1,1,1,1,1,1,1,1,1,1,1,1,1,
1,1,1,1,1,1,1,1,1,1,1,1,1,1,1,1,
1,1,1,1,1,1,1,1,1,1,1,1,1,1,1,1,
1,1,1,1,1,1,1,1,1,1,1,1,1,1,1,1,
1,1,1,1,1,1,1,1,1,1,1,1,1,1,1,1,
1,1,1,1,1,1,1,1,1,1,1,1,1,1,1,1,
1,1,1,1,1,1,1,1,1,1,1,1,1,1,1,1,
1,1,1,1,1,1,1,1,1,1,1,1,1,1,1,1,
1,1,1,1,1,1,1,1,1,1,1,1,1,1,1,1,
1,1,1,1,1,1,1,1,1,1,1,1,1,1,1,1,
1,1,1,1,1,1,1,1,1,1,1,1,1,1,1,1
</data>
 </layer>
 <layer id="2" name="Walls" width="16" height="14">
  <data encoding="csv">
7,7,7,7,7,7,7,7,7,7,7,7,7,7,7,7,
12,13,13,13,13,13,13,13,13,13,13,13,13,13,13,19,
15,16,16,16,16,16,16,16,16,16,16,16,16,16,16,22,
9,0,0,0,0,0,0,0,0,0,0,0,0,0,0,6,
9,0,0,0,0,0,0,0,0,0,0,0,0,0,0,6,
9,0,0,0,0,0,0,0,0,0,0,0,0,0,0,6,
9,0,0,0,0,0,0,0,0,0,0,0,0,0,0,6,
9,0,0,0,0,0,0,0,0,0,0,0,0,0,0,6,
9,0,0,0,0,0,0,0,0,0,0,0,0,0,0,6,
9,0,0,0,0,0,0,0,0,0,0,0,0,0,0,6,
9,0,0,0,0,0,0,0,0,0,0,0,0,0,0,6,
9,0,0,0,0,0,0,0,0,0,0,0,0,0,0,6,
10,3,3,3,3,3,4,0,0,2,3,3,3,3,3,11,
7,7,7,7,7,7,9,0,0,5,7,7,7,7,7,7
</data>
 </layer>
 <layer id="3" name="Rug" width="16" height="14">
  <data encoding="csv">
0,0,0,0,0,0,0,0,0,0,0,0,0,0,0,0,
0,0,0,0,0,0,0,0,0,0,0,0,0,0,0,0,
0,0,0,0,0,0,0,0,0,0,0,0,0,0,0,0,
0,0,0,0,0,0,0,0,0,0,0,0,0,0,0,0,
0,0,0,0,0,0,0,0,0,0,0,0,0,0,0,0,
0,0,0,0,0,0,0,0,0,0,0,0,0,0,0,0,
0,0,0,0,0,0,32,34,34,35,0,0,0,0,0,0,
0,0,0,0,0,0,36,37,37,27,0,0,0,0,0,0,
0,0,0,0,0,0,36,37,37,27,0,0,0,0,0,0,
0,0,0,0,0,0,36,37,37,27,0,0,0,0,0,0,
0,0,0,0,0,0,36,37,37,27,0,0,0,0,0,0,
0,0,0,0,0,0,36,37,37,27,0,0,0,0,0,0,
0,0,0,0,0,0,0,29,29,0,0,0,0,0,0,0,
0,0,0,0,0,0,0,0,0,0,0,0,0,0,0,0
</data>
 </layer>
 <layer id="4" name="Decor" width="16" height="14">
  <data encoding="csv">
0,0,0,0,0,0,0,0,0,0,0,0,0,0,0,0,
0,0,0,0,0,0,0,0,0,0,0,0,0,0,0,0,
0,0,0,0,0,0,0,0,0,0,0,0,0,0,0,0,
0,0,0,0,0,0,0,0,0,0,0,0,0,0,0,0,
0,0,0,0,0,0,0,0,0,0,0,0,0,0,0,0,
0,0,0,0,0,0,0,0,0,0,0,0,0,0,0,0,
0,0,0,0,0,0,0,0,0,0,0,0,0,0,0,0,
0,0,0,0,0,0,0,0,0,0,0,0,0,0,0,0,
0,0,0,0,0,0,0,0,0,0,0,0,0,0,0,0,
0,0,0,0,0,0,0,0,0,0,0,0,0,0,0,0,
0,0,0,0,0,0,0,0,0,0,0,0,0,0,0,0,
0,0,0,0,0,0,0,0,0,0,0,0,0,0,0,0,
0,0,0,0,0,0,0,0,0,0,0,0,0,0,0,0,
0,0,0,0,0,0,0,0,0,0,0,0,0,0,0,0
</data>
 </layer>
 <layer id="5" name="Dynamic" width="16" height="14">
  <data encoding="csv">
0,0,0,0,0,0,0,0,0,0,0,0,0,0,0,0,
0,0,0,0,0,0,0,0,0,0,0,0,0,0,0,0,
0,261,262,253,254,265,266,57,58,281,282,253,254,69,70,0,
0,263,264,255,256,267,268,59,60,284,283,255,256,71,72,0,
0,0,0,0,0,0,0,0,0,0,0,0,0,0,0,0,
0,0,0,0,0,0,0,241,242,0,0,0,0,173,174,0,
0,0,0,0,0,381,0,243,244,0,323,324,0,175,176,0,
0,89,90,0,0,382,0,0,0,0,325,326,0,0,372,0,
0,91,92,0,0,0,0,0,0,0,0,0,0,0,373,0,
0,0,0,125,126,0,0,0,0,0,0,0,0,0,372,0,
0,306,309,127,128,217,218,0,0,0,0,0,225,226,373,0,
0,307,308,0,0,219,220,0,0,0,0,0,227,228,0,0,
0,0,0,0,0,0,0,0,0,0,0,0,0,0,0,0,
0,0,0,0,0,0,0,0,0,0,0,0,0,0,0,0
</data>
 </layer>
 <layer id="6" name="Collision" width="16" height="14">
  <data encoding="csv">
437,437,437,437,437,437,437,437,437,437,437,437,437,437,437,437,
437,437,437,437,437,437,437,437,437,437,437,437,437,437,437,437,
437,437,437,437,437,437,437,437,437,437,437,437,437,437,437,437,
437,437,437,437,437,436,437,437,437,436,437,437,437,437,437,437,
437,436,436,436,436,436,436,436,436,436,436,436,436,436,436,437,
437,436,436,436,436,436,436,436,436,436,436,436,436,436,436,437,
437,436,436,436,436,436,436,437,437,436,436,436,436,437,437,437,
437,436,436,436,436,437,436,436,436,436,437,437,436,436,436,437,
437,437,437,436,436,436,436,436,436,436,436,436,436,436,437,437,
437,436,436,436,436,436,437,436,436,437,436,436,436,436,436,437,
437,436,436,437,437,436,436,436,436,436,436,436,436,436,437,437,
437,437,437,436,436,437,437,436,436,436,436,436,437,437,436,437,
437,437,437,437,437,437,437,436,436,437,437,437,437,437,437,437,
437,437,437,437,437,437,437,436,436,437,437,437,437,437,437,437
</data>
 </layer>
 <objectgroup id="7" name="Scenery">
  <object id="1" gid="540" x="72" y="158" width="64" height="64" />
  <object id="2" gid="540" x="120" y="158" width="64" height="64" />
 </objectgroup>
 <objectgroup id="8" name="Objects">
  <object id="3" x="128" y="184" name="start" type="start">
   <point />
  </object>
  <object id="4" x="112" y="192" name="front-door" type="warp" width="32" height="32">
   <properties>
    <property name="goto" value="Sakura,49.5,42.5" />
   </properties>
  </object>
  <object id="5" x="120" y="137.6" name="altar" type="marker">
   <point />
  </object>
  <object id="6" x="80" y="48" name="incense" type="soundscape" width="96" height="80">
   <properties>
    <property name="channel3" value="audio/ambient/stone_hum.flac, 0.22" />
    <property name="emit" value="2.0" type="float" />
   </properties>
  </object>
 </objectgroup>
</map>