<?xml version='1.0' encoding='UTF-8'?>
<map version="1.10" tiledversion="1.11.0" orientation="orthogonal" renderorder="right-down" width="56" height="84" tilewidth="16" tileheight="16" infinite="0" nextlayerid="9" nextobjectid="791">
 <tileset firstgid="1" source="../tilesets/sakura-ground.tsx" />
 <tileset firstgid="1601" source="../tilesets/sakura-overlay.tsx" />
 <tileset firstgid="2202" source="../tilesets/sakura-water.tsx" />
 <tileset firstgid="3802" source="../tilesets/sakura-patch.tsx" />
 <tileset firstgid="5402" source="../tilesets/sakura-path.tsx" />
 <tileset firstgid="7002" source="../tilesets/buildings.tsx" />
 <tileset firstgid="8745" source="../tilesets/sakura-decor.tsx" />
 <tileset firstgid="8809" source="../tilesets/collision.tsx" />
 <tileset firstgid="8811" source="../tilesets/embellishments.tsx" />
 <tileset firstgid="8859" source="../tilesets/sakura-props.tsx" />
 <layer id="1" name="Ground" width="56" height="84">
  <data encoding="csv">
1,2,3,4,5,6,7,8,9,10,11,12,13,14,15,16,17,18,19,20,21,22,23,24,25,26,27,28,29,30,31,32,33,34,35,36,37,38,39,40,1,2,3,4,5,6,7,8,9,10,11,12,13,14,15,16,
41,42,43,44,45,46,47,48,49,50,51,52,53,54,55,56,57,58,59,60,61,62,63,64,65,66,67,68,69,70,71,72,73,74,75,76,77,78,79,80,41,42,43,44,45,46,47,48,49,50,51,52,53,54,55,56,
81,82,83,84,85,86,87,88,89,90,91,92,93,94,95,96,97,98,99,100,101,102,103,104,105,106,107,108,109,110,111,112,113,114,115,116,117,118,119,120,81,82,83,84,85,86,87,88,89,90,91,92,93,94,95,96,
121,122,123,124,125,126,127,128,129,130,131,132,133,134,135,136,137,138,139,140,141,142,143,144,145,146,147,148,149,150,151,152,153,154,155,156,157,158,159,160,121,122,123,124,125,126,127,128,129,130,131,132,133,134,135,136,
161,162,163,164,165,166,167,168,169,170,171,172,173,174,175,176,177,178,179,180,181,182,183,184,185,186,187,188,189,190,191,192,193,194,195,196,197,198,199,200,161,162,163,164,165,166,167,168,169,170,171,172,173,174,175,176,
201,202,203,204,205,206,207,208,209,210,211,212,213,214,215,216,217,218,219,220,221,222,223,224,225,226,227,228,229,230,231,232,233,234,235,236,237,238,239,240,201,202,203,204,205,206,207,208,209,210,211,212,213,214,215,216,
241,242,243,244,245,246,247,248,249,250,251,252,253,254,255,256,257,258,259,260,261,262,263,264,265,266,267,268,269,270,271,272,273,274,275,276,277,278,279,280,241,242,243,244,245,246,247,248,249,250,251,252,253,254,255,256,
281,282,283,284,285,286,287,288,289,290,291,292,293,294,295,296,297,298,299,300,301,302,303,304,305,306,307,308,309,310,311,312,313,314,315,316,317,318,319,320,281,282,283,284,285,286,287,288,289,290,291,292,293,294,295,296,
321,322,323,324,325,326,327,328,329,330,331,332,333,334,335,336,337,338,339,340,341,342,343,344,345,346,347,348,349,350,351,352,353,354,355,356,357,358,359,360,321,322,323,324,325,326,327,328,329,330,331,332,333,334,335,336,
361,362,363,364,365,366,367,368,369,370,371,372,373,374,375,376,377,378,379,380,381,382,383,384,385,386,387,388,389,390,391,392,393,394,395,396,397,398,399,400,361,362,363,364,365,366,367,368,369,370,371,372,373,374,375,376,
401,402,403,404,405,406,407,408,409,410,411,412,413,414,415,416,417,418,419,420,421,422,423,424,425,426,427,428,429,430,431,432,433,434,435,436,437,438,439,440,401,402,403,404,405,406,407,408,409,410,411,412,413,414,415,416,
441,442,443,444,445,446,447,448,449,450,451,452,453,454,455,456,457,458,459,460,461,462,463,464,465,466,467,468,469,470,471,472,473,474,475,476,477,478,479,480,441,442,443,444,445,446,447,448,449,450,451,452,453,454,455,456,
481,482,483,484,485,486,487,488,489,490,491,492,493,494,495,496,497,498,499,500,501,502,503,504,505,506,507,508,509,510,511,512,513,514,515,516,517,518,519,520,481,482,483,484,485,486,487,488,489,490,491,492,493,494,495,496,
521,522,523,524,525,526,527,528,529,530,531,532,533,534,535,536,537,538,539,540,541,542,543,544,545,546,547,548,549,550,551,552,553,554,555,556,557,558,559,560,521,522,523,524,525,526,527,528,529,530,531,532,533,534,535,536,
561,562,563,564,565,566,567,568,569,570,571,572,573,574,575,576,577,578,579,580,581,582,583,584,585,586,587,588,589,590,591,592,593,594,595,596,597,598,599,600,561,562,563,564,565,566,567,568,569,570,571,572,573,574,575,576,
601,602,603,604,605,606,607,608,609,610,611,612,613,614,615,616,617,618,619,620,621,622,623,624,625,626,627,628,629,630,631,632,633,634,635,636,637,638,639,640,601,602,603,604,605,606,607,608,609,610,611,612,613,614,615,616,
641,642,643,644,645,646,647,648,649,650,651,652,653,654,655,656,657,658,659,660,661,662,663,664,665,666,667,668,669,670,671,672,673,674,675,676,677,678,679,680,641,642,643,644,645,646,647,648,649,650,651,652,653,654,655,656,
681,682,683,684,685,686,687,688,689,690,691,692,693,694,695,696,697,698,699,700,701,702,703,704,705,706,707,708,709,710,711,712,713,714,715,716,717,718,719,720,681,682,683,684,685,686,687,688,689,690,691,692,693,694,695,696,
721,722,723,724,725,726,727,728,729,730,731,732,733,734,735,736,737,738,739,740,741,742,743,744,745,746,747,748,749,750,751,752,753,754,755,756,757,758,759,760,721,722,723,724,725,726,727,728,729,730,731,732,733,734,735,736,
761,762,763,764,765,766,767,768,769,770,771,772,773,774,775,776,777,778,779,780,781,782,783,784,785,786,787,788,789,790,791,792,793,794,795,796,797,798,799,800,761,762,763,764,765,766,767,768,769,770,771,772,773,774,775,776,
801,802,803,804,805,806,807,808,809,810,811,812,813,814,815,816,817,818,819,820,821,822,823,824,825,826,827,828,829,830,831,832,833,834,835,836,837,838,839,840,801,802,803,804,805,806,807,808,809,810,811,812,813,814,815,816,
841,842,843,844,845,846,847,848,849,850,851,852,853,854,855,856,857,858,859,860,861,862,863,864,865,866,867,868,869,870,871,872,873,874,875,876,877,878,879,880,841,842,843,844,845,846,847,848,849,850,851,852,853,854,855,856,
881,882,883,884,885,886,887,888,889,890,891,892,893,894,895,896,897,898,899,900,901,902,903,904,905,906,907,908,909,910,911,912,913,914,915,916,917,918,919,920,881,882,883,884,885,886,887,888,889,890,891,892,893,894,895,896,
921,922,923,924,925,926,927,928,929,930,931,932,933,934,935,936,937,938,939,940,941,942,943,944,945,946,947,948,949,950,951,952,953,954,955,956,957,958,959,960,921,922,923,924,925,926,927,928,929,930,931,932,933,934,935,936,
961,962,963,964,965,966,967,968,969,970,971,972,973,974,975,976,977,978,979,980,981,982,983,984,985,986,987,988,989,990,991,992,993,994,995,996,997,998,999,1000,961,962,963,964,965,966,967,968,969,970,971,972,973,974,975,976,
1001,1002,1003,1004,1005,1006,1007,1008,1009,1010,1011,1012,1013,1014,1015,1016,1017,1018,1019,1020,1021,1022,1023,1024,1025,1026,1027,1028,1029,1030,1031,1032,1033,1034,1035,1036,1037,1038,1039,1040,1001,1002,1003,1004,1005,1006,1007,1008,1009,1010,1011,1012,1013,1014,1015,1016,
1041,1042,1043,1044,1045,1046,1047,1048,1049,1050,1051,1052,1053,1054,1055,1056,1057,1058,1059,1060,1061,1062,1063,1064,1065,1066,1067,1068,1069,1070,1071,1072,1073,1074,1075,1076,1077,1078,1079,1080,1041,1042,1043,1044,1045,1046,1047,1048,1049,1050,1051,1052,1053,1054,1055,1056,
1081,1082,1083,1084,1085,1086,1087,1088,1089,1090,1091,1092,1093,1094,1095,1096,1097,1098,1099,1100,1101,1102,1103,1104,1105,1106,1107,1108,1109,1110,1111,1112,1113,1114,1115,1116,1117,1118,1119,1120,1081,1082,1083,1084,1085,1086,1087,1088,1089,1090,1091,1092,1093,1094,1095,1096,
1121,1122,1123,1124,1125,1126,1127,1128,1129,1130,1131,1132,1133,1134,1135,1136,1137,1138,1139,1140,1141,1142,1143,1144,1145,1146,1147,1148,1149,1150,1151,1152,1153,1154,1155,1156,1157,1158,1159,1160,1121,1122,1123,1124,1125,1126,1127,1128,1129,1130,1131,1132,1133,1134,1135,1136,
1161,1162,1163,1164,1165,1166,1167,1168,1169,1170,1171,1172,1173,1174,1175,1176,1177,1178,1179,1180,1181,1182,1183,1184,1185,1186,1187,1188,1189,1190,1191,1192,1193,1194,1195,1196,1197,1198,1199,1200,1161,1162,1163,1164,1165,1166,1167,1168,1169,1170,1171,1172,1173,1174,1175,1176,
1201,1202,1203,1204,1205,1206,1207,1208,1209,1210,1211,1212,1213,1214,1215,1216,1217,1218,1219,1220,1221,1222,1223,1224,1225,1226,1227,1228,1229,1230,1231,1232,1233,1234,1235,1236,1237,1238,1239,1240,1201,1202,1203,1204,1205,1206,1207,1208,1209,1210,1211,1212,1213,1214,1215,1216,
1241,1242,1243,1244,1245,1246,1247,1248,1249,1250,1251,1252,1253,1254,1255,1256,1257,1258,1259,1260,1261,1262,1263,1264,1265,1266,1267,1268,1269,1270,1271,1272,1273,1274,1275,1276,1277,1278,1279,1280,1241,1242,1243,1244,1245,1246,1247,1248,1249,1250,1251,1252,1253,1254,1255,1256,
1281,1282,1283,1284,1285,1286,1287,1288,1289,1290,1291,1292,1293,1294,1295,1296,1297,1298,1299,1300,1301,1302,1303,1304,1305,1306,1307,1308,1309,1310,1311,1312,1313,1314,1315,1316,1317,1318,1319,1320,1281,1282,1283,1284,1285,1286,1287,1288,1289,1290,1291,1292,1293,1294,1295,1296,
1321,1322,1323,1324,1325,1326,1327,1328,1329,1330,1331,1332,1333,1334,1335,1336,1337,1338,1339,1340,1341,1342,1343,1344,1345,1346,1347,1348,1349,1350,1351,1352,1353,1354,1355,1356,1357,1358,1359,1360,1321,1322,1323,1324,1325,1326,1327,1328,1329,1330,1331,1332,1333,1334,1335,1336,
1361,1362,1363,1364,1365,1366,1367,1368,1369,1370,1371,1372,1373,1374,1375,1376,1377,1378,1379,1380,1381,1382,1383,1384,1385,1386,1387,1388,1389,1390,1391,1392,1393,1394,1395,1396,1397,1398,1399,1400,1361,1362,1363,1364,1365,1366,1367,1368,1369,1370,1371,1372,1373,1374,1375,1376,
1401,1402,1403,1404,1405,1406,1407,1408,1409,1410,1411,1412,1413,1414,1415,1416,1417,1418,1419,1420,1421,1422,1423,1424,1425,1426,1427,1428,1429,1430,1431,1432,1433,1434,1435,1436,1437,1438,1439,1440,1401,1402,1403,1404,1405,1406,1407,1408,1409,1410,1411,1412,1413,1414,1415,1416,
1441,1442,1443,1444,1445,1446,1447,1448,1449,1450,1451,1452,1453,1454,1455,1456,1457,1458,1459,1460,1461,1462,1463,1464,1465,1466,1467,1468,1469,1470,1471,1472,1473,1474,1475,1476,1477,1478,1479,1480,1441,1442,1443,1444,1445,1446,1447,1448,1449,1450,1451,1452,1453,1454,1455,1456,
1481,1482,1483,1484,1485,1486,1487,1488,1489,1490,1491,1492,1493,1494,1495,1496,1497,1498,1499,1500,1501,1502,1503,1504,1505,1506,1507,1508,1509,1510,1511,1512,1513,1514,1515,1516,1517,1518,1519,1520,1481,1482,1483,1484,1485,1486,1487,1488,1489,1490,1491,1492,1493,1494,1495,1496,
1521,1522,1523,1524,1525,1526,1527,1528,1529,1530,1531,1532,1533,1534,1535,1536,1537,1538,1539,1540,1541,1542,1543,1544,1545,1546,1547,1548,1549,1550,1551,1552,1553,1554,1555,1556,1557,1558,1559,1560,1521,1522,1523,1524,1525,1526,1527,1528,1529,1530,1531,1532,1533,1534,1535,1536,
1561,1562,1563,1564,1565,1566,1567,1568,1569,1570,1571,1572,1573,1574,1575,1576,1577,1578,1579,1580,1581,1582,1583,1584,1585,1586,1587,1588,1589,1590,1591,1592,1593,1594,1595,1596,1597,1598,1599,1600,1561,1562,1563,1564,1565,1566,1567,1568,1569,1570,1571,1572,1573,1574,1575,1576,
1,2,3,4,5,6,7,8,9,10,11,12,13,14,15,16,17,18,19,20,21,22,23,24,25,26,27,28,29,30,31,32,33,34,35,36,37,38,39,40,1,2,3,4,5,6,7,8,9,10,11,12,13,14,15,16,
41,42,43,44,45,46,47,48,49,50,51,52,53,54,55,56,57,58,59,60,61,62,63,64,65,66,67,68,69,70,71,72,73,74,75,76,77,78,79,80,41,42,43,44,45,46,47,48,49,50,51,52,53,54,55,56,
81,82,83,84,85,86,87,88,89,90,91,92,93,94,95,96,97,98,99,100,101,102,103,104,105,106,107,108,109,110,111,112,113,114,115,116,117,118,119,120,81,82,83,84,85,86,87,88,89,90,91,92,93,94,95,96,
121,122,123,124,125,126,127,128,129,130,131,132,133,134,135,136,137,138,139,140,141,142,143,144,145,146,147,148,149,150,151,152,153,154,155,156,157,158,159,160,121,122,123,124,125,126,127,128,129,130,131,132,133,134,135,136,
161,162,163,164,165,166,167,168,169,170,171,172,173,174,175,176,177,178,179,180,181,182,183,184,185,186,187,188,189,190,191,192,193,194,195,196,197,198,199,200,161,162,163,164,165,166,167,168,169,170,171,172,173,174,175,176,
201,202,203,204,205,206,207,208,209,210,211,212,213,214,215,216,217,218,219,220,221,222,223,224,225,226,227,228,229,230,231,232,233,234,235,236,237,238,239,240,201,202,203,204,205,206,207,208,209,210,211,212,213,214,215,216,
241,242,243,244,245,246,247,248,249,250,251,252,253,254,255,256,257,258,259,260,261,262,263,264,265,266,267,268,269,270,271,272,273,274,275,276,277,278,279,280,241,242,243,244,245,246,247,248,249,250,251,252,253,254,255,256,
281,282,283,284,285,286,287,288,289,290,291,292,293,294,295,296,297,298,299,300,301,302,303,304,305,306,307,308,309,310,311,312,313,314,315,316,317,318,319,320,281,282,283,284,285,286,287,288,289,290,291,292,293,294,295,296,
321,322,323,324,325,326,327,328,329,330,331,332,333,334,335,336,337,338,339,340,341,342,343,344,345,346,347,348,349,350,351,352,353,354,355,356,357,358,359,360,321,322,323,324,325,326,327,328,329,330,331,332,333,334,335,336,
361,362,363,364,365,366,367,368,369,370,371,372,373,374,375,376,377,378,379,380,381,382,383,384,385,386,387,388,389,390,391,392,393,394,395,396,397,398,399,400,361,362,363,364,365,366,367,368,369,370,371,372,373,374,375,376,
401,402,403,404,405,406,407,408,409,410,411,412,413,414,415,416,417,418,419,420,421,422,423,424,425,426,427,428,429,430,431,432,433,434,435,436,437,438,439,440,401,402,403,404,405,406,407,408,409,410,411,412,413,414,415,416,
441,442,443,444,445,446,447,448,449,450,451,452,453,454,455,456,457,458,459,460,461,462,463,464,465,466,467,468,469,470,471,472,473,474,475,476,477,478,479,480,441,442,443,444,445,446,447,448,449,450,451,452,453,454,455,456,
481,482,483,484,485,486,487,488,489,490,491,492,493,494,495,496,497,498,499,500,501,502,503,504,505,506,507,508,509,510,511,512,513,514,515,516,517,518,519,520,481,482,483,484,485,486,487,488,489,490,491,492,493,494,495,496,
521,522,523,524,525,526,527,528,529,530,531,532,533,534,535,536,537,538,539,540,541,542,543,544,545,546,547,548,549,550,551,552,553,554,555,556,557,558,559,560,521,522,523,524,525,526,527,528,529,530,531,532,533,534,535,536,
561,562,563,564,565,566,567,568,569,570,571,572,573,574,575,576,577,578,579,580,581,582,583,584,585,586,587,588,589,590,591,592,593,594,595,596,597,598,599,600,561,562,563,564,565,566,567,568,569,570,571,572,573,574,575,576,
601,602,603,604,605,606,607,608,609,610,611,612,613,614,615,616,617,618,619,620,621,622,623,624,625,626,627,628,629,630,631,632,633,634,635,636,637,638,639,640,601,602,603,604,605,606,607,608,609,610,611,612,613,614,615,616,
641,642,643,644,645,646,647,648,649,650,651,652,653,654,655,656,657,658,659,660,661,662,663,664,665,666,667,668,669,670,671,672,673,674,675,676,677,678,679,680,641,642,643,644,645,646,647,648,649,650,651,652,653,654,655,656,
681,682,683,684,685,686,687,688,689,690,691,692,693,694,695,696,697,698,699,700,701,702,703,704,705,706,707,708,709,710,711,712,713,714,715,716,717,718,719,720,681,682,683,684,685,686,687,688,689,690,691,692,693,694,695,696,
721,722,723,724,725,726,727,728,729,730,731,732,733,734,735,736,737,738,739,740,741,742,743,744,745,746,747,748,749,750,751,752,753,754,755,756,757,758,759,760,721,722,723,724,725,726,727,728,729,730,731,732,733,734,735,736,
761,762,763,764,765,766,767,768,769,770,771,772,773,774,775,776,777,778,779,780,781,782,783,784,785,786,787,788,789,790,791,792,793,794,795,796,797,798,799,800,761,762,763,764,765,766,767,768,769,770,771,772,773,774,775,776,
801,802,803,804,805,806,807,808,809,810,811,812,813,814,815,816,817,818,819,820,821,822,823,824,825,826,827,828,829,830,831,832,833,834,835,836,837,838,839,840,801,802,803,804,805,806,807,808,809,810,811,812,813,814,815,816,
841,842,843,844,845,846,847,848,849,850,851,852,853,854,855,856,857,858,859,860,861,862,863,864,865,866,867,868,869,870,871,872,873,874,875,876,877,878,879,880,841,842,843,844,845,846,847,848,849,850,851,852,853,854,855,856,
881,882,883,884,885,886,887,888,889,890,891,892,893,894,895,896,897,898,899,900,901,902,903,904,905,906,907,908,909,910,911,912,913,914,915,916,917,918,919,920,881,882,883,884,885,886,887,888,889,890,891,892,893,894,895,896,
921,922,923,924,925,926,927,928,929,930,931,932,933,934,935,936,937,938,939,940,941,942,943,944,945,946,947,948,949,950,951,952,953,954,955,956,957,958,959,960,921,922,923,924,925,926,927,928,929,930,931,932,933,934,935,936,
961,962,963,964,965,966,967,968,969,970,971,972,973,974,975,976,977,978,979,980,981,982,983,984,985,986,987,988,989,990,991,992,993,994,995,996,997,998,999,1000,961,962,963,964,965,966,967,968,969,970,971,972,973,974,975,976,
1001,1002,1003,1004,1005,1006,1007,1008,1009,1010,1011,1012,1013,1014,1015,1016,1017,1018,1019,1020,1021,1022,1023,1024,1025,1026,1027,1028,1029,1030,1031,1032,1033,1034,1035,1036,1037,1038,1039,1040,1001,1002,1003,1004,1005,1006,1007,1008,1009,1010,1011,1012,1013,1014,1015,1016,
1041,1042,1043,1044,1045,1046,1047,1048,1049,1050,1051,1052,1053,1054,1055,1056,1057,1058,1059,1060,1061,1062,1063,1064,1065,1066,1067,1068,1069,1070,1071,1072,1073,1074,1075,1076,1077,1078,1079,1080,1041,1042,1043,1044,1045,1046,1047,1048,1049,1050,1051,1052,1053,1054,1055,1056,
1081,1082,1083,1084,1085,1086,1087,1088,1089,1090,1091,1092,1093,1094,1095,1096,1097,1098,1099,1100,1101,1102,1103,1104,1105,1106,1107,1108,1109,1110,1111,1112,1113,1114,1115,1116,1117,1118,1119,1120,1081,1082,1083,1084,1085,1086,1087,1088,1089,1090,1091,1092,1093,1094,1095,1096,
1121,1122,1123,1124,1125,1126,1127,1128,1129,1130,1131,1132,1133,1134,1135,1136,1137,1138,1139,1140,1141,1142,1143,1144,1145,1146,1147,1148,1149,1150,1151,1152,1153,1154,1155,1156,1157,1158,1159,1160,1121,1122,1123,1124,1125,1126,1127,1128,1129,1130,1131,1132,1133,1134,1135,1136,
1161,1162,1163,1164,1165,1166,1167,1168,1169,1170,1171,1172,1173,1174,1175,1176,1177,1178,1179,1180,1181,1182,1183,1184,1185,1186,1187,1188,1189,1190,1191,1192,1193,1194,1195,1196,1197,1198,1199,1200,1161,1162,1163,1164,1165,1166,1167,1168,1169,1170,1171,1172,1173,1174,1175,1176,
1201,1202,1203,1204,1205,1206,1207,1208,1209,1210,1211,1212,1213,1214,1215,1216,1217,1218,1219,1220,1221,1222,1223,1224,1225,1226,1227,1228,1229,1230,1231,1232,1233,1234,1235,1236,1237,1238,1239,1240,1201,1202,1203,1204,1205,1206,1207,1208,1209,1210,1211,1212,1213,1214,1215,1216,
1241,1242,1243,1244,1245,1246,1247,1248,1249,1250,1251,1252,1253,1254,1255,1256,1257,1258,1259,1260,1261,1262,1263,1264,1265,1266,1267,1268,1269,1270,1271,1272,1273,1274,1275,1276,1277,1278,1279,1280,1241,1242,1243,1244,1245,1246,1247,1248,1249,1250,1251,1252,1253,1254,1255,1256,
1281,1282,1283,1284,1285,1286,1287,1288,1289,1290,1291,1292,1293,1294,1295,1296,1297,1298,1299,1300,1301,1302,1303,1304,1305,1306,1307,1308,1309,1310,1311,1312,1313,1314,1315,1316,1317,1318,1319,1320,1281,1282,1283,1284,1285,1286,1287,1288,1289,1290,1291,1292,1293,1294,1295,1296,
1321,1322,1323,1324,1325,1326,1327,1328,1329,1330,1331,1332,1333,1334,1335,1336,1337,1338,1339,1340,1341,1342,1343,1344,1345,1346,1347,1348,1349,1350,1351,1352,1353,1354,1355,1356,1357,1358,1359,1360,1321,1322,1323,1324,1325,1326,1327,1328,1329,1330,1331,1332,1333,1334,1335,1336,
1361,1362,1363,1364,1365,1366,1367,1368,1369,1370,1371,1372,1373,1374,1375,1376,1377,1378,1379,1380,1381,1382,1383,1384,1385,1386,1387,1388,1389,1390,1391,1392,1393,1394,1395,1396,1397,1398,1399,1400,1361,1362,1363,1364,1365,1366,1367,1368,1369,1370,1371,1372,1373,1374,1375,1376,
1401,1402,1403,1404,1405,1406,1407,1408,1409,1410,1411,1412,1413,1414,1415,1416,1417,1418,1419,1420,1421,1422,1423,1424,1425,1426,1427,1428,1429,1430,1431,1432,1433,1434,1435,1436,1437,1438,1439,1440,1401,1402,1403,1404,1405,1406,1407,1408,1409,1410,1411,1412,1413,1414,1415,1416,
1441,1442,1443,1444,1445,1446,1447,1448,1449,1450,1451,1452,1453,1454,1455,1456,1457,1458,1459,1460,1461,1462,1463,1464,1465,1466,1467,1468,1469,1470,1471,1472,1473,1474,1475,1476,1477,1478,1479,1480,1441,1442,1443,1444,1445,1446,1447,1448,1449,1450,1451,1452,1453,1454,1455,1456,
1481,1482,1483,1484,1485,1486,1487,1488,1489,1490,1491,1492,1493,1494,1495,1496,1497,1498,1499,1500,1501,1502,1503,1504,1505,1506,1507,1508,1509,1510,1511,1512,1513,1514,1515,1516,1517,1518,1519,1520,1481,1482,1483,1484,1485,1486,1487,1488,1489,1490,1491,1492,1493,1494,1495,1496,
1521,1522,1523,1524,1525,1526,1527,1528,1529,1530,1531,1532,1533,1534,1535,1536,1537,1538,1539,1540,1541,1542,1543,1544,1545,1546,1547,1548,1549,1550,1551,1552,1553,1554,1555,1556,1557,1558,1559,1560,1521,1522,1523,1524,1525,1526,1527,1528,1529,1530,1531,1532,1533,1534,1535,1536,
1561,1562,1563,1564,1565,1566,1567,1568,1569,1570,1571,1572,1573,1574,1575,1576,1577,1578,1579,1580,1581,1582,1583,1584,1585,1586,1587,1588,1589,1590,1591,1592,1593,1594,1595,1596,1597,1598,1599,1600,1561,1562,1563,1564,1565,1566,1567,1568,1569,1570,1571,1572,1573,1574,1575,1576,
1,2,3,4,5,6,7,8,9,10,11,12,13,14,15,16,17,18,19,20,21,22,23,24,25,26,27,28,29,30,31,32,33,34,35,36,37,38,39,40,1,2,3,4,5,6,7,8,9,10,11,12,13,14,15,16,
41,42,43,44,45,46,47,48,49,50,51,52,53,54,55,56,57,58,59,60,61,62,63,64,65,66,67,68,69,70,71,72,73,74,75,76,77,78,79,80,41,42,43,44,45,46,47,48,49,50,51,52,53,54,55,56,
81,82,83,84,85,86,87,88,89,90,91,92,93,94,95,96,97,98,99,100,101,102,103,104,105,106,107,108,109,110,111,112,113,114,115,116,117,118,119,120,81,82,83,84,85,86,87,88,89,90,91,92,93,94,95,96,
121,122,123,124,125,126,127,128,129,130,131,132,133,134,135,136,137,138,139,140,141,142,143,144,145,146,147,148,149,150,151,152,153,154,155,156,157,158,159,160,121,122,123,124,125,126,127,128,129,130,131,132,133,134,135,136
</data>
 </layer>
 <layer id="2" name="Terrain" width="56" height="84">
  <data encoding="csv">
0,0,0,0,0,0,0,0,0,0,0,0,0,0,0,0,0,0,0,0,0,0,1601,1602,1603,1604,0,0,0,0,0,0,0,0,0,0,0,0,0,0,0,0,0,0,0,0,0,0,0,0,0,0,0,0,0,0,
0,0,0,0,0,0,0,0,0,0,0,0,0,0,0,0,0,0,0,0,0,0,1605,2265,2266,1606,1607,0,0,0,0,0,0,0,0,0,0,0,0,0,0,0,0,0,0,0,0,0,0,0,0,0,0,0,0,0,
0,0,0,0,0,0,0,0,0,0,0,0,0,0,0,0,0,0,0,0,0,0,1608,2305,2306,2307,1609,0,0,0,0,0,0,0,0,0,0,0,0,0,0,0,0,0,0,0,0,0,0,0,0,0,0,0,0,0,
0,0,0,0,0,0,0,0,0,0,0,0,0,0,0,0,0,0,0,0,0,0,1610,2345,2346,2347,1611,0,0,0,0,0,0,0,0,0,0,0,0,0,0,0,0,0,0,0,0,0,0,0,0,0,0,0,0,0,
0,0,0,0,0,0,0,0,0,0,0,0,0,0,0,0,0,0,0,0,0,0,1612,2385,2386,2387,1613,0,0,0,0,0,0,0,0,0,0,0,0,0,0,0,0,0,0,0,0,0,0,0,0,0,0,0,0,0,
0,0,0,0,0,0,0,0,0,0,0,0,0,0,0,0,0,0,0,0,0,0,1614,2425,2426,1615,1616,0,0,0,0,0,0,0,0,0,0,0,0,0,0,0,0,0,0,0,0,0,0,0,0,0,0,0,0,0,
0,0,0,0,0,0,0,0,0,0,0,0,0,0,0,0,0,0,0,0,0,1617,1618,2465,2466,1619,0,0,0,0,0,0,0,0,0,0,0,0,0,0,0,0,0,0,0,0,0,0,0,0,0,0,0,0,0,0,
0,0,0,0,0,0,0,0,0,0,0,0,0,0,0,0,0,0,0,0,0,1620,2504,2505,1621,1622,0,0,0,0,0,0,0,0,0,0,0,0,0,0,0,0,0,0,0,0,0,0,0,0,0,0,0,0,0,0,
0,0,0,0,0,0,0,0,0,0,0,0,0,0,0,0,0,0,0,0,1623,1624,2544,2545,1625,0,0,0,0,0,0,0,0,0,0,0,0,0,0,0,0,0,0,0,0,0,0,0,0,0,0,0,0,0,0,0,
0,0,0,0,0,0,0,0,0,0,0,0,0,0,0,0,0,0,0,1626,1627,2583,1628,1629,1630,0,0,0,0,0,0,0,0,0,0,0,0,0,0,0,0,0,0,0,0,0,0,0,0,0,0,0,0,0,0,0,
0,0,0,0,0,0,0,0,0,0,0,0,0,0,0,0,0,0,1631,1632,2622,2623,1633,1634,0,0,0,0,0,0,0,0,0,0,0,0,0,0,0,0,0,0,0,0,0,0,0,0,0,0,0,0,0,0,0,0,
0,0,0,0,0,0,0,0,0,0,0,0,0,0,0,0,0,1635,1636,2661,1637,1638,1639,0,0,0,0,0,0,0,0,0,0,0,0,0,0,0,0,0,0,0,0,0,0,0,0,0,0,0,0,0,0,0,0,0,
0,0,0,0,0,0,0,0,0,0,0,0,0,0,0,0,1640,1641,2700,1642,1643,0,0,0,0,0,0,0,0,0,0,0,0,0,0,0,0,0,0,0,0,0,0,0,0,0,0,0,0,0,0,0,0,0,0,0,
0,0,0,0,0,0,0,0,0,0,0,0,0,0,0,1644,1645,2739,2740,1646,0,0,0,0,0,0,0,0,0,0,0,0,0,0,0,0,0,0,0,0,0,0,0,0,0,0,0,0,0,0,0,0,0,0,0,0,
0,0,0,0,0,0,0,0,0,0,0,0,0,0,1647,1648,2778,2779,1649,1650,0,0,0,0,0,0,0,0,0,0,0,0,0,0,0,0,0,0,0,0,0,0,0,0,0,0,0,0,0,0,0,0,0,0,0,0,
0,0,0,0,0,0,0,0,0,0,0,0,0,0,1651,1652,2818,2819,1653,0,0,0,0,0,0,0,0,0,0,0,0,0,0,0,0,0,0,0,0,0,0,0,0,0,0,0,0,0,0,0,0,0,0,0,0,0,
0,0,0,0,0,0,0,0,0,0,0,0,0,0,1654,2857,2858,2859,1655,0,0,0,0,0,0,0,0,0,0,0,0,0,0,0,0,0,0,0,0,0,0,0,0,0,0,0,0,0,0,0,0,0,0,0,0,0,
0,0,0,0,0,0,0,0,0,0,0,0,0,0,1656,2897,2898,2899,1657,0,0,0,0,0,0,0,0,0,0,0,0,0,0,0,0,0,0,0,0,0,0,0,0,0,0,0,0,0,0,0,0,0,0,0,0,0,
0,0,0,0,0,0,0,0,0,0,0,0,0,0,1658,2937,2938,2939,1659,0,0,0,0,0,0,0,0,0,0,0,0,0,0,0,0,0,0,0,0,0,0,0,0,0,0,0,0,0,0,0,0,0,0,0,0,0,
0,0,0,0,0,0,0,0,0,0,0,0,0,0,1660,1661,2978,2979,1662,0,0,0,0,0,0,0,0,0,0,0,0,0,0,0,0,0,0,0,0,0,0,0,0,0,0,0,0,0,0,0,0,0,0,0,0,0,
0,0,0,0,0,0,0,0,0,0,0,0,0,0,0,1663,3018,3019,1664,1665,0,0,0,0,0,0,0,0,0,0,0,0,0,0,0,0,0,0,0,0,0,0,0,0,0,0,0,0,0,0,0,0,0,0,0,0,
0,0,0,0,0,0,0,0,0,0,0,0,0,0,0,1666,1667,3059,3060,1668,0,0,0,0,0,0,0,0,0,0,0,0,0,0,0,0,0,0,0,0,0,0,0,0,0,0,0,0,0,0,0,0,0,0,0,0,
0,0,0,0,0,0,0,0,0,0,0,0,0,0,0,0,1669,1670,3100,1671,1672,0,0,0,0,0,0,0,0,0,0,0,0,0,0,0,0,0,0,0,0,0,0,0,0,0,0,0,0,0,0,0,0,0,0,0,
0,0,0,0,0,0,0,0,0,0,0,0,0,0,0,0,0,1673,3140,3141,1674,0,0,0,0,0,0,0,0,0,0,0,0,0,0,0,0,0,0,0,0,0,0,0,0,0,0,0,0,0,0,0,0,0,0,0,
0,0,0,0,0,0,0,0,0,0,0,0,0,0,0,0,0,1675,1676,3181,1677,1678,0,0,0,0,0,0,0,0,0,0,0,0,0,0,0,0,0,0,0,0,0,0,0,0,0,0,0,0,0,0,0,0,0,0,
0,0,0,0,0,0,0,0,0,0,0,0,0,0,0,0,0,0,1679,3221,3222,1680,0,0,0,0,0,0,0,0,0,0,0,0,0,0,0,0,0,0,0,0,0,0,0,0,0,0,0,0,0,0,0,0,0,0,
0,0,0,0,0,0,0,0,0,0,0,0,0,0,0,0,0,0,1681,3261,3262,1682,1683,0,0,0,0,0,0,0,0,0,0,0,0,0,0,0,0,0,0,0,0,0,0,0,0,0,0,0,0,0,0,0,0,0,
0,0,0,0,0,0,0,0,0,0,0,0,0,0,0,0,0,0,1684,3301,3302,3303,1685,0,0,0,0,0,0,0,0,0,0,0,0,0,0,0,0,0,0,0,0,0,0,0,0,0,0,0,0,0,0,0,0,0,
0,0,0,0,0,0,0,0,0,0,0,0,0,0,0,0,0,0,1686,3341,3342,3343,1687,0,0,0,0,0,0,0,0,0,0,0,0,0,0,0,0,0,0,0,0,0,0,0,0,0,0,0,0,0,0,0,0,0,
0,0,0,0,0,0,0,0,0,0,0,0,0,0,0,0,0,0,1688,3381,3382,1689,1690,0,0,0,0,0,0,0,0,0,0,0,0,0,0,0,0,0,0,0,0,0,0,0,0,0,0,0,0,0,0,0,0,0,
0,0,0,0,0,0,0,0,0,0,0,0,0,0,0,0,0,0,1691,3421,3422,1692,0,0,0,0,0,0,0,0,0,0,0,0,0,0,0,0,0,0,0,0,0,0,0,0,0,0,0,0,0,0,0,0,0,0,
0,0,0,0,0,0,0,0,0,0,0,0,0,0,0,0,0,1693,1694,3461,3462,1695,0,0,0,0,0,0,0,0,0,0,0,0,0,0,0,0,0,0,0,0,0,0,0,0,0,0,0,0,0,0,0,0,0,0,
0,0,0,0,0,0,0,0,0,0,0,0,0,0,0,0,1696,1697,3500,3501,1698,1699,0,0,0,0,0,0,0,0,0,0,0,0,0,0,0,0,0,0,0,0,0,0,0,0,0,0,0,0,0,0,0,0,0,0,
0,0,0,0,0,0,0,0,0,0,0,0,0,0,0,0,1700,3539,3540,1701,1702,0,0,0,0,0,0,0,0,0,0,0,0,0,0,0,0,0,0,0,0,0,0,0,0,0,0,0,0,0,0,0,0,0,0,0,
0,0,0,0,0,0,0,0,0,0,0,0,0,0,0,1703,1704,3579,1705,1706,0,0,0,0,0,0,0,0,0,0,0,0,0,0,0,0,0,0,0,0,0,0,0,0,0,0,0,0,0,0,0,0,0,0,0,0,
0,0,0,0,0,0,0,0,0,0,0,0,0,0,0,1707,3618,3619,1708,0,0,0,0,0,0,0,0,0,0,0,0,0,0,0,0,0,0,0,0,0,0,0,0,0,0,0,0,0,0,0,0,0,0,0,0,0,
0,0,0,0,0,0,0,0,0,0,0,0,0,0,0,1709,3658,3659,1710,0,0,0,0,0,0,0,0,0,0,0,0,0,0,0,0,0,0,0,0,0,0,0,0,0,0,0,0,0,0,0,0,0,0,0,0,0,
0,0,0,0,0,0,0,0,0,0,0,0,0,0,0,1711,3698,3699,1712,0,0,0,0,0,0,0,0,0,0,0,0,0,0,0,0,0,0,0,0,0,0,0,0,0,0,0,0,0,0,0,0,0,0,0,0,0,
0,0,0,0,0,0,0,0,0,0,0,0,0,0,0,1713,1714,3739,1715,1716,0,0,0,0,0,0,0,0,0,0,0,0,0,0,0,0,0,0,0,0,0,0,0,0,0,0,0,0,0,0,0,0,0,0,0,0,
0,0,0,0,0,0,0,0,0,0,0,0,0,0,0,0,1717,3779,3780,1718,1719,0,0,0,0,0,0,0,0,0,0,0,0,0,0,0,0,0,0,0,0,0,0,0,0,0,0,0,0,0,0,0,0,0,0,0,
0,0,0,0,0,0,0,0,0,0,0,0,0,0,0,0,1720,1721,2220,2221,1722,0,0,0,0,0,0,0,0,0,0,0,0,0,0,0,0,0,0,0,0,0,0,0,0,0,0,0,0,0,0,0,0,0,0,0,
0,0,0,0,0,0,0,0,0,0,0,0,0,0,0,0,0,1723,2260,2261,1724,0,0,0,0,0,0,0,0,0,0,0,0,0,0,0,0,0,0,0,0,0,0,0,0,0,0,0,0,0,0,0,0,0,0,0,
0,0,0,0,0,0,0,0,0,0,0,0,0,0,0,0,0,1725,2300,2301,1726,0,0,0,0,0,0,0,0,0,0,0,0,0,0,0,0,0,0,0,0,0,0,0,0,0,0,0,0,0,0,0,0,0,0,0,
0,0,0,0,0,0,0,0,0,0,0,0,0,0,0,0,0,1727,2340,2341,1728,0,0,0,0,0,0,0,0,0,0,0,0,0,0,0,0,0,0,0,0,0,0,0,0,0,0,0,0,0,0,0,0,0,0,0,
0,0,0,0,0,0,0,0,0,0,0,0,0,0,0,0,0,1729,2380,2381,1730,0,0,0,0,0,0,0,0,0,0,0,0,0,0,0,0,0,0,0,0,0,0,0,0,0,0,0,0,0,0,0,0,0,0,0,
0,0,0,0,0,0,0,0,0,0,0,0,0,0,0,0,0,1731,2420,2421,1732,0,0,0,0,0,0,0,0,0,0,0,0,0,0,0,0,0,0,0,0,0,0,0,0,0,0,0,0,0,0,0,0,0,0,0,
0,0,0,0,0,0,0,0,0,0,0,0,0,0,0,0,0,1733,2460,2461,1734,0,0,0,0,0,0,0,0,0,0,0,0,0,0,0,0,0,0,0,0,0,0,0,0,0,0,0,0,0,0,0,0,0,0,0,
0,0,0,0,0,0,0,0,0,0,0,0,0,0,0,0,0,1735,2500,2501,1736,0,0,0,0,0,0,0,0,0,0,0,0,0,0,0,0,0,0,0,0,0,0,0,0,0,0,0,0,0,0,0,0,0,0,0,
0,0,0,0,0,0,0,0,0,0,0,0,0,0,0,0,1737,1738,2540,2541,1739,0,0,0,0,0,0,0,0,0,0,0,0,0,0,0,0,0,0,0,0,0,0,0,0,0,0,0,0,0,0,0,0,0,0,0,
0,0,0,0,0,0,0,0,0,0,0,0,0,0,0,0,1740,1741,2580,2581,1742,0,0,0,0,0,0,0,0,0,0,0,0,0,0,0,0,0,0,0,0,0,0,0,0,0,0,0,0,0,0,0,0,0,0,0,
0,0,0,0,0,0,0,0,0,0,0,0,0,0,0,0,1743,1744,1745,2621,1746,1747,0,0,0,0,0,0,0,0,0,0,0,0,0,0,0,0,0,0,0,0,0,0,0,0,0,0,0,0,0,0,0,0,0,0,
0,0,0,0,0,0,0,0,0,0,0,0,0,0,0,0,0,0,1748,2661,2662,1749,0,0,0,0,0,0,0,0,0,0,0,0,0,0,0,0,0,0,0,0,0,0,0,0,0,0,0,0,0,0,0,0,0,0,
0,0,0,0,0,0,0,0,0,0,0,0,0,0,0,0,0,0,1750,2701,2702,1751,0,0,0,0,0,0,0,0,0,0,0,0,0,0,0,0,0,0,0,0,0,0,0,0,0,0,0,0,0,0,0,0,0,0,
0,0,0,0,0,0,0,0,0,0,0,0,0,0,0,0,0,0,1752,2741,2742,1753,0,0,0,0,0,0,0,0,0,0,0,0,0,0,0,0,0,0,0,0,0,0,0,0,0,0,0,0,0,0,0,0,0,0,
0,0,0,0,0,0,0,0,0,0,0,0,0,0,0,0,0,1754,1755,2781,1756,1757,0,0,0,0,0,0,0,0,0,0,0,0,0,0,0,0,0,0,0,0,0,0,0,0,0,0,0,0,0,0,0,0,0,0,
0,0,0,0,0,0,0,0,0,0,0,0,0,0,0,0,1758,1759,2820,2821,1760,0,0,0,0,0,0,0,0,0,0,0,0,0,0,0,0,0,0,0,0,0,0,0,0,0,0,0,0,0,0,0,0,0,0,0,
0,0,0,0,0,0,0,0,0,0,0,0,0,0,0,1761,1762,2859,2860,1763,1764,0,0,0,0,0,0,0,0,0,0,0,0,0,0,0,0,0,0,0,0,0,0,0,0,0,0,0,0,0,0,0,0,0,0,0,
0,0,0,0,0,0,0,0,0,0,0,0,0,0,0,1765,2898,2899,1766,1767,0,0,0,0,0,0,0,0,0,0,0,0,0,0,0,0,0,0,0,0,0,0,0,0,0,0,0,0,0,0,0,0,0,0,0,0,
0,0,0,0,0,0,0,0,0,0,0,0,0,0,1768,1769,2938,2939,1770,0,0,0,0,0,0,0,0,0,0,0,0,0,0,0,0,0,0,0,0,0,0,0,0,0,0,0,0,0,0,0,0,0,0,0,0,0,
0,0,0,0,0,0,0,0,0,0,0,0,0,0,1771,2977,2978,1772,1773,0,0,0,0,0,0,0,0,0,0,0,0,0,0,0,0,0,0,0,0,0,0,0,0,0,0,0,0,0,0,0,0,0,0,0,0,0,
0,0,0,0,0,0,0,0,0,0,0,0,0,1774,1775,3017,3018,1776,0,0,0,0,0,0,0,0,0,0,0,0,0,0,0,0,0,0,0,0,0,0,0,0,0,0,0,0,0,0,0,0,0,0,0,0,0,0,
0,0,0,0,0,0,0,0,0,0,0,0,0,1777,3056,3057,3058,1778,0,0,0,0,0,0,0,0,0,0,0,0,0,0,0,0,0,0,0,0,0,0,0,0,0,0,0,0,0,0,0,0,0,0,0,0,0,0,
0,0,0,0,0,0,0,0,0,0,0,0,0,1779,1780,3097,3098,1781,0,0,0,0,0,0,0,0,0,0,0,0,0,0,0,0,0,0,0,0,0,0,0,0,0,0,0,0,0,0,0,0,0,0,0,0,0,0,
0,0,0,0,0,0,0,0,0,0,0,0,0,0,1782,1783,3138,1784,1785,0,0,0,0,0,0,0,0,0,0,0,0,0,0,0,0,0,0,0,0,0,0,0,0,0,0,0,0,0,0,0,0,0,0,0,0,0,
0,0,0,0,0,0,0,0,0,0,0,0,0,0,0,1786,1787,3179,1788,1789,1790,0,0,0,0,0,0,0,0,0,0,0,0,0,0,0,0,0,0,0,0,0,0,0,0,0,0,0,0,0,0,0,0,0,0,0,
0,0,0,0,0,0,0,0,0,0,0,0,0,0,0,0,1791,3219,3220,1792,1793,0,0,0,0,0,0,0,0,0,0,0,0,0,0,0,0,0,0,0,0,0,0,0,0,0,0,0,0,0,0,0,0,0,0,0,
0,0,0,0,0,0,0,0,0,0,0,0,0,0,0,0,1794,1795,3260,3261,1796,1797,1798,1799,0,0,0,0,0,0,0,0,0,0,0,0,0,0,0,0,0,0,0,0,0,0,0,0,0,0,0,0,0,0,0,0,
0,0,0,0,0,0,0,0,0,0,0,0,0,0,0,0,0,1800,1801,3301,3302,3303,3304,1802,1803,0,0,0,0,0,0,0,0,0,0,0,0,0,0,0,0,0,0,0,0,0,0,0,0,0,0,0,0,0,0,0,
0,0,0,0,0,0,0,0,0,0,0,0,0,0,0,0,0,0,1804,1805,1806,3343,3344,3345,1807,1808,1809,0,0,0,0,0,0,0,0,0,0,0,0,0,0,0,0,0,0,0,0,0,0,0,0,0,0,0,0,0,
0,0,0,0,0,0,0,0,0,0,0,0,0,0,0,0,0,0,0,0,1810,1811,1812,3385,3386,3387,1813,1814,0,0,0,0,0,0,0,0,0,0,0,0,0,0,0,0,0,0,0,0,0,0,0,0,0,0,0,0,
0,0,0,0,0,0,0,0,0,0,0,0,0,0,0,0,0,0,0,0,0,0,1815,1816,3426,3427,1817,1818,0,0,0,0,0,0,0,0,0,0,0,0,0,0,0,0,0,0,0,0,0,0,0,0,0,0,0,0,
0,0,0,0,0,0,0,0,0,0,0,0,0,0,0,0,0,0,0,0,0,0,0,1819,1820,3467,3468,1821,1822,0,0,0,0,0,0,0,0,0,0,0,0,0,0,0,0,0,0,0,0,0,0,0,0,0,0,0,
0,0,0,0,0,0,0,0,0,0,0,0,0,0,0,0,0,0,0,0,0,0,0,0,1823,1824,3508,3509,1825,0,0,0,0,0,0,0,0,0,0,0,0,0,0,0,0,0,0,0,0,0,0,0,0,0,0,0,
0,0,0,0,0,0,0,0,0,0,0,0,0,0,0,0,0,0,0,0,0,0,0,0,0,1826,1827,3549,1828,1829,0,0,0,0,0,0,0,0,0,0,0,0,0,0,0,0,0,0,0,0,0,0,0,0,0,0,
0,0,0,0,0,0,0,0,0,0,0,0,0,0,0,0,0,0,0,0,0,0,0,0,0,0,1830,3589,3590,1831,0,0,0,0,0,0,0,0,0,0,0,0,0,0,0,0,0,0,0,0,0,0,0,0,0,0,
0,0,0,0,0,0,0,0,0,0,0,0,0,0,0,0,0,0,0,0,0,0,0,0,0,1832,1833,3629,1834,1835,0,0,0,0,0,0,0,0,0,0,0,0,0,0,0,0,0,0,0,0,0,0,0,0,0,0,
0,0,0,0,0,0,0,0,0,0,0,0,0,0,0,0,0,0,0,0,0,0,0,0,0,1836,3668,3669,1837,0,0,0,0,0,0,0,0,0,0,0,0,0,0,0,0,0,0,0,0,0,0,0,0,0,0,0,
0,0,0,0,0,0,0,0,0,0,0,0,0,0,0,0,0,0,0,0,0,0,0,0,1838,1839,3708,3709,1840,0,0,0,0,0,0,0,0,0,0,0,0,0,0,0,0,0,0,0,0,0,0,0,0,0,0,0,
0,0,0,0,0,0,0,0,0,0,0,0,0,0,0,0,0,0,0,0,0,0,0,0,1841,3747,3748,3749,1842,0,0,0,0,0,0,0,0,0,0,0,0,0,0,0,0,0,0,0,0,0,0,0,0,0,0,0,
0,0,0,0,0,0,0,0,0,0,0,0,0,0,0,0,0,0,0,0,0,0,0,0,1843,3787,3788,3789,1844,0,0,0,0,0,0,0,0,0,0,0,0,0,0,0,0,0,0,0,0,0,0,0,0,0,0,0,
0,0,0,0,0,0,0,0,0,0,0,0,0,0,0,0,0,0,0,0,0,0,0,0,1845,2227,2228,2229,1846,0,0,0,0,0,0,0,0,0,0,0,0,0,0,0,0,0,0,0,0,0,0,0,0,0,0,0,
0,0,0,0,0,0,0,0,0,0,0,0,0,0,0,0,0,0,0,0,0,0,0,0,1847,1848,2268,2269,1849,0,0,0,0,0,0,0,0,0,0,0,0,0,0,0,0,0,0,0,0,0,0,0,0,0,0,0,
0,0,0,0,0,0,0,0,0,0,0,0,0,0,0,0,0,0,0,0,0,0,0,0,0,1850,2308,2309,1851,1852,0,0,0,0,0,0,0,0,0,0,0,0,0,0,0,0,0,0,0,0,0,0,0,0,0,0,
0,0,0,0,0,0,0,0,0,0,0,0,0,0,0,0,0,0,0,0,0,0,0,0,0,1853,1854,2349,1855,1856,0,0,0,0,0,0,0,0,0,0,0,0,0,0,0,0,0,0,0,0,0,0,0,0,0,0
</data>
 </layer>
 <layer id="3" name="Overlay" width="56" height="84">
  <data encoding="csv">
0,0,0,0,0,0,0,0,0,0,0,0,0,0,0,0,0,0,0,0,0,0,0,0,0,0,0,0,0,0,0,0,0,0,0,0,0,0,0,0,0,0,0,0,0,0,0,0,0,0,0,0,0,0,0,0,
0,0,0,0,0,0,0,0,0,0,0,0,0,0,0,0,0,0,0,0,0,0,0,0,0,0,0,0,0,0,0,0,0,0,0,0,0,0,0,0,0,0,0,0,0,0,0,0,0,0,0,0,0,0,0,0,
0,0,0,0,0,0,0,0,0,0,0,0,0,0,0,0,0,0,0,0,0,0,0,0,0,0,0,0,0,0,0,0,0,0,0,0,0,0,0,0,0,0,0,0,0,0,0,0,0,0,0,0,0,0,0,0,
0,0,0,0,0,0,0,0,0,0,0,0,0,0,0,0,0,0,0,0,0,0,0,0,0,0,0,0,0,0,0,0,0,0,0,0,0,0,0,0,0,0,0,0,0,0,0,0,0,0,0,0,0,0,0,0,
0,0,0,0,0,0,0,0,0,0,0,0,0,0,0,0,0,0,0,0,0,0,0,0,0,0,0,0,0,0,0,0,0,0,0,0,0,0,0,0,0,0,0,0,0,0,0,0,0,0,0,0,0,0,0,0,
0,0,0,0,0,0,0,0,0,0,0,0,0,0,0,0,0,0,0,0,0,0,0,0,0,0,0,0,0,0,0,0,0,0,0,0,0,0,0,0,0,0,0,0,0,0,0,0,0,0,0,0,0,0,0,0,
0,0,0,0,0,0,0,0,0,0,0,0,0,0,0,0,0,0,0,0,0,0,0,0,0,0,0,0,0,0,0,0,0,0,0,0,0,0,0,0,0,0,0,0,0,0,0,0,0,0,0,0,0,0,0,0,
0,0,0,0,0,0,0,0,0,0,0,0,0,0,0,0,0,0,0,0,0,0,0,0,0,0,0,0,0,0,0,0,0,0,0,0,0,0,0,0,0,0,0,0,0,0,0,0,0,0,0,0,0,0,0,0,
0,0,0,0,0,0,0,0,0,0,0,0,0,0,0,0,0,0,0,0,0,0,0,0,0,0,0,0,0,0,0,0,0,0,0,0,0,0,0,0,0,0,0,0,0,0,0,0,0,0,0,0,0,0,0,0,
0,0,0,0,0,0,0,0,0,0,0,0,0,0,0,0,0,0,0,0,0,0,0,0,0,0,0,0,0,0,0,0,0,0,0,0,0,0,0,0,0,0,0,0,0,0,0,0,0,0,0,0,0,0,0,0,
0,0,0,0,0,0,0,0,0,0,0,0,0,0,0,0,0,0,0,0,0,0,0,0,0,0,0,0,0,0,0,0,0,0,0,0,0,0,0,0,0,0,0,0,0,0,0,0,0,0,0,0,0,0,0,0,
0,0,0,0,0,0,0,0,0,0,0,0,0,0,0,0,0,0,0,0,0,0,0,0,0,0,0,0,0,0,0,0,0,0,0,0,0,0,0,0,0,0,0,0,0,0,0,0,0,0,0,0,0,0,0,0,
0,0,0,0,0,0,0,0,0,0,0,0,0,0,0,0,0,0,0,0,0,0,0,0,0,0,0,0,0,0,0,0,0,0,0,0,0,0,0,0,0,0,0,0,0,0,0,0,0,0,0,0,0,0,0,0,
0,0,0,0,0,0,0,0,0,0,0,0,0,0,0,0,0,0,0,0,0,0,0,0,0,0,0,0,0,0,0,0,0,0,0,0,0,0,0,0,1932,1933,1934,0,0,0,0,0,0,0,0,0,0,0,0,0,
0,0,0,0,0,0,0,0,0,0,0,0,0,0,0,0,0,0,0,0,0,0,0,0,0,0,0,0,0,0,0,0,0,0,0,0,0,0,0,0,1935,1936,1937,0,0,0,0,0,0,0,0,0,0,0,0,0,
0,0,0,0,0,0,0,0,0,0,0,0,0,0,0,0,0,0,0,0,0,0,0,0,0,0,0,0,0,0,0,0,0,0,0,0,0,0,0,0,1938,1939,1940,0,0,0,0,0,0,0,0,0,0,0,0,0,
0,0,0,0,0,0,0,0,0,0,0,0,0,0,0,0,0,0,0,0,0,0,0,0,0,0,0,0,0,0,0,0,0,0,0,0,0,0,0,0,0,1941,1942,0,0,0,0,0,0,0,0,0,0,0,0,0,
0,0,0,0,0,0,0,0,0,0,0,0,0,0,0,0,0,0,0,0,0,0,0,0,0,0,0,0,0,0,0,0,0,0,0,0,0,0,0,0,0,1943,1944,0,0,0,0,0,0,0,0,0,0,0,0,0,
0,0,0,0,0,0,0,0,0,0,0,0,0,0,0,0,0,0,0,0,0,0,0,0,0,0,0,0,0,0,0,0,0,0,0,0,0,0,0,0,0,1945,1946,0,0,0,0,0,0,0,0,0,0,0,0,0,
0,0,0,0,0,0,0,0,0,0,0,0,0,0,0,0,0,0,0,0,0,0,0,0,0,0,0,0,0,0,0,0,0,0,0,0,0,0,0,0,0,1947,1948,1949,0,0,0,0,0,0,0,0,0,0,0,0,
0,0,0,0,0,0,0,0,0,0,0,0,0,0,0,0,0,0,0,0,0,0,0,0,0,0,0,0,0,0,0,0,0,0,0,0,0,0,0,0,0,1950,1951,1952,0,0,0,0,0,0,0,0,0,0,0,0,
0,0,0,0,0,0,0,0,0,0,0,0,0,0,0,0,0,0,0,0,0,0,0,0,0,0,0,0,0,0,0,0,0,0,0,0,0,0,0,0,0,1953,1954,1955,0,0,0,0,0,0,0,0,0,0,0,0,
0,0,0,0,0,0,0,0,0,0,0,0,0,0,0,0,0,0,0,0,0,0,0,0,0,0,0,0,0,0,0,0,0,0,0,0,0,0,0,0,0,0,1956,1957,1958,0,0,0,0,0,0,0,0,0,0,0,
0,0,0,0,0,0,0,0,0,0,0,0,0,0,0,0,0,0,0,0,0,0,0,0,0,0,0,0,0,0,0,0,0,0,0,0,0,0,0,0,0,0,1959,1960,1961,0,0,0,0,0,0,0,0,0,0,0,
0,0,0,0,0,0,0,0,0,0,0,0,0,0,0,0,0,0,0,0,0,0,0,0,0,0,0,0,0,0,0,0,0,0,0,0,0,0,0,0,0,0,1962,1963,1964,0,0,0,0,0,0,0,0,0,0,0,
0,0,0,0,0,0,0,0,0,0,0,0,0,0,0,0,0,0,0,0,0,0,0,0,0,0,0,0,0,0,0,0,0,0,0,0,0,0,0,0,0,0,0,1965,1966,0,0,0,0,0,0,0,0,0,0,0,
0,0,0,0,0,0,0,0,0,0,0,0,0,0,0,0,0,0,0,0,0,0,0,0,0,0,0,0,0,0,0,0,0,0,0,0,0,0,0,0,0,0,0,1967,1968,0,0,0,0,0,0,0,0,0,0,0,
0,0,0,0,0,0,0,0,0,0,0,0,0,0,0,0,0,0,0,0,0,0,0,0,0,0,0,0,0,0,0,0,0,0,0,0,0,0,0,0,0,0,0,1969,1970,1971,0,0,0,0,0,0,0,0,0,0,
0,0,0,0,0,0,0,0,0,0,0,0,0,0,0,0,0,0,0,0,0,0,0,0,0,0,0,0,0,0,0,0,0,0,0,0,0,0,0,0,0,0,0,1972,1973,1974,0,0,0,0,0,0,0,0,0,0,
0,0,0,0,0,0,0,0,0,0,0,0,0,0,0,0,0,0,0,0,0,0,0,0,0,0,0,0,0,0,0,0,0,0,0,0,0,0,0,0,0,0,0,0,1975,1976,0,0,0,0,0,0,0,0,0,0,
0,0,0,0,0,0,0,0,0,0,0,0,0,0,0,0,0,0,0,0,0,0,0,0,0,0,0,0,0,0,0,0,0,0,0,0,0,0,0,0,0,0,0,0,1977,1978,0,0,0,0,0,0,0,0,0,0,
0,0,0,0,0,0,0,0,0,0,0,0,0,0,0,0,0,0,0,0,0,0,0,0,0,0,0,0,0,0,0,0,0,0,0,0,0,0,0,0,0,0,0,0,1979,1980,0,0,0,0,0,0,0,0,0,0,
0,0,0,0,0,0,0,0,0,0,0,0,0,0,0,0,0,0,0,0,0,0,0,0,0,0,0,0,0,0,0,0,0,0,0,0,0,0,0,0,0,0,0,0,1981,1982,0,0,0,0,0,0,0,0,0,0,
0,0,0,0,0,0,0,0,0,0,0,0,0,0,0,0,0,0,0,0,0,0,0,0,0,0,0,0,0,0,0,0,0,0,0,0,0,0,0,0,0,0,0,0,1983,1984,0,0,0,0,0,0,0,0,0,0,
0,0,0,0,0,0,0,0,0,0,0,0,0,0,0,0,0,0,0,0,0,0,0,0,0,0,0,0,0,0,0,0,0,0,0,0,0,0,0,0,0,0,0,0,1985,1986,0,0,0,0,0,0,0,0,0,0,
0,0,0,0,0,0,0,0,0,0,0,0,0,0,0,0,0,0,0,0,0,0,0,0,0,0,0,0,0,0,0,0,0,0,0,0,0,0,0,0,0,0,0,1987,1988,1989,0,0,0,0,0,0,0,0,0,0,
0,0,0,0,0,0,0,0,0,0,0,0,0,0,0,0,0,0,0,0,0,0,0,0,0,0,0,0,0,0,0,0,0,0,0,0,0,0,0,0,0,0,0,1990,1991,1992,0,0,0,0,0,0,0,0,0,0,
0,0,0,0,0,0,0,0,0,0,0,0,0,0,0,0,0,0,0,0,0,0,0,0,0,0,0,0,0,0,0,0,0,0,0,0,0,0,0,0,0,0,0,1993,1994,1995,0,0,0,0,0,0,0,0,0,0,
0,0,0,0,0,0,0,0,0,0,0,0,0,0,0,0,0,0,0,0,0,0,0,0,0,0,0,0,0,0,0,0,0,0,0,0,0,0,0,0,0,0,0,0,1996,1997,0,0,0,0,0,0,0,0,0,0,
0,0,0,0,0,0,0,0,0,0,0,0,0,0,0,0,0,0,0,0,0,0,0,0,0,0,1998,1999,0,0,0,2000,2001,0,0,0,0,0,0,0,0,0,0,0,2002,2003,0,0,0,0,0,0,0,0,0,0,
0,0,0,0,0,0,0,0,0,0,0,0,0,0,0,0,0,0,0,0,0,0,0,0,0,0,2004,2005,0,0,0,2006,2007,0,0,0,0,0,0,0,0,0,0,0,2008,2009,0,0,2010,2011,2012,0,0,0,0,0,
0,0,0,0,0,0,0,0,0,0,2013,2014,2015,0,0,0,0,0,0,0,0,0,0,0,0,2016,2017,2018,2015,0,0,2019,2020,0,0,0,0,0,0,0,0,0,0,0,2021,2022,0,0,2023,5451,2024,0,0,0,0,0,
0,2025,2026,2027,2028,2029,0,0,0,0,2030,2031,2032,0,0,0,0,0,0,0,0,0,0,0,0,2033,5508,2034,0,0,0,2035,2036,0,0,0,0,0,0,0,0,0,0,0,2037,2038,2039,0,2040,5491,2041,0,0,0,0,0,
2042,2043,2044,2045,2046,2047,2048,2049,2050,2051,2052,1859,2053,0,0,0,0,2054,0,0,2055,2056,2057,0,0,2058,5548,2059,0,0,0,2060,2061,2062,0,0,0,0,0,0,0,0,0,0,2063,2064,2065,2066,2067,2068,2069,2070,2071,0,0,0,
5562,5563,5564,1859,1859,5567,5568,5569,2072,2073,2074,2075,2076,2077,2078,2079,2080,2081,2082,2083,2084,2085,2086,2087,2088,2089,5588,2090,0,0,0,0,2091,2092,0,0,0,0,0,0,0,0,2093,2094,2095,1859,5568,5569,5570,5571,5572,2096,2097,2098,2099,2100,
2101,2102,2103,2104,2105,2106,2107,2108,2109,2110,2111,5613,5614,5615,5616,5617,2112,2113,2114,2115,2116,2117,2118,5625,5626,2119,5628,2120,2121,0,0,2122,2123,2124,0,2125,2126,2127,2128,2129,2130,2131,2132,5605,5606,1859,2133,2134,2135,2136,2137,5613,5614,5615,5616,2138,
0,0,0,0,0,0,0,0,0,0,2139,2140,2141,2142,2143,2144,2145,2146,0,0,2147,2148,2149,2150,2151,2152,5668,5669,2153,2154,2155,2156,1857,1858,2157,2158,2159,5679,5680,5681,5642,2160,2161,2162,2163,2164,2165,0,0,0,2166,2167,2168,2169,2170,2171,
0,0,0,0,0,0,0,0,0,0,0,0,0,0,0,0,0,0,0,0,0,0,0,0,2172,2173,2174,2175,2176,2177,2178,5713,1859,1859,5716,5717,2179,2180,2181,2182,2183,2184,0,0,0,0,0,0,0,0,2185,2186,0,0,0,0,
0,0,0,0,0,0,0,0,0,0,0,0,0,0,0,0,0,0,0,0,0,0,0,0,0,0,0,0,0,0,2187,2188,1860,1861,2189,2190,2191,2192,2193,0,0,0,0,0,0,0,0,0,0,0,2194,2195,0,0,0,0,
0,0,0,0,0,0,0,0,0,0,0,0,0,0,0,0,0,0,0,0,0,0,0,0,0,0,0,0,0,0,0,0,1862,1863,0,0,0,0,0,0,0,0,0,0,0,0,0,0,0,0,2196,2197,0,0,0,0,
0,0,0,0,0,0,0,0,0,0,0,0,0,0,0,0,0,0,0,0,0,0,0,0,0,0,0,0,0,0,0,0,1864,1865,0,0,0,0,0,0,0,0,0,0,0,0,0,0,0,0,2198,2199,0,0,0,0,
0,0,0,0,0,0,0,0,0,0,0,0,0,0,0,0,0,0,0,0,0,0,0,0,0,0,0,0,0,0,0,0,1866,1867,0,0,0,0,0,0,0,0,0,0,0,0,0,0,0,0,2200,2201,0,0,0,0,
0,0,0,0,0,0,0,0,0,0,0,0,0,0,0,0,0,0,0,0,0,0,0,0,0,0,0,0,0,0,0,0,1868,1869,1870,0,0,0,0,0,0,0,0,0,0,0,0,0,0,0,0,0,0,0,0,0,
0,0,0,0,0,0,0,0,0,0,0,0,0,0,0,0,0,0,0,0,0,0,0,0,0,0,0,0,0,0,0,0,1871,1872,1873,0,0,0,0,0,0,0,0,0,0,0,0,0,0,0,0,0,0,0,0,0,
0,0,0,0,0,0,0,0,0,0,0,0,0,0,0,0,0,0,0,0,0,0,0,0,0,0,0,0,0,0,0,0,0,1874,1875,0,0,0,0,0,0,0,0,0,0,0,0,0,0,0,0,0,0,0,0,0,
0,0,0,0,0,0,0,0,0,0,0,0,0,0,0,0,0,0,0,0,0,0,0,0,0,0,0,0,0,0,0,0,0,1876,1877,0,0,0,0,0,0,0,0,0,0,0,0,0,0,0,0,0,0,0,0,0,
0,0,0,0,0,0,0,0,0,0,0,0,0,0,0,0,0,0,0,0,0,0,0,0,0,0,0,0,0,0,0,0,0,1878,1879,1880,0,0,0,0,0,0,0,0,0,0,0,0,0,0,0,0,0,0,0,0,
0,0,0,0,0,0,0,0,0,0,0,0,0,0,0,0,0,0,0,0,0,0,0,0,0,0,0,0,0,0,0,0,0,1881,1882,1883,0,0,0,0,0,0,0,0,0,0,0,0,0,0,0,0,0,0,0,0,
0,0,0,0,0,0,0,0,0,0,0,0,0,0,0,0,0,0,0,0,0,0,0,0,0,0,0,0,0,0,0,0,0,0,1884,1885,0,0,0,0,0,0,0,0,0,0,0,0,0,0,0,0,0,0,0,0,
0,0,0,0,0,0,0,0,0,0,0,0,0,0,0,0,0,0,0,0,0,0,0,0,0,0,0,0,0,0,0,0,0,0,1886,1887,1888,0,0,0,0,0,0,0,0,0,0,0,0,0,0,0,0,0,0,0,
0,0,0,0,0,0,0,0,0,0,0,0,0,0,0,0,0,0,0,0,0,0,0,0,0,0,0,0,0,0,0,0,0,0,1889,1890,1891,0,0,0,0,0,0,0,0,0,0,0,0,0,0,0,0,0,0,0,
0,0,0,0,0,0,0,0,0,0,0,0,0,0,0,0,0,0,0,0,0,0,0,0,0,0,0,0,0,0,0,0,0,0,1892,1893,1894,0,0,0,0,0,0,0,0,0,0,0,0,0,0,0,0,0,0,0,
0,0,0,0,0,0,0,0,0,0,0,0,0,0,0,0,0,0,0,0,0,0,0,0,0,0,0,0,0,0,0,0,0,0,0,1895,1896,0,0,0,0,0,0,0,0,0,0,0,0,0,0,0,0,0,0,0,
0,0,0,0,0,0,0,0,0,0,0,0,0,0,0,0,0,0,0,0,0,0,0,0,0,0,0,0,0,0,0,0,0,0,0,1897,1898,0,0,0,0,0,0,0,0,0,0,0,0,0,0,0,0,0,0,0,
0,0,0,0,0,0,0,0,0,0,0,0,0,0,0,0,0,0,0,0,0,0,0,0,0,0,0,0,0,0,0,0,0,0,0,1899,1900,1901,0,0,0,0,0,0,0,0,0,0,0,0,0,0,0,0,0,0,
0,0,0,0,0,0,0,0,0,0,0,0,0,0,0,0,0,0,0,0,0,0,0,0,0,0,0,0,0,0,0,0,0,0,0,0,1902,1903,0,0,0,0,0,0,0,0,0,0,0,0,0,0,0,0,0,0,
0,0,0,0,0,0,0,0,0,0,0,0,0,0,0,0,0,0,0,0,0,0,0,0,0,0,0,0,0,0,0,0,0,0,0,0,1904,1905,0,0,0,0,0,0,0,0,0,0,0,0,0,0,0,0,0,0,
0,0,0,0,0,0,0,0,0,0,0,0,0,0,0,0,0,0,0,0,0,0,0,0,0,0,0,0,0,0,0,0,0,0,1906,1907,1908,1909,0,0,0,0,0,0,0,0,0,0,0,0,0,0,0,0,0,0,
0,0,0,0,0,0,0,0,0,0,0,0,0,0,0,0,0,0,0,0,0,0,0,0,0,0,0,0,0,0,0,0,0,1910,1911,4957,1912,1913,1914,1915,0,0,0,0,0,0,0,0,0,0,0,0,0,0,0,0,
0,0,0,0,0,0,0,0,0,0,0,0,0,0,0,0,0,0,0,0,0,0,0,0,0,0,0,0,0,0,0,0,0,1916,1917,4997,4998,4999,1918,1919,1920,0,0,0,0,0,0,0,0,0,0,0,0,0,0,0,
0,0,0,0,0,0,0,0,0,0,0,0,0,0,0,0,0,0,0,0,0,0,0,0,0,0,0,0,0,0,0,0,0,1892,1921,1922,5038,5039,5040,1923,1924,0,0,0,0,0,0,0,0,0,0,0,0,0,0,0,
0,0,0,0,0,0,0,0,0,0,0,0,0,0,0,0,0,0,0,0,0,0,0,0,0,0,0,0,0,0,0,0,0,0,0,1925,5078,5079,5080,1926,0,0,0,0,0,0,0,0,0,0,0,0,0,0,0,0,
0,0,0,0,0,0,0,0,0,0,0,0,0,0,0,0,0,0,0,0,0,0,0,0,0,0,0,0,0,0,0,0,0,0,0,1927,1928,1929,1930,1931,0,0,0,0,0,0,0,0,0,0,0,0,0,0,0,0,
0,0,0,0,0,0,0,0,0,0,0,0,0,0,0,0,0,0,0,0,0,0,0,0,0,0,0,0,0,0,0,0,0,0,0,0,0,0,0,0,0,0,0,0,0,0,0,0,0,0,0,0,0,0,0,0,
0,0,0,0,0,0,0,0,0,0,0,0,0,0,0,0,0,0,0,0,0,0,0,0,0,0,0,0,0,0,0,0,0,0,0,0,0,0,0,0,0,0,0,0,0,0,0,0,0,0,0,0,0,0,0,0,
0,0,0,0,0,0,0,0,0,0,0,0,0,0,0,0,0,0,0,0,0,0,0,0,0,0,0,0,0,0,0,0,0,0,0,0,0,0,0,0,0,0,0,0,0,0,0,0,0,0,0,0,0,0,0,0,
0,0,0,0,0,0,0,0,0,0,0,0,0,0,0,0,0,0,0,0,0,0,0,0,0,0,0,0,0,0,0,0,0,0,0,0,0,0,0,0,0,0,0,0,0,0,0,0,0,0,0,0,0,0,0,0,
0,0,0,0,0,0,0,0,0,0,0,0,0,0,0,0,0,0,0,0,0,0,0,0,0,0,0,0,0,0,0,0,0,0,0,0,0,0,0,0,0,0,0,0,0,0,0,0,0,0,0,0,0,0,0,0,
0,0,0,0,0,0,0,0,0,0,0,0,0,0,0,0,0,0,0,0,0,0,0,0,0,0,0,0,0,0,0,0,0,0,0,0,0,0,0,0,0,0,0,0,0,0,0,0,0,0,0,0,0,0,0,0,
0,0,0,0,0,0,0,0,0,0,0,0,0,0,0,0,0,0,0,0,0,0,0,0,0,0,0,0,0,0,0,0,0,0,0,0,0,0,0,0,0,0,0,0,0,0,0,0,0,0,0,0,0,0,0,0,
0,0,0,0,0,0,0,0,0,0,0,0,0,0,0,0,0,0,0,0,0,0,0,0,0,0,0,0,0,0,0,0,0,0,0,0,0,0,0,0,0,0,0,0,0,0,0,0,0,0,0,0,0,0,0,0,
0,0,0,0,0,0,0,0,0,0,0,0,0,0,0,0,0,0,0,0,0,0,0,0,0,0,0,0,0,0,0,0,0,0,0,0,0,0,0,0,0,0,0,0,0,0,0,0,0,0,0,0,0,0,0,0,
0,0,0,0,0,0,0,0,0,0,0,0,0,0,0,0,0,0,0,0,0,0,0,0,0,0,0,0,0,0,0,0,0,0,0,0,0,0,0,0,0,0,0,0,0,0,0,0,0,0,0,0,0,0,0,0,
0,0,0,0,0,0,0,0,0,0,0,0,0,0,0,0,0,0,0,0,0,0,0,0,0,0,0,0,0,0,0,0,0,0,0,0,0,0,0,0,0,0,0,0,0,0,0,0,0,0,0,0,0,0,0,0
</data>
 </layer>
 <layer id="4" name="Decor" width="56" height="84">
  <data encoding="csv">
0,0,0,0,0,0,0,0,0,0,0,8769,0,0,0,0,0,0,0,0,0,0,0,0,0,0,0,0,0,0,0,0,0,0,0,0,0,0,0,0,0,0,0,0,0,0,0,0,0,0,0,0,0,0,0,0,
0,0,0,0,0,8769,0,0,0,0,0,0,0,0,0,0,0,0,0,0,0,0,0,0,0,0,0,8747,0,0,0,0,0,0,0,0,0,0,0,0,0,0,0,0,0,0,0,0,0,8773,0,0,0,0,0,0,
0,0,0,0,0,8773,0,0,0,0,0,0,0,0,0,0,0,0,0,0,0,0,0,0,0,0,0,0,0,0,0,0,0,0,0,0,0,0,0,0,0,8794,0,0,0,0,0,0,0,0,0,0,0,0,0,0,
0,0,0,0,0,0,0,0,0,0,0,0,0,0,0,0,0,0,0,0,0,0,0,0,0,0,0,0,0,0,0,0,0,0,0,0,0,0,0,8794,0,0,0,0,0,0,0,0,8746,0,0,0,0,0,0,0,
0,8773,0,0,0,0,0,0,0,0,0,0,0,0,0,0,0,0,0,0,0,0,0,0,0,0,0,0,0,0,0,0,0,0,0,0,0,0,0,0,0,0,0,8780,0,0,0,0,0,0,0,0,8769,0,0,0,
0,0,0,0,0,0,0,0,0,0,0,0,0,0,0,0,0,0,0,0,0,0,0,0,0,0,0,0,8754,0,0,0,0,0,0,0,8794,0,8772,0,0,0,0,0,0,0,0,8752,0,0,8769,0,0,0,0,0,
0,0,0,0,0,0,0,0,0,0,0,0,0,0,0,8794,8746,0,0,0,0,0,0,0,0,0,0,0,0,0,0,0,0,8780,0,0,0,0,0,0,0,0,0,0,0,0,0,0,0,8804,0,0,0,0,0,0,
0,0,8754,0,0,0,0,0,0,0,0,0,0,0,0,0,0,8746,0,0,0,0,0,0,0,0,0,0,0,0,0,0,8780,0,0,0,0,0,0,0,0,0,0,0,0,0,0,0,0,0,0,0,0,8783,8783,0,
0,0,0,0,0,0,0,8773,0,0,0,0,0,0,0,0,8772,0,0,0,0,0,0,0,0,0,0,0,0,0,0,0,0,0,0,0,0,8773,0,0,0,0,0,0,8769,0,0,0,0,0,0,0,0,0,0,0,
0,0,0,0,0,0,0,0,8754,0,0,0,0,0,0,0,0,0,0,0,0,0,0,0,0,0,0,0,0,0,8765,0,0,0,0,0,0,0,0,0,0,0,0,0,8754,0,0,0,0,0,0,0,0,0,0,0,
0,0,0,0,0,0,0,0,0,8804,0,0,0,0,0,0,0,0,0,0,0,0,0,0,8754,0,0,0,0,0,0,0,0,0,0,0,0,0,0,0,0,0,0,0,0,0,0,0,0,0,0,0,0,0,0,0,
0,0,0,0,0,0,0,0,0,0,0,0,0,0,0,0,0,0,0,0,0,0,0,0,0,8783,0,8783,0,0,0,0,0,0,0,0,0,0,0,0,0,0,0,0,0,0,0,0,0,0,0,0,0,0,0,0,
0,0,0,0,0,0,8752,0,0,0,0,0,0,0,0,0,0,0,0,0,0,0,0,0,0,0,0,0,8748,0,0,0,0,0,0,0,8745,8768,0,0,0,0,0,0,0,0,0,0,0,0,0,0,0,0,0,0,
0,0,0,0,0,0,0,0,0,0,0,0,0,0,0,0,0,0,0,0,0,0,0,0,0,8772,0,0,0,0,0,0,0,8746,0,0,0,0,0,0,0,0,0,0,0,0,0,0,0,0,0,0,0,0,0,0,
0,0,0,0,0,8794,0,0,0,0,0,0,0,0,0,0,0,0,0,0,0,0,8780,0,0,0,0,0,0,0,0,0,0,0,0,8752,0,0,0,0,0,0,0,0,0,0,0,0,0,8794,8794,0,0,0,0,0,
0,0,0,0,0,0,0,0,0,0,0,0,0,0,0,0,0,0,0,0,0,0,0,0,0,0,0,0,0,0,0,0,0,0,0,0,0,0,0,0,0,0,0,8773,0,8768,8752,0,0,0,0,0,0,0,0,0,
0,0,0,0,0,0,0,0,0,0,0,0,0,0,0,0,0,0,0,0,0,0,0,0,8780,0,0,0,0,0,0,0,0,0,0,0,0,0,0,0,0,0,8746,0,0,8768,8768,0,0,0,0,0,0,0,0,0,
0,0,0,0,0,0,0,0,0,8752,0,0,0,0,0,0,0,0,0,0,0,0,0,0,0,0,8794,0,0,0,0,0,0,0,0,0,0,0,8746,0,0,0,0,0,0,0,0,0,0,0,0,0,0,0,0,0,
0,0,0,0,0,0,0,0,0,0,0,0,0,0,0,0,0,0,0,0,0,0,0,0,0,0,0,0,0,0,8765,0,8772,0,0,0,0,0,0,0,0,0,0,0,0,0,0,0,0,8772,0,0,0,0,0,0,
0,0,0,0,0,0,0,0,0,0,8772,0,0,0,0,0,0,0,0,0,0,0,0,0,8765,0,0,0,0,0,0,0,0,0,0,0,0,0,0,0,0,0,0,0,0,0,0,0,0,0,0,0,0,0,0,0,
0,0,0,0,0,0,0,8794,0,0,0,0,0,0,0,0,0,0,0,0,0,0,0,0,0,0,0,0,0,0,0,0,0,0,8773,0,0,0,0,0,0,0,0,0,0,0,0,0,0,0,0,0,0,0,0,0,
0,0,0,0,0,0,0,0,0,0,0,0,0,0,0,0,0,0,0,0,0,0,0,0,0,0,0,0,8746,0,0,0,0,0,0,0,0,0,0,0,0,0,0,0,0,0,0,8765,0,0,0,0,0,0,0,0,
8765,0,8765,0,0,0,0,0,0,0,0,0,0,0,0,0,0,0,0,0,0,8772,0,0,0,0,0,0,0,0,0,0,0,0,0,0,0,0,0,0,0,0,0,0,0,0,0,0,0,0,0,0,0,0,0,0,
0,0,0,8746,0,0,0,0,0,0,0,0,0,0,0,0,8780,0,0,0,0,0,0,0,0,0,0,0,0,0,0,0,0,0,0,8784,8754,0,0,0,8746,0,0,0,0,0,0,0,0,0,0,0,0,0,0,0,
0,0,0,0,0,0,0,0,0,0,0,0,0,0,0,0,0,0,0,0,0,0,8770,0,0,0,0,0,0,0,0,0,8750,0,0,0,0,0,0,0,0,0,0,0,0,0,0,0,0,0,0,0,0,0,0,0,
0,0,0,0,0,0,0,0,0,0,0,0,0,0,0,0,0,8750,0,0,0,0,0,0,0,8748,0,0,0,8754,8752,0,0,0,0,0,0,0,0,0,0,0,0,0,0,8794,0,0,0,0,0,0,0,0,0,0,
0,0,0,0,0,0,0,0,0,0,0,8747,0,0,0,0,0,0,0,0,0,0,0,0,0,0,0,0,0,0,0,0,0,0,0,0,0,0,0,0,0,0,0,0,0,0,0,0,0,0,0,0,0,0,0,0,
0,8769,0,8773,0,0,0,0,0,8752,0,0,0,8747,0,0,0,0,0,0,0,0,0,0,0,0,0,0,0,0,0,0,0,0,0,0,0,0,0,0,0,0,0,0,0,0,0,0,0,0,0,8746,0,0,0,0,
0,0,8765,0,0,0,0,0,0,0,0,0,0,0,0,0,0,0,0,0,0,0,0,0,0,0,0,0,0,8780,8761,0,0,0,0,0,0,0,0,0,8761,0,0,0,0,0,0,0,0,0,0,0,0,0,0,0,
0,0,0,0,0,0,0,0,0,0,0,0,0,0,0,0,8759,0,0,0,0,0,0,0,0,8747,0,0,0,0,8803,0,0,0,0,0,0,0,8803,0,8745,0,0,0,0,8768,0,0,0,0,0,8752,0,0,0,0,
0,0,0,0,0,0,0,0,8772,0,0,0,0,0,0,0,0,0,0,0,0,0,0,0,0,0,0,0,0,0,0,0,0,0,0,0,8770,0,0,0,0,0,0,0,0,0,0,0,0,0,0,0,0,8761,0,0,
0,0,0,0,0,8764,0,8746,0,0,0,0,0,0,0,8768,0,0,0,0,0,0,0,0,0,0,0,0,0,0,0,0,0,0,8746,0,0,0,0,0,0,8746,0,0,0,0,0,0,0,0,0,0,0,0,0,0,
0,0,0,0,0,0,8761,8768,8750,0,0,0,0,0,8783,0,0,0,0,0,0,0,0,0,0,0,0,0,0,0,0,0,0,0,0,0,8747,0,0,0,0,8748,0,0,0,0,0,0,8783,8770,0,0,0,0,0,0,
0,0,0,0,0,0,0,0,0,0,0,0,0,0,0,8746,0,0,0,0,0,0,0,0,0,0,0,0,0,0,0,0,0,0,0,0,0,8745,0,0,0,0,0,8747,0,8745,0,8754,0,0,0,0,0,0,0,8806,
0,0,0,0,0,0,0,0,0,8768,8765,0,0,0,0,0,0,0,0,0,0,0,0,0,0,0,0,0,0,0,0,0,0,0,0,0,0,0,0,0,0,8745,0,0,0,0,0,0,0,8764,0,0,0,0,0,0,
0,0,0,8764,0,0,0,0,0,8806,0,0,8748,0,0,0,0,0,0,0,0,0,0,0,0,0,0,0,0,0,0,0,0,0,0,0,0,8764,0,0,0,0,0,0,0,0,0,0,0,0,0,0,0,0,0,0,
0,0,0,0,0,0,0,0,8770,0,0,8803,0,0,0,0,0,0,0,0,0,0,0,0,0,0,0,0,0,0,0,0,0,0,0,0,8806,0,0,0,0,0,0,8805,0,0,0,0,8784,0,0,0,0,0,0,0,
8772,0,0,0,0,0,8803,0,0,8780,0,0,8747,0,8746,0,0,0,0,0,0,0,0,0,0,0,0,0,0,0,0,0,0,0,0,0,8805,0,0,0,0,0,0,0,0,0,0,0,0,0,0,0,8745,0,0,0,
0,8784,0,8764,0,0,0,0,0,0,0,0,0,0,0,0,0,0,0,0,0,0,0,0,0,0,0,0,0,0,0,0,0,0,0,0,0,0,0,0,0,0,0,0,0,0,0,0,0,0,0,0,0,0,0,0,
8768,0,0,0,8764,0,8768,0,0,0,0,0,0,0,8748,0,0,0,0,0,0,0,0,0,0,0,0,0,0,0,0,0,0,0,0,0,0,0,0,0,0,0,8780,0,0,0,8764,0,0,0,0,0,0,0,8806,0,
8747,0,0,0,0,0,0,0,0,0,0,0,0,0,0,0,0,0,0,0,0,8747,8754,0,0,8739,8740,8741,8742,0,0,8743,8744,0,0,0,8805,0,8784,0,0,0,0,0,0,0,0,0,0,0,0,0,8761,0,0,8768,
0,0,0,8772,0,0,8745,0,0,0,0,0,0,0,0,0,0,0,0,0,0,8805,0,0,0,0,0,0,0,8803,0,0,0,0,0,0,0,0,0,0,8784,0,8752,8770,0,0,8748,0,0,0,0,0,0,0,0,8772,
0,0,0,0,0,8783,0,0,0,0,0,0,0,0,0,0,0,0,0,0,0,0,0,8747,0,0,0,0,8783,0,0,0,0,0,0,0,0,0,0,0,0,0,0,0,0,0,8804,0,0,0,0,0,0,0,0,8773,
0,0,0,0,0,0,0,0,0,0,0,0,0,0,0,0,0,8557,8558,8559,8560,8768,0,0,8745,0,0,0,0,0,0,0,0,0,0,0,0,0,0,0,0,0,0,0,0,0,0,0,0,0,0,0,8765,0,0,0,
0,0,0,0,0,0,0,0,0,0,0,0,0,0,0,0,0,8561,8562,8563,8564,0,0,0,0,0,0,0,0,0,0,0,0,0,0,0,0,0,0,0,0,8803,0,0,0,0,0,0,0,0,0,0,0,0,0,8783,
0,8768,0,0,8772,0,0,0,0,0,0,0,0,0,0,0,0,8565,8566,8567,8568,0,0,0,0,0,0,0,0,0,0,0,0,0,8805,0,0,0,0,0,0,0,0,0,0,0,0,0,0,0,0,0,0,0,0,0,
0,0,0,8769,8772,0,0,0,0,0,0,0,0,0,0,0,0,8569,8570,8571,8572,8761,0,0,0,0,8805,0,0,0,0,0,0,0,0,0,0,0,0,8769,0,0,0,0,8770,0,0,0,0,0,0,0,0,0,0,0,
0,8750,8794,0,0,0,0,0,0,0,0,0,8805,0,0,8750,0,0,0,0,0,0,0,8806,0,0,8780,0,0,0,0,0,0,0,0,0,0,0,0,0,0,0,0,0,8754,0,0,0,0,0,0,0,8752,0,0,0,
8761,8770,8748,0,0,0,0,0,0,0,0,0,0,0,0,8754,0,0,0,0,0,0,0,0,8754,0,0,0,0,0,0,0,0,0,0,8783,0,8761,0,8794,0,0,0,0,0,0,0,8768,0,0,0,0,0,0,8764,0,
0,0,0,0,0,0,0,8761,0,8805,0,0,0,0,0,0,0,0,0,0,0,0,0,0,0,0,0,0,0,0,0,0,0,0,0,0,0,0,0,0,0,0,0,0,0,8761,8761,0,0,0,0,0,0,0,0,0,
0,0,0,0,0,0,0,0,0,0,0,0,0,0,0,0,8780,0,0,0,0,0,0,0,0,8770,8765,0,0,0,0,0,0,0,8769,0,0,8754,0,0,8764,0,0,0,0,0,8780,0,0,0,0,0,0,0,0,0,
0,0,0,8764,0,0,0,0,0,0,0,0,0,0,0,0,0,8761,0,0,0,0,8746,0,0,0,0,0,0,0,0,0,0,0,0,0,0,0,0,0,0,0,0,0,0,8764,0,0,0,0,0,0,0,0,0,8783,
8783,0,0,8759,0,0,8805,0,0,0,0,0,0,0,0,0,0,0,0,0,0,0,0,8754,8773,0,8754,0,0,0,0,0,0,0,0,0,0,0,0,0,8768,0,0,0,0,8745,8765,0,0,0,8806,0,0,0,0,0,
8769,0,0,0,0,0,0,0,0,0,0,0,0,0,0,0,0,0,0,0,0,0,0,8794,0,0,0,0,0,0,0,0,8805,0,0,0,0,0,0,0,0,0,0,0,8780,8783,0,8805,8759,8764,0,8750,0,0,0,0,
8784,0,0,0,0,0,0,0,0,0,0,8745,0,0,0,0,0,0,0,0,0,0,0,8754,0,0,0,0,0,0,0,0,8768,0,0,0,0,0,8770,0,0,0,0,8804,0,0,8805,0,0,0,0,0,0,0,0,0,
0,0,0,0,0,0,0,0,8748,0,8803,0,0,0,0,0,0,0,0,0,0,0,0,0,0,0,0,0,0,0,0,0,8765,0,0,0,0,0,0,0,0,0,0,8780,0,0,8805,0,0,0,0,0,0,0,0,0,
0,0,0,0,0,0,0,0,0,0,0,0,8754,0,0,0,0,0,0,0,0,8784,0,0,8769,0,0,8765,0,0,0,0,8770,8765,0,0,0,0,8754,0,0,0,0,0,0,0,0,8780,8770,0,0,0,0,8746,0,0,
0,0,8784,8806,0,0,8750,0,0,0,0,0,0,0,0,0,0,0,0,0,0,0,0,0,0,8752,0,0,0,0,0,0,0,0,0,0,0,0,8748,0,0,0,8745,0,0,0,0,0,0,0,0,8780,0,8768,0,0,
0,0,0,0,0,0,0,0,0,0,0,0,8805,0,0,0,0,0,0,0,8784,0,0,0,0,0,0,0,0,0,0,0,0,0,0,0,0,0,0,0,0,0,0,0,0,0,0,0,0,8752,0,0,0,0,0,0,
0,0,0,0,0,0,0,0,0,0,0,0,0,8803,0,0,0,0,0,0,0,0,8765,0,0,8759,0,0,0,0,0,0,8794,0,0,0,0,0,0,0,0,0,0,0,0,0,0,0,8747,0,0,0,0,0,0,0,
0,0,0,0,8780,0,0,0,0,0,0,0,0,0,0,0,0,0,0,0,0,0,0,0,0,0,0,8752,0,0,0,8769,0,0,0,0,0,0,8780,0,0,0,0,8783,0,0,0,8747,0,0,0,0,0,0,0,0,
0,0,0,0,0,0,0,0,0,0,0,0,0,0,0,0,0,0,0,0,0,0,0,0,0,0,0,0,0,0,0,0,0,0,0,0,0,0,0,0,0,0,0,0,0,0,0,0,0,0,0,0,0,0,0,0,
0,0,0,0,0,8794,0,0,0,0,8773,0,0,0,0,0,0,0,0,0,0,0,0,0,0,0,0,0,0,0,8754,0,0,0,8746,0,0,0,0,0,0,0,0,8780,0,0,0,0,0,8754,0,0,0,0,0,0,
0,0,0,8765,0,0,8746,0,0,8746,0,0,0,0,0,0,0,0,0,0,0,0,8747,0,0,0,8794,0,0,0,0,0,0,0,0,0,0,0,0,0,0,0,0,0,0,0,0,0,0,0,0,8746,8769,0,0,0,
0,0,0,0,0,0,0,0,0,0,0,0,0,0,0,0,0,0,0,0,0,0,0,0,0,0,0,0,0,0,0,0,8769,0,0,0,0,0,0,0,0,0,0,0,0,0,0,0,0,0,0,0,0,0,0,0,
0,0,0,0,0,0,0,0,0,0,0,8804,0,0,0,0,0,0,0,0,0,0,0,0,0,0,0,8804,0,8794,0,0,0,0,0,0,0,0,0,0,0,8783,0,0,0,0,0,0,0,0,0,0,0,0,0,0,
0,0,0,0,0,8769,0,0,0,0,0,0,0,0,0,0,0,0,0,0,0,0,0,0,0,0,0,0,0,0,0,0,0,0,0,8794,0,0,0,0,0,0,0,0,0,0,0,0,0,8746,0,0,0,0,0,0,
0,0,0,0,0,0,0,0,0,0,0,0,0,0,0,0,8794,0,0,0,0,0,0,0,0,0,0,0,0,0,0,0,0,0,0,0,0,0,0,0,0,0,0,0,0,8794,0,0,0,0,0,0,0,0,0,0,
0,0,0,0,0,0,0,0,0,0,0,0,0,0,0,0,0,0,0,0,0,0,0,0,0,0,0,8794,0,0,0,0,0,0,0,0,0,0,0,0,8750,8752,0,0,0,0,0,0,0,8752,0,0,0,0,0,0,
0,0,0,0,0,0,0,0,0,8783,0,0,0,0,0,0,0,0,0,0,0,0,0,0,0,0,0,0,0,8794,0,0,8806,0,0,0,0,0,0,0,0,0,0,0,0,0,0,0,0,0,0,0,0,0,0,8772,
8754,0,0,0,0,0,0,0,0,0,0,0,0,0,0,8770,0,0,0,0,0,0,0,0,0,0,0,0,0,0,0,0,0,8780,0,0,0,0,0,0,0,0,0,0,0,0,0,0,8765,0,0,0,0,0,0,0,
0,0,0,0,0,0,0,0,0,0,0,8764,0,0,0,8805,0,0,0,0,0,0,0,0,0,0,0,0,0,0,0,0,0,0,0,0,0,0,0,0,0,8773,0,0,0,0,8769,0,0,0,0,0,0,0,0,8747,
0,0,0,0,0,0,0,0,0,0,0,0,0,0,0,0,0,0,0,0,0,0,0,0,0,0,0,0,0,0,0,0,0,0,0,0,0,0,0,0,0,8806,0,8746,0,0,0,0,0,0,0,0,0,0,0,0,
0,0,0,0,0,0,8780,0,0,0,0,8783,0,0,8768,0,0,0,0,0,0,0,0,0,0,0,0,0,0,0,0,0,0,0,0,0,8748,0,0,8769,0,8748,0,0,0,0,0,0,0,0,0,0,0,0,0,0,
0,0,0,0,0,0,0,0,0,0,0,0,0,0,0,8772,0,0,0,0,8804,0,0,0,0,0,0,0,0,0,0,0,0,0,0,0,0,0,0,0,0,0,0,0,0,0,0,0,0,0,0,0,0,0,0,0,
0,0,0,0,0,0,0,0,0,0,0,0,0,0,0,0,0,0,0,0,0,0,0,0,0,0,0,0,0,0,0,0,0,0,0,0,0,8765,0,0,0,0,0,0,0,0,0,0,0,0,0,0,0,0,0,0,
0,0,0,0,0,0,0,0,0,0,8765,0,0,0,0,0,0,0,0,0,0,0,0,0,0,0,0,0,0,0,0,0,0,0,8752,0,0,0,0,0,0,0,0,0,0,0,0,0,0,0,0,0,0,0,0,0,
0,0,0,0,0,8746,0,0,0,8783,0,0,0,8804,0,0,0,0,0,0,0,0,0,0,0,0,0,0,0,0,0,0,0,0,0,0,0,0,0,0,0,0,8752,0,0,0,0,0,0,0,0,0,8747,0,0,0,
0,0,0,0,0,0,0,0,0,0,0,8804,0,0,0,8754,0,0,0,0,0,0,0,0,0,0,0,0,0,0,0,0,0,0,0,0,0,8773,0,0,0,0,0,0,0,0,0,0,0,0,0,0,0,0,0,0,
0,0,0,8752,0,0,0,0,0,0,0,0,0,0,0,0,0,0,0,0,0,8794,0,0,0,0,0,0,0,0,0,0,0,0,0,0,0,0,0,0,0,0,0,0,0,0,0,0,8772,0,0,0,0,0,0,0,
0,0,0,0,0,0,0,0,0,0,0,8769,0,0,0,0,8772,0,0,0,0,0,0,0,0,0,0,0,0,0,0,0,0,0,0,0,0,0,0,0,0,0,0,0,0,0,8780,0,0,0,0,0,0,0,0,0,
0,0,0,0,0,0,0,0,0,0,0,0,0,0,0,0,0,0,0,8783,0,0,0,8804,0,0,0,0,0,8754,0,0,0,8773,0,0,0,0,0,0,0,0,0,0,0,0,8765,0,0,0,0,0,0,0,0,0,
0,0,0,0,0,0,8773,0,0,0,0,0,8773,0,0,0,0,0,8747,0,0,0,0,0,0,0,0,0,0,0,8752,0,0,0,0,0,0,0,0,0,0,0,0,0,0,0,0,0,0,0,0,0,0,0,0,0,
0,0,0,0,0,0,0,0,0,0,0,0,0,0,0,0,0,8769,0,0,0,0,0,0,0,0,0,0,0,0,8772,0,8769,0,0,0,0,0,0,0,0,0,0,0,0,0,0,0,0,0,0,0,0,0,0,0
</data>
 </layer>
 <layer id="5" name="Dynamic" width="56" height="84">
  <data encoding="csv">
0,0,0,0,0,0,0,0,0,0,0,0,0,0,0,0,0,0,0,0,0,0,0,0,0,0,0,0,0,0,0,0,0,0,0,0,0,0,0,0,0,0,0,0,0,0,0,0,0,0,0,0,0,0,0,0,
0,0,0,0,0,0,0,0,0,0,0,0,0,0,0,0,0,0,0,0,0,0,0,0,0,0,0,0,0,0,0,0,0,0,0,0,0,0,0,0,0,0,0,0,0,0,0,0,0,0,0,0,0,0,0,0,
0,0,0,0,0,0,0,0,0,0,0,0,0,0,0,0,0,0,0,0,0,0,0,0,0,0,0,0,0,0,0,0,0,0,0,0,0,0,0,0,0,0,0,0,0,0,0,0,0,0,0,0,0,0,0,0,
0,0,0,0,0,0,0,0,0,0,0,0,0,0,0,0,0,0,0,0,0,0,0,0,0,0,0,0,0,0,0,0,0,0,0,0,0,0,0,0,0,0,0,0,0,0,0,0,0,0,0,0,0,0,0,0,
0,0,0,0,0,0,0,0,0,0,0,0,0,0,0,0,0,0,0,0,0,0,0,0,0,0,0,0,0,0,0,0,0,0,0,0,0,0,0,0,0,0,0,0,0,0,0,0,0,0,0,0,0,0,0,0,
0,0,0,0,0,0,0,0,0,0,0,0,0,0,0,0,0,0,0,0,0,0,0,0,0,0,0,0,0,0,0,0,0,0,0,0,0,0,0,0,0,0,0,0,0,0,0,0,0,0,0,0,0,0,0,0,
0,0,0,0,0,0,0,0,0,0,0,0,0,0,0,0,0,0,0,0,0,0,0,0,0,0,0,0,0,0,0,0,0,0,0,0,0,0,0,0,0,0,0,0,0,0,0,0,0,0,0,0,0,0,0,0,
0,0,0,0,0,0,0,0,0,0,0,0,0,0,0,0,0,0,0,0,0,0,0,0,0,0,0,0,0,0,0,0,0,0,0,0,0,0,0,0,0,0,0,0,0,0,0,0,0,0,0,0,0,0,0,0,
0,0,0,0,0,0,0,0,0,0,0,0,0,0,0,0,0,0,0,0,0,0,0,0,0,0,0,0,0,0,0,0,0,0,0,0,0,0,0,0,0,0,0,0,0,0,0,0,0,0,0,0,0,0,0,0,
0,0,0,0,0,0,0,0,0,0,0,0,0,0,0,0,0,0,0,0,0,0,0,0,0,0,0,0,0,0,0,0,0,0,0,0,0,0,0,7817,7817,7793,7817,7817,0,0,0,0,0,0,0,0,0,0,0,0,
0,0,0,0,0,0,0,0,0,0,0,0,0,0,0,0,0,0,0,0,0,0,0,0,0,0,0,0,0,0,0,0,0,0,0,0,0,0,0,7817,7794,7795,7796,7817,0,0,0,0,0,0,0,0,0,0,0,0,
0,0,0,0,0,0,0,0,0,0,0,0,0,0,0,0,0,0,0,0,0,0,0,0,0,0,0,0,0,0,0,0,0,0,0,0,0,0,0,7797,7798,7799,7800,7801,0,0,0,0,0,0,0,0,0,0,0,0,
0,0,0,0,0,0,0,0,0,0,0,0,0,0,0,0,0,0,0,0,0,0,0,0,0,0,0,0,0,0,0,0,0,0,0,0,0,0,0,7802,7803,7804,7805,7806,0,0,0,0,0,0,0,0,0,0,0,0,
0,0,0,0,0,0,0,0,0,0,0,0,0,0,0,0,0,0,0,0,0,0,0,0,0,0,0,0,0,0,0,0,0,0,0,0,0,0,0,7807,7808,7809,7810,7811,0,0,0,0,0,0,0,0,0,0,0,0,
0,0,0,0,0,0,0,0,0,0,0,0,0,0,0,0,0,0,0,0,0,0,0,0,0,0,0,0,0,0,0,0,0,0,0,0,0,0,0,7812,7813,7814,7815,7816,0,0,0,0,0,0,0,0,0,0,0,0,
0,0,0,0,0,0,0,0,0,0,0,0,0,0,0,0,0,0,0,0,0,0,0,0,0,0,0,0,0,0,0,0,0,0,0,0,0,0,0,0,0,0,0,0,0,0,0,0,0,0,0,0,0,0,0,0,
0,0,0,0,0,0,0,0,0,0,0,0,0,0,0,0,0,0,0,0,0,0,0,0,0,0,0,0,0,0,0,0,0,0,0,0,0,0,0,0,0,0,0,0,0,0,0,0,0,0,0,0,0,0,0,0,
0,0,0,0,0,0,0,0,0,0,0,0,0,0,0,0,0,0,0,0,0,0,0,0,0,0,0,0,0,0,0,0,0,0,0,0,0,0,0,0,0,0,0,0,0,0,0,0,0,0,0,0,0,0,0,0,
0,0,0,0,0,0,0,0,0,0,0,0,0,0,0,0,0,0,0,0,0,0,0,0,0,0,0,0,0,0,0,0,0,0,0,0,0,0,0,0,0,0,0,0,0,0,0,0,0,0,0,0,0,0,0,0,
0,0,0,0,0,0,0,0,0,0,0,0,0,0,0,0,0,0,0,0,0,0,0,0,0,0,0,0,0,0,0,0,0,0,0,0,0,0,0,0,0,0,0,0,0,0,0,0,0,0,0,0,0,0,0,0,
0,0,0,0,0,0,0,0,0,0,0,0,0,0,0,0,0,0,0,0,0,0,0,0,0,0,0,0,0,0,0,0,0,0,0,0,0,0,0,0,0,0,0,0,0,0,0,0,0,0,0,0,0,0,0,0,
0,0,0,0,0,0,0,0,0,0,0,0,0,0,0,0,0,0,0,0,0,0,0,0,0,0,0,0,0,0,0,0,0,0,0,0,0,0,0,0,0,0,0,0,0,0,0,0,0,0,0,0,0,0,0,0,
0,0,0,0,0,0,0,0,0,0,0,0,0,0,0,0,0,0,0,0,0,0,0,0,0,0,0,0,0,0,0,0,0,0,0,0,0,0,0,0,0,0,0,0,0,0,0,0,0,0,0,0,0,0,0,0,
0,0,0,0,0,0,0,0,0,0,0,0,0,0,0,0,0,0,0,0,0,0,0,0,0,0,0,0,0,0,0,0,0,0,0,0,0,0,0,0,0,0,0,0,0,0,0,0,0,0,0,0,0,0,0,0,
0,0,0,0,0,0,0,0,0,0,0,0,0,0,0,0,0,0,0,0,0,0,0,0,0,0,0,0,0,0,0,0,0,0,0,0,0,0,0,0,0,0,0,0,0,0,0,0,0,0,0,0,0,0,0,0,
0,0,0,0,0,0,0,0,0,0,0,0,0,0,0,0,0,0,0,0,0,0,0,0,0,0,0,0,0,0,0,0,0,0,0,0,0,0,0,0,0,0,0,0,0,0,0,0,0,0,0,0,0,0,0,0,
0,0,0,0,0,0,0,0,0,0,0,0,0,0,0,0,0,0,0,0,0,0,0,0,0,0,0,0,0,0,0,0,0,0,0,0,0,0,0,0,0,0,0,0,0,0,0,0,0,0,0,0,0,0,0,0,
0,0,0,0,0,0,0,0,0,0,0,0,0,0,0,0,0,0,0,0,0,0,0,0,0,0,0,0,0,0,0,0,0,0,0,0,0,0,0,0,0,0,0,0,0,0,0,0,0,0,0,0,0,0,0,0,
0,0,0,0,0,0,0,0,0,0,0,0,0,0,0,0,0,0,0,0,0,0,0,0,0,0,0,0,0,0,0,0,0,0,0,0,0,0,0,0,0,0,0,0,0,0,0,0,0,0,0,0,0,0,0,0,
0,0,0,0,0,0,0,0,0,0,0,0,0,0,0,0,0,0,0,0,0,0,0,0,0,0,0,0,0,0,0,0,0,0,0,0,0,0,0,0,0,0,0,0,0,0,0,0,0,0,0,0,0,0,0,0,
0,0,0,0,0,0,0,0,0,0,0,0,0,0,0,0,0,0,0,0,0,0,0,8496,8496,8391,8392,8393,8394,8395,8496,8496,8496,8496,0,0,0,0,0,0,0,0,0,0,0,0,0,0,0,0,0,0,0,0,0,0,
0,0,0,0,0,0,0,0,0,0,0,0,0,0,0,0,0,0,0,0,0,0,0,8496,8396,8397,8398,8399,8400,8401,8496,8496,8496,8496,0,0,0,0,0,0,0,0,0,0,0,0,0,0,0,0,0,0,0,0,0,0,
0,0,0,0,0,0,0,0,0,0,0,0,0,0,0,0,0,0,0,0,0,0,0,8496,8402,8403,8404,8405,8406,8407,8496,8496,8496,8496,0,0,0,0,0,0,0,0,0,0,0,0,0,0,0,0,0,0,0,0,0,0,
0,0,0,0,0,0,0,0,0,0,0,0,0,0,0,0,0,0,0,0,0,0,0,8408,8409,8410,8411,8412,8413,8414,8415,8416,8417,8418,0,0,0,0,0,0,0,0,0,0,0,0,0,0,0,0,0,0,0,0,0,0,
0,0,0,0,0,0,0,0,0,0,0,0,0,0,0,0,0,0,0,0,0,0,0,8419,8420,8421,8422,8423,8424,8425,8426,8427,8428,8429,0,0,0,0,0,0,0,0,0,0,0,0,0,0,0,0,0,0,0,0,0,0,
0,0,0,0,0,0,0,0,0,0,0,0,0,0,0,0,0,0,0,0,0,0,0,8430,8431,8432,8433,8434,8435,8436,8437,8438,8439,8440,0,0,0,0,0,0,0,0,0,0,0,0,0,0,0,0,0,0,0,0,0,0,
0,0,0,0,0,0,0,0,0,0,0,0,0,0,0,0,0,0,0,0,0,0,0,8441,8442,8443,8444,8445,8446,8447,8448,8449,8450,8451,0,0,0,0,0,0,0,0,0,0,0,0,0,0,0,0,0,0,0,0,0,0,
0,0,0,0,0,0,0,0,0,0,0,0,0,0,0,0,0,0,0,0,0,0,0,8452,8453,8454,8455,8456,8457,8458,8459,8460,8461,8462,0,0,0,0,0,0,0,0,0,0,0,0,0,7240,7217,7218,7219,7240,0,0,0,0,
0,0,0,0,0,0,0,0,0,7502,7480,7502,7481,7502,0,0,0,0,0,0,0,0,0,8463,8464,8465,8466,8467,8468,8469,8470,8471,8472,8473,0,0,0,0,0,0,0,0,0,0,0,0,0,7220,7221,7222,7223,7224,0,0,0,0,
0,0,0,0,0,0,0,0,0,7482,7483,7484,7485,7486,0,0,0,0,0,0,0,0,0,8474,8475,8476,8477,8478,8479,8480,8481,8482,8483,8484,0,0,0,0,0,0,0,0,0,0,0,0,0,7225,7226,7227,7228,7229,0,0,0,0,
0,0,0,0,0,0,0,0,0,7487,7488,7489,7490,7491,0,0,0,0,0,0,0,0,0,8485,8486,8487,8488,8489,8490,8491,8492,8493,8494,8495,0,0,0,0,0,0,0,0,0,0,0,0,0,7230,7231,7232,7233,7234,0,0,0,0,
0,0,0,0,0,0,0,0,0,7492,7493,7494,7495,7496,0,0,0,0,0,0,0,0,0,0,0,0,0,0,0,0,0,0,0,0,0,0,0,0,0,0,0,0,0,0,0,0,0,7235,7236,7237,7238,7239,0,0,0,0,
0,0,0,0,0,0,0,0,0,7497,7498,7499,7500,7501,0,0,0,0,0,0,0,0,0,0,0,0,0,0,0,0,0,0,0,0,0,0,0,0,0,0,0,0,0,0,0,0,0,0,0,0,0,0,0,0,0,0,
0,0,0,0,0,0,0,0,0,0,0,0,0,0,0,0,0,0,0,0,0,0,0,0,0,0,0,0,0,0,0,0,0,0,0,0,0,0,0,0,0,0,0,0,0,0,0,0,0,0,0,0,0,0,0,0,
0,0,0,0,0,0,0,0,0,0,0,0,0,0,0,0,0,0,0,0,0,0,0,0,0,0,0,0,0,0,0,0,0,0,0,0,0,0,0,0,0,0,0,0,0,0,0,0,0,0,0,0,0,0,0,0,
0,0,0,0,0,0,0,0,0,0,0,0,0,0,0,0,0,0,0,0,0,0,0,0,0,0,0,0,0,0,0,0,0,0,0,0,0,0,0,0,0,0,0,0,0,0,0,0,0,0,0,0,0,0,0,0,
0,0,0,0,0,0,0,0,0,0,0,0,0,0,0,0,0,0,0,0,0,0,0,0,0,0,0,0,0,0,0,0,0,0,0,0,0,0,0,0,0,0,0,0,0,0,0,0,0,0,0,0,0,0,0,0,
0,0,0,0,0,0,0,0,0,0,0,0,0,0,0,0,0,0,0,0,0,0,0,0,0,0,0,0,0,0,0,0,0,0,0,0,0,0,0,0,0,0,0,0,0,0,0,0,0,0,0,0,0,0,0,0,
0,0,0,0,0,0,0,0,0,0,0,0,0,0,0,0,0,0,0,0,0,0,0,0,0,0,0,0,0,0,0,0,0,0,0,0,0,0,0,0,0,0,0,0,0,0,0,0,0,0,0,0,0,0,0,0,
0,0,0,0,0,0,0,0,0,0,0,0,0,0,0,0,0,0,0,0,0,0,0,0,0,0,0,0,0,0,0,0,0,0,0,0,0,0,0,0,0,0,0,0,0,0,0,0,0,0,0,0,0,0,0,0,
0,0,0,0,0,0,0,0,0,0,0,0,0,0,0,0,0,0,0,0,0,0,0,0,0,0,0,0,0,0,0,0,0,0,0,0,0,0,0,0,0,0,0,0,0,0,0,0,0,0,0,0,0,0,0,0,
0,0,0,0,0,0,0,0,0,0,0,0,0,0,0,0,0,0,0,0,0,0,0,0,0,0,0,0,0,0,0,0,0,0,0,0,0,0,0,0,0,0,0,0,0,0,0,0,0,0,0,0,0,0,0,0,
0,0,0,0,0,0,0,0,0,0,0,0,0,0,0,0,0,0,0,0,0,0,0,0,0,0,0,0,0,0,0,0,0,0,0,0,0,0,0,0,0,0,0,0,0,0,0,0,0,0,0,0,0,0,0,0,
0,0,0,0,0,0,0,0,0,0,0,0,0,0,0,0,0,0,0,0,0,0,0,0,0,0,0,0,0,0,0,0,0,0,0,0,0,0,0,0,0,0,0,0,0,0,0,0,0,0,0,0,0,0,0,0,
0,0,0,0,0,0,0,0,0,0,0,0,0,0,0,0,0,0,0,0,0,0,0,0,0,0,0,0,0,0,0,0,0,0,0,0,0,0,0,0,0,0,0,0,0,0,0,0,0,0,0,0,0,0,0,0,
0,0,0,0,0,0,0,0,0,0,0,0,0,0,0,0,0,0,0,0,0,0,0,0,0,0,0,0,0,0,0,0,0,0,0,0,0,0,0,0,0,0,0,0,0,0,0,0,0,0,0,0,0,0,0,0,
0,0,0,0,0,0,0,0,0,0,0,0,0,0,0,0,0,0,0,0,0,0,0,0,0,0,0,0,0,0,0,0,0,0,0,0,0,0,0,0,0,0,0,0,0,0,0,0,0,0,0,0,0,0,0,0,
0,0,0,0,0,0,0,0,0,0,0,0,0,0,0,0,0,0,0,0,0,0,0,0,0,0,0,0,0,0,0,0,0,0,0,0,0,0,0,0,0,0,0,0,0,0,0,0,0,0,0,0,0,0,0,0,
0,0,0,0,0,0,0,0,0,0,0,0,0,0,0,0,0,0,0,0,0,0,0,0,0,0,0,0,0,0,0,0,0,0,0,0,0,0,0,0,0,0,0,0,0,0,0,0,0,0,0,0,0,0,0,0,
0,0,0,0,0,0,0,0,0,0,0,0,0,0,0,0,0,0,0,0,0,0,0,0,0,0,0,0,0,0,0,0,0,0,0,0,0,0,0,0,0,0,0,0,0,0,0,0,0,0,0,0,0,0,0,0,
0,0,0,0,0,0,0,0,0,0,0,0,0,0,0,0,0,0,0,0,0,0,0,0,0,0,0,0,0,0,0,0,0,0,0,0,0,0,0,0,0,0,0,0,0,0,0,0,0,0,0,0,0,0,0,0,
0,0,0,0,0,0,0,0,0,0,0,0,0,0,0,0,0,0,0,0,0,0,0,0,0,0,0,0,0,0,0,0,0,0,0,0,0,0,0,0,0,0,0,0,0,0,0,0,0,0,0,0,0,0,0,0,
0,0,0,0,0,0,0,0,0,0,0,0,0,0,0,0,0,0,0,0,0,0,0,0,0,0,0,0,0,0,0,0,0,0,0,0,0,0,0,0,0,0,0,0,0,0,0,0,0,0,0,0,0,0,0,0,
0,0,0,0,0,0,0,0,0,0,0,0,0,0,0,0,0,0,0,0,0,0,0,0,0,0,0,0,0,0,0,0,0,0,0,0,0,0,0,0,0,0,0,0,0,0,0,0,0,0,0,0,0,0,0,0,
0,0,0,0,0,0,0,0,0,0,0,0,0,0,0,0,0,0,0,0,0,0,0,0,0,0,0,0,0,0,0,0,0,0,0,0,0,0,0,0,0,0,0,0,0,0,0,0,0,0,0,0,0,0,0,0,
0,0,0,0,0,0,0,0,0,0,0,0,0,0,0,0,0,0,0,0,0,0,0,0,0,0,0,0,0,0,0,0,0,0,0,0,0,0,0,0,0,0,0,0,0,0,0,0,0,0,0,0,0,0,0,0,
0,0,0,0,0,0,0,0,0,0,0,0,0,0,0,0,0,0,0,0,0,0,0,0,0,0,0,0,0,0,0,0,0,0,0,0,0,0,0,0,0,0,0,0,0,0,0,0,0,0,0,0,0,0,0,0,
0,0,0,0,0,0,0,0,0,0,0,0,0,0,0,0,0,0,0,0,0,0,0,0,0,0,0,0,0,0,0,0,0,0,0,0,0,0,0,0,0,0,0,0,0,0,0,0,0,0,0,0,0,0,0,0,
0,0,0,0,0,0,0,0,0,0,0,0,0,0,0,0,0,0,0,0,0,0,0,0,0,0,0,0,0,0,0,0,0,0,0,0,0,0,0,0,0,0,0,0,0,0,0,0,0,0,0,0,0,0,0,0,
0,0,0,0,0,0,0,0,0,0,0,0,0,0,0,0,0,0,0,0,0,0,0,0,0,0,0,0,0,0,0,0,0,0,0,0,0,0,0,0,0,0,0,0,0,0,0,0,0,0,0,0,0,0,0,0,
0,0,0,0,0,0,0,0,0,0,0,0,0,0,0,0,0,0,0,0,0,0,0,0,0,0,0,0,0,0,0,0,0,0,0,0,0,0,0,0,0,0,0,0,0,0,0,0,0,0,0,0,0,0,0,0,
0,0,0,0,0,0,0,0,0,0,0,0,0,0,0,0,0,0,0,0,0,0,0,0,0,0,0,0,0,0,0,0,0,0,0,0,0,0,0,0,0,0,0,0,0,0,0,0,0,0,0,0,0,0,0,0,
0,0,0,0,0,0,0,0,0,0,0,0,0,0,0,0,0,0,0,0,0,0,0,0,0,0,0,0,0,0,0,0,0,0,0,0,0,0,0,0,0,0,0,0,0,0,0,0,0,0,0,0,0,0,0,0,
0,0,0,0,0,0,0,0,0,0,0,0,0,0,0,0,0,0,0,0,0,0,0,0,0,0,0,0,0,0,0,0,0,0,0,0,0,0,0,0,0,0,0,0,0,0,0,0,0,0,0,0,0,0,0,0,
0,0,0,0,0,0,0,0,0,0,0,0,0,0,0,0,0,0,0,0,0,0,0,0,0,0,0,0,0,0,0,0,0,0,0,0,0,0,0,0,0,0,0,0,0,0,0,0,0,0,0,0,0,0,0,0,
0,0,0,0,0,0,0,0,0,0,0,0,0,0,0,0,0,0,0,0,0,0,0,0,0,0,0,0,0,0,0,0,0,0,0,0,0,0,0,0,0,0,0,0,0,0,0,0,0,0,0,0,0,0,0,0,
0,0,0,0,0,0,0,0,0,0,0,0,0,0,0,0,0,0,0,0,0,0,0,0,0,0,0,0,0,0,0,0,0,0,0,0,0,0,0,0,0,0,0,0,0,0,0,0,0,0,0,0,0,0,0,0,
0,0,0,0,0,0,0,0,0,0,0,0,0,0,0,0,0,0,0,0,0,0,0,0,0,0,0,0,0,0,0,0,0,0,0,0,0,0,0,0,0,0,0,0,0,0,0,0,0,0,0,0,0,0,0,0,
0,0,0,0,0,0,0,0,0,0,0,0,0,0,0,0,0,0,0,0,0,0,0,0,0,0,0,0,0,0,0,0,0,0,0,0,0,0,0,0,0,0,0,0,0,0,0,0,0,0,0,0,0,0,0,0,
0,0,0,0,0,0,0,0,0,0,0,0,0,0,0,0,0,0,0,0,0,0,0,0,0,0,0,0,0,0,0,0,0,0,0,0,0,0,0,0,0,0,0,0,0,0,0,0,0,0,0,0,0,0,0,0,
0,0,0,0,0,0,0,0,0,0,0,0,0,0,0,0,0,0,0,0,0,0,0,0,0,0,0,0,0,0,0,0,0,0,0,0,0,0,0,0,0,0,0,0,0,0,0,0,0,0,0,0,0,0,0,0,
0,0,0,0,0,0,0,0,0,0,0,0,0,0,0,0,0,0,0,0,0,0,0,0,0,0,0,0,0,0,0,0,0,0,0,0,0,0,0,0,0,0,0,0,0,0,0,0,0,0,0,0,0,0,0,0,
0,0,0,0,0,0,0,0,0,0,0,0,0,0,0,0,0,0,0,0,0,0,0,0,0,0,0,0,0,0,0,0,0,0,0,0,0,0,0,0,0,0,0,0,0,0,0,0,0,0,0,0,0,0,0,0,
0,0,0,0,0,0,0,0,0,0,0,0,0,0,0,0,0,0,0,0,0,0,0,0,0,0,0,0,0,0,0,0,0,0,0,0,0,0,0,0,0,0,0,0,0,0,0,0,0,0,0,0,0,0,0,0
</data>
 </layer>
 <layer id="6" name="Collision" width="56" height="84">
  <data encoding="csv">
8809,8809,8809,8809,8810,8809,8809,8809,8809,8810,8809,8809,8810,8809,8810,8809,8810,8809,8809,8809,8809,8809,8809,8810,8810,8809,8809,8810,8810,8809,8809,8810,8809,8810,8809,8810,8809,8809,8809,8809,8810,8809,8809,8809,8810,8809,8809,8809,8810,8809,8809,8809,8809,8809,8810,8810,
8810,8809,8809,8809,8810,8809,8810,8810,8809,8809,8809,8809,8809,8809,8809,8809,8809,8809,8809,8810,8809,8809,8810,8810,8810,8810,8809,8809,8810,8809,8809,8809,8809,8810,8809,8809,8809,8809,8810,8809,8809,8809,8810,8809,8809,8809,8809,8809,8809,8809,8810,8810,8809,8809,8809,8809,
8810,8809,8809,8809,8809,8809,8809,8809,8810,8809,8809,8809,8810,8809,8810,8810,8809,8809,8809,8809,8809,8810,8809,8810,8810,8810,8809,8809,8809,8809,8810,8809,8809,8809,8809,8810,8809,8809,8810,8809,8809,8809,8809,8810,8809,8809,8809,8810,8809,8809,8810,8809,8809,8809,8809,8810,
8809,8809,8809,8809,8809,8809,8809,8810,8809,8810,8809,8809,8809,8809,8810,8809,8809,8809,8809,8809,8810,8809,8809,8810,8810,8810,8810,8810,8809,8810,8809,8809,8810,8810,8809,8810,8809,8809,8809,8809,8809,8810,8809,8810,8809,8809,8810,8809,8809,8809,8809,8810,8810,8809,8809,8810,
8809,8809,8809,8810,8809,8810,8809,8809,8809,8809,8809,8810,8809,8809,8809,8809,8810,8809,8809,8809,8809,8809,8810,8810,8810,8810,8810,8809,8809,8809,8809,8809,8809,8809,8809,8809,8809,8809,8809,8810,8809,8809,8809,8809,8809,8809,8809,8809,8809,8810,8809,8809,8809,8809,8809,8809,
8809,8809,8809,8810,8809,8809,8809,8809,8810,8809,8809,8809,8809,8810,8809,8809,8810,8810,8809,8809,8809,8810,8809,8810,8810,8810,8809,8810,8809,8809,8810,8809,8810,8809,8809,8810,8809,8809,8809,8809,8810,8809,8810,8809,8810,8809,8809,8809,8809,8810,8809,8809,8810,8810,8809,8809,
8809,8810,8809,8809,8809,8809,8809,8810,8809,8809,8810,8809,8810,8809,8809,8809,8809,8809,8809,8809,8809,8809,8810,8810,8810,8809,8809,8809,8809,8810,8809,8809,8809,8809,8809,8809,8810,8809,8809,8809,8809,8809,8809,8809,8809,8809,8810,8809,8809,8809,8809,8809,8809,8810,8810,8809,
8809,8809,8809,8810,8809,8810,8809,8810,8809,8809,8810,8809,8809,8809,8810,8809,8810,8809,8809,8810,8809,8810,8810,8810,8810,8809,8810,8809,8809,8809,8809,8810,8809,8810,8809,8809,8810,8809,8810,8809,8809,8810,8809,8810,8809,8809,8810,8809,8809,8810,8809,8810,8809,8809,8809,8809,
8810,8809,8809,8810,8809,8809,8810,8809,8809,8809,8809,8810,8809,8810,8809,8809,8809,8809,8810,8809,8809,8810,8810,8810,8810,8810,8809,8809,8809,8809,8809,8810,8809,8809,8809,8809,8810,8809,8809,8810,8809,8809,8809,8809,8809,8809,8809,8810,8809,8809,8809,8810,8809,8810,8809,8809,
8809,8809,8809,8809,8809,8809,8809,8809,8809,8810,8809,8809,8809,8809,8809,8809,8810,8809,8809,8809,8810,8810,8810,8810,8809,8809,8809,8810,8809,8809,8809,8809,8810,8809,8809,8809,8810,8809,8809,8809,8809,8809,8809,8809,8809,8810,8809,8809,8810,8809,8809,8809,8809,8809,8809,8809,
8809,8810,8809,8809,8810,8809,8809,8810,8809,8809,8810,8810,8809,8809,8809,8810,8809,8810,8809,8810,8810,8810,8810,8809,8809,8810,8810,8809,8809,8809,8809,8809,8809,8810,8809,8809,8810,8809,8809,8809,8809,8809,8809,8809,8809,8809,8809,8809,8809,8810,8810,8809,8810,8809,8810,8809,
8810,8809,8809,8809,8809,8809,8809,8810,8809,8809,8809,8809,8809,8810,8809,8809,8809,8810,8810,8810,8810,8809,8809,8809,8809,8809,8809,8809,8810,8809,8810,8809,8810,8809,8809,8809,8809,8809,8809,8810,8810,8810,8810,8810,8809,8809,8809,8809,8809,8809,8809,8809,8809,8809,8809,8809,
8809,8809,8810,8809,8810,8809,8809,8809,8809,8810,8810,8809,8809,8809,8809,8809,8809,8810,8810,8810,8809,8809,8809,8809,8809,8809,8809,8809,8809,8810,8809,8809,8809,8809,8809,8809,8809,8809,8809,8810,8810,8810,8810,8810,8809,8809,8809,8809,8809,8809,8810,8809,8810,8810,8809,8809,
8809,8809,8809,8809,8809,8810,8809,8810,8809,8809,8809,8810,8809,8810,8809,8809,8810,8810,8810,8809,8809,8809,8810,8810,8809,8809,8810,8809,8809,8809,8809,8809,8809,8809,8809,8809,8809,8809,8809,8810,8810,8810,8810,8810,8809,8809,8809,8809,8810,8809,8809,8810,8810,8809,8809,8809,
8809,8809,8809,8810,8809,8809,8809,8809,8809,8810,8809,8809,8809,8809,8809,8810,8810,8810,8810,8809,8809,8809,8809,8809,8810,8809,8809,8809,8809,8809,8809,8809,8809,8810,8809,8809,8809,8809,8809,8810,8810,8810,8810,8810,8809,8810,8809,8809,8809,8809,8809,8809,8809,8809,8809,8810,
8810,8809,8809,8809,8810,8809,8810,8810,8809,8809,8810,8809,8809,8810,8809,8810,8810,8810,8810,8809,8809,8809,8809,8809,8810,8809,8809,8809,8809,8809,8809,8809,8809,8809,8809,8809,8809,8809,8810,8809,8809,8809,8809,8809,8809,8809,8809,8809,8809,8810,8809,8810,8809,8809,8809,8809,
8809,8809,8809,8809,8809,8809,8809,8809,8809,8809,8809,8809,8809,8809,8810,8810,8810,8810,8810,8809,8810,8809,8810,8809,8809,8809,8809,8809,8809,8810,8809,8809,8809,8810,8809,8809,8809,8809,8809,8810,8809,8809,8809,8809,8810,8809,8809,8809,8809,8809,8809,8809,8809,8809,8810,8809,
8810,8809,8809,8809,8810,8809,8809,8809,8810,8809,8810,8810,8809,8809,8810,8810,8810,8810,8810,8809,8810,8809,8810,8809,8810,8809,8809,8809,8810,8809,8809,8809,8810,8809,8809,8809,8809,8809,8809,8809,8809,8809,8809,8809,8809,8809,8809,8809,8810,8809,8809,8810,8809,8809,8809,8809,
8809,8809,8810,8809,8809,8809,8809,8809,8809,8809,8809,8809,8809,8809,8809,8810,8810,8810,8810,8809,8810,8809,8809,8809,8809,8810,8809,8810,8809,8809,8809,8810,8809,8809,8809,8810,8809,8809,8809,8809,8809,8809,8809,8809,8809,8809,8809,8810,8809,8809,8809,8809,8810,8810,8809,8809,
8809,8810,8809,8809,8809,8809,8810,8810,8809,8809,8809,8810,8809,8810,8809,8810,8810,8810,8810,8809,8809,8809,8809,8810,8809,8809,8810,8809,8809,8809,8810,8809,8810,8809,8809,8809,8809,8809,8809,8809,8809,8809,8809,8809,8809,8809,8809,8809,8809,8809,8810,8809,8809,8809,8810,8809,
8810,8809,8809,8809,8810,8809,8809,8809,8809,8809,8810,8810,8809,8809,8809,8810,8810,8810,8810,8810,8810,8809,8809,8809,8810,8809,8810,8809,8809,8809,8809,8809,8809,8809,8809,8809,8809,8810,8809,8810,8809,8809,8809,8809,8809,8809,8809,8809,8810,8809,8809,8809,8809,8810,8809,8809,
8809,8810,8809,8809,8809,8809,8809,8809,8810,8809,8809,8809,8809,8809,8809,8809,8810,8810,8810,8810,8809,8809,8810,8809,8809,8809,8809,8809,8809,8810,8809,8810,8809,8810,8809,8809,8809,8809,8809,8809,8809,8809,8809,8809,8809,8809,8810,8809,8809,8809,8810,8809,8809,8809,8809,8810,
8809,8810,8809,8809,8810,8810,8809,8809,8809,8810,8809,8810,8809,8809,8810,8809,8809,8810,8810,8810,8810,8809,8809,8809,8809,8810,8810,8809,8810,8809,8809,8809,8809,8809,8809,8810,8810,8809,8809,8809,8809,8809,8809,8809,8809,8809,8810,8809,8810,8809,8809,8809,8810,8810,8809,8809,
8809,8809,8810,8809,8809,8809,8809,8809,8809,8809,8809,8809,8809,8809,8809,8809,8809,8810,8810,8810,8810,8809,8809,8809,8810,8810,8809,8809,8809,8809,8809,8809,8809,8809,8809,8809,8809,8809,8809,8809,8809,8809,8809,8809,8809,8809,8809,8809,8809,8809,8809,8809,8809,8809,8809,8809,
8809,8810,8809,8809,8810,8809,8809,8809,8810,8810,8809,8809,8809,8810,8809,8809,8809,8809,8810,8810,8810,8809,8809,8809,8809,8809,8809,8809,8809,8809,8809,8810,8809,8810,8809,8809,8809,8809,8810,8809,8810,8809,8809,8809,8809,8809,8809,8809,8810,8809,8810,8809,8810,8809,8809,8810,
8810,8809,8809,8809,8809,8810,8809,8809,8810,8809,8809,8810,8810,8809,8810,8809,8810,8809,8810,8810,8810,8809,8809,8809,8809,8809,8809,8809,8809,8809,8809,8809,8809,8809,8809,8809,8809,8809,8809,8810,8809,8809,8809,8809,8809,8809,8810,8809,8810,8809,8809,8809,8809,8809,8809,8809,
8809,8809,8809,8809,8809,8809,8809,8809,8809,8809,8809,8809,8809,8809,8809,8809,8809,8809,8810,8810,8810,8810,8809,8809,8809,8809,8809,8809,8810,8809,8809,8809,8809,8809,8809,8809,8809,8810,8809,8809,8809,8809,8809,8809,8809,8809,8809,8809,8809,8809,8809,8810,8809,8810,8809,8809,
8809,8809,8810,8809,8809,8810,8809,8809,8809,8809,8809,8810,8809,8809,8809,8809,8809,8809,8810,8810,8810,8810,8810,8809,8809,8809,8809,8809,8809,8809,8810,8809,8809,8809,8809,8809,8809,8810,8809,8809,8809,8809,8809,8809,8809,8809,8809,8810,8809,8809,8810,8809,8810,8809,8809,8809,
8809,8809,8809,8809,8809,8809,8809,8810,8809,8809,8810,8809,8809,8809,8809,8810,8809,8809,8810,8810,8810,8810,8810,8809,8809,8809,8810,8809,8809,8809,8809,8809,8810,8809,8810,8809,8809,8809,8809,8809,8809,8809,8809,8809,8809,8809,8809,8809,8809,8810,8809,8809,8809,8810,8810,8810,
8809,8809,8810,8810,8809,8809,8809,8810,8809,8809,8809,8810,8809,8810,8809,8809,8809,8809,8809,8810,8810,8810,8809,8809,8809,8809,8809,8809,8809,8809,8809,8809,8809,8809,8809,8809,8809,8809,8809,8809,8809,8809,8809,8809,8809,8809,8810,8809,8809,8809,8810,8809,8809,8809,8809,8809,
8809,8809,8809,8809,8809,8809,8809,8810,8809,8809,8810,8810,8809,8809,8809,8810,8809,8809,8810,8810,8810,8810,8809,8809,8809,8809,8809,8809,8809,8809,8809,8809,8809,8809,8809,8809,8809,8809,8809,8809,8809,8809,8809,8809,8809,8809,8809,8809,8809,8809,8809,8809,8809,8809,8809,8809,
8809,8809,8809,8809,8809,8809,8810,8809,8809,8809,8809,8809,8809,8809,8809,8809,8809,8809,8810,8810,8810,8810,8809,8809,8809,8810,8810,8810,8810,8809,8809,8809,8809,8809,8809,8809,8809,8809,8809,8809,8809,8809,8809,8809,8809,8809,8809,8809,8809,8809,8809,8809,8809,8809,8809,8809,
8809,8809,8809,8809,8809,8809,8809,8809,8809,8809,8809,8810,8809,8809,8809,8809,8809,8810,8810,8810,8810,8809,8809,8809,8810,8810,8810,8810,8810,8810,8809,8809,8809,8809,8809,8809,8809,8809,8809,8809,8809,8809,8809,8809,8809,8809,8809,8809,8809,8809,8809,8809,8809,8809,8809,8809,
8810,8809,8809,8809,8809,8809,8809,8809,8809,8810,8809,8809,8809,8809,8809,8809,8810,8810,8810,8810,8809,8809,8809,8810,8810,8810,8810,8810,8810,8810,8810,8810,8810,8810,8809,8809,8809,8809,8809,8809,8809,8809,8809,8809,8809,8809,8809,8809,8809,8809,8809,8809,8809,8810,8809,8809,
8809,8809,8809,8809,8810,8809,8809,8809,8809,8809,8809,8809,8809,8809,8809,8809,8810,8810,8810,8809,8809,8810,8809,8810,8810,8810,8810,8810,8810,8810,8810,8810,8810,8810,8809,8809,8810,8809,8809,8809,8809,8809,8810,8809,8809,8809,8809,8809,8809,8809,8809,8809,8809,8809,8809,8809,
8809,8810,8809,8809,8809,8809,8809,8810,8809,8809,8809,8809,8809,8809,8809,8810,8810,8810,8809,8809,8809,8809,8809,8810,8810,8810,8810,8810,8810,8810,8810,8810,8810,8810,8809,8809,8809,8809,8809,8809,8809,8809,8809,8809,8809,8809,8809,8809,8809,8809,8809,8809,8809,8809,8809,8809,
8809,8809,8809,8809,8809,8809,8809,8809,8809,8809,8809,8809,8809,8809,8810,8809,8810,8810,8809,8809,8809,8809,8809,8810,8810,8810,8810,8810,8810,8810,8810,8810,8810,8810,8809,8809,8809,8809,8810,8810,8810,8809,8809,8809,8809,8809,8809,8809,8809,8809,8809,8809,8809,8809,8809,8809,
8809,8809,8809,8809,8809,8809,8809,8809,8809,8809,8809,8809,8809,8809,8809,8809,8810,8810,8810,8809,8809,8809,8809,8810,8810,8810,8810,8810,8810,8810,8810,8810,8810,8810,8809,8809,8809,8809,8809,8809,8809,8809,8809,8809,8809,8809,8809,8809,8809,8809,8809,8809,8809,8809,8809,8809,
8809,8809,8809,8809,8809,8809,8809,8809,8809,8809,8809,8809,8809,8809,8809,8809,8810,8810,8810,8809,8809,8809,8809,8810,8810,8810,8810,8810,8810,8810,8810,8810,8810,8810,8809,8809,8809,8809,8809,8809,8809,8809,8809,8810,8809,8809,8809,8809,8809,8809,8809,8809,8809,8810,8809,8809,
8809,8809,8809,8809,8809,8809,8809,8809,8809,8809,8809,8809,8809,8809,8809,8810,8809,8810,8810,8810,8809,8810,8809,8810,8810,8810,8810,8810,8810,8810,8810,8810,8810,8810,8809,8809,8809,8810,8810,8809,8809,8809,8809,8809,8809,8809,8809,8810,8810,8810,8810,8810,8809,8809,8809,8809,
8809,8809,8809,8809,8809,8809,8810,8810,8809,8810,8810,8810,8810,8810,8809,8809,8809,8810,8810,8810,8809,8809,8809,8810,8810,8810,8809,8809,8810,8810,8810,8809,8809,8810,8810,8810,8809,8809,8809,8809,8810,8810,8809,8809,8809,8809,8809,8810,8810,8810,8810,8810,8809,8809,8809,8809,
8809,8809,8809,8809,8809,8809,8809,8809,8809,8810,8810,8810,8810,8810,8809,8809,8809,8810,8810,8810,8809,8809,8809,8809,8809,8809,8809,8809,8809,8809,8809,8809,8809,8809,8809,8809,8809,8809,8809,8809,8809,8809,8809,8809,8809,8809,8809,8810,8810,8809,8810,8810,8809,8809,8809,8809,
8809,8809,8810,8810,8810,8809,8809,8809,8810,8810,8810,8809,8810,8810,8809,8809,8809,8810,8810,8810,8810,8809,8809,8809,8809,8809,8809,8809,8809,8809,8809,8809,8809,8809,8810,8809,8810,8810,8810,8810,8810,8810,8809,8809,8809,8809,8809,8810,8809,8809,8809,8810,8810,8809,8809,8809,
8809,8809,8809,8809,8809,8809,8809,8809,8809,8809,8809,8809,8809,8809,8810,8809,8809,8810,8810,8810,8810,8809,8810,8809,8809,8810,8809,8809,8810,8809,8810,8809,8809,8809,8809,8809,8809,8809,8809,8809,8809,8809,8809,8809,8809,8809,8809,8809,8809,8809,8809,8809,8809,8809,8809,8809,
8809,8809,8809,8809,8809,8809,8809,8809,8810,8809,8809,8809,8809,8810,8809,8809,8809,8809,8809,8809,8809,8809,8809,8809,8809,8809,8809,8809,8809,8809,8809,8809,8809,8809,8809,8809,8809,8809,8809,8809,8809,8809,8809,8809,8809,8809,8809,8809,8809,8809,8809,8809,8809,8809,8809,8809,
8809,8809,8809,8809,8809,8809,8809,8809,8809,8809,8809,8809,8809,8809,8809,8809,8809,8809,8809,8809,8809,8809,8809,8809,8809,8809,8809,8809,8809,8810,8810,8809,8809,8809,8809,8809,8809,8809,8809,8809,8809,8809,8809,8809,8809,8809,8809,8809,8809,8809,8809,8809,8809,8809,8809,8809,
8809,8809,8809,8809,8809,8809,8809,8809,8809,8809,8809,8809,8809,8809,8809,8809,8809,8810,8810,8810,8809,8809,8809,8809,8809,8809,8809,8809,8809,8809,8809,8809,8809,8809,8809,8809,8809,8809,8809,8809,8809,8809,8809,8809,8809,8809,8809,8809,8809,8809,8809,8809,8809,8809,8809,8809,
8809,8809,8809,8809,8809,8809,8809,8809,8809,8809,8809,8809,8809,8809,8809,8809,8809,8810,8810,8810,8809,8809,8809,8809,8809,8809,8809,8809,8809,8809,8809,8809,8809,8809,8809,8809,8809,8809,8809,8809,8809,8809,8809,8809,8809,8809,8809,8809,8809,8809,8809,8809,8809,8809,8809,8809,
8809,8809,8809,8809,8809,8809,8810,8809,8809,8809,8809,8809,8809,8809,8809,8809,8809,8810,8810,8810,8809,8809,8809,8809,8809,8809,8809,8809,8809,8809,8809,8809,8809,8809,8809,8809,8809,8809,8809,8809,8809,8809,8809,8809,8809,8809,8809,8809,8809,8809,8809,8809,8809,8809,8809,8809,
8809,8809,8809,8809,8809,8809,8809,8809,8809,8809,8809,8810,8809,8809,8809,8809,8809,8810,8810,8810,8809,8809,8809,8809,8809,8809,8810,8810,8810,8810,8810,8810,8809,8809,8809,8810,8810,8810,8810,8810,8810,8810,8810,8809,8809,8809,8809,8809,8809,8809,8809,8809,8809,8809,8809,8809,
8809,8809,8810,8809,8809,8809,8809,8809,8809,8809,8809,8809,8809,8809,8809,8810,8809,8810,8810,8810,8810,8809,8809,8809,8809,8809,8809,8809,8809,8809,8809,8809,8809,8809,8809,8809,8809,8809,8809,8809,8809,8809,8809,8809,8809,8809,8809,8809,8810,8809,8809,8809,8809,8810,8809,8809,
8809,8809,8809,8809,8809,8809,8809,8809,8809,8809,8809,8809,8809,8809,8809,8809,8809,8809,8810,8810,8810,8810,8809,8809,8809,8809,8810,8810,8810,8810,8810,8810,8809,8809,8809,8810,8810,8810,8810,8810,8810,8810,8810,8809,8809,8809,8809,8809,8809,8809,8809,8809,8809,8809,8809,8809,
8809,8809,8809,8809,8809,8809,8809,8809,8809,8809,8809,8809,8809,8809,8809,8809,8809,8809,8810,8810,8810,8810,8809,8809,8809,8809,8809,8809,8809,8809,8809,8809,8809,8809,8809,8809,8809,8809,8809,8809,8809,8809,8809,8809,8809,8809,8809,8809,8810,8809,8809,8809,8809,8810,8809,8809,
8809,8809,8809,8809,8809,8809,8809,8810,8809,8809,8809,8809,8809,8809,8809,8809,8809,8809,8810,8810,8810,8809,8809,8809,8809,8809,8810,8810,8810,8810,8810,8810,8809,8809,8809,8810,8810,8810,8810,8810,8810,8810,8810,8809,8809,8809,8809,8809,8809,8809,8810,8809,8809,8809,8809,8809,
8809,8809,8809,8809,8809,8809,8810,8809,8810,8809,8809,8809,8809,8809,8809,8809,8809,8809,8810,8810,8810,8809,8809,8809,8809,8809,8809,8809,8809,8809,8809,8809,8809,8809,8809,8809,8809,8809,8809,8809,8809,8809,8809,8809,8809,8809,8809,8809,8810,8809,8809,8809,8810,8809,8809,8809,
8809,8809,8810,8809,8809,8809,8809,8809,8809,8809,8809,8809,8809,8809,8809,8809,8809,8810,8810,8810,8809,8809,8809,8809,8809,8809,8810,8810,8810,8810,8810,8810,8809,8809,8809,8810,8810,8810,8810,8810,8810,8810,8810,8809,8809,8809,8809,8809,8809,8809,8810,8809,8809,8809,8809,8809,
8809,8809,8809,8809,8809,8809,8809,8809,8809,8809,8809,8809,8809,8810,8809,8809,8810,8810,8810,8810,8809,8809,8810,8809,8809,8809,8809,8809,8809,8809,8809,8809,8809,8809,8809,8809,8809,8809,8809,8809,8809,8809,8809,8809,8809,8809,8809,8809,8809,8809,8809,8809,8809,8809,8809,8809,
8809,8809,8809,8809,8809,8810,8809,8809,8809,8809,8809,8809,8809,8809,8809,8809,8810,8810,8810,8809,8809,8809,8809,8809,8809,8809,8809,8809,8809,8809,8809,8809,8809,8809,8809,8809,8809,8809,8809,8809,8809,8809,8809,8810,8809,8810,8809,8809,8809,8809,8809,8809,8809,8809,8809,8809,
8809,8809,8809,8809,8809,8809,8809,8809,8809,8810,8809,8809,8809,8809,8809,8810,8810,8810,8810,8809,8809,8809,8810,8809,8809,8809,8809,8809,8809,8809,8809,8809,8809,8809,8809,8809,8809,8809,8809,8809,8809,8809,8809,8809,8809,8809,8809,8809,8809,8809,8809,8809,8809,8809,8809,8809,
8809,8809,8809,8809,8809,8809,8809,8809,8809,8809,8809,8809,8809,8809,8809,8810,8810,8810,8809,8809,8809,8809,8809,8809,8809,8809,8809,8810,8809,8809,8809,8809,8809,8809,8809,8809,8809,8809,8809,8809,8809,8809,8809,8809,8809,8809,8809,8809,8809,8809,8809,8809,8809,8809,8809,8809,
8809,8809,8810,8809,8809,8809,8809,8809,8809,8809,8809,8809,8809,8809,8810,8810,8810,8810,8809,8809,8809,8809,8809,8809,8809,8810,8809,8809,8809,8809,8809,8809,8809,8809,8809,8809,8809,8809,8809,8809,8809,8809,8810,8809,8809,8809,8809,8809,8809,8810,8809,8809,8809,8809,8809,8809,
8809,8809,8809,8809,8809,8809,8809,8809,8809,8809,8809,8809,8809,8810,8810,8810,8810,8810,8809,8809,8809,8809,8809,8809,8809,8809,8809,8809,8809,8809,8810,8809,8810,8810,8809,8809,8809,8810,8809,8810,8809,8810,8809,8810,8809,8809,8809,8809,8809,8809,8809,8809,8810,8809,8809,8809,
8809,8809,8809,8810,8809,8809,8809,8809,8809,8809,8809,8810,8809,8810,8810,8810,8810,8809,8809,8809,8810,8809,8809,8809,8809,8809,8809,8809,8809,8809,8809,8809,8809,8809,8809,8809,8809,8809,8809,8810,8809,8809,8809,8809,8809,8810,8809,8810,8810,8809,8809,8809,8809,8810,8809,8810,
8809,8809,8809,8809,8809,8809,8809,8809,8809,8809,8809,8809,8809,8809,8809,8810,8810,8810,8809,8809,8809,8809,8809,8809,8809,8809,8809,8809,8809,8810,8809,8809,8810,8809,8809,8809,8809,8809,8809,8810,8809,8809,8809,8809,8810,8809,8810,8809,8809,8810,8809,8809,8809,8810,8810,8809,
8809,8809,8810,8809,8809,8809,8809,8809,8809,8809,8809,8809,8809,8809,8809,8809,8810,8810,8810,8809,8809,8809,8809,8809,8809,8809,8809,8810,8809,8810,8809,8809,8809,8809,8809,8809,8809,8809,8810,8809,8809,8809,8810,8810,8809,8809,8809,8809,8809,8810,8809,8809,8810,8809,8809,8809,
8809,8809,8810,8809,8809,8809,8809,8809,8809,8810,8810,8809,8809,8809,8809,8810,8810,8810,8810,8810,8809,8809,8809,8810,8809,8810,8809,8809,8810,8809,8809,8810,8809,8810,8809,8810,8809,8810,8809,8809,8810,8809,8809,8809,8810,8809,8809,8810,8809,8809,8809,8809,8809,8809,8810,8810,
8810,8809,8809,8810,8809,8809,8809,8810,8810,8809,8809,8810,8810,8810,8809,8809,8809,8810,8810,8810,8810,8810,8810,8809,8809,8810,8809,8809,8810,8809,8810,8809,8810,8810,8809,8809,8809,8809,8809,8809,8809,8810,8809,8810,8809,8810,8810,8809,8810,8809,8809,8810,8810,8809,8810,8809,
8809,8809,8810,8810,8809,8810,8809,8810,8809,8809,8809,8809,8809,8810,8809,8809,8809,8809,8810,8810,8810,8810,8810,8810,8809,8810,8809,8809,8809,8809,8809,8809,8810,8809,8809,8809,8810,8809,8809,8809,8809,8809,8809,8809,8809,8809,8809,8809,8810,8809,8809,8809,8809,8809,8809,8809,
8809,8809,8809,8809,8809,8809,8809,8809,8809,8809,8810,8809,8810,8809,8809,8810,8809,8809,8809,8810,8810,8810,8810,8810,8810,8810,8809,8809,8810,8810,8810,8809,8809,8809,8809,8809,8809,8809,8809,8809,8809,8809,8810,8809,8810,8809,8809,8809,8809,8809,8810,8810,8809,8809,8810,8809,
8809,8809,8809,8810,8810,8809,8809,8810,8809,8809,8809,8809,8809,8809,8809,8809,8809,8809,8809,8809,8810,8809,8810,8810,8810,8810,8810,8810,8810,8809,8809,8810,8809,8809,8810,8809,8809,8809,8809,8810,8809,8810,8810,8809,8810,8809,8810,8809,8810,8809,8810,8809,8810,8809,8810,8809,
8809,8810,8809,8809,8809,8809,8810,8809,8809,8809,8809,8810,8809,8809,8809,8809,8809,8810,8810,8809,8809,8809,8809,8810,8810,8810,8810,8810,8809,8809,8809,8809,8809,8809,8809,8809,8809,8810,8809,8809,8809,8809,8809,8810,8809,8809,8810,8809,8809,8809,8809,8809,8809,8810,8809,8809,
8810,8809,8809,8809,8810,8809,8810,8809,8810,8809,8809,8809,8809,8809,8809,8809,8809,8809,8809,8809,8810,8809,8809,8809,8810,8810,8810,8810,8809,8810,8809,8809,8809,8809,8809,8810,8809,8809,8809,8809,8809,8809,8809,8809,8810,8809,8809,8809,8809,8810,8809,8810,8809,8809,8809,8809,
8810,8809,8809,8809,8809,8810,8809,8810,8809,8809,8809,8809,8809,8810,8809,8809,8809,8810,8810,8810,8809,8809,8810,8809,8809,8810,8810,8810,8810,8809,8810,8809,8809,8809,8809,8809,8809,8809,8809,8809,8810,8809,8809,8809,8809,8809,8809,8810,8810,8810,8809,8810,8809,8809,8810,8809,
8809,8810,8809,8809,8810,8809,8809,8809,8809,8809,8809,8809,8809,8809,8809,8809,8809,8810,8809,8809,8809,8809,8809,8809,8809,8809,8810,8810,8810,8809,8809,8810,8809,8810,8809,8809,8809,8809,8809,8809,8809,8809,8809,8809,8810,8809,8809,8809,8809,8809,8810,8810,8809,8809,8809,8809,
8809,8810,8809,8809,8809,8810,8810,8809,8809,8809,8809,8809,8809,8809,8809,8809,8809,8809,8810,8809,8809,8810,8809,8810,8809,8809,8810,8810,8810,8810,8809,8809,8809,8809,8809,8809,8809,8809,8809,8809,8809,8809,8809,8810,8810,8809,8809,8810,8809,8809,8809,8809,8810,8809,8809,8810,
8809,8809,8810,8810,8809,8809,8809,8810,8809,8809,8809,8809,8810,8809,8810,8809,8809,8810,8809,8809,8809,8809,8810,8809,8810,8809,8810,8810,8810,8809,8810,8809,8810,8810,8809,8810,8809,8809,8809,8809,8810,8809,8809,8810,8809,8809,8809,8809,8809,8809,8809,8809,8810,8810,8809,8809,
8810,8809,8809,8809,8809,8810,8809,8809,8810,8809,8809,8809,8810,8809,8809,8809,8810,8809,8810,8809,8809,8810,8810,8809,8809,8810,8810,8810,8810,8809,8809,8809,8810,8809,8809,8810,8809,8809,8809,8810,8809,8809,8809,8809,8810,8810,8810,8809,8810,8810,8809,8809,8809,8810,8809,8809,
8809,8810,8810,8809,8809,8809,8809,8810,8810,8809,8809,8810,8809,8809,8809,8809,8810,8809,8809,8810,8809,8810,8809,8809,8809,8810,8810,8810,8810,8809,8810,8809,8809,8809,8809,8809,8809,8809,8810,8810,8809,8810,8809,8809,8809,8810,8809,8809,8809,8809,8810,8810,8809,8809,8810,8810,
8810,8809,8809,8809,8810,8809,8810,8809,8809,8809,8810,8809,8810,8810,8809,8809,8809,8810,8809,8810,8810,8809,8810,8810,8809,8810,8810,8810,8810,8809,8810,8809,8809,8810,8810,8810,8809,8809,8809,8809,8810,8809,8809,8810,8810,8809,8810,8810,8809,8809,8809,8809,8810,8809,8809,8809,
8809,8809,8809,8809,8810,8809,8809,8809,8809,8809,8809,8810,8809,8809,8809,8809,8809,8810,8809,8809,8809,8809,8809,8809,8809,8810,8810,8810,8810,8809,8809,8809,8809,8809,8809,8809,8810,8809,8810,8809,8809,8809,8809,8809,8809,8810,8809,8809,8809,8810,8809,8809,8809,8809,8809,8809,
8810,8809,8809,8810,8809,8809,8809,8810,8809,8809,8810,8809,8809,8810,8809,8810,8809,8809,8809,8810,8809,8810,8809,8810,8810,8810,8810,8810,8810,8810,8809,8810,8810,8809,8809,8809,8809,8810,8809,8810,8810,8809,8809,8810,8809,8809,8809,8810,8809,8809,8809,8809,8810,8809,8809,8810,
8809,8809,8809,8810,8809,8809,8810,8809,8810,8809,8810,8809,8810,8809,8809,8810,8810,8809,8810,8809,8810,8809,8810,8809,8810,8810,8810,8810,8810,8809,8809,8810,8809,8809,8810,8809,8810,8809,8810,8810,8809,8810,8809,8809,8809,8810,8809,8809,8809,8809,8810,8810,8809,8809,8809,8809,
8809,8809,8810,8809,8810,8809,8809,8809,8809,8809,8810,8809,8809,8809,8809,8809,8809,8809,8809,8810,8809,8809,8809,8809,8809,8810,8810,8810,8810,8809,8809,8809,8809,8809,8810,8809,8809,8809,8810,8809,8809,8810,8809,8809,8810,8809,8809,8809,8810,8809,8809,8809,8809,8809,8810,8809,
8809,8809,8809,8810,8809,8809,8810,8809,8810,8810,8809,8809,8809,8810,8809,8809,8810,8809,8809,8809,8809,8810,8809,8810,8809,8809,8810,8810,8810,8809,8809,8810,8809,8810,8809,8809,8809,8809,8809,8809,8809,8809,8809,8810,8810,8810,8809,8809,8810,8810,8810,8809,8809,8809,8810,8809
</data>
 </layer>
 <objectgroup id="7" name="Scenery">
  <object id="1" gid="2147492509" x="26" y="-1" width="64" height="64" />
  <object id="2" gid="8860" x="695" y="0" width="64" height="64" />
  <object id="3" gid="2147492507" x="118" y="2" width="64" height="64" />
  <object id="4" gid="8860" x="429" y="2" width="64" height="64" />
  <object id="5" gid="2147492508" x="615" y="3" width="64" height="64" />
  <object id="6" gid="8859" x="205" y="4" width="64" height="64" />
  <object id="7" gid="8859" x="510" y="4" width="64" height="64" />
  <object id="8" gid="8860" x="44" y="5" width="64" height="64" />
  <object id="9" gid="2147492510" x="832" y="6" width="64" height="64" />
  <object id="10" gid="2147492509" x="233" y="7" width="64" height="64" />
  <object id="11" gid="2147492507" x="410" y="7" width="64" height="64" />
  <object id="12" gid="8862" x="167" y="9" width="64" height="64" />
  <object id="13" gid="2147492510" x="477" y="12" width="64" height="64" />
  <object id="14" gid="8861" x="541" y="13" width="64" height="64" />
  <object id="15" gid="2147492508" x="679" y="13" width="64" height="64" />
  <object id="16" gid="2147492508" x="736" y="15" width="64" height="64" />
  <object id="17" gid="8859" x="858" y="15" width="64" height="64" />
  <object id="18" gid="8861" x="576" y="17" width="64" height="64" />
  <object id="19" gid="2147492507" x="-21" y="18" width="64" height="64" />
  <object id="20" gid="8861" x="274" y="18" width="64" height="64" />
  <object id="21" gid="8862" x="91" y="20" width="64" height="64" />
  <object id="22" gid="8860" x="768" y="20" width="64" height="64" />
  <object id="23" gid="8861" x="43" y="26" width="64" height="64" />
  <object id="24" gid="8859" x="649" y="27" width="64" height="64" />
  <object id="25" gid="8860" x="428" y="28" width="64" height="64" />
  <object id="26" gid="2147492509" x="794" y="28" width="64" height="64" />
  <object id="27" gid="8860" x="497" y="30" width="64" height="64" />
  <object id="28" gid="2147492508" x="78" y="31" width="64" height="64" />
  <object id="29" gid="8860" x="460" y="33" width="64" height="64" />
  <object id="30" gid="8860" x="668" y="33" width="64" height="64" />
  <object id="31" gid="8860" x="163" y="36" width="64" height="64" />
  <object id="32" gid="2147492507" x="583" y="37" width="64" height="64" />
  <object id="33" gid="2147492510" x="729" y="39" width="64" height="64" />
  <object id="34" gid="2147492508" x="308" y="40" width="64" height="64" />
  <object id="35" gid="2147492507" x="-24" y="42" width="64" height="64" />
  <object id="36" gid="8860" x="199" y="42" width="64" height="64" />
  <object id="37" gid="8865" x="542" y="42" width="64" height="64" />
  <object id="38" gid="8861" x="851" y="43" width="64" height="64" />
  <object id="39" gid="8860" x="221" y="46" width="64" height="64" />
  <object id="40" gid="2147492508" x="103" y="47" width="64" height="64" />
  <object id="41" gid="2147492507" x="772" y="47" width="64" height="64" />
  <object id="42" gid="8861" x="442" y="55" width="64" height="64" />
  <object id="43" gid="2147492507" x="806" y="55" width="64" height="64" />
  <object id="44" gid="2147492507" x="291" y="56" width="64" height="64" />
  <object id="45" gid="8861" x="798" y="56" width="64" height="64" />
  <object id="46" gid="2147492509" x="401" y="57" width="64" height="64" />
  <object id="47" gid="8862" x="537" y="57" width="64" height="64" />
  <object id="48" gid="8862" x="632" y="57" width="64" height="64" />
  <object id="49" gid="2147492513" x="95" y="58" width="64" height="64" />
  <object id="50" gid="2147492508" x="206" y="58" width="64" height="64" />
  <object id="51" gid="8862" x="501" y="59" width="64" height="64" />
  <object id="52" gid="8860" x="480" y="61" width="64" height="64" />
  <object id="53" gid="8859" x="664" y="61" width="64" height="64" />
  <object id="54" gid="2147492510" x="705" y="62" width="64" height="64" />
  <object id="55" gid="2147492507" x="119" y="63" width="64" height="64" />
  <object id="56" gid="8859" x="860" y="63" width="64" height="64" />
  <object id="57" gid="2147492510" x="-36" y="66" width="64" height="64" />
  <object id="58" gid="2147492509" x="18" y="67" width="64" height="64" />
  <object id="59" gid="2147492508" x="154" y="68" width="64" height="64" />
  <object id="60" gid="2147492508" x="229" y="69" width="64" height="64" />
  <object id="61" gid="2147492507" x="59" y="72" width="64" height="64" />
  <object id="62" gid="8979" x="331" y="72" width="64" height="64" />
  <object id="63" gid="8859" x="754" y="73" width="64" height="64" />
  <object id="64" gid="2147492509" x="606" y="74" width="64" height="64" />
  <object id="65" gid="8862" x="815" y="81" width="64" height="64" />
  <object id="66" gid="2147492508" x="99" y="83" width="64" height="64" />
  <object id="67" gid="2147492513" x="250" y="83" width="64" height="64" />
  <object id="68" gid="8859" x="486" y="84" width="64" height="64" />
  <object id="69" gid="8860" x="317" y="85" width="64" height="64" />
  <object id="70" gid="2147492508" x="26" y="87" width="64" height="64" />
  <object id="71" gid="8859" x="535" y="87" width="64" height="64" />
  <object id="72" gid="2147492509" x="225" y="89" width="64" height="64" />
  <object id="73" gid="8862" x="407" y="90" width="64" height="64" />
  <object id="74" gid="8860" x="178" y="92" width="64" height="64" />
  <object id="75" gid="8859" x="675" y="92" width="64" height="64" />
  <object id="76" gid="8859" x="824" y="93" width="64" height="64" />
  <object id="77" gid="8860" x="643" y="95" width="64" height="64" />
  <object id="78" gid="8862" x="463" y="96" width="64" height="64" />
  <object id="79" gid="2147492513" x="618" y="96" width="64" height="64" />
  <object id="80" gid="8860" x="762" y="96" width="64" height="64" />
  <object id="81" gid="2147492508" x="-16" y="97" width="64" height="64" />
  <object id="82" gid="8859" x="136" y="99" width="64" height="64" />
  <object id="83" gid="2147492507" x="88" y="100" width="64" height="64" />
  <object id="84" gid="2147492509" x="555" y="101" width="64" height="64" />
  <object id="85" gid="8860" x="706" y="101" width="64" height="64" />
  <object id="86" gid="8861" x="174" y="108" width="64" height="64" />
  <object id="87" gid="2147492510" x="819" y="111" width="64" height="64" />
  <object id="88" gid="2147492513" x="845" y="111" width="64" height="64" />
  <object id="89" gid="8861" x="435" y="112" width="64" height="64" />
  <object id="90" gid="8860" x="232" y="114" width="64" height="64" />
  <object id="91" gid="2147492509" x="502" y="114" width="64" height="64" />
  <object id="92" gid="2147492507" x="658" y="114" width="64" height="64" />
  <object id="93" gid="8860" x="56" y="116" width="64" height="64" />
  <object id="94" gid="2147492509" x="139" y="116" width="64" height="64" />
  <object id="95" gid="8862" x="-36" y="117" width="64" height="64" />
  <object id="96" gid="8862" x="277" y="117" width="64" height="64" />
  <object id="97" gid="8861" x="23" y="118" width="64" height="64" />
  <object id="98" gid="2147492508" x="85" y="118" width="64" height="64" />
  <object id="99" gid="8862" x="752" y="118" width="64" height="64" />
  <object id="100" gid="8859" x="626" y="119" width="64" height="64" />
  <object id="101" gid="2147492510" x="207" y="122" width="64" height="64" />
  <object id="102" gid="2147492509" x="397" y="122" width="64" height="64" />
  <object id="103" gid="2147492510" x="580" y="122" width="64" height="64" />
  <object id="104" gid="2147492507" x="713" y="123" width="64" height="64" />
  <object id="105" gid="8860" x="473" y="124" width="64" height="64" />
  <object id="106" gid="2147492507" x="790" y="124" width="64" height="64" />
  <object id="107" gid="8859" x="558" y="125" width="64" height="64" />
  <object id="108" gid="8865" x="179" y="135" width="64" height="64" />
  <object id="109" gid="2147492507" x="372" y="136" width="64" height="64" />
  <object id="110" gid="2147492507" x="-17" y="138" width="64" height="64" />
  <object id="111" gid="2147492508" x="830" y="138" width="64" height="64" />
  <object id="112" gid="2147492509" x="157" y="139" width="64" height="64" />
  <object id="113" gid="8859" x="20" y="141" width="64" height="64" />
  <object id="114" gid="8859" x="546" y="141" width="64" height="64" />
  <object id="115" gid="2147492510" x="594" y="141" width="64" height="64" />
  <object id="116" gid="2147492507" x="798" y="141" width="64" height="64" />
  <object id="117" gid="8859" x="266" y="142" width="64" height="64" />
  <object id="118" gid="2147492509" x="467" y="143" width="64" height="64" />
  <object id="119" gid="8865" x="730" y="143" width="64" height="64" />
  <object id="120" gid="8859" x="67" y="144" width="64" height="64" />
  <object id="121" gid="8860" x="556" y="146" width="64" height="64" />
  <object id="122" gid="8862" x="122" y="149" width="64" height="64" />
  <object id="123" gid="8860" x="228" y="149" width="64" height="64" />
  <object id="124" gid="8860" x="694" y="149" width="64" height="64" />
  <object id="125" gid="8860" x="751" y="151" width="64" height="64" />
  <object id="126" gid="2147492507" x="480" y="152" width="64" height="64" />
  <object id="127" gid="8861" x="414" y="155" width="64" height="64" />
  <object id="128" gid="8860" x="-2" y="165" width="64" height="64" />
  <object id="129" gid="2147492510" x="369" y="165" width="64" height="64" />
  <object id="130" gid="8862" x="755" y="165" width="64" height="64" />
  <object id="131" gid="2147492507" x="769" y="165" width="64" height="64" />
  <object id="132" gid="2147492507" x="841" y="169" width="64" height="64" />
  <object id="133" gid="2147492507" x="90" y="170" width="64" height="64" />
  <object id="134" gid="8859" x="151" y="170" width="64" height="64" />
  <object id="135" gid="8862" x="389" y="170" width="64" height="64" />
  <object id="136" gid="2147492513" x="139" y="172" width="64" height="64" />
  <object id="137" gid="2147492507" x="501" y="172" width="64" height="64" />
  <object id="138" gid="2147492510" x="806" y="172" width="64" height="64" />
  <object id="139" gid="2147492508" x="550" y="173" width="64" height="64" />
  <object id="140" gid="2147492509" x="36" y="175" width="64" height="64" />
  <object id="141" gid="8860" x="220" y="175" width="64" height="64" />
  <object id="142" gid="2147492508" x="252" y="175" width="64" height="64" />
  <object id="143" gid="2147492507" x="422" y="180" width="64" height="64" />
  <object id="144" gid="2147492507" x="462" y="180" width="64" height="64" />
  <object id="145" gid="8862" x="-17" y="182" width="64" height="64" />
  <object id="146" gid="8980" x="254" y="184" width="64" height="64" />
  <object id="147" gid="8860" x="480" y="190" width="64" height="64" />
  <object id="148" gid="8860" x="189" y="191" width="64" height="64" />
  <object id="149" gid="2147492508" x="85" y="192" width="64" height="64" />
  <object id="150" gid="8860" x="40" y="195" width="64" height="64" />
  <object id="151" gid="8862" x="803" y="195" width="64" height="64" />
  <object id="152" gid="8859" x="133" y="196" width="64" height="64" />
  <object id="153" gid="2147492507" x="770" y="196" width="64" height="64" />
  <object id="154" gid="2147492513" x="2" y="198" width="64" height="64" />
  <object id="155" gid="8967" x="444.8" y="198.4" width="64" height="64" />
  <object id="156" gid="2147492513" x="125" y="204" width="64" height="64" />
  <object id="157" gid="2147492513" x="826" y="204" width="64" height="64" />
  <object id="158" gid="2147492507" x="349" y="209" width="64" height="64" />
  <object id="159" gid="2147492513" x="393" y="210" width="64" height="64" />
  <object id="160" gid="2147492510" x="805" y="217" width="64" height="64" />
  <object id="161" gid="2147492508" x="91" y="218" width="64" height="64" />
  <object id="162" gid="8860" x="-34" y="221" width="64" height="64" />
  <object id="163" gid="8860" x="740" y="221" width="64" height="64" />
  <object id="164" gid="8861" x="149" y="222" width="64" height="64" />
  <object id="165" gid="2147492507" x="191" y="223" width="64" height="64" />
  <object id="166" gid="8865" x="795" y="223" width="64" height="64" />
  <object id="167" gid="2147492507" x="58" y="224" width="64" height="64" />
  <object id="168" gid="8859" x="334" y="224" width="64" height="64" />
  <object id="169" gid="8865" x="858" y="227" width="64" height="64" />
  <object id="170" gid="2147492507" x="364" y="228" width="64" height="64" />
  <object id="171" gid="2147492509" x="499" y="231" width="64" height="64" />
  <object id="172" gid="8902" x="694.4" y="233.6" width="64" height="64" />
  <object id="173" gid="8859" x="112" y="236" width="64" height="64" />
  <object id="174" gid="8860" x="30" y="237" width="64" height="64" />
  <object id="175" gid="8825" x="661" y="240" width="64" height="64" />
  <object id="176" gid="8915" x="576" y="243.2" width="64" height="64" />
  <object id="177" gid="8983" x="577.6" y="244.8" width="64" height="64" />
  <object id="178" gid="8861" x="-19" y="247" width="64" height="64" />
  <object id="179" gid="2147492513" x="191" y="247" width="64" height="64" />
  <object id="180" gid="8865" x="77" y="248" width="64" height="64" />
  <object id="181" gid="8859" x="363" y="249" width="64" height="64" />
  <object id="182" gid="2147492507" x="93" y="253" width="64" height="64" />
  <object id="183" gid="2147492510" x="759" y="253" width="64" height="64" />
  <object id="184" gid="8859" x="797" y="254" width="64" height="64" />
  <object id="185" gid="8937" x="569.6" y="254.4" width="64" height="64" />
  <object id="186" gid="2147492508" x="131" y="255" width="64" height="64" />
  <object id="187" gid="2147492509" x="40" y="256" width="64" height="64" />
  <object id="188" gid="8862" x="293" y="259" width="64" height="64" />
  <object id="189" gid="2147492508" x="324" y="261" width="64" height="64" />
  <object id="190" gid="2147492508" x="506" y="263" width="64" height="64" />
  <object id="191" gid="8860" x="832" y="263" width="64" height="64" />
  <object id="192" gid="2147492509" x="432" y="265" width="64" height="64" />
  <object id="193" gid="8921" x="604.8" y="265.6" width="64" height="64" />
  <object id="194" gid="2147492570" x="672" y="265.6" width="64" height="64" />
  <object id="195" gid="2147492513" x="-20" y="273" width="64" height="64" />
  <object id="196" gid="8862" x="291" y="275" width="64" height="64" />
  <object id="197" gid="8859" x="495" y="279" width="64" height="64" />
  <object id="198" gid="8860" x="132" y="280" width="64" height="64" />
  <object id="199" gid="2147492508" x="37" y="281" width="64" height="64" />
  <object id="200" gid="8859" x="333" y="281" width="64" height="64" />
  <object id="201" gid="8859" x="798" y="281" width="64" height="64" />
  <object id="202" gid="2147492510" x="153" y="283" width="64" height="64" />
  <object id="203" gid="2147492508" x="420" y="283" width="64" height="64" />
  <object id="204" gid="8865" x="352" y="286" width="64" height="64" />
  <object id="205" gid="8859" x="744" y="287" width="64" height="64" />
  <object id="206" gid="8859" x="100" y="288" width="64" height="64" />
  <object id="207" gid="8860" x="477" y="289" width="64" height="64" />
  <object id="208" gid="2147492509" x="822" y="290" width="64" height="64" />
  <object id="209" gid="2147492507" x="6" y="292" width="64" height="64" />
  <object id="210" gid="2147492507" x="381" y="292" width="64" height="64" />
  <object id="211" gid="8865" x="732" y="299" width="64" height="64" />
  <object id="212" gid="8860" x="293" y="301" width="64" height="64" />
  <object id="213" gid="2147492507" x="415" y="301" width="64" height="64" />
  <object id="214" gid="8865" x="808" y="301" width="64" height="64" />
  <object id="215" gid="8860" x="528" y="304" width="64" height="64" />
  <object id="216" gid="8862" x="-14" y="305" width="64" height="64" />
  <object id="217" gid="8862" x="145" y="306" width="64" height="64" />
  <object id="218" gid="8861" x="180" y="307" width="64" height="64" />
  <object id="219" gid="2147492510" x="95" y="308" width="64" height="64" />
  <object id="220" gid="2147492510" x="72" y="309" width="64" height="64" />
  <object id="221" gid="2147492509" x="343" y="309" width="64" height="64" />
  <object id="222" gid="8859" x="394" y="317" width="64" height="64" />
  <object id="223" gid="2147492508" x="769" y="317" width="64" height="64" />
  <object id="224" gid="2147492507" x="459" y="318" width="64" height="64" />
  <object id="225" gid="8860" x="493" y="319" width="64" height="64" />
  <object id="226" gid="8865" x="839" y="319" width="64" height="64" />
  <object id="227" gid="2147492507" x="298" y="325" width="64" height="64" />
  <object id="228" gid="8859" x="35" y="327" width="64" height="64" />
  <object id="229" gid="8859" x="142" y="328" width="64" height="64" />
  <object id="230" gid="8861" x="595" y="329" width="64" height="64" />
  <object id="231" gid="2147492508" x="389" y="330" width="64" height="64" />
  <object id="232" gid="2147492508" x="829" y="331" width="64" height="64" />
  <object id="233" gid="2147492513" x="-30" y="332" width="64" height="64" />
  <object id="234" gid="8859" x="563" y="332" width="64" height="64" />
  <object id="235" gid="8942" x="284" y="332" width="64" height="64" />
  <object id="236" gid="8862" x="155" y="334" width="64" height="64" />
  <object id="237" gid="2147492508" x="366" y="335" width="64" height="64" />
  <object id="238" gid="2147492508" x="750" y="335" width="64" height="64" />
  <object id="239" gid="8862" x="469" y="337" width="64" height="64" />
  <object id="240" gid="8862" x="857" y="337" width="64" height="64" />
  <object id="241" gid="2147492510" x="321" y="338" width="64" height="64" />
  <object id="242" gid="2147492508" x="710" y="338" width="64" height="64" />
  <object id="243" gid="2147492507" x="98" y="339" width="64" height="64" />
  <object id="244" gid="2147492509" x="782" y="339" width="64" height="64" />
  <object id="245" gid="8875" x="654.4" y="339.2" width="64" height="64" />
  <object id="246" gid="8862" x="-4" y="344" width="64" height="64" />
  <object id="247" gid="8862" x="447" y="344" width="64" height="64" />
  <object id="248" gid="8861" x="500" y="346" width="64" height="64" />
  <object id="249" gid="2147492507" x="34" y="353" width="64" height="64" />
  <object id="250" gid="8859" x="559" y="354" width="64" height="64" />
  <object id="251" gid="2147492507" x="113" y="355" width="64" height="64" />
  <object id="252" gid="8859" x="147" y="355" width="64" height="64" />
  <object id="253" gid="8865" x="288" y="359" width="64" height="64" />
  <object id="254" gid="8859" x="431" y="359" width="64" height="64" />
  <object id="255" gid="8859" x="202" y="360" width="64" height="64" />
  <object id="256" gid="8859" x="824" y="361" width="64" height="64" />
  <object id="257" gid="2147492594" x="372" y="361" width="64" height="64" />
  <object id="258" gid="8860" x="537" y="362" width="64" height="64" />
  <object id="259" gid="8860" x="750" y="363" width="64" height="64" />
  <object id="260" gid="8860" x="386" y="366" width="64" height="64" />
  <object id="261" gid="2147492510" x="-10" y="367" width="64" height="64" />
  <object id="262" gid="2147492508" x="56" y="367" width="64" height="64" />
  <object id="263" gid="2147492508" x="716" y="367" width="64" height="64" />
  <object id="264" gid="8859" x="806" y="367" width="64" height="64" />
  <object id="265" gid="2147492628" x="289" y="369" width="64" height="64" />
  <object id="266" gid="8859" x="352" y="382" width="64" height="64" />
  <object id="267" gid="2147492588" x="375" y="383" width="64" height="64" />
  <object id="268" gid="8860" x="13" y="384" width="64" height="64" />
  <object id="269" gid="8859" x="46" y="385" width="64" height="64" />
  <object id="270" gid="8865" x="774" y="386" width="64" height="64" />
  <object id="271" gid="8865" x="803" y="386" width="64" height="64" />
  <object id="272" gid="8865" x="114" y="387" width="64" height="64" />
  <object id="273" gid="2147492509" x="852" y="387" width="64" height="64" />
  <object id="274" gid="2147492508" x="621" y="388" width="64" height="64" />
  <object id="275" gid="2147492510" x="506" y="390" width="64" height="64" />
  <object id="276" gid="2147492508" x="-13" y="391" width="64" height="64" />
  <object id="277" gid="2147492508" x="478" y="393" width="64" height="64" />
  <object id="278" gid="2147492507" x="102" y="394" width="64" height="64" />
  <object id="279" gid="2147492507" x="748" y="394" width="64" height="64" />
  <object id="280" gid="2147492508" x="183" y="395" width="64" height="64" />
  <object id="281" gid="8861" x="580" y="400" width="64" height="64" />
  <object id="282" gid="8940" x="230" y="405" width="64" height="64" />
  <object id="283" gid="8861" x="-17" y="407" width="64" height="64" />
  <object id="284" gid="8861" x="49" y="408" width="64" height="64" />
  <object id="285" gid="2147492507" x="148" y="408" width="64" height="64" />
  <object id="286" gid="2147492508" x="207" y="409" width="64" height="64" />
  <object id="287" gid="8860" x="596" y="410" width="64" height="64" />
  <object id="288" gid="8860" x="107" y="411" width="64" height="64" />
  <object id="289" gid="8875" x="672" y="412.8" width="64" height="64" />
  <object id="290" gid="2147492510" x="747" y="414" width="64" height="64" />
  <object id="291" gid="2147492509" x="715" y="415" width="64" height="64" />
  <object id="292" gid="8860" x="175" y="416" width="64" height="64" />
  <object id="293" gid="8861" x="561" y="417" width="64" height="64" />
  <object id="294" gid="8862" x="791" y="426" width="64" height="64" />
  <object id="295" gid="2147492508" x="829" y="426" width="64" height="64" />
  <object id="296" gid="8959" x="422.4" y="432" width="64" height="64" />
  <object id="297" gid="8859" x="158" y="437" width="64" height="64" />
  <object id="298" gid="2147492510" x="803" y="439" width="64" height="64" />
  <object id="299" gid="2147492508" x="11" y="440" width="64" height="64" />
  <object id="300" gid="2147492508" x="720" y="440" width="64" height="64" />
  <object id="301" gid="8927" x="460.8" y="441.6" width="64" height="64" />
  <object id="302" gid="2147492507" x="-35" y="442" width="64" height="64" />
  <object id="303" gid="8927" x="572.8" y="444.8" width="64" height="64" />
  <object id="304" gid="8861" x="55" y="445" width="64" height="64" />
  <object id="305" gid="8862" x="769" y="448" width="64" height="64" />
  <object id="306" gid="8861" x="88" y="449" width="64" height="64" />
  <object id="307" gid="2147492510" x="134" y="450" width="64" height="64" />
  <object id="308" gid="8862" x="213" y="451" width="64" height="64" />
  <object id="309" gid="2147492507" x="856" y="452" width="64" height="64" />
  <object id="310" gid="2147492508" x="756" y="454" width="64" height="64" />
  <object id="311" gid="8927" x="393.6" y="454.4" width="64" height="64" />
  <object id="312" gid="8927" x="515.2" y="457.6" width="64" height="64" />
  <object id="313" gid="8959" x="489.6" y="460.8" width="64" height="64" />
  <object id="314" gid="2147492507" x="816" y="461" width="64" height="64" />
  <object id="315" gid="2147492510" x="838" y="463" width="64" height="64" />
  <object id="316" gid="2147492507" x="182" y="465" width="64" height="64" />
  <object id="317" gid="8860" x="11" y="466" width="64" height="64" />
  <object id="318" gid="2147492509" x="84" y="466" width="64" height="64" />
  <object id="319" gid="2147492508" x="773" y="466" width="64" height="64" />
  <object id="320" gid="8865" x="709" y="470" width="64" height="64" />
  <object id="321" gid="2147492508" x="157" y="471" width="64" height="64" />
  <object id="322" gid="2147492510" x="20" y="479" width="64" height="64" />
  <object id="323" gid="2147492509" x="221" y="488" width="64" height="64" />
  <object id="324" gid="2147492510" x="84" y="490" width="64" height="64" />
  <object id="325" gid="2147492508" x="864" y="490" width="64" height="64" />
  <object id="326" gid="2147492508" x="130" y="495" width="64" height="64" />
  <object id="327" gid="2147492642" x="259" y="495" width="64" height="64" />
  <object id="328" gid="2147492507" x="151" y="496" width="64" height="64" />
  <object id="329" gid="8861" x="66" y="502" width="64" height="64" />
  <object id="330" gid="8859" x="159" y="514" width="64" height="64" />
  <object id="331" gid="8875" x="686.4" y="518.4" width="64" height="64" />
  <object id="332" gid="8862" x="819" y="530" width="64" height="64" />
  <object id="333" gid="2147492508" x="-20" y="533" width="64" height="64" />
  <object id="334" gid="8980" x="259.2" y="537.6" width="64" height="64" />
  <object id="335" gid="2147492594" x="126" y="544" width="64" height="64" />
  <object id="336" gid="8865" x="556.8" y="550.4" width="64" height="64" />
  <object id="337" gid="8859" x="313.6" y="553.6" width="64" height="64" />
  <object id="338" gid="8866" x="649.6" y="553.6" width="64" height="64" />
  <object id="339" gid="8859" x="41" y="559" width="64" height="64" />
  <object id="340" gid="8860" x="82" y="563" width="64" height="64" />
  <object id="341" gid="8860" x="-10" y="565" width="64" height="64" />
  <object id="342" gid="2147492508" x="195.2" y="585.6" width="64" height="64" />
  <object id="343" gid="8870" x="601.6" y="585.6" width="64" height="64" />
  <object id="344" gid="8860" x="828.8" y="620.8" width="64" height="64" />
  <object id="345" gid="8907" x="656" y="624" width="64" height="64" />
  <object id="346" gid="8865" x="214.4" y="630.4" width="64" height="64" />
  <object id="347" gid="8881" x="569.6" y="630.4" width="64" height="64" />
  <object id="348" gid="2147492508" x="310.4" y="633.6" width="64" height="64" />
  <object id="349" gid="8875" x="692.8" y="633.6" width="64" height="64" />
  <object id="350" gid="8914" x="630.4" y="646.4" width="64" height="64" />
  <object id="351" gid="8911" x="80" y="649.6" width="64" height="64" />
  <object id="352" gid="8837" x="371" y="651" width="64" height="64" />
  <object id="353" gid="8838" x="431" y="651" width="64" height="64" />
  <object id="354" gid="8836" x="359" y="652" width="64" height="64" />
  <object id="355" gid="8839" x="450" y="652" width="64" height="64" />
  <object id="356" gid="8911" x="524.8" y="652.8" width="64" height="64" />
  <object id="357" gid="8835" x="347" y="654" width="64" height="64" />
  <object id="358" gid="8884" x="188.8" y="678.4" width="64" height="64" />
  <object id="359" gid="8918" x="22.4" y="678.4" width="64" height="64" />
  <object id="360" gid="8878" x="560" y="678.4" width="64" height="64" />
  <object id="361" gid="8878" x="592" y="678.4" width="64" height="64" />
  <object id="362" gid="8878" x="624" y="678.4" width="64" height="64" />
  <object id="363" gid="8876" x="102.4" y="681.6" width="64" height="64" />
  <object id="364" gid="8944" x="3.2" y="681.6" width="64" height="64" />
  <object id="365" gid="8986" x="521.6" y="681.6" width="64" height="64" />
  <object id="366" gid="8894" x="812.8" y="681.6" width="64" height="64" />
  <object id="367" gid="8876" x="729.6" y="681.6" width="64" height="64" />
  <object id="368" gid="2147492524" x="790.4" y="681.6" width="64" height="64" />
  <object id="369" gid="8944" x="41.6" y="683.2" width="64" height="64" />
  <object id="370" gid="8900" x="329.6" y="691.2" width="64" height="64" />
  <object id="371" gid="8907" x="374.4" y="694.4" width="64" height="64" />
  <object id="372" gid="8907" x="425.6" y="694.4" width="64" height="64" />
  <object id="373" gid="8920" x="457.6" y="694.4" width="64" height="64" />
  <object id="374" gid="8887" x="201.6" y="704" width="64" height="64" />
  <object id="375" gid="8965" x="185.6" y="705.6" width="64" height="64" />
  <object id="376" gid="8923" x="105.6" y="707.2" width="64" height="64" />
  <object id="377" gid="8882" x="454.4" y="729.6" width="64" height="64" />
  <object id="378" gid="2147492508" x="73.6" y="780.8" width="64" height="64" />
  <object id="379" gid="8924" x="400" y="793.6" width="64" height="64" />
  <object id="380" gid="8925" x="435.2" y="793.6" width="64" height="64" />
  <object id="381" gid="8924" x="470.4" y="793.6" width="64" height="64" />
  <object id="382" gid="8924" x="540.8" y="793.6" width="64" height="64" />
  <object id="383" gid="8925" x="576" y="793.6" width="64" height="64" />
  <object id="384" gid="8924" x="611.2" y="793.6" width="64" height="64" />
  <object id="385" gid="8925" x="646.4" y="793.6" width="64" height="64" />
  <object id="386" gid="2147492507" x="156.8" y="793.6" width="64" height="64" />
  <object id="387" gid="2147492507" x="220.8" y="803.2" width="64" height="64" />
  <object id="388" gid="8905" x="816" y="803.2" width="64" height="64" />
  <object id="389" gid="8859" x="12.8" y="803.2" width="64" height="64" />
  <object id="390" gid="8904" x="742.4" y="806.4" width="64" height="64" />
  <object id="391" gid="8901" x="483.2" y="806.4" width="64" height="64" />
  <object id="392" gid="8994" x="249" y="812" width="64" height="64" />
  <object id="393" gid="8860" x="316.8" y="822.4" width="64" height="64" />
  <object id="394" gid="8925" x="400" y="825.6" width="64" height="64" />
  <object id="395" gid="8924" x="435.2" y="825.6" width="64" height="64" />
  <object id="396" gid="8925" x="470.4" y="825.6" width="64" height="64" />
  <object id="397" gid="8925" x="540.8" y="825.6" width="64" height="64" />
  <object id="398" gid="8924" x="576" y="825.6" width="64" height="64" />
  <object id="399" gid="8925" x="611.2" y="825.6" width="64" height="64" />
  <object id="400" gid="8924" x="646.4" y="825.6" width="64" height="64" />
  <object id="401" gid="8904" x="822.4" y="838.4" width="64" height="64" />
  <object id="402" gid="8905" x="745.6" y="841.6" width="64" height="64" />
  <object id="403" gid="8902" x="777.6" y="854.4" width="64" height="64" />
  <object id="404" gid="8924" x="400" y="857.6" width="64" height="64" />
  <object id="405" gid="8925" x="435.2" y="857.6" width="64" height="64" />
  <object id="406" gid="8924" x="470.4" y="857.6" width="64" height="64" />
  <object id="407" gid="8924" x="540.8" y="857.6" width="64" height="64" />
  <object id="408" gid="8925" x="576" y="857.6" width="64" height="64" />
  <object id="409" gid="8924" x="611.2" y="857.6" width="64" height="64" />
  <object id="410" gid="8925" x="646.4" y="857.6" width="64" height="64" />
  <object id="411" gid="8887" x="86.4" y="860.8" width="64" height="64" />
  <object id="412" gid="8890" x="108.8" y="867.2" width="64" height="64" />
  <object id="413" gid="8965" x="67.2" y="868.8" width="64" height="64" />
  <object id="414" gid="8905" x="812.8" y="870.4" width="64" height="64" />
  <object id="415" gid="8904" x="739.2" y="873.6" width="64" height="64" />
  <object id="416" gid="8977" x="486.4" y="873.6" width="64" height="64" />
  <object id="417" gid="8944" x="768" y="889.6" width="64" height="64" />
  <object id="418" gid="8925" x="400" y="889.6" width="64" height="64" />
  <object id="419" gid="8924" x="435.2" y="889.6" width="64" height="64" />
  <object id="420" gid="8925" x="470.4" y="889.6" width="64" height="64" />
  <object id="421" gid="8925" x="540.8" y="889.6" width="64" height="64" />
  <object id="422" gid="8924" x="576" y="889.6" width="64" height="64" />
  <object id="423" gid="8925" x="611.2" y="889.6" width="64" height="64" />
  <object id="424" gid="8924" x="646.4" y="889.6" width="64" height="64" />
  <object id="425" gid="8860" x="3.2" y="889.6" width="64" height="64" />
  <object id="426" gid="8953" x="787.2" y="892.8" width="64" height="64" />
  <object id="427" gid="8859" x="182.4" y="902.4" width="64" height="64" />
  <object id="428" gid="8865" x="323.2" y="905.6" width="64" height="64" />
  <object id="429" gid="8929" x="694.4" y="915.2" width="64" height="64" />
  <object id="430" gid="8928" x="668.8" y="918.4" width="64" height="64" />
  <object id="431" gid="8865" x="60.8" y="924.8" width="64" height="64" />
  <object id="432" gid="2147492508" x="121.6" y="937.6" width="64" height="64" />
  <object id="433" gid="8880" x="326" y="943" width="64" height="64" />
  <object id="434" gid="8863" x="412" y="951" width="64" height="64" />
  <object id="435" gid="8966" x="654" y="961" width="64" height="64" />
  <object id="436" gid="2147492511" x="11" y="971" width="64" height="64" />
  <object id="437" gid="8880" x="379" y="973" width="64" height="64" />
  <object id="438" gid="2147492511" x="762" y="975" width="64" height="64" />
  <object id="439" gid="8880" x="448" y="978" width="64" height="64" />
  <object id="440" gid="8863" x="594" y="980" width="64" height="64" />
  <object id="441" gid="8971" x="482" y="982" width="64" height="64" />
  <object id="442" gid="8942" x="214.4" y="982.4" width="64" height="64" />
  <object id="443" gid="2147492511" x="572" y="985" width="64" height="64" />
  <object id="444" gid="8880" x="638" y="985" width="64" height="64" />
  <object id="445" gid="8863" x="804" y="985" width="64" height="64" />
  <object id="446" gid="8971" x="499" y="988" width="64" height="64" />
  <object id="447" gid="2147492528" x="657" y="990" width="64" height="64" />
  <object id="448" gid="8863" x="594" y="993" width="64" height="64" />
  <object id="449" gid="8880" x="825" y="993" width="64" height="64" />
  <object id="450" gid="2147492528" x="146" y="993" width="64" height="64" />
  <object id="451" gid="8863" x="748" y="994" width="64" height="64" />
  <object id="452" gid="8994" x="185" y="994" width="64" height="64" />
  <object id="453" gid="8863" x="296" y="995" width="64" height="64" />
  <object id="454" gid="8951" x="695" y="996" width="64" height="64" />
  <object id="455" gid="2147492528" x="734" y="997" width="64" height="64" />
  <object id="456" gid="8863" x="857" y="997" width="64" height="64" />
  <object id="457" gid="2147492511" x="26" y="1008" width="64" height="64" />
  <object id="458" gid="8880" x="603" y="1009" width="64" height="64" />
  <object id="459" gid="8971" x="719" y="1010" width="64" height="64" />
  <object id="460" gid="8880" x="762" y="1010" width="64" height="64" />
  <object id="461" gid="2147492511" x="816" y="1014" width="64" height="64" />
  <object id="462" gid="2147492528" x="684" y="1015" width="64" height="64" />
  <object id="463" gid="8927" x="443" y="1015" width="64" height="64" />
  <object id="464" gid="2147492511" x="843" y="1016" width="64" height="64" />
  <object id="465" gid="8863" x="495" y="1021" width="64" height="64" />
  <object id="466" gid="2147492511" x="661" y="1025" width="64" height="64" />
  <object id="467" gid="8880" x="576" y="1026" width="64" height="64" />
  <object id="468" gid="2147492599" x="753" y="1026" width="64" height="64" />
  <object id="469" gid="8863" x="441" y="1027" width="64" height="64" />
  <object id="470" gid="2147492511" x="10" y="1035" width="64" height="64" />
  <object id="471" gid="8971" x="403" y="1037" width="64" height="64" />
  <object id="472" gid="8863" x="652" y="1037" width="64" height="64" />
  <object id="473" gid="8863" x="802" y="1039" width="64" height="64" />
  <object id="474" gid="2147492528" x="478" y="1041" width="64" height="64" />
  <object id="475" gid="8863" x="536" y="1041" width="64" height="64" />
  <object id="476" gid="2147492511" x="339" y="1042" width="64" height="64" />
  <object id="477" gid="2147492511" x="508" y="1042" width="64" height="64" />
  <object id="478" gid="2147492528" x="835" y="1042" width="64" height="64" />
  <object id="479" gid="2147492511" x="857" y="1043" width="64" height="64" />
  <object id="480" gid="8880" x="684" y="1044" width="64" height="64" />
  <object id="481" gid="2147492511" x="115" y="1045" width="64" height="64" />
  <object id="482" gid="8979" x="217" y="1045" width="64" height="64" />
  <object id="483" gid="8880" x="377" y="1046" width="64" height="64" />
  <object id="484" gid="2147492619" x="430" y="1046" width="64" height="64" />
  <object id="485" gid="8863" x="568" y="1046" width="64" height="64" />
  <object id="486" gid="8863" x="1" y="1049" width="64" height="64" />
  <object id="487" gid="8863" x="622" y="1050" width="64" height="64" />
  <object id="488" gid="2147492511" x="735" y="1050" width="64" height="64" />
  <object id="489" gid="8880" x="140" y="1051" width="64" height="64" />
  <object id="490" gid="8863" x="-31" y="1057" width="64" height="64" />
  <object id="491" gid="2147492511" x="169" y="1057" width="64" height="64" />
  <object id="492" gid="2147492619" x="658" y="1057" width="64" height="64" />
  <object id="493" gid="8863" x="416" y="1058" width="64" height="64" />
  <object id="494" gid="8971" x="808" y="1059" width="64" height="64" />
  <object id="495" gid="2147492599" x="458" y="1063" width="64" height="64" />
  <object id="496" gid="2147492511" x="707" y="1063" width="64" height="64" />
  <object id="497" gid="2147492511" x="624" y="1064" width="64" height="64" />
  <object id="498" gid="2147492511" x="377" y="1065" width="64" height="64" />
  <object id="499" gid="2147492511" x="494" y="1066" width="64" height="64" />
  <object id="500" gid="2147492511" x="105" y="1067" width="64" height="64" />
  <object id="501" gid="8971" x="189" y="1067" width="64" height="64" />
  <object id="502" gid="8863" x="786" y="1067" width="64" height="64" />
  <object id="503" gid="8863" x="145" y="1068" width="64" height="64" />
  <object id="504" gid="8880" x="736" y="1068" width="64" height="64" />
  <object id="505" gid="2147492528" x="18" y="1069" width="64" height="64" />
  <object id="506" gid="8863" x="81" y="1071" width="64" height="64" />
  <object id="507" gid="8863" x="504" y="1071" width="64" height="64" />
  <object id="508" gid="2147492511" x="689" y="1071" width="64" height="64" />
  <object id="509" gid="2147492511" x="833" y="1071" width="64" height="64" />
  <object id="510" gid="2147492511" x="82" y="1080" width="64" height="64" />
  <object id="511" gid="2147492511" x="4" y="1082" width="64" height="64" />
  <object id="512" gid="2147492599" x="55" y="1083" width="64" height="64" />
  <object id="513" gid="2147492511" x="383" y="1084" width="64" height="64" />
  <object id="514" gid="8863" x="16" y="1087" width="64" height="64" />
  <object id="515" gid="8880" x="189" y="1087" width="64" height="64" />
  <object id="516" gid="8880" x="740" y="1087" width="64" height="64" />
  <object id="517" gid="8997" x="544" y="1088" width="64" height="64" />
  <object id="518" gid="2147492619" x="494" y="1088" width="64" height="64" />
  <object id="519" gid="2147492511" x="162" y="1090" width="64" height="64" />
  <object id="520" gid="2147492528" x="132" y="1092" width="64" height="64" />
  <object id="521" gid="2147492528" x="681" y="1095" width="64" height="64" />
  <object id="522" gid="8880" x="785" y="1095" width="64" height="64" />
  <object id="523" gid="8863" x="441" y="1096" width="64" height="64" />
  <object id="524" gid="2147492511" x="652" y="1096" width="64" height="64" />
  <object id="525" gid="2147492511" x="419" y="1097" width="64" height="64" />
  <object id="526" gid="8971" x="769" y="1097" width="64" height="64" />
  <object id="527" gid="2147492511" x="832" y="1097" width="64" height="64" />
  <object id="528" gid="2147492619" x="460" y="1098" width="64" height="64" />
  <object id="529" gid="2147492599" x="213" y="1099" width="64" height="64" />
  <object id="530" gid="2147492511" x="17" y="1105" width="64" height="64" />
  <object id="531" gid="8863" x="800" y="1105" width="64" height="64" />
  <object id="532" gid="8880" x="400" y="1107" width="64" height="64" />
  <object id="533" gid="8992" x="604.8" y="1107.2" width="64" height="64" />
  <object id="534" gid="2147492619" x="43" y="1108" width="64" height="64" />
  <object id="535" gid="2147492619" x="843" y="1108" width="64" height="64" />
  <object id="536" gid="8863" x="88" y="1110" width="64" height="64" />
  <object id="537" gid="8928" x="518.4" y="1110.4" width="64" height="64" />
  <object id="538" gid="8863" x="655" y="1111" width="64" height="64" />
  <object id="539" gid="2147492511" x="751" y="1111" width="64" height="64" />
  <object id="540" gid="8880" x="288" y="1112" width="64" height="64" />
  <object id="541" gid="2147492511" x="466" y="1114" width="64" height="64" />
  <object id="542" gid="2147492599" x="682" y="1114" width="64" height="64" />
  <object id="543" gid="8971" x="704" y="1116" width="64" height="64" />
  <object id="544" gid="8863" x="428" y="1117" width="64" height="64" />
  <object id="545" gid="2147492599" x="772" y="1119" width="64" height="64" />
  <object id="546" gid="8976" x="627.2" y="1120" width="64" height="64" />
  <object id="547" gid="2147492528" x="-13" y="1123" width="64" height="64" />
  <object id="548" gid="8951" x="70" y="1123" width="64" height="64" />
  <object id="549" gid="8995" x="566.4" y="1126.4" width="64" height="64" />
  <object id="550" gid="2147492528" x="267" y="1133" width="64" height="64" />
  <object id="551" gid="8880" x="713" y="1133" width="64" height="64" />
  <object id="552" gid="8863" x="240" y="1134" width="64" height="64" />
  <object id="553" gid="2147492528" x="821" y="1134" width="64" height="64" />
  <object id="554" gid="8994" x="409" y="1134" width="64" height="64" />
  <object id="555" gid="8868" x="147.2" y="1136" width="64" height="64" />
  <object id="556" gid="8863" x="669" y="1136" width="64" height="64" />
  <object id="557" gid="2147492619" x="68" y="1137" width="64" height="64" />
  <object id="558" gid="2147492511" x="796" y="1138" width="64" height="64" />
  <object id="559" gid="8880" x="-20" y="1140" width="64" height="64" />
  <object id="560" gid="8880" x="96" y="1140" width="64" height="64" />
  <object id="561" gid="8863" x="682" y="1142" width="64" height="64" />
  <object id="562" gid="2147492528" x="36" y="1143" width="64" height="64" />
  <object id="563" gid="8971" x="443" y="1143" width="64" height="64" />
  <object id="564" gid="2147492599" x="299" y="1144" width="64" height="64" />
  <object id="565" gid="2147492528" x="764" y="1145" width="64" height="64" />
  <object id="566" gid="8982" x="588.8" y="1145.6" width="64" height="64" />
  <object id="567" gid="8929" x="531.2" y="1152" width="64" height="64" />
  <object id="568" gid="8863" x="722" y="1154" width="64" height="64" />
  <object id="569" gid="2147492511" x="89" y="1155" width="64" height="64" />
  <object id="570" gid="8971" x="764" y="1155" width="64" height="64" />
  <object id="571" gid="8928" x="611.2" y="1155.2" width="64" height="64" />
  <object id="572" gid="2147492511" x="460" y="1158" width="64" height="64" />
  <object id="573" gid="8905" x="176" y="1158.4" width="64" height="64" />
  <object id="574" gid="8880" x="-27" y="1160" width="64" height="64" />
  <object id="575" gid="2147492511" x="335" y="1161" width="64" height="64" />
  <object id="576" gid="8863" x="799" y="1161" width="64" height="64" />
  <object id="577" gid="2147492511" x="49" y="1164" width="64" height="64" />
  <object id="578" gid="8971" x="844" y="1164" width="64" height="64" />
  <object id="579" gid="2147492619" x="284" y="1165" width="64" height="64" />
  <object id="580" gid="2147492619" x="245" y="1166" width="64" height="64" />
  <object id="581" gid="2147492511" x="271" y="1166" width="64" height="64" />
  <object id="582" gid="2147492528" x="748" y="1167" width="64" height="64" />
  <object id="583" gid="8953" x="195.2" y="1168" width="64" height="64" />
  <object id="584" gid="2147492619" x="-8" y="1170" width="64" height="64" />
  <object id="585" gid="2147492528" x="686" y="1170" width="64" height="64" />
  <object id="586" gid="8880" x="37" y="1176" width="64" height="64" />
  <object id="587" gid="2147492528" x="243" y="1178" width="64" height="64" />
  <object id="588" gid="2147492619" x="770" y="1179" width="64" height="64" />
  <object id="589" gid="2147492528" x="511" y="1180" width="64" height="64" />
  <object id="590" gid="8880" x="796" y="1181" width="64" height="64" />
  <object id="591" gid="8880" x="475" y="1184" width="64" height="64" />
  <object id="592" gid="8880" x="721" y="1185" width="64" height="64" />
  <object id="593" gid="8863" x="861" y="1187" width="64" height="64" />
  <object id="594" gid="2147492511" x="304" y="1188" width="64" height="64" />
  <object id="595" gid="2147492511" x="809" y="1188" width="64" height="64" />
  <object id="596" gid="2147492599" x="681" y="1189" width="64" height="64" />
  <object id="597" gid="2147492599" x="-11" y="1191" width="64" height="64" />
  <object id="598" gid="8880" x="55" y="1192" width="64" height="64" />
  <object id="599" gid="8951" x="267" y="1192" width="64" height="64" />
  <object id="600" gid="8880" x="75" y="1194" width="64" height="64" />
  <object id="601" gid="8863" x="659" y="1194" width="64" height="64" />
  <object id="602" gid="8863" x="347" y="1195" width="64" height="64" />
  <object id="603" gid="2147492511" x="363" y="1202" width="64" height="64" />
  <object id="604" gid="2147492528" x="463" y="1202" width="64" height="64" />
  <object id="605" gid="2147492511" x="24" y="1206" width="64" height="64" />
  <object id="606" gid="2147492619" x="828" y="1206" width="64" height="64" />
  <object id="607" gid="2147492528" x="483" y="1207" width="64" height="64" />
  <object id="608" gid="8951" x="612" y="1208" width="64" height="64" />
  <object id="609" gid="2147492511" x="808" y="1208" width="64" height="64" />
  <object id="610" gid="2147492619" x="0" y="1211" width="64" height="64" />
  <object id="611" gid="8951" x="163" y="1211" width="64" height="64" />
  <object id="612" gid="2147492511" x="240" y="1213" width="64" height="64" />
  <object id="613" gid="2147492599" x="509" y="1213" width="64" height="64" />
  <object id="614" gid="2147492511" x="659" y="1213" width="64" height="64" />
  <object id="615" gid="2147492528" x="193" y="1214" width="64" height="64" />
  <object id="616" gid="2147492511" x="331" y="1214" width="64" height="64" />
  <object id="617" gid="2147492511" x="84" y="1215" width="64" height="64" />
  <object id="618" gid="8971" x="537" y="1215" width="64" height="64" />
  <object id="619" gid="8863" x="-27" y="1217" width="64" height="64" />
  <object id="620" gid="8971" x="99" y="1217" width="64" height="64" />
  <object id="621" gid="2147492528" x="263" y="1217" width="64" height="64" />
  <object id="622" gid="2147492511" x="593" y="1217" width="64" height="64" />
  <object id="623" gid="2147492511" x="677" y="1217" width="64" height="64" />
  <object id="624" gid="8951" x="703" y="1217" width="64" height="64" />
  <object id="625" gid="8880" x="308" y="1218" width="64" height="64" />
  <object id="626" gid="2147492511" x="750" y="1218" width="64" height="64" />
  <object id="627" gid="2147492528" x="761" y="1218" width="64" height="64" />
  <object id="628" gid="8880" x="536" y="1225" width="64" height="64" />
  <object id="629" gid="2147492528" x="55" y="1227" width="64" height="64" />
  <object id="630" gid="2147492619" x="831" y="1227" width="64" height="64" />
  <object id="631" gid="8880" x="335" y="1228" width="64" height="64" />
  <object id="632" gid="2147492511" x="169" y="1229" width="64" height="64" />
  <object id="633" gid="2147492511" x="236" y="1231" width="64" height="64" />
  <object id="634" gid="2147492619" x="494" y="1231" width="64" height="64" />
  <object id="635" gid="8863" x="716" y="1232" width="64" height="64" />
  <object id="636" gid="2147492511" x="286" y="1233" width="64" height="64" />
  <object id="637" gid="2147492528" x="606" y="1235" width="64" height="64" />
  <object id="638" gid="2147492511" x="225" y="1236" width="64" height="64" />
  <object id="639" gid="8863" x="0" y="1238" width="64" height="64" />
  <object id="640" gid="8971" x="770" y="1239" width="64" height="64" />
  <object id="641" gid="8863" x="156" y="1240" width="64" height="64" />
  <object id="642" gid="2147492511" x="691" y="1240" width="64" height="64" />
  <object id="643" gid="8880" x="96" y="1241" width="64" height="64" />
  <object id="644" gid="8951" x="306" y="1241" width="64" height="64" />
  <object id="645" gid="8880" x="578" y="1241" width="64" height="64" />
  <object id="646" gid="2147492511" x="632" y="1241" width="64" height="64" />
  <object id="647" gid="2147492511" x="459" y="1242" width="64" height="64" />
  <object id="648" gid="8880" x="858" y="1242" width="64" height="64" />
  <object id="649" gid="8863" x="-1" y="1248" width="64" height="64" />
  <object id="650" gid="2147492511" x="94" y="1248" width="64" height="64" />
  <object id="651" gid="2147492528" x="788" y="1248" width="64" height="64" />
  <object id="652" gid="8880" x="843" y="1248" width="64" height="64" />
  <object id="653" gid="8863" x="542" y="1249" width="64" height="64" />
  <object id="654" gid="8863" x="660" y="1250" width="64" height="64" />
  <object id="655" gid="2147492599" x="676" y="1250" width="64" height="64" />
  <object id="656" gid="2147492619" x="496" y="1251" width="64" height="64" />
  <object id="657" gid="2147492599" x="620" y="1251" width="64" height="64" />
  <object id="658" gid="2147492511" x="714" y="1251" width="64" height="64" />
  <object id="659" gid="2147492511" x="244" y="1252" width="64" height="64" />
  <object id="660" gid="2147492528" x="189" y="1253" width="64" height="64" />
  <object id="661" gid="2147492511" x="67" y="1255" width="64" height="64" />
  <object id="662" gid="8863" x="348" y="1255" width="64" height="64" />
  <object id="663" gid="2147492511" x="170" y="1256" width="64" height="64" />
  <object id="664" gid="2147492511" x="138" y="1257" width="64" height="64" />
  <object id="665" gid="2147492528" x="451" y="1258" width="64" height="64" />
  <object id="666" gid="2147492599" x="800" y="1258" width="64" height="64" />
  <object id="667" gid="2147492619" x="-24" y="1259" width="64" height="64" />
  <object id="668" gid="2147492528" x="728" y="1259" width="64" height="64" />
  <object id="669" gid="2147492619" x="33" y="1260" width="64" height="64" />
  <object id="670" gid="8863" x="299" y="1261" width="64" height="64" />
  <object id="671" gid="2147492619" x="520" y="1262" width="64" height="64" />
  <object id="672" gid="2147492528" x="276" y="1263" width="64" height="64" />
  <object id="673" gid="2147492619" x="333" y="1264" width="64" height="64" />
  <object id="674" gid="8951" x="581" y="1266" width="64" height="64" />
  <object id="675" gid="2147492511" x="698" y="1273" width="64" height="64" />
  <object id="676" gid="2147492511" x="44" y="1275" width="64" height="64" />
  <object id="677" gid="8971" x="761" y="1276" width="64" height="64" />
  <object id="678" gid="8863" x="242" y="1277" width="64" height="64" />
  <object id="679" gid="2147492599" x="147" y="1279" width="64" height="64" />
  <object id="680" gid="8863" x="545" y="1280" width="64" height="64" />
  <object id="681" gid="8863" x="180" y="1281" width="64" height="64" />
  <object id="682" gid="8863" x="-18" y="1282" width="64" height="64" />
  <object id="683" gid="8863" x="622" y="1282" width="64" height="64" />
  <object id="684" gid="2147492599" x="730" y="1282" width="64" height="64" />
  <object id="685" gid="8880" x="338" y="1283" width="64" height="64" />
  <object id="686" gid="2147492528" x="478" y="1283" width="64" height="64" />
  <object id="687" gid="8880" x="592" y="1283" width="64" height="64" />
  <object id="688" gid="2147492511" x="280" y="1284" width="64" height="64" />
  <object id="689" gid="8971" x="850" y="1284" width="64" height="64" />
  <object id="690" gid="8863" x="83" y="1285" width="64" height="64" />
  <object id="691" gid="2147492511" x="130" y="1285" width="64" height="64" />
  <object id="692" gid="8971" x="494" y="1285" width="64" height="64" />
  <object id="693" gid="8880" x="28" y="1287" width="64" height="64" />
  <object id="694" gid="8863" x="209" y="1287" width="64" height="64" />
  <object id="695" gid="2147492528" x="441" y="1287" width="64" height="64" />
  <object id="696" gid="8880" x="801" y="1287" width="64" height="64" />
  <object id="697" gid="2147492528" x="562" y="1289" width="64" height="64" />
  <object id="698" gid="8863" x="669" y="1289" width="64" height="64" />
  <object id="699" gid="2147492511" x="310" y="1290" width="64" height="64" />
  <object id="700" gid="2147492590" x="359" y="1291" width="64" height="64" />
  <object id="701" gid="2147492599" x="97" y="1297" width="64" height="64" />
  <object id="702" gid="2147492511" x="264" y="1297" width="64" height="64" />
  <object id="703" gid="8971" x="175" y="1298" width="64" height="64" />
  <object id="704" gid="2147492528" x="-38" y="1299" width="64" height="64" />
  <object id="705" gid="8863" x="211" y="1299" width="64" height="64" />
  <object id="706" gid="8863" x="634" y="1299" width="64" height="64" />
  <object id="707" gid="8863" x="703" y="1299" width="64" height="64" />
  <object id="708" gid="8880" x="20" y="1300" width="64" height="64" />
  <object id="709" gid="2147492528" x="549" y="1301" width="64" height="64" />
  <object id="710" gid="2147492528" x="794" y="1301" width="64" height="64" />
  <object id="711" gid="8979" x="356" y="1302" width="64" height="64" />
  <object id="712" gid="8880" x="239" y="1303" width="64" height="64" />
  <object id="713" gid="8863" x="768" y="1303" width="64" height="64" />
  <object id="714" gid="2147492511" x="294" y="1305" width="64" height="64" />
  <object id="715" gid="2147492511" x="320" y="1305" width="64" height="64" />
  <object id="716" gid="8880" x="135" y="1307" width="64" height="64" />
  <object id="717" gid="8880" x="73" y="1309" width="64" height="64" />
  <object id="718" gid="8863" x="577" y="1309" width="64" height="64" />
  <object id="719" gid="2147492528" x="602" y="1309" width="64" height="64" />
  <object id="720" gid="2147492528" x="464" y="1310" width="64" height="64" />
  <object id="721" gid="8880" x="523" y="1312" width="64" height="64" />
  <object id="722" gid="8951" x="41" y="1313" width="64" height="64" />
  <object id="723" gid="2147492619" x="679" y="1313" width="64" height="64" />
  <object id="724" gid="2147492619" x="738" y="1313" width="64" height="64" />
  <object id="725" gid="2147492511" x="839" y="1313" width="64" height="64" />
  <object id="726" gid="2147492511" x="136" y="1321" width="64" height="64" />
  <object id="727" gid="8880" x="276" y="1321" width="64" height="64" />
  <object id="728" gid="2147492511" x="3" y="1322" width="64" height="64" />
  <object id="729" gid="2147492528" x="520" y="1322" width="64" height="64" />
  <object id="730" gid="2147492511" x="578" y="1322" width="64" height="64" />
  <object id="731" gid="8971" x="634" y="1326" width="64" height="64" />
  <object id="732" gid="8971" x="738" y="1330" width="64" height="64" />
  <object id="733" gid="8880" x="65" y="1331" width="64" height="64" />
  <object id="734" gid="2147492528" x="97" y="1331" width="64" height="64" />
  <object id="735" gid="2147492528" x="30" y="1332" width="64" height="64" />
  <object id="736" gid="8863" x="777" y="1332" width="64" height="64" />
  <object id="737" gid="8880" x="177" y="1333" width="64" height="64" />
  <object id="738" gid="2147492528" x="696" y="1333" width="64" height="64" />
  <object id="739" gid="2147492511" x="225" y="1334" width="64" height="64" />
  <object id="740" gid="8971" x="669" y="1335" width="64" height="64" />
  <object id="741" gid="2147492511" x="766" y="1335" width="64" height="64" />
  <object id="742" gid="8880" x="475" y="1336" width="64" height="64" />
  <object id="743" gid="8971" x="511" y="1336" width="64" height="64" />
  <object id="744" gid="2147492619" x="834" y="1336" width="64" height="64" />
  <object id="745" gid="8971" x="347" y="1337" width="64" height="64" />
  <object id="746" gid="2147492511" x="312" y="1338" width="64" height="64" />
  <object id="747" gid="2147492599" x="122" y="1339" width="64" height="64" />
  <object id="748" gid="8880" x="679" y="1344" width="64" height="64" />
  <object id="749" gid="8880" x="584" y="1345" width="64" height="64" />
  <object id="750" gid="8863" x="721" y="1345" width="64" height="64" />
  <object id="751" gid="8880" x="772" y="1345" width="64" height="64" />
  <object id="752" gid="8863" x="93" y="1346" width="64" height="64" />
  <object id="753" gid="2147492511" x="518" y="1348" width="64" height="64" />
  <object id="754" gid="2147492627" x="434" y="1348" width="64" height="64" />
  <object id="755" gid="2147492511" x="1" y="1350" width="64" height="64" />
  <object id="756" gid="8863" x="452" y="1350" width="64" height="64" />
  <object id="757" gid="8880" x="845" y="1350" width="64" height="64" />
  <object id="758" gid="2147492528" x="260" y="1352" width="64" height="64" />
  <object id="759" gid="2147492599" x="317" y="1352" width="64" height="64" />
  <object id="760" gid="8971" x="28" y="1353" width="64" height="64" />
  <object id="761" gid="8863" x="175" y="1353" width="64" height="64" />
  <object id="762" gid="8880" x="305" y="1353" width="64" height="64" />
  <object id="763" gid="8863" x="227" y="1354" width="64" height="64" />
  <object id="764" gid="8880" x="125" y="1357" width="64" height="64" />
  <object id="765" gid="2147492619" x="77" y="1358" width="64" height="64" />
  <object id="766" gid="2147492528" x="616" y="1358" width="64" height="64" />
  <object id="767" gid="2147492599" x="733" y="1359" width="64" height="64" />
  <object id="768" gid="8863" x="354" y="1360" width="64" height="64" />
  <object id="769" gid="8863" x="492" y="1360" width="64" height="64" />
  <object id="770" gid="8971" x="540" y="1360" width="64" height="64" />
  <object id="771" gid="8971" x="648" y="1360" width="64" height="64" />
  <object id="772" gid="2147492511" x="187" y="1362" width="64" height="64" />
  <object id="773" gid="8863" x="807" y="1362" width="64" height="64" />
  <object id="774" gid="8863" x="-12" y="1363" width="64" height="64" />
 </objectgroup>
 <objectgroup id="8" name="Objects">
  <object id="775" x="48" y="720" name="start" type="start">
   <point />
  </object>
  <object id="776" x="416" y="640" name="estate-gate" type="warp" width="32" height="16">
   <properties>
    <property name="goto" value="SakuraEstate,14,25.5" />
   </properties>
  </object>
  <object id="777" x="496" y="640" name="estate-kitchen" type="warp" width="32" height="16">
   <properties>
    <property name="goto" value="SakuraEstate,31,25.5" />
   </properties>
  </object>
  <object id="778" x="176" y="672" name="teahouse" type="warp" width="16" height="16">
   <properties>
    <property name="goto" value="SakuraTeahouse,9,11.5" />
   </properties>
  </object>
  <object id="779" x="784" y="656" name="temple" type="warp" width="16" height="16">
   <properties>
    <property name="goto" value="SakuraPagoda,8,11.5" />
   </properties>
  </object>
  <object id="780" x="0" y="704" name="bloomvale-road" type="warp" width="32" height="32">
   <properties>
    <property name="goto" value="Bloomvale,85.5,27.5" />
   </properties>
  </object>
  <object id="781" x="864" y="720" name="glimmercap-path" type="warp" width="32" height="32">
   <properties>
    <property name="goto" value="Glimmercap,2.5,30.5" />
   </properties>
  </object>
  <object id="782" x="742.4" y="681.6" name="monk-vigil" type="marker">
   <point />
  </object>
  <object id="783" x="32" y="32" name="fox-wood" type="marker" width="832" height="368" />
  <object id="784" x="320" y="976" name="bamboo-grove" type="marker" width="544" height="336" />
  <object id="785" x="64" y="1024" name="lords-cairn" type="marker" width="240" height="224" />
  <object id="786" x="0" y="432" type="safe-zone" width="896" height="512" />
  <object id="787" x="0" y="0" name="sakura" type="soundscape" width="896" height="1344">
   <properties>
    <property name="channel1" value="audio/music/forest.flac, 0.25" />
    <property name="channel2" value="audio/ambient/forest_air.flac, 0.3" />
   </properties>
  </object>
  <object id="788" x="240" y="448" name="stream" type="soundscape" width="144" height="480">
   <properties>
    <property name="channel4" value="audio/ambient/lapping_water.flac, 0.32" />
    <property name="emit" value="2.0" type="float" />
   </properties>
  </object>
  <object id="789" x="576" y="128" name="sealed-pagoda" type="soundscape" width="176" height="160">
   <properties>
    <property name="channel3" value="audio/ambient/stone_hum.flac, 0.29" />
    <property name="emit" value="3.0" type="float" />
   </properties>
  </object>
  <object id="790" x="560" y="1088" name="ronin-fire" type="soundscape" width="80" height="64">
   <properties>
    <property name="channel3" value="audio/ambient/campfire.flac, 0.29" />
    <property name="emit" value="2.0" type="float" />
   </properties>
  </object>
 </objectgroup>
</map>