<?xml version='1.0' encoding='UTF-8'?>
<map version="1.10" tiledversion="1.11.0" orientation="orthogonal" renderorder="right-down" width="38" height="28" tilewidth="16" tileheight="16" infinite="0" nextlayerid="9" nextobjectid="13">
 <tileset firstgid="1" source="../tilesets/sakura-estate-terrain.tsx" />
 <tileset firstgid="41" source="../tilesets/sakura-estate-decor.tsx" />
 <tileset firstgid="52" source="../tilesets/sakura-estate-furniture.tsx" />
 <tileset firstgid="816" source="../tilesets/collision.tsx" />
 <tileset firstgid="818" source="../tilesets/sakura-estate-props.tsx" />
 <layer id="1" name="Floor" width="38" height="28">
  <data encoding="csv">
1,1,1,1,1,1,1,1,1,1,1,1,1,1,1,1,1,1,1,1,1,1,1,1,1,1,1,1,1,1,1,1,1,1,1,1,1,1,
1,1,1,1,1,1,1,1,1,1,1,1,1,1,1,1,1,1,1,1,1,1,1,1,1,1,1,1,1,1,1,1,1,1,1,1,1,1,
1,1,1,1,1,1,1,1,1,1,1,1,1,1,1,1,1,1,1,1,1,1,1,1,1,1,1,1,1,1,1,1,1,1,1,1,1,1,
1,1,1,1,1,1,1,1,1,1,1,1,1,1,1,1,1,1,1,1,1,1,1,1,1,1,1,1,1,1,1,1,1,1,1,1,1,1,
1,1,1,1,1,1,1,1,1,1,1,1,1,1,1,1,1,1,1,1,1,1,1,1,1,1,1,1,1,1,1,1,1,1,1,1,1,1,
1,1,1,1,1,1,1,1,1,1,1,1,1,1,1,1,1,1,1,1,1,1,1,1,1,1,1,1,1,1,1,1,1,1,1,1,1,1,
1,1,1,1,1,1,1,1,1,1,1,1,1,1,1,1,1,1,1,1,1,1,1,1,1,1,1,1,1,1,1,1,1,1,1,1,1,1,
1,1,1,1,1,1,1,1,1,1,1,1,1,1,1,1,1,1,1,1,1,1,1,1,1,1,1,1,1,1,1,1,1,1,1,1,1,1,
1,1,1,1,1,1,1,1,1,1,1,1,1,1,1,1,1,1,1,1,1,1,1,1,1,1,1,1,1,1,1,1,1,1,1,1,1,1,
1,1,1,1,1,1,1,1,1,1,1,1,1,1,1,1,1,1,1,1,1,1,1,1,1,1,1,1,1,1,1,1,1,1,1,1,1,1,
1,1,1,1,1,1,1,1,1,1,1,1,1,1,1,1,1,1,1,1,1,1,1,1,1,1,1,1,1,1,1,1,1,1,1,1,1,1,
1,1,1,1,1,1,1,1,1,1,1,1,1,1,1,1,1,1,1,1,1,1,1,1,1,1,1,1,1,1,1,1,1,1,1,1,1,1,
1,1,1,1,1,1,1,1,1,1,1,1,1,1,1,1,1,1,1,1,1,1,1,1,1,1,1,1,1,1,1,1,1,1,1,1,1,1,
1,1,1,1,1,1,1,1,1,1,1,1,1,1,1,1,1,1,1,1,1,1,1,1,1,1,1,1,1,1,1,1,1,1,1,1,1,1,
1,1,1,1,1,1,1,1,1,1,1,1,1,1,1,1,1,1,1,1,1,1,1,1,1,1,1,1,1,1,1,1,1,1,1,1,1,1,
1,1,1,1,1,1,1,1,1,1,1,1,1,1,1,1,1,1,1,1,1,1,1,1,1,1,1,1,1,1,1,1,1,1,1,1,1,1,
1,1,1,1,1,1,1,1,1,1,1,1,1,1,1,1,1,1,1,1,1,1,1,1,1,1,1,1,1,1,1,1,1,1,1,1,1,1,
1,1,1,1,1,1,1,1,1,1,1,1,1,1,1,1,1,1,1,1,1,1,1,1,1,1,1,1,1,1,1,1,1,1,1,1,1,1,
1,1,1,1,1,1,1,1,1,1,1,1,1,1,1,1,1,1,1,1,1,1,1,1,1,1,1,1,1,1,1,1,1,1,1,1,1,1,
1,1,1,1,1,1,1,1,1,1,1,1,1,1,1,1,1,1,1,1,1,1,1,1,1,1,1,1,1,1,1,1,1,1,1,1,1,1,
1,1,1,1,1,1,1,1,1,1,1,1,1,1,1,1,1,1,1,1,1,1,1,1,1,1,1,1,1,1,1,1,1,1,1,1,1,1,
1,1,1,1,1,1,1,1,1,1,1,1,1,1,1,1,1,1,1,1,1,1,1,1,1,1,1,1,1,1,1,1,1,1,1,1,1,1,
1,1,1,1,1,1,1,1,1,1,1,1,1,1,1,1,1,1,1,1,1,1,1,1,1,1,1,1,1,1,1,1,1,1,1,1,1,1,
1,1,1,1,1,1,1,1,1,1,1,1,1,1,1,1,1,1,1,1,1,1,1,1,1,1,1,1,1,1,1,1,1,1,1,1,1,1,
1,1,1,1,1,1,1,1,1,1,1,1,1,1,1,1,1,1,1,1,1,1,1,1,1,1,1,1,1,1,1,1,1,1,1,1,1,1,
1,1,1,1,1,1,1,1,1,1,1,1,1,1,1,1,1,1,1,1,1,1,1,1,1,1,1,1,1,1,1,1,1,1,1,1,1,1,
1,1,1,1,1,1,1,1,1,1,1,1,1,1,1,1,1,1,1,1,1,1,1,1,1,1,1,1,1,1,1,1,1,1,1,1,1,1,
1,1,1,1,1,1,1,1,1,1,1,1,1,1,1,1,1,1,1,1,1,1,1,1,1,1,1,1,1,1,1,1,1,1,1,1,1,1
</data>
 </layer>
 <layer id="2" name="Walls" width="38" height="28">
  <data encoding="csv">
7,7,7,7,7,7,7,7,7,7,7,7,7,7,7,7,7,7,7,7,7,7,7,7,7,7,7,7,7,7,7,7,7,7,7,7,7,7,
12,13,13,13,13,13,13,13,19,12,13,13,13,13,13,13,13,13,13,13,13,13,13,13,13,19,12,13,13,13,13,13,13,13,13,13,13,19,
15,16,16,16,16,16,16,16,22,15,16,16,16,16,16,16,16,16,16,16,16,16,16,16,16,22,15,16,16,16,16,16,16,16,16,16,16,22,
9,0,0,0,0,0,0,0,6,9,0,0,0,0,0,0,0,0,0,0,0,0,0,0,0,6,9,0,0,0,0,0,0,0,0,0,0,6,
9,0,0,0,0,0,0,0,6,9,0,0,0,0,0,0,0,0,0,0,0,0,0,0,0,6,9,0,0,0,0,0,0,0,0,0,0,6,
9,0,0,0,0,0,0,0,18,14,0,0,0,0,0,0,0,0,0,0,0,0,0,0,0,18,14,0,0,0,0,0,0,0,0,0,0,6,
9,0,0,0,0,0,0,0,21,17,0,0,0,0,0,0,0,0,0,0,0,0,0,0,0,21,17,0,0,0,0,0,0,0,0,0,0,6,
9,0,0,0,0,0,0,0,0,0,0,0,0,0,0,0,0,0,0,0,0,0,0,0,0,0,0,0,0,0,0,0,0,0,0,0,0,6,
9,0,0,0,0,0,0,0,0,0,0,0,0,0,0,0,0,0,0,0,0,0,0,0,0,0,0,0,0,0,0,0,0,0,0,0,0,6,
9,0,0,0,0,0,0,0,2,4,0,0,0,0,0,0,0,0,0,0,0,0,0,0,0,2,4,0,0,0,0,0,0,0,0,0,0,6,
9,0,0,0,0,0,0,0,5,9,0,0,0,0,0,0,0,0,0,0,0,0,0,0,0,5,9,0,0,0,0,0,0,0,0,0,0,6,
9,0,0,0,0,0,0,0,6,9,0,0,0,0,0,0,0,0,0,0,0,0,0,0,0,6,9,0,0,0,0,0,0,0,0,0,0,6,
10,3,3,3,3,3,3,3,11,10,3,3,4,0,0,2,3,3,3,3,3,3,3,3,3,11,10,3,3,3,3,3,3,3,3,3,3,11,
12,13,13,13,13,13,13,13,19,12,13,13,14,0,0,18,13,13,19,12,13,13,13,19,12,13,13,13,13,13,13,13,13,13,13,13,13,19,
15,16,16,16,16,16,16,16,22,15,16,16,17,0,0,21,16,16,22,15,16,16,16,22,15,16,16,16,16,16,16,16,16,16,16,16,16,22,
9,0,0,0,0,0,0,0,6,9,0,0,0,0,0,0,0,0,6,9,0,0,0,6,9,0,0,0,0,0,0,0,0,0,0,0,0,6,
9,0,0,0,0,0,0,0,6,9,0,0,0,0,0,0,0,0,6,9,0,0,0,6,9,0,0,0,0,0,0,0,0,0,0,0,0,6,
9,0,0,0,0,0,0,0,6,9,0,0,0,0,0,0,0,0,6,9,0,0,0,6,9,0,0,0,0,0,0,0,0,0,0,0,0,6,
9,0,0,0,0,0,0,0,18,14,0,0,0,0,0,0,0,0,18,14,0,0,0,18,14,0,0,0,0,0,0,0,0,0,0,0,0,6,
9,0,0,0,0,0,0,0,21,17,0,0,0,0,0,0,0,0,21,17,0,0,0,21,17,0,0,0,0,0,0,0,0,0,0,0,0,6,
9,0,0,0,0,0,0,0,0,0,0,0,0,0,0,0,0,0,0,0,0,0,0,0,0,0,0,0,0,0,0,0,0,0,0,0,0,6,
9,0,0,0,0,0,0,0,0,0,0,0,0,0,0,0,0,0,0,0,0,0,0,0,0,0,0,0,0,0,0,0,0,0,0,0,0,6,
9,0,0,0,0,0,0,0,2,4,0,0,0,0,0,0,0,0,2,4,0,0,0,2,4,0,0,0,0,0,0,0,0,0,0,0,0,6,
9,0,0,0,0,0,0,0,5,9,0,0,0,0,0,0,0,0,5,9,0,0,0,5,9,0,0,0,0,0,0,0,0,0,0,0,0,6,
9,0,0,0,0,0,0,0,6,9,0,0,0,0,0,0,0,0,6,9,0,0,0,6,9,0,0,0,0,0,0,0,0,0,0,0,0,6,
9,0,0,0,0,0,0,0,6,9,0,0,0,0,0,0,0,0,6,9,0,0,0,6,9,0,0,0,0,0,0,0,0,0,0,0,0,6,
10,3,3,3,3,3,3,3,11,10,3,3,4,0,0,2,3,3,11,10,3,3,3,11,10,3,3,3,3,4,0,0,2,3,3,3,3,11,
7,7,7,7,7,7,7,7,7,7,7,7,9,0,0,5,7,7,7,7,7,7,7,7,7,7,7,7,7,9,0,0,5,7,7,7,7,7
</data>
 </layer>
 <layer id="3" name="Rug" width="38" height="28">
  <data encoding="csv">
0,0,0,0,0,0,0,0,0,0,0,0,0,0,0,0,0,0,0,0,0,0,0,0,0,0,0,0,0,0,0,0,0,0,0,0,0,0,
0,0,0,0,0,0,0,0,0,0,0,0,0,0,0,0,0,0,0,0,0,0,0,0,0,0,0,0,0,0,0,0,0,0,0,0,0,0,
0,0,0,0,0,0,0,0,0,0,0,0,0,0,0,0,0,0,0,0,0,0,0,0,0,0,0,0,0,0,0,0,0,0,0,0,0,0,
0,0,0,0,0,0,0,0,0,0,0,0,0,0,0,0,0,0,0,0,0,0,0,0,0,0,0,0,0,0,0,0,0,0,0,0,0,0,
0,0,0,0,0,0,0,0,0,0,0,0,0,0,0,0,0,0,0,0,0,0,0,0,0,0,0,0,0,0,0,0,0,0,0,0,0,0,
0,0,0,0,0,0,0,0,0,0,0,0,0,32,34,34,34,34,34,34,34,34,35,0,0,0,0,0,32,34,34,34,34,34,34,35,0,0,
0,0,0,0,0,0,0,0,0,0,0,0,0,36,37,37,37,37,37,37,37,37,27,0,0,0,0,0,36,37,37,37,37,37,37,27,0,0,
0,0,0,0,0,0,0,0,0,0,0,0,0,36,37,37,37,37,37,37,37,37,27,0,0,0,0,0,36,37,37,37,37,37,37,27,0,0,
0,0,0,0,0,0,0,0,0,0,0,0,0,36,37,37,37,37,37,37,37,37,27,0,0,0,0,0,36,37,37,37,37,37,37,27,0,0,
0,0,0,0,0,0,0,0,0,0,0,0,0,36,37,37,37,37,37,37,37,37,27,0,0,0,0,0,36,37,37,37,37,37,37,27,0,0,
0,0,0,0,0,0,0,0,0,0,0,0,0,36,37,37,37,37,37,37,37,37,27,0,0,0,0,0,28,29,29,29,29,29,29,31,0,0,
0,0,0,0,0,0,0,0,0,0,0,0,0,28,29,29,29,29,29,29,29,29,31,0,0,0,0,0,0,0,0,0,0,0,0,0,0,0,
0,0,0,0,0,0,0,0,0,0,0,0,0,0,0,0,0,0,0,0,0,0,0,0,0,0,0,0,0,0,0,0,0,0,0,0,0,0,
0,0,0,0,0,0,0,0,0,0,0,0,0,0,0,0,0,0,0,0,0,0,0,0,0,0,0,0,0,0,0,0,0,0,0,0,0,0,
0,0,0,0,0,0,0,0,0,0,0,0,0,34,34,0,0,0,0,0,0,0,0,0,0,0,0,0,0,0,0,0,0,0,0,0,0,0,
0,0,0,0,0,0,0,0,0,0,0,0,36,37,37,27,0,0,0,0,0,0,0,0,0,0,0,0,0,0,0,0,0,0,0,0,0,0,
0,0,0,0,0,0,0,0,0,0,0,0,36,37,37,27,0,0,0,0,0,0,0,0,0,0,0,0,0,0,0,0,0,0,0,0,0,0,
0,32,34,34,34,34,34,35,0,0,0,0,36,37,37,27,0,0,0,0,0,0,0,0,0,0,0,0,0,0,0,0,0,0,0,0,0,0,
0,36,37,37,37,37,37,27,0,0,0,0,36,37,37,27,0,0,0,0,0,0,0,0,0,0,0,0,0,0,0,0,0,0,0,0,0,0,
0,36,37,37,37,37,37,27,0,0,0,0,36,37,37,27,0,0,0,0,0,0,0,0,0,0,0,0,0,0,0,0,0,0,0,0,0,0,
0,36,37,37,37,37,37,27,0,0,0,0,36,37,37,27,0,0,0,0,0,0,0,0,0,0,0,0,0,0,0,0,0,0,0,0,0,0,
0,36,37,37,37,37,37,27,0,0,0,0,36,37,37,27,0,0,0,0,0,0,0,0,0,0,0,0,0,0,0,0,0,0,0,0,0,0,
0,36,37,37,37,37,37,27,0,0,0,0,36,37,37,27,0,0,0,0,0,0,0,0,0,0,0,0,0,0,0,0,0,0,0,0,0,0,
0,36,37,37,37,37,37,27,0,0,0,0,36,37,37,27,0,0,0,0,0,0,0,0,0,0,0,0,0,0,0,0,0,0,0,0,0,0,
0,28,29,29,29,29,29,31,0,0,0,0,36,37,37,27,0,0,0,0,0,0,0,0,0,0,0,0,0,0,0,0,0,0,0,0,0,0,
0,0,0,0,0,0,0,0,0,0,0,0,36,37,37,27,0,0,0,0,0,0,0,0,0,0,0,0,0,0,0,0,0,0,0,0,0,0,
0,0,0,0,0,0,0,0,0,0,0,0,0,29,29,0,0,0,0,0,0,0,0,0,0,0,0,0,0,0,0,0,0,0,0,0,0,0,
0,0,0,0,0,0,0,0,0,0,0,0,0,0,0,0,0,0,0,0,0,0,0,0,0,0,0,0,0,0,0,0,0,0,0,0,0,0
</data>
 </layer>
 <layer id="4" name="Decor" width="38" height="28">
  <data encoding="csv">
0,0,0,0,0,0,0,0,0,0,0,0,0,0,0,0,0,0,0,0,0,0,0,0,0,0,0,0,0,0,0,0,0,0,0,0,0,0,
0,0,0,0,0,0,0,0,0,0,0,0,0,0,0,0,41,0,0,41,0,0,0,0,0,0,0,0,0,0,0,0,0,0,0,0,0,0,
0,0,0,0,0,0,0,0,0,0,0,0,0,0,0,42,43,0,42,43,0,0,0,0,0,0,0,0,0,0,0,0,0,0,0,0,0,0,
0,0,0,0,0,0,0,0,0,0,0,0,0,0,0,0,0,0,0,0,0,0,0,0,0,0,0,0,0,0,0,0,0,0,0,0,0,0,
0,0,0,0,0,0,0,0,0,0,0,0,0,0,0,0,0,0,0,0,0,0,0,0,0,0,0,0,0,0,0,0,0,0,0,0,0,0,
0,0,0,0,0,0,0,0,0,0,0,0,0,0,0,0,0,0,0,0,0,0,0,0,0,0,0,0,0,0,0,0,0,0,0,0,0,0,
0,0,0,0,0,0,0,0,0,0,0,0,0,0,0,0,0,0,0,0,0,0,0,0,0,0,0,0,0,0,0,0,0,0,0,0,0,0,
0,0,0,0,0,0,0,0,0,0,0,0,0,0,0,0,0,0,0,0,0,0,0,0,0,0,0,0,0,0,0,0,0,0,0,0,0,0,
0,0,0,0,0,0,0,0,0,0,0,0,0,0,0,0,0,0,0,0,0,0,0,0,0,0,0,0,0,0,0,0,0,0,0,0,0,0,
0,0,0,0,0,0,0,0,0,0,0,0,0,0,0,0,0,0,0,0,0,0,0,0,0,0,0,0,0,0,0,0,0,0,0,0,0,0,
0,0,0,0,0,0,0,0,0,0,0,0,0,0,0,0,0,0,0,0,0,0,0,0,0,0,0,0,0,0,0,0,0,0,0,0,0,0,
0,0,0,0,0,0,0,0,0,0,0,0,0,0,0,0,0,0,0,0,0,0,0,0,0,0,0,0,0,0,0,0,0,0,0,0,0,0,
0,0,0,0,0,0,0,0,0,0,0,0,0,0,0,0,0,0,0,0,0,0,0,0,0,0,0,0,0,0,0,0,0,0,0,0,0,0,
0,0,0,0,0,0,0,0,0,0,44,45,0,0,0,0,48,49,0,0,0,0,0,0,0,0,0,0,0,0,0,0,0,0,0,0,0,0,
0,0,0,0,0,0,0,0,0,0,46,47,0,0,0,0,50,51,0,0,0,0,0,0,0,0,0,0,0,0,0,0,0,0,0,0,0,0,
0,0,0,0,0,0,0,0,0,0,0,0,0,0,0,0,0,0,0,0,0,0,0,0,0,0,0,0,0,0,0,0,0,0,0,0,0,0,
0,0,0,0,0,0,0,0,0,0,0,0,0,0,0,0,0,0,0,0,0,0,0,0,0,0,0,0,0,0,0,0,0,0,0,0,0,0,
0,0,0,0,0,0,0,0,0,0,0,0,0,0,0,0,0,0,0,0,0,0,0,0,0,0,0,0,0,0,0,0,0,0,0,0,0,0,
0,0,0,0,0,0,0,0,0,0,0,0,0,0,0,0,0,0,0,0,0,0,0,0,0,0,0,0,0,0,0,0,0,0,0,0,0,0,
0,0,0,0,0,0,0,0,0,0,0,0,0,0,0,0,0,0,0,0,0,0,0,0,0,0,0,0,0,0,0,0,0,0,0,0,0,0,
0,0,0,0,0,0,0,0,0,0,0,0,0,0,0,0,0,0,0,0,0,0,0,0,0,0,0,0,0,0,0,0,0,0,0,0,0,0,
0,0,0,0,0,0,0,0,0,0,0,0,0,0,0,0,0,0,0,0,0,0,0,0,0,0,0,0,0,0,0,0,0,0,0,0,0,0,
0,0,0,0,0,0,0,0,0,0,0,0,0,0,0,0,0,0,0,0,0,0,0,0,0,0,0,0,0,0,0,0,0,0,0,0,0,0,
0,0,0,0,0,0,0,0,0,0,0,0,0,0,0,0,0,0,0,0,0,0,0,0,0,0,0,0,0,0,0,0,0,0,0,0,0,0,
0,0,0,0,0,0,0,0,0,0,0,0,0,0,0,0,0,0,0,0,0,0,0,0,0,0,0,0,0,0,0,0,0,0,0,0,0,0,
0,0,0,0,0,0,0,0,0,0,0,0,0,0,0,0,0,0,0,0,0,0,0,0,0,0,0,0,0,0,0,0,0,0,0,0,0,0,
0,0,0,0,0,0,0,0,0,0,0,0,0,0,0,0,0,0,0,0,0,0,0,0,0,0,0,0,0,0,0,0,0,0,0,0,0,0,
0,0,0,0,0,0,0,0,0,0,0,0,0,0,0,0,0,0,0,0,0,0,0,0,0,0,0,0,0,0,0,0,0,0,0,0,0,0
</data>
 </layer>
 <layer id="5" name="Dynamic" width="38" height="28">
  <data encoding="csv">
0,0,0,0,0,0,0,0,0,0,0,0,0,0,0,0,0,0,0,0,0,0,0,0,0,0,0,0,0,0,0,0,0,0,0,0,0,0,
0,0,0,0,0,0,0,0,0,0,0,0,0,0,0,0,0,0,0,0,0,0,0,0,0,0,0,0,0,0,0,0,0,0,0,0,0,0,
0,276,277,68,69,292,293,0,0,0,272,273,0,264,265,0,56,57,0,0,264,265,0,72,73,0,0,0,0,128,129,0,0,0,0,142,143,0,
0,278,279,70,71,295,294,0,0,0,274,275,0,266,267,0,58,59,0,0,266,267,0,74,75,0,0,242,0,130,131,136,137,0,0,144,145,0,
0,0,0,0,0,0,0,0,0,0,0,0,0,0,0,0,0,0,0,0,0,0,0,0,0,0,0,243,0,0,0,138,139,0,0,0,0,0,
0,0,0,252,253,0,0,0,0,0,0,0,0,0,0,0,296,297,0,0,0,0,0,0,0,0,0,0,0,0,0,0,0,0,0,0,0,0,
0,0,0,254,255,0,0,0,0,0,0,0,0,0,0,0,0,0,0,0,0,0,0,0,0,0,0,0,0,0,0,0,0,0,0,0,0,0,
0,0,0,0,0,0,0,0,0,0,0,0,0,0,0,0,0,0,0,0,0,0,0,0,0,0,0,0,0,60,61,0,60,61,0,0,0,0,
0,0,0,0,0,0,0,0,0,0,0,0,0,0,84,85,0,0,0,84,85,0,0,0,0,0,0,0,0,62,63,0,62,63,0,0,0,0,
0,0,0,0,0,0,0,0,0,0,0,0,0,0,86,87,0,0,0,86,87,0,0,0,0,0,0,0,0,0,0,0,0,0,0,0,0,0,
0,80,81,0,0,0,334,335,0,0,236,237,0,0,0,0,0,0,0,0,0,0,0,236,237,0,0,0,0,0,0,0,681,682,0,0,240,0,
0,82,83,0,0,0,336,337,0,0,238,239,0,0,0,0,0,0,0,0,0,0,0,238,239,0,0,0,0,0,0,0,683,684,0,0,241,0,
0,0,0,0,0,0,0,0,0,0,0,0,0,0,0,0,0,0,0,0,0,0,0,0,0,0,0,0,0,0,0,0,0,0,0,0,0,0,
0,0,0,0,0,0,0,0,0,0,0,0,0,0,0,0,0,0,0,0,0,0,0,0,0,0,0,0,0,0,0,0,0,0,0,0,0,0,
0,455,456,459,460,463,464,0,0,0,0,0,0,0,0,0,0,0,0,0,0,0,0,0,0,667,668,92,93,132,133,0,0,487,488,671,672,0,
0,457,458,461,462,465,466,0,0,0,0,0,0,0,0,0,0,0,0,0,583,584,383,0,0,669,670,94,95,134,135,0,0,489,490,673,674,0,
0,0,0,0,0,0,0,0,0,0,361,362,0,0,0,0,76,77,0,0,585,586,384,0,0,0,0,0,0,0,0,0,0,0,0,0,0,0,
0,0,0,0,0,0,0,0,0,0,0,0,0,0,0,0,78,79,0,0,0,0,383,0,0,0,0,0,0,0,0,0,0,0,0,0,0,0,
0,0,0,0,0,0,0,0,0,0,0,0,0,0,0,0,0,0,0,0,0,0,384,0,0,0,0,0,0,0,0,0,0,0,0,0,0,0,
0,0,0,451,452,0,0,0,0,0,0,0,0,0,0,0,0,0,0,0,0,0,0,0,0,0,0,555,556,0,192,193,0,655,656,0,0,0,
0,0,0,453,454,0,0,0,0,0,240,0,0,0,0,0,0,240,0,0,0,0,0,0,0,0,0,557,558,0,194,195,0,657,658,208,209,0,
0,0,0,0,0,698,699,0,0,0,241,0,0,0,0,0,0,241,0,0,0,0,0,0,0,0,0,0,0,0,0,0,0,0,0,210,211,0,
0,0,0,731,732,0,0,0,0,0,0,0,0,0,0,0,0,0,0,0,0,0,400,0,0,0,104,105,0,0,0,0,0,0,0,0,0,0,
0,0,0,733,734,0,0,0,0,0,0,0,0,0,0,0,0,0,0,0,0,0,401,0,0,0,106,107,0,0,0,0,0,0,0,0,0,0,
0,551,552,0,0,0,487,488,0,0,0,782,785,0,0,539,540,0,0,0,509,510,0,0,0,383,0,0,0,0,0,0,0,0,0,0,400,0,
0,553,554,0,0,0,489,490,0,0,0,783,784,0,0,541,542,0,0,0,511,512,0,0,0,384,0,0,0,0,0,0,0,0,0,0,401,0,
0,0,0,0,0,0,0,0,0,0,0,0,0,0,0,0,0,0,0,0,0,0,0,0,0,0,0,0,0,0,0,0,0,0,0,0,0,0,
0,0,0,0,0,0,0,0,0,0,0,0,0,0,0,0,0,0,0,0,0,0,0,0,0,0,0,0,0,0,0,0,0,0,0,0,0,0
</data>
 </layer>
 <layer id="6" name="Collision" width="38" height="28">
  <data encoding="csv">
817,817,817,817,817,817,817,817,817,817,817,817,817,817,817,817,817,817,817,817,817,817,817,817,817,817,817,817,817,817,817,817,817,817,817,817,817,817,
817,817,817,817,817,817,817,817,817,817,817,817,817,817,817,817,817,817,817,817,817,817,817,817,817,817,817,817,817,817,817,817,817,817,817,817,817,817,
817,817,817,817,817,817,817,817,817,817,817,817,817,817,817,817,817,817,817,817,817,817,817,817,817,817,817,817,817,817,817,817,817,817,817,817,817,817,
817,816,817,817,817,816,817,816,817,817,817,817,816,817,817,816,817,817,816,816,817,817,816,817,817,817,817,816,816,817,817,816,816,816,816,817,817,817,
817,816,816,816,816,816,816,816,817,817,816,816,816,816,816,816,816,816,816,816,816,816,816,816,816,817,817,817,816,816,816,817,817,816,816,816,816,817,
817,816,816,816,816,816,816,816,817,817,816,816,816,816,816,816,817,817,816,816,816,816,816,816,816,817,817,816,816,816,816,816,816,816,816,816,816,817,
817,816,816,817,817,816,816,816,817,817,816,816,816,816,816,816,816,816,816,816,816,816,816,816,816,817,817,816,816,816,816,816,816,816,816,816,816,817,
817,816,816,816,816,816,816,816,816,816,816,816,816,816,816,816,816,816,816,816,816,816,816,816,816,816,816,816,816,816,816,816,816,816,816,816,816,817,
817,816,816,816,817,816,816,816,816,816,816,816,816,816,816,816,816,816,816,816,816,816,816,816,816,816,816,816,816,817,817,816,817,817,816,816,816,817,
817,816,816,816,816,816,816,816,817,817,816,816,816,816,817,817,816,816,816,817,817,816,816,816,816,817,817,816,816,816,816,816,816,816,816,816,816,817,
817,816,816,816,816,816,816,816,817,817,816,816,816,816,816,816,816,816,816,816,816,816,816,816,816,817,817,817,816,816,816,816,816,816,816,816,816,817,
817,817,817,816,816,816,817,817,817,817,817,817,816,816,816,816,816,816,816,816,816,816,816,817,817,817,817,816,816,816,816,816,817,817,816,816,817,817,
817,817,817,817,817,817,817,817,817,817,817,817,817,816,816,817,817,817,817,817,817,817,817,817,817,817,817,817,817,817,817,817,817,817,817,817,817,817,
817,817,817,817,817,817,817,817,817,817,817,817,817,816,816,817,817,817,817,817,817,817,817,817,817,817,817,817,817,817,817,817,817,817,817,817,817,817,
817,817,817,817,817,817,817,817,817,817,817,817,817,816,816,817,817,817,817,817,817,817,817,817,817,817,817,817,817,817,817,817,817,817,817,817,817,817,
817,817,817,817,817,817,817,816,817,817,816,816,816,816,816,816,816,816,817,817,816,816,816,817,817,817,817,817,817,817,817,816,816,817,817,817,817,817,
817,816,816,816,816,816,816,816,817,817,817,817,816,816,816,816,816,816,817,817,817,817,817,817,817,816,816,816,816,816,816,816,816,816,816,816,816,817,
817,816,816,816,816,816,816,816,817,817,816,816,816,816,816,816,817,817,817,817,816,816,816,817,817,816,816,816,816,816,816,816,816,816,816,816,816,817,
817,816,816,816,816,816,816,816,817,817,816,816,816,816,816,816,816,816,817,817,816,816,817,817,817,816,816,816,816,816,816,816,816,816,816,816,816,817,
817,816,816,816,816,816,816,816,817,817,816,816,816,816,816,816,816,816,817,817,816,816,816,817,817,816,816,816,816,816,816,816,816,816,816,816,816,817,
817,816,816,817,817,816,816,816,816,816,816,816,816,816,816,816,816,816,816,816,816,816,816,816,816,816,816,817,817,816,817,817,816,817,817,816,816,817,
817,816,816,816,816,817,817,816,816,816,817,816,816,816,816,816,816,817,816,816,816,816,816,816,816,816,816,816,816,816,816,816,816,816,816,817,817,817,
817,816,816,816,816,816,816,816,817,817,816,816,816,816,816,816,816,816,817,817,816,816,816,817,817,816,816,816,816,816,816,816,817,816,816,816,816,817,
817,816,816,817,817,816,816,816,817,817,816,816,816,816,816,816,816,816,817,817,816,816,817,817,817,816,817,817,816,816,816,816,816,816,816,816,816,817,
817,816,816,816,816,816,816,816,817,817,816,816,816,816,816,816,816,816,817,817,816,816,817,817,817,816,817,816,816,816,816,816,816,816,816,816,816,817,
817,817,817,816,816,816,817,817,817,817,816,817,817,816,816,817,817,816,817,817,817,817,817,817,817,817,816,816,816,816,816,816,816,816,816,816,817,817,
817,817,817,817,817,817,817,817,817,817,817,817,817,816,816,817,817,817,817,817,817,817,817,817,817,817,817,817,817,817,816,816,817,817,817,817,817,817,
817,817,817,817,817,817,817,817,817,817,817,817,817,816,816,817,817,817,817,817,817,817,817,817,817,817,817,817,817,817,816,816,817,817,817,817,817,817
</data>
 </layer>
 <objectgroup id="7" name="Scenery">
  <object id="1" gid="920" x="40" y="142" width="64" height="64" />
  <object id="2" gid="939" x="408" y="174" width="64" height="64" />
  <object id="3" gid="905" x="488" y="366" width="64" height="64" />
  <object id="4" gid="918" x="328" y="398" width="64" height="64" />
  <object id="5" gid="921" x="392" y="398" width="64" height="64" />
  <object id="6" gid="935" x="328" y="414" width="64" height="64" />
 </objectgroup>
 <objectgroup id="8" name="Objects">
  <object id="7" x="224" y="408" name="start" type="start">
   <point />
  </object>
  <object id="8" x="208" y="416" name="gate-door" type="warp" width="32" height="32">
   <properties>
    <property name="goto" value="Sakura,27,41.5" />
   </properties>
  </object>
  <object id="9" x="480" y="416" name="kitchen-door" type="warp" width="32" height="32">
   <properties>
    <property name="goto" value="Sakura,32,41.5" />
   </properties>
  </object>
  <object id="10" x="272" y="105.6" name="lord-seat" type="marker">
   <point />
  </object>
  <object id="11" x="416" y="224" name="kitchen-hearth" type="soundscape" width="80" height="48">
   <properties>
    <property name="channel3" value="audio/ambient/campfire.flac, 0.25" />
    <property name="emit" value="2.0" type="float" />
   </properties>
  </object>
  <object id="12" x="32" y="288" name="tea-hearth" type="soundscape" width="64" height="48">
   <properties>
    <property name="channel4" value="audio/ambient/campfire.flac, 0.2" />
    <property name="emit" value="1.5" type="float" />
   </properties>
  </object>
 </objectgroup>
</map>