<?xml version='1.0' encoding='UTF-8'?>
<map version="1.10" tiledversion="1.11.0" orientation="orthogonal" renderorder="right-down" width="18" height="14" tilewidth="16" tileheight="16" infinite="0" nextlayerid="9" nextobjectid="7">
 <tileset firstgid="1" source="../tilesets/sakura-teahouse-terrain.tsx" />
 <tileset firstgid="41" source="../tilesets/sakura-teahouse-decor.tsx" />
 <tileset firstgid="43" source="../tilesets/sakura-teahouse-furniture.tsx" />
 <tileset firstgid="412" source="../tilesets/collision.tsx" />
 <tileset firstgid="414" source="../tilesets/sakura-teahouse-props.tsx" />
 <layer id="1" name="Floor" width="18" height="14">
  <data encoding="csv">
1,1,1,1,1,1,1,1,1,1,1,1,1,1,1,1,1,1,
1,1,1,1,1,1,1,1,1,1,1,1,1,1,1,1,1,1,
1,1,1,1,1,1,1,1,1,1,1,1,1,1,1,1,1,1,
1,1,1,1,1,1,1,1,1,1,1,1,1,1,1,1,1,1,
1,1,1,1,1,1,1,1,1,1,1,1,1,1,1,1,1,1,
1,1,1,1,1,1,1,1,1,1,1,1,1,1,1,1,1,1,
1,1,1,1,1,1,1,1,1,1,1,1,1,1,1,1,1,1,
1,1,1,1,1,1,1,1,1,1,1,1,1,1,1,1,1,1,
1,1,1,1,1,1,1,1,1,1,1,1,1,1,1,1,1,1,
1,1,1,1,1,1,1,1,1,1,1,1,1,1,1,1,1,1,
1,1,1,1,1,1,1,1,1,1,1,1,1,1,1,1,1,1,
1,1,1,1,1,1,1,1,1,1,1,1,1,1,1,1,1,1,
1,1,1,1,1,1,1,1,1,1,1,1,1,1,1,1,1,1,
1,1,1,1,1,1,1,1,1,1,1,1,1,1,1,1,1,1
</data>
 </layer>
 <layer id="2" name="Walls" width="18" height="14">
  <data encoding="csv">
7,7,7,7,7,7,7,7,7,7,7,7,7,7,7,7,7,7,
12,13,13,13,13,13,13,13,13,13,13,13,19,12,13,13,13,19,
15,16,16,16,16,16,16,16,16,16,16,16,22,15,16,16,16,22,
9,0,0,0,0,0,0,0,0,0,0,0,6,9,0,0,0,6,
9,0,0,0,0,0,0,0,0,0,0,0,18,14,0,0,0,6,
9,0,0,0,0,0,0,0,0,0,0,0,21,17,0,0,0,6,
9,0,0,0,0,0,0,0,0,0,0,0,0,0,0,0,0,6,
9,0,0,0,0,0,0,0,0,0,0,0,0,0,0,0,0,6,
9,0,0,0,0,0,0,0,0,0,0,0,2,4,0,0,0,6,
9,0,0,0,0,0,0,0,0,0,0,0,5,9,0,0,0,6,
9,0,0,0,0,0,0,0,0,0,0,0,6,9,0,0,0,6,
9,0,0,0,0,0,0,0,0,0,0,0,6,9,0,0,0,6,
10,3,3,3,3,3,3,4,0,0,2,3,11,10,3,3,3,11,
7,7,7,7,7,7,7,9,0,0,5,7,7,7,7,7,7,7
</data>
 </layer>
 <layer id="3" name="Rug" width="18" height="14">
  <data encoding="csv">
0,0,0,0,0,0,0,0,0,0,0,0,0,0,0,0,0,0,
0,0,0,0,0,0,0,0,0,0,0,0,0,0,0,0,0,0,
0,0,0,0,0,0,0,0,0,0,0,0,0,0,0,0,0,0,
0,0,0,0,0,0,0,0,0,0,0,0,0,0,0,0,0,0,
0,0,0,0,0,0,0,0,0,0,0,0,0,0,0,0,0,0,
0,0,0,0,0,0,0,0,0,0,0,0,0,0,0,0,0,0,
0,0,0,0,0,0,0,0,0,0,0,0,0,0,0,0,0,0,
0,0,32,34,34,34,34,34,34,34,35,0,0,0,0,0,0,0,
0,0,36,37,37,37,37,37,37,37,27,0,0,0,0,0,0,0,
0,0,36,37,37,37,37,37,37,37,27,0,0,0,0,0,0,0,
0,0,36,37,37,37,37,37,37,37,27,0,0,0,0,0,0,0,
0,0,28,29,29,29,29,29,29,29,31,0,0,0,0,0,0,0,
0,0,0,0,0,0,0,0,0,0,0,0,0,0,0,0,0,0,
0,0,0,0,0,0,0,0,0,0,0,0,0,0,0,0,0,0
</data>
 </layer>
 <layer id="4" name="Decor" width="18" height="14">
  <data encoding="csv">
0,0,0,0,0,0,0,0,0,0,0,0,0,0,0,0,0,0,
0,0,0,0,0,0,41,0,0,0,0,0,0,0,0,0,0,0,
0,0,0,0,0,0,42,0,0,0,0,0,0,0,0,0,0,0,
0,0,0,0,0,0,0,0,0,0,0,0,0,0,0,0,0,0,
0,0,0,0,0,0,0,0,0,0,0,0,0,0,0,0,0,0,
0,0,0,0,0,0,0,0,0,0,0,0,0,0,0,0,0,0,
0,0,0,0,0,0,0,0,0,0,0,0,0,0,0,0,0,0,
0,0,0,0,0,0,0,0,0,0,0,0,0,0,0,0,0,0,
0,0,0,0,0,0,0,0,0,0,0,0,0,0,0,0,0,0,
0,0,0,0,0,0,0,0,0,0,0,0,0,0,0,0,0,0,
0,0,0,0,0,0,0,0,0,0,0,0,0,0,0,0,0,0,
0,0,0,0,0,0,0,0,0,0,0,0,0,0,0,0,0,0,
0,0,0,0,0,0,0,0,0,0,0,0,0,0,0,0,0,0,
0,0,0,0,0,0,0,0,0,0,0,0,0,0,0,0,0,0
</data>
 </layer>
 <layer id="5" name="Dynamic" width="18" height="14">
  <data encoding="csv">
0,0,0,0,0,0,0,0,0,0,0,0,0,0,0,0,0,0,
0,0,0,0,0,0,0,0,0,0,0,0,0,0,0,0,0,0,
0,59,60,55,56,0,0,0,0,51,52,0,0,0,83,84,0,0,
0,61,62,57,58,0,0,0,0,53,54,0,0,0,85,86,331,0,
0,0,0,0,0,0,0,0,0,0,0,0,0,0,0,0,332,0,
0,0,0,0,0,0,0,0,0,0,0,0,0,0,0,0,0,0,
0,0,0,0,0,47,48,0,0,0,0,0,0,0,0,0,0,0,
0,0,0,0,0,49,50,0,0,0,0,0,0,0,0,0,0,0,
0,0,0,294,295,0,0,294,295,0,223,224,0,0,199,202,0,0,
0,0,0,43,44,0,0,43,44,0,225,226,0,0,200,201,0,0,
0,147,148,45,46,0,0,45,46,0,143,144,0,0,0,267,268,0,
0,149,150,0,0,0,0,0,0,0,145,146,0,0,0,269,270,0,
0,0,0,0,0,0,0,0,0,0,0,0,0,0,0,0,0,0,
0,0,0,0,0,0,0,0,0,0,0,0,0,0,0,0,0,0
</data>
 </layer>
 <layer id="6" name="Collision" width="18" height="14">
  <data encoding="csv">
413,413,413,413,413,413,413,413,413,413,413,413,413,413,413,413,413,413,
413,413,413,413,413,413,413,413,413,413,413,413,413,413,413,413,413,413,
413,413,413,413,413,413,413,413,413,413,413,413,413,413,413,413,413,413,
413,413,413,413,413,412,412,412,412,413,413,412,413,413,413,413,412,413,
413,412,412,412,412,412,412,412,412,412,412,412,413,413,412,412,413,413,
413,412,412,412,412,412,412,412,412,412,412,412,413,413,412,412,412,413,
413,412,412,412,412,412,412,412,412,412,412,412,412,412,412,412,412,413,
413,412,412,412,412,413,413,413,412,412,412,412,412,412,412,412,412,413,
413,412,412,413,413,412,412,413,413,412,412,412,413,413,412,412,413,413,
413,412,412,412,412,412,412,412,412,412,413,413,413,413,413,413,412,413,
413,412,412,413,413,412,412,413,413,412,412,412,413,413,412,412,412,413,
413,413,413,412,412,412,412,412,412,412,413,413,413,413,412,413,413,413,
413,413,413,413,413,413,413,413,412,412,413,413,413,413,413,413,413,413,
413,413,413,413,413,413,413,413,412,412,413,413,413,413,413,413,413,413
</data>
 </layer>
 <objectgroup id="7" name="Scenery">
  <object id="1" gid="480" x="88" y="126" width="64" height="64" />
  <object id="2" gid="503" x="232" y="142" width="64" height="64" />
 </objectgroup>
 <objectgroup id="8" name="Objects">
  <object id="3" x="144" y="184" name="start" type="start">
   <point />
  </object>
  <object id="4" x="128" y="192" name="front-door" type="warp" width="32" height="32">
   <properties>
    <property name="goto" value="Sakura,11.5,43.5" />
   </properties>
  </object>
  <object id="5" x="96" y="89.6" name="tea-hearth" type="marker">
   <point />
  </object>
  <object id="6" x="64" y="80" name="hearth" type="soundscape" width="64" height="48">
   <properties>
    <property name="channel3" value="audio/ambient/campfire.flac, 0.22" />
    <property name="emit" value="2.0" type="float" />
   </properties>
  </object>
 </objectgroup>
</map>