<?xml version='1.0' encoding='UTF-8'?>
<map version="1.10" tiledversion="1.11.0" orientation="orthogonal" renderorder="right-down" width="72" height="56" tilewidth="16" tileheight="16" infinite="0" nextlayerid="9" nextobjectid="376">
 <tileset firstgid="1" source="../tilesets/sunscar-ground.tsx" />
 <tileset firstgid="1601" source="../tilesets/sunscar-overlay.tsx" />
 <tileset firstgid="2195" source="../tilesets/sunscar-water.tsx" />
 <tileset firstgid="3795" source="../tilesets/sunscar-path.tsx" />
 <tileset firstgid="5395" source="../tilesets/buildings.tsx" />
 <tileset firstgid="7138" source="../tilesets/sunscar-decor.tsx" />
 <tileset firstgid="7201" source="../tilesets/collision.tsx" />
 <tileset firstgid="7203" source="../tilesets/embellishments.tsx" />
 <tileset firstgid="7251" source="../tilesets/sunscar-props.tsx" />
 <layer id="1" name="Ground" width="72" height="56">
  <data encoding="csv">
1,2,3,4,5,6,7,8,9,10,11,12,13,14,15,16,17,18,19,20,21,22,23,24,25,26,27,28,29,30,31,32,33,34,35,36,37,38,39,40,1,2,3,4,5,6,7,8,9,10,11,12,13,14,15,16,17,18,19,20,21,22,23,24,25,26,27,28,29,30,31,32,
41,42,43,44,45,46,47,48,49,50,51,52,53,54,55,56,57,58,59,60,61,62,63,64,65,66,67,68,69,70,71,72,73,74,75,76,77,78,79,80,41,42,43,44,45,46,47,48,49,50,51,52,53,54,55,56,57,58,59,60,61,62,63,64,65,66,67,68,69,70,71,72,
81,82,83,84,85,86,87,88,89,90,91,92,93,94,95,96,97,98,99,100,101,102,103,104,105,106,107,108,109,110,111,112,113,114,115,116,117,118,119,120,81,82,83,84,85,86,87,88,89,90,91,92,93,94,95,96,97,98,99,100,101,102,103,104,105,106,107,108,109,110,111,112,
121,122,123,124,125,126,127,128,129,130,131,132,133,134,135,136,137,138,139,140,141,142,143,144,145,146,147,148,149,150,151,152,153,154,155,156,157,158,159,160,121,122,123,124,125,126,127,128,129,130,131,132,133,134,135,136,137,138,139,140,141,142,143,144,145,146,147,148,149,150,151,152,
161,162,163,164,165,166,167,168,169,170,171,172,173,174,175,176,177,178,179,180,181,182,183,184,185,186,187,188,189,190,191,192,193,194,195,196,197,198,199,200,161,162,163,164,165,166,167,168,169,170,171,172,173,174,175,176,177,178,179,180,181,182,183,184,185,186,187,188,189,190,191,192,
201,202,203,204,205,206,207,208,209,210,211,212,213,214,215,216,217,218,219,220,221,222,223,224,225,226,227,228,229,230,231,232,233,234,235,236,237,238,239,240,201,202,203,204,205,206,207,208,209,210,211,212,213,214,215,216,217,218,219,220,221,222,223,224,225,226,227,228,229,230,231,232,
241,242,243,244,245,246,247,248,249,250,251,252,253,254,255,256,257,258,259,260,261,262,263,264,265,266,267,268,269,270,271,272,273,274,275,276,277,278,279,280,241,242,243,244,245,246,247,248,249,250,251,252,253,254,255,256,257,258,259,260,261,262,263,264,265,266,267,268,269,270,271,272,
281,282,283,284,285,286,287,288,289,290,291,292,293,294,295,296,297,298,299,300,301,302,303,304,305,306,307,308,309,310,311,312,313,314,315,316,317,318,319,320,281,282,283,284,285,286,287,288,289,290,291,292,293,294,295,296,297,298,299,300,301,302,303,304,305,306,307,308,309,310,311,312,
321,322,323,324,325,326,327,328,329,330,331,332,333,334,335,336,337,338,339,340,341,342,343,344,345,346,347,348,349,350,351,352,353,354,355,356,357,358,359,360,321,322,323,324,325,326,327,328,329,330,331,332,333,334,335,336,337,338,339,340,341,342,343,344,345,346,347,348,349,350,351,352,
361,362,363,364,365,366,367,368,369,370,371,372,373,374,375,376,377,378,379,380,381,382,383,384,385,386,387,388,389,390,391,392,393,394,395,396,397,398,399,400,361,362,363,364,365,366,367,368,369,370,371,372,373,374,375,376,377,378,379,380,381,382,383,384,385,386,387,388,389,390,391,392,
401,402,403,404,405,406,407,408,409,410,411,412,413,414,415,416,417,418,419,420,421,422,423,424,425,426,427,428,429,430,431,432,433,434,435,436,437,438,439,440,401,402,403,404,405,406,407,408,409,410,411,412,413,414,415,416,417,418,419,420,421,422,423,424,425,426,427,428,429,430,431,432,
441,442,443,444,445,446,447,448,449,450,451,452,453,454,455,456,457,458,459,460,461,462,463,464,465,466,467,468,469,470,471,472,473,474,475,476,477,478,479,480,441,442,443,444,445,446,447,448,449,450,451,452,453,454,455,456,457,458,459,460,461,462,463,464,465,466,467,468,469,470,471,472,
481,482,483,484,485,486,487,488,489,490,491,492,493,494,495,496,497,498,499,500,501,502,503,504,505,506,507,508,509,510,511,512,513,514,515,516,517,518,519,520,481,482,483,484,485,486,487,488,489,490,491,492,493,494,495,496,497,498,499,500,501,502,503,504,505,506,507,508,509,510,511,512,
521,522,523,524,525,526,527,528,529,530,531,532,533,534,535,536,537,538,539,540,541,542,543,544,545,546,547,548,549,550,551,552,553,554,555,556,557,558,559,560,521,522,523,524,525,526,527,528,529,530,531,532,533,534,535,536,537,538,539,540,541,542,543,544,545,546,547,548,549,550,551,552,
561,562,563,564,565,566,567,568,569,570,571,572,573,574,575,576,577,578,579,580,581,582,583,584,585,586,587,588,589,590,591,592,593,594,595,596,597,598,599,600,561,562,563,564,565,566,567,568,569,570,571,572,573,574,575,576,577,578,579,580,581,582,583,584,585,586,587,588,589,590,591,592,
601,602,603,604,605,606,607,608,609,610,611,612,613,614,615,616,617,618,619,620,621,622,623,624,625,626,627,628,629,630,631,632,633,634,635,636,637,638,639,640,601,602,603,604,605,606,607,608,609,610,611,612,613,614,615,616,617,618,619,620,621,622,623,624,625,626,627,628,629,630,631,632,
641,642,643,644,645,646,647,648,649,650,651,652,653,654,655,656,657,658,659,660,661,662,663,664,665,666,667,668,669,670,671,672,673,674,675,676,677,678,679,680,641,642,643,644,645,646,647,648,649,650,651,652,653,654,655,656,657,658,659,660,661,662,663,664,665,666,667,668,669,670,671,672,
681,682,683,684,685,686,687,688,689,690,691,692,693,694,695,696,697,698,699,700,701,702,703,704,705,706,707,708,709,710,711,712,713,714,715,716,717,718,719,720,681,682,683,684,685,686,687,688,689,690,691,692,693,694,695,696,697,698,699,700,701,702,703,704,705,706,707,708,709,710,711,712,
721,722,723,724,725,726,727,728,729,730,731,732,733,734,735,736,737,738,739,740,741,742,743,744,745,746,747,748,749,750,751,752,753,754,755,756,757,758,759,760,721,722,723,724,725,726,727,728,729,730,731,732,733,734,735,736,737,738,739,740,741,742,743,744,745,746,747,748,749,750,751,752,
761,762,763,764,765,766,767,768,769,770,771,772,773,774,775,776,777,778,779,780,781,782,783,784,785,786,787,788,789,790,791,792,793,794,795,796,797,798,799,800,761,762,763,764,765,766,767,768,769,770,771,772,773,774,775,776,777,778,779,780,781,782,783,784,785,786,787,788,789,790,791,792,
801,802,803,804,805,806,807,808,809,810,811,812,813,814,815,816,817,818,819,820,821,822,823,824,825,826,827,828,829,830,831,832,833,834,835,836,837,838,839,840,801,802,803,804,805,806,807,808,809,810,811,812,813,814,815,816,817,818,819,820,821,822,823,824,825,826,827,828,829,830,831,832,
841,842,843,844,845,846,847,848,849,850,851,852,853,854,855,856,857,858,859,860,861,862,863,864,865,866,867,868,869,870,871,872,873,874,875,876,877,878,879,880,841,842,843,844,845,846,847,848,849,850,851,852,853,854,855,856,857,858,859,860,861,862,863,864,865,866,867,868,869,870,871,872,
881,882,883,884,885,886,887,888,889,890,891,892,893,894,895,896,897,898,899,900,901,902,903,904,905,906,907,908,909,910,911,912,913,914,915,916,917,918,919,920,881,882,883,884,885,886,887,888,889,890,891,892,893,894,895,896,897,898,899,900,901,902,903,904,905,906,907,908,909,910,911,912,
921,922,923,924,925,926,927,928,929,930,931,932,933,934,935,936,937,938,939,940,941,942,943,944,945,946,947,948,949,950,951,952,953,954,955,956,957,958,959,960,921,922,923,924,925,926,927,928,929,930,931,932,933,934,935,936,937,938,939,940,941,942,943,944,945,946,947,948,949,950,951,952,
961,962,963,964,965,966,967,968,969,970,971,972,973,974,975,976,977,978,979,980,981,982,983,984,985,986,987,988,989,990,991,992,993,994,995,996,997,998,999,1000,961,962,963,964,965,966,967,968,969,970,971,972,973,974,975,976,977,978,979,980,981,982,983,984,985,986,987,988,989,990,991,992,
1001,1002,1003,1004,1005,1006,1007,1008,1009,1010,1011,1012,1013,1014,1015,1016,1017,1018,1019,1020,1021,1022,1023,1024,1025,1026,1027,1028,1029,1030,1031,1032,1033,1034,1035,1036,1037,1038,1039,1040,1001,1002,1003,1004,1005,1006,1007,1008,1009,1010,1011,1012,1013,1014,1015,1016,1017,1018,1019,1020,1021,1022,1023,1024,1025,1026,1027,1028,1029,1030,1031,1032,
1041,1042,1043,1044,1045,1046,1047,1048,1049,1050,1051,1052,1053,1054,1055,1056,1057,1058,1059,1060,1061,1062,1063,1064,1065,1066,1067,1068,1069,1070,1071,1072,1073,1074,1075,1076,1077,1078,1079,1080,1041,1042,1043,1044,1045,1046,1047,1048,1049,1050,1051,1052,1053,1054,1055,1056,1057,1058,1059,1060,1061,1062,1063,1064,1065,1066,1067,1068,1069,1070,1071,1072,
1081,1082,1083,1084,1085,1086,1087,1088,1089,1090,1091,1092,1093,1094,1095,1096,1097,1098,1099,1100,1101,1102,1103,1104,1105,1106,1107,1108,1109,1110,1111,1112,1113,1114,1115,1116,1117,1118,1119,1120,1081,1082,1083,1084,1085,1086,1087,1088,1089,1090,1091,1092,1093,1094,1095,1096,1097,1098,1099,1100,1101,1102,1103,1104,1105,1106,1107,1108,1109,1110,1111,1112,
1121,1122,1123,1124,1125,1126,1127,1128,1129,1130,1131,1132,1133,1134,1135,1136,1137,1138,1139,1140,1141,1142,1143,1144,1145,1146,1147,1148,1149,1150,1151,1152,1153,1154,1155,1156,1157,1158,1159,1160,1121,1122,1123,1124,1125,1126,1127,1128,1129,1130,1131,1132,1133,1134,1135,1136,1137,1138,1139,1140,1141,1142,1143,1144,1145,1146,1147,1148,1149,1150,1151,1152,
1161,1162,1163,1164,1165,1166,1167,1168,1169,1170,1171,1172,1173,1174,1175,1176,1177,1178,1179,1180,1181,1182,1183,1184,1185,1186,1187,1188,1189,1190,1191,1192,1193,1194,1195,1196,1197,1198,1199,1200,1161,1162,1163,1164,1165,1166,1167,1168,1169,1170,1171,1172,1173,1174,1175,1176,1177,1178,1179,1180,1181,1182,1183,1184,1185,1186,1187,1188,1189,1190,1191,1192,
1201,1202,1203,1204,1205,1206,1207,1208,1209,1210,1211,1212,1213,1214,1215,1216,1217,1218,1219,1220,1221,1222,1223,1224,1225,1226,1227,1228,1229,1230,1231,1232,1233,1234,1235,1236,1237,1238,1239,1240,1201,1202,1203,1204,1205,1206,1207,1208,1209,1210,1211,1212,1213,1214,1215,1216,1217,1218,1219,1220,1221,1222,1223,1224,1225,1226,1227,1228,1229,1230,1231,1232,
1241,1242,1243,1244,1245,1246,1247,1248,1249,1250,1251,1252,1253,1254,1255,1256,1257,1258,1259,1260,1261,1262,1263,1264,1265,1266,1267,1268,1269,1270,1271,1272,1273,1274,1275,1276,1277,1278,1279,1280,1241,1242,1243,1244,1245,1246,1247,1248,1249,1250,1251,1252,1253,1254,1255,1256,1257,1258,1259,1260,1261,1262,1263,1264,1265,1266,1267,1268,1269,1270,1271,1272,
1281,1282,1283,1284,1285,1286,1287,1288,1289,1290,1291,1292,1293,1294,1295,1296,1297,1298,1299,1300,1301,1302,1303,1304,1305,1306,1307,1308,1309,1310,1311,1312,1313,1314,1315,1316,1317,1318,1319,1320,1281,1282,1283,1284,1285,1286,1287,1288,1289,1290,1291,1292,1293,1294,1295,1296,1297,1298,1299,1300,1301,1302,1303,1304,1305,1306,1307,1308,1309,1310,1311,1312,
1321,1322,1323,1324,1325,1326,1327,1328,1329,1330,1331,1332,1333,1334,1335,1336,1337,1338,1339,1340,1341,1342,1343,1344,1345,1346,1347,1348,1349,1350,1351,1352,1353,1354,1355,1356,1357,1358,1359,1360,1321,1322,1323,1324,1325,1326,1327,1328,1329,1330,1331,1332,1333,1334,1335,1336,1337,1338,1339,1340,1341,1342,1343,1344,1345,1346,1347,1348,1349,1350,1351,1352,
1361,1362,1363,1364,1365,1366,1367,1368,1369,1370,1371,1372,1373,1374,1375,1376,1377,1378,1379,1380,1381,1382,1383,1384,1385,1386,1387,1388,1389,1390,1391,1392,1393,1394,1395,1396,1397,1398,1399,1400,1361,1362,1363,1364,1365,1366,1367,1368,1369,1370,1371,1372,1373,1374,1375,1376,1377,1378,1379,1380,1381,1382,1383,1384,1385,1386,1387,1388,1389,1390,1391,1392,
1401,1402,1403,1404,1405,1406,1407,1408,1409,1410,1411,1412,1413,1414,1415,1416,1417,1418,1419,1420,1421,1422,1423,1424,1425,1426,1427,1428,1429,1430,1431,1432,1433,1434,1435,1436,1437,1438,1439,1440,1401,1402,1403,1404,1405,1406,1407,1408,1409,1410,1411,1412,1413,1414,1415,1416,1417,1418,1419,1420,1421,1422,1423,1424,1425,1426,1427,1428,1429,1430,1431,1432,
1441,1442,1443,1444,1445,1446,1447,1448,1449,1450,1451,1452,1453,1454,1455,1456,1457,1458,1459,1460,1461,1462,1463,1464,1465,1466,1467,1468,1469,1470,1471,1472,1473,1474,1475,1476,1477,1478,1479,1480,1441,1442,1443,1444,1445,1446,1447,1448,1449,1450,1451,1452,1453,1454,1455,1456,1457,1458,1459,1460,1461,1462,1463,1464,1465,1466,1467,1468,1469,1470,1471,1472,
1481,1482,1483,1484,1485,1486,1487,1488,1489,1490,1491,1492,1493,1494,1495,1496,1497,1498,1499,1500,1501,1502,1503,1504,1505,1506,1507,1508,1509,1510,1511,1512,1513,1514,1515,1516,1517,1518,1519,1520,1481,1482,1483,1484,1485,1486,1487,1488,1489,1490,1491,1492,1493,1494,1495,1496,1497,1498,1499,1500,1501,1502,1503,1504,1505,1506,1507,1508,1509,1510,1511,1512,
1521,1522,1523,1524,1525,1526,1527,1528,1529,1530,1531,1532,1533,1534,1535,1536,1537,1538,1539,1540,1541,1542,1543,1544,1545,1546,1547,1548,1549,1550,1551,1552,1553,1554,1555,1556,1557,1558,1559,1560,1521,1522,1523,1524,1525,1526,1527,1528,1529,1530,1531,1532,1533,1534,1535,1536,1537,1538,1539,1540,1541,1542,1543,1544,1545,1546,1547,1548,1549,1550,1551,1552,
1561,1562,1563,1564,1565,1566,1567,1568,1569,1570,1571,1572,1573,1574,1575,1576,1577,1578,1579,1580,1581,1582,1583,1584,1585,1586,1587,1588,1589,1590,1591,1592,1593,1594,1595,1596,1597,1598,1599,1600,1561,1562,1563,1564,1565,1566,1567,1568,1569,1570,1571,1572,1573,1574,1575,1576,1577,1578,1579,1580,1581,1582,1583,1584,1585,1586,1587,1588,1589,1590,1591,1592,
1,2,3,4,5,6,7,8,9,10,11,12,13,14,15,16,17,18,19,20,21,22,23,24,25,26,27,28,29,30,31,32,33,34,35,36,37,38,39,40,1,2,3,4,5,6,7,8,9,10,11,12,13,14,15,16,17,18,19,20,21,22,23,24,25,26,27,28,29,30,31,32,
41,42,43,44,45,46,47,48,49,50,51,52,53,54,55,56,57,58,59,60,61,62,63,64,65,66,67,68,69,70,71,72,73,74,75,76,77,78,79,80,41,42,43,44,45,46,47,48,49,50,51,52,53,54,55,56,57,58,59,60,61,62,63,64,65,66,67,68,69,70,71,72,
81,82,83,84,85,86,87,88,89,90,91,92,93,94,95,96,97,98,99,100,101,102,103,104,105,106,107,108,109,110,111,112,113,114,115,116,117,118,119,120,81,82,83,84,85,86,87,88,89,90,91,92,93,94,95,96,97,98,99,100,101,102,103,104,105,106,107,108,109,110,111,112,
121,122,123,124,125,126,127,128,129,130,131,132,133,134,135,136,137,138,139,140,141,142,143,144,145,146,147,148,149,150,151,152,153,154,155,156,157,158,159,160,121,122,123,124,125,126,127,128,129,130,131,132,133,134,135,136,137,138,139,140,141,142,143,144,145,146,147,148,149,150,151,152,
161,162,163,164,165,166,167,168,169,170,171,172,173,174,175,176,177,178,179,180,181,182,183,184,185,186,187,188,189,190,191,192,193,194,195,196,197,198,199,200,161,162,163,164,165,166,167,168,169,170,171,172,173,174,175,176,177,178,179,180,181,182,183,184,185,186,187,188,189,190,191,192,
201,202,203,204,205,206,207,208,209,210,211,212,213,214,215,216,217,218,219,220,221,222,223,224,225,226,227,228,229,230,231,232,233,234,235,236,237,238,239,240,201,202,203,204,205,206,207,208,209,210,211,212,213,214,215,216,217,218,219,220,221,222,223,224,225,226,227,228,229,230,231,232,
241,242,243,244,245,246,247,248,249,250,251,252,253,254,255,256,257,258,259,260,261,262,263,264,265,266,267,268,269,270,271,272,273,274,275,276,277,278,279,280,241,242,243,244,245,246,247,248,249,250,251,252,253,254,255,256,257,258,259,260,261,262,263,264,265,266,267,268,269,270,271,272,
281,282,283,284,285,286,287,288,289,290,291,292,293,294,295,296,297,298,299,300,301,302,303,304,305,306,307,308,309,310,311,312,313,314,315,316,317,318,319,320,281,282,283,284,285,286,287,288,289,290,291,292,293,294,295,296,297,298,299,300,301,302,303,304,305,306,307,308,309,310,311,312,
321,322,323,324,325,326,327,328,329,330,331,332,333,334,335,336,337,338,339,340,341,342,343,344,345,346,347,348,349,350,351,352,353,354,355,356,357,358,359,360,321,322,323,324,325,326,327,328,329,330,331,332,333,334,335,336,337,338,339,340,341,342,343,344,345,346,347,348,349,350,351,352,
361,362,363,364,365,366,367,368,369,370,371,372,373,374,375,376,377,378,379,380,381,382,383,384,385,386,387,388,389,390,391,392,393,394,395,396,397,398,399,400,361,362,363,364,365,366,367,368,369,370,371,372,373,374,375,376,377,378,379,380,381,382,383,384,385,386,387,388,389,390,391,392,
401,402,403,404,405,406,407,408,409,410,411,412,413,414,415,416,417,418,419,420,421,422,423,424,425,426,427,428,429,430,431,432,433,434,435,436,437,438,439,440,401,402,403,404,405,406,407,408,409,410,411,412,413,414,415,416,417,418,419,420,421,422,423,424,425,426,427,428,429,430,431,432,
441,442,443,444,445,446,447,448,449,450,451,452,453,454,455,456,457,458,459,460,461,462,463,464,465,466,467,468,469,470,471,472,473,474,475,476,477,478,479,480,441,442,443,444,445,446,447,448,449,450,451,452,453,454,455,456,457,458,459,460,461,462,463,464,465,466,467,468,469,470,471,472,
481,482,483,484,485,486,487,488,489,490,491,492,493,494,495,496,497,498,499,500,501,502,503,504,505,506,507,508,509,510,511,512,513,514,515,516,517,518,519,520,481,482,483,484,485,486,487,488,489,490,491,492,493,494,495,496,497,498,499,500,501,502,503,504,505,506,507,508,509,510,511,512,
521,522,523,524,525,526,527,528,529,530,531,532,533,534,535,536,537,538,539,540,541,542,543,544,545,546,547,548,549,550,551,552,553,554,555,556,557,558,559,560,521,522,523,524,525,526,527,528,529,530,531,532,533,534,535,536,537,538,539,540,541,542,543,544,545,546,547,548,549,550,551,552,
561,562,563,564,565,566,567,568,569,570,571,572,573,574,575,576,577,578,579,580,581,582,583,584,585,586,587,588,589,590,591,592,593,594,595,596,597,598,599,600,561,562,563,564,565,566,567,568,569,570,571,572,573,574,575,576,577,578,579,580,581,582,583,584,585,586,587,588,589,590,591,592,
601,602,603,604,605,606,607,608,609,610,611,612,613,614,615,616,617,618,619,620,621,622,623,624,625,626,627,628,629,630,631,632,633,634,635,636,637,638,639,640,601,602,603,604,605,606,607,608,609,610,611,612,613,614,615,616,617,618,619,620,621,622,623,624,625,626,627,628,629,630,631,632
</data>
 </layer>
 <layer id="2" name="Terrain" width="72" height="56">
  <data encoding="csv">
0,0,0,0,0,0,0,0,0,0,0,0,0,0,0,0,0,0,0,0,0,0,0,0,0,0,0,0,0,0,0,0,0,0,0,0,0,0,0,0,0,0,0,0,0,0,0,0,0,0,0,0,0,0,0,0,0,0,0,0,0,0,0,0,0,0,0,0,0,0,0,0,
0,0,0,0,0,0,0,0,0,0,0,0,0,0,0,0,0,0,0,0,0,0,0,0,0,0,0,0,0,0,0,0,0,0,0,0,0,0,0,0,0,0,0,0,0,0,0,0,0,0,0,0,0,0,0,0,0,0,0,0,0,0,0,0,0,0,0,0,0,0,0,0,
0,0,0,0,0,0,0,0,0,0,0,0,0,0,0,0,0,0,0,0,0,0,0,0,0,0,0,0,0,0,0,0,0,0,0,0,0,0,0,0,0,0,0,0,0,0,0,0,0,0,0,0,0,0,0,0,0,0,0,0,0,0,0,0,0,0,0,0,0,0,0,0,
0,0,0,0,0,0,0,0,0,0,0,0,0,0,0,0,0,0,0,0,0,0,0,0,0,0,0,0,0,0,0,0,0,0,0,0,0,0,0,0,0,0,0,0,0,0,0,0,0,0,0,0,0,0,0,0,0,0,0,0,0,0,0,0,0,0,0,0,0,0,0,0,
0,0,0,0,0,0,0,0,0,0,0,0,0,0,0,0,0,0,0,0,0,0,0,0,0,0,0,0,0,0,0,0,0,0,0,0,0,0,0,0,0,0,0,0,0,0,0,0,0,0,0,0,0,0,0,0,0,0,0,0,0,0,0,0,0,0,0,0,0,0,0,0,
0,0,0,0,0,0,0,0,0,0,0,0,0,0,0,0,0,0,0,0,0,0,0,0,0,0,0,0,0,0,0,0,0,0,0,0,0,0,0,0,0,0,0,0,0,0,0,0,0,0,0,0,0,0,0,0,0,0,0,0,0,0,0,0,0,0,0,0,0,0,0,0,
0,0,0,0,0,0,0,0,0,0,0,0,0,0,0,0,0,0,0,0,0,0,0,0,0,0,0,0,0,0,0,0,0,0,0,1601,1602,0,0,0,0,0,0,0,0,0,0,0,0,0,0,0,0,0,0,0,0,0,0,0,0,0,0,0,0,0,0,0,0,0,0,0,
0,0,0,0,0,0,0,0,0,0,0,0,0,0,0,0,0,0,0,0,0,0,0,0,0,0,0,0,0,0,0,0,0,0,1603,1604,1605,1606,0,0,0,0,0,0,0,0,0,0,0,0,0,0,0,0,0,0,0,0,0,0,0,0,0,0,0,0,0,0,0,0,0,0,
0,0,0,0,0,0,0,0,0,0,0,0,0,0,0,0,0,0,0,0,0,0,0,0,0,0,0,0,0,0,0,0,1607,1608,1609,2550,2551,1610,1611,1612,1613,0,0,0,0,0,0,0,0,0,0,0,0,0,0,0,0,0,0,0,0,0,0,0,0,0,0,0,0,0,0,0,
0,0,0,0,0,0,0,0,0,0,0,0,0,0,0,0,0,0,0,0,0,0,0,0,0,0,0,0,0,1614,1615,1616,1617,2588,2589,2590,2591,2592,2593,2594,1618,1619,0,0,0,0,0,0,0,0,0,0,0,0,0,0,0,0,0,0,0,0,0,0,0,0,0,0,0,0,0,0,
0,0,0,0,0,0,0,0,0,0,0,0,0,0,0,0,0,0,0,0,0,0,0,0,0,0,0,0,1620,1621,2625,2626,2627,2628,2629,2630,2631,2632,2633,2634,2595,1622,0,0,0,0,0,0,0,0,0,0,0,0,0,0,0,0,0,0,0,0,0,0,0,0,0,0,0,0,0,0,
0,0,0,0,0,0,0,0,0,0,0,0,0,0,0,0,0,0,0,0,0,0,0,0,0,0,0,1623,1624,2664,2665,2666,2667,2668,2669,2670,2671,2672,2673,2674,2635,1625,1626,0,0,0,0,0,0,0,0,0,0,0,0,0,0,0,0,0,0,0,0,0,0,0,0,0,0,0,0,0,
0,0,0,0,0,0,0,0,0,0,0,0,0,0,0,0,0,0,0,0,0,0,0,0,0,0,0,1627,2703,2704,2705,2706,2707,2708,2709,2710,2711,2712,2713,2714,2675,2676,1628,1629,0,0,0,0,0,0,0,0,0,0,0,0,0,0,0,0,0,0,0,0,0,0,0,0,0,0,0,0,
0,0,0,0,0,0,0,0,0,0,0,0,0,0,0,0,0,0,0,0,0,0,0,0,0,0,0,1630,2743,2744,2745,2746,2747,2748,2749,2750,2751,2752,2753,2754,2715,2716,2717,1631,0,0,0,0,0,0,0,0,0,0,0,0,0,0,0,0,0,0,0,0,0,0,0,0,0,0,0,0,
0,0,0,0,0,0,0,0,0,0,0,0,0,0,0,0,0,0,0,0,0,0,0,0,0,0,0,1632,1633,1634,2785,2786,2787,1635,1636,1637,1638,1639,2793,2794,2755,2756,1640,1641,0,0,0,0,0,0,0,0,0,0,0,0,0,0,0,0,0,0,0,0,0,0,0,0,0,0,0,0,
0,0,0,0,0,0,0,0,0,0,0,0,0,0,0,0,0,0,0,0,0,0,0,0,0,0,0,0,0,1642,1643,1644,1645,1646,0,0,0,1647,1648,1649,1650,1651,1652,0,0,0,0,0,0,0,0,0,0,0,0,0,0,0,0,0,0,0,0,0,0,0,0,0,0,0,0,0,
0,0,0,0,0,0,0,0,0,0,0,0,0,0,0,0,0,0,0,0,0,0,0,0,0,0,0,0,0,0,0,0,0,0,0,0,0,0,0,0,0,0,0,0,0,0,0,0,0,0,0,0,0,0,0,0,0,0,0,0,0,0,0,0,0,0,0,0,0,0,0,0,
0,0,0,0,0,0,0,0,0,0,0,0,0,0,0,0,0,0,0,0,0,0,0,0,0,0,0,0,0,0,0,0,0,0,0,0,0,0,0,0,0,0,0,0,0,0,0,0,0,0,0,0,0,0,0,0,0,0,0,0,0,0,0,0,0,0,0,0,0,0,0,0,
0,0,0,0,0,0,0,0,0,0,0,0,0,0,0,0,0,0,0,0,0,0,0,0,0,0,0,0,0,0,0,0,0,0,0,0,0,0,0,0,0,0,0,0,0,0,0,0,0,0,0,0,0,0,0,0,0,0,0,0,0,0,0,0,0,0,0,0,0,0,0,0,
0,0,0,0,0,0,0,0,0,0,0,0,0,0,0,0,0,0,0,0,0,0,0,0,0,0,0,0,0,0,0,0,0,0,0,0,0,0,0,0,0,0,0,0,0,0,0,0,0,0,0,0,0,0,0,0,0,0,0,0,0,0,0,0,0,0,0,0,0,0,0,0,
0,0,0,0,0,0,0,0,0,0,0,0,0,0,0,0,0,0,0,0,0,0,0,0,0,0,0,0,0,0,0,0,0,0,0,0,0,0,0,0,0,0,0,0,0,0,0,0,0,0,0,0,0,0,0,0,0,0,0,0,0,0,0,0,0,0,0,0,0,0,0,0,
0,0,0,0,0,0,0,0,0,0,0,0,0,0,0,0,0,0,0,0,0,0,0,0,0,0,0,0,0,0,0,0,0,0,0,0,0,0,0,0,0,0,0,0,0,0,0,0,0,0,0,0,0,0,0,0,0,0,0,0,0,0,0,0,0,0,0,0,0,0,0,0,
0,0,0,0,0,0,0,0,0,0,0,0,0,0,0,0,0,0,0,0,0,0,0,0,0,0,0,0,0,0,0,0,0,0,0,0,0,0,0,0,0,0,0,0,0,0,0,0,0,0,0,0,0,0,0,0,0,0,0,0,0,0,0,0,0,0,0,0,0,0,0,0,
0,0,0,0,0,0,0,0,0,0,0,0,0,0,0,0,0,0,0,0,0,0,0,0,0,0,0,0,0,0,0,0,0,0,0,0,0,0,0,0,0,0,0,0,0,0,0,0,0,0,0,0,0,0,0,0,0,0,0,0,0,0,0,0,0,0,0,0,0,0,0,0,
0,0,0,0,0,0,0,0,0,0,0,0,0,0,0,0,0,0,0,0,0,0,0,0,0,0,0,0,0,0,0,0,0,0,0,0,0,0,0,0,0,0,0,0,0,0,0,0,0,0,0,0,0,0,0,0,0,0,0,0,0,0,0,0,0,0,0,0,0,0,0,0,
0,0,0,0,0,0,0,0,0,0,0,0,0,0,0,0,0,0,0,0,0,0,0,0,0,0,0,0,0,0,0,0,0,0,0,0,0,0,0,0,0,0,0,0,0,0,0,0,0,0,0,0,0,0,0,0,0,0,0,0,0,0,0,0,0,0,0,0,0,0,0,0,
0,0,0,0,0,0,0,0,0,0,0,0,0,0,0,0,0,0,0,0,0,0,0,0,0,0,0,0,0,0,0,0,0,0,0,0,0,0,0,0,0,0,0,0,0,0,0,0,0,0,0,0,0,0,0,0,0,0,0,0,0,0,0,0,0,0,0,0,0,0,0,0,
0,0,0,0,0,0,0,0,0,0,0,0,0,0,0,0,0,0,0,0,0,0,0,0,0,0,0,0,0,0,0,0,0,0,0,0,0,0,0,0,0,0,0,0,0,0,0,0,0,0,0,0,0,0,0,0,0,0,0,0,0,0,0,0,0,0,0,0,0,0,0,0,
0,0,0,0,0,0,0,0,0,0,0,0,0,0,0,0,0,0,0,0,0,0,0,0,0,0,0,0,0,0,0,0,0,0,0,0,0,0,0,0,0,0,0,0,0,0,0,0,0,0,0,0,0,0,0,0,0,0,0,0,0,0,0,0,0,0,0,0,0,0,0,0,
0,0,0,0,0,0,0,0,0,0,0,0,0,0,0,0,0,0,0,0,0,0,0,0,0,0,0,0,0,0,0,0,0,0,0,0,0,0,0,0,0,0,0,0,0,0,0,0,0,0,0,0,0,0,0,0,0,0,0,0,0,0,0,0,0,0,0,0,0,0,0,0,
0,0,0,0,0,0,0,0,0,0,0,0,0,0,0,0,0,0,0,0,0,0,0,0,0,0,0,0,0,0,0,0,0,0,0,0,0,0,0,0,0,0,0,0,0,0,0,0,0,0,0,0,0,0,0,0,0,0,0,0,0,0,0,0,0,0,0,0,0,0,0,0,
0,0,0,0,0,0,0,0,0,0,0,0,0,0,0,0,0,0,0,0,0,0,0,0,0,0,0,0,0,0,0,0,0,0,0,0,0,0,0,0,0,0,0,0,0,0,0,0,0,0,0,0,0,0,0,0,0,0,0,0,0,0,0,0,0,0,0,0,0,0,0,0,
0,0,0,0,0,0,0,0,0,0,0,0,0,0,0,0,0,0,0,0,0,0,0,0,0,0,0,0,0,0,0,0,0,0,0,0,0,0,0,0,0,0,0,0,0,0,0,0,0,0,0,0,0,0,0,0,0,0,0,0,0,0,0,0,0,0,0,0,0,0,0,0,
0,0,0,0,0,0,0,0,0,0,0,0,0,0,0,0,0,0,0,0,0,0,0,0,0,0,0,0,0,0,0,0,0,0,0,0,0,0,0,0,0,0,0,0,0,0,0,0,0,0,0,0,0,0,0,0,0,0,0,0,0,0,0,0,0,0,0,0,0,0,0,0,
0,0,0,0,0,0,0,0,0,0,0,0,0,0,0,0,0,0,0,0,0,0,0,0,0,0,0,0,0,0,0,0,0,0,0,0,0,0,0,0,0,0,0,0,0,0,0,0,0,0,0,0,0,0,0,0,0,0,0,0,0,0,0,0,0,0,0,0,0,0,0,0,
0,0,0,0,0,0,0,0,0,0,0,0,0,0,0,0,0,0,0,0,0,0,0,0,0,0,0,0,0,0,0,0,0,0,0,0,0,0,0,0,0,0,0,0,0,0,0,0,0,0,0,0,0,0,0,0,0,0,0,0,0,0,0,0,0,0,0,0,0,0,0,0,
0,0,0,0,0,0,0,0,0,0,0,0,0,0,0,0,0,0,0,0,0,0,0,0,0,0,0,0,0,0,0,0,0,0,0,0,0,0,0,0,0,0,0,0,0,0,0,0,0,0,0,0,0,0,0,0,0,0,0,0,0,0,0,0,0,0,0,0,0,0,0,0,
0,0,0,0,0,0,0,0,0,0,0,0,0,0,0,0,0,0,0,0,0,0,0,0,0,0,0,0,0,0,0,0,0,0,0,0,0,0,0,0,0,0,0,0,0,0,0,0,0,0,0,0,0,0,0,0,0,0,0,0,0,0,0,0,0,0,0,0,0,0,0,0,
0,0,0,0,0,0,0,0,0,0,0,0,0,0,0,0,0,0,0,0,0,0,0,0,0,0,0,0,0,0,0,0,0,0,0,0,0,0,0,0,0,0,0,0,0,0,0,0,0,0,0,0,0,0,0,0,0,0,0,0,0,0,0,0,0,0,0,0,0,0,0,0,
0,0,0,0,0,0,0,0,0,0,0,0,0,0,0,0,0,0,0,0,0,0,0,0,0,0,0,0,0,0,0,0,0,0,0,0,0,0,0,0,0,0,0,0,0,0,0,0,0,0,0,0,0,0,0,0,0,0,0,0,0,0,0,0,0,0,0,0,0,0,0,0,
0,0,0,0,0,0,0,0,0,0,0,0,0,0,0,0,0,0,0,0,0,0,0,0,0,0,0,0,0,0,0,0,0,0,0,0,0,0,0,0,0,0,0,0,0,0,0,0,0,0,0,0,0,0,0,0,0,0,0,0,0,0,0,0,0,0,0,0,0,0,0,0,
0,0,0,0,0,0,0,0,0,0,0,0,0,0,0,0,0,0,0,0,0,0,0,0,0,0,0,0,0,0,0,0,0,0,0,0,0,0,0,0,0,0,0,0,0,0,0,0,0,0,0,0,0,0,0,0,0,0,0,0,0,0,0,0,0,0,0,0,0,0,0,0,
0,0,0,0,0,0,0,0,0,0,0,0,0,0,0,0,0,0,0,0,0,0,0,0,0,0,0,0,0,0,0,0,0,0,0,0,0,0,0,0,0,0,0,0,0,0,0,0,0,0,0,0,0,0,0,0,0,0,0,0,0,0,0,0,0,0,0,0,0,0,0,0,
0,0,0,0,0,0,0,0,0,0,0,0,0,0,0,0,0,0,0,0,0,0,0,0,0,0,0,0,0,0,0,0,0,0,0,0,0,0,0,0,0,0,0,0,0,0,0,0,0,0,0,0,0,0,0,0,0,0,0,0,0,0,0,0,0,0,0,0,0,0,0,0,
0,0,0,0,0,0,0,0,0,0,0,0,0,0,0,0,0,0,0,0,0,0,0,0,0,0,0,0,0,0,0,0,0,0,0,0,0,0,0,0,0,0,0,0,0,0,0,0,0,0,0,0,0,0,0,0,0,0,0,0,0,0,0,0,0,0,0,0,0,0,0,0,
0,0,0,0,0,0,0,0,0,0,0,0,0,0,0,0,0,0,0,0,0,0,0,0,0,0,0,0,0,0,0,0,0,0,0,0,0,0,0,0,0,0,0,0,0,0,0,0,0,0,0,0,0,0,0,0,0,0,0,0,0,0,0,0,0,0,0,0,0,0,0,0,
0,0,0,0,0,0,0,0,0,0,0,0,0,0,0,0,0,0,0,0,0,0,0,0,0,0,0,0,0,0,0,0,0,0,0,0,0,0,0,0,0,0,0,0,0,0,0,0,0,0,0,0,0,0,0,0,0,0,0,0,0,0,0,0,0,0,0,0,0,0,0,0,
0,0,0,0,0,0,0,0,0,0,0,0,0,0,0,0,0,0,0,0,0,0,0,0,0,0,0,0,0,0,0,0,0,0,0,0,0,0,0,0,0,0,0,0,0,0,0,0,0,0,0,0,0,0,0,0,0,0,0,0,0,0,0,0,0,0,0,0,0,0,0,0,
0,0,0,0,0,0,0,0,0,0,0,0,0,0,0,0,0,0,0,0,0,0,0,0,0,0,0,0,0,0,0,0,0,0,0,0,0,0,0,0,0,0,0,0,0,0,0,0,0,0,0,0,0,0,0,0,0,0,0,0,0,0,0,0,0,0,0,0,0,0,0,0,
0,0,0,0,0,0,0,0,0,0,0,0,0,0,0,0,0,0,0,0,0,0,0,0,0,0,0,0,0,0,0,0,0,0,0,0,0,0,0,0,0,0,0,0,0,0,0,0,0,0,0,0,0,0,0,0,0,0,0,0,0,0,0,0,0,0,0,0,0,0,0,0,
0,0,0,0,0,0,0,0,0,0,0,0,0,0,0,0,0,0,0,0,0,0,0,0,0,0,0,0,0,0,0,0,0,0,0,0,0,0,0,0,0,0,0,0,0,0,0,0,0,0,0,0,0,0,0,0,0,0,0,0,0,0,0,0,0,0,0,0,0,0,0,0,
0,0,0,0,0,0,0,0,0,0,0,0,0,0,0,0,0,0,0,0,0,0,0,0,0,0,0,0,0,0,0,0,0,0,0,0,0,0,0,0,0,0,0,0,0,0,0,0,0,0,0,0,0,0,0,0,0,0,0,0,0,0,0,0,0,0,0,0,0,0,0,0,
0,0,0,0,0,0,0,0,0,0,0,0,0,0,0,0,0,0,0,0,0,0,0,0,0,0,0,0,0,0,0,0,0,0,0,0,0,0,0,0,0,0,0,0,0,0,0,0,0,0,0,0,0,0,0,0,0,0,0,0,0,0,0,0,0,0,0,0,0,0,0,0,
0,0,0,0,0,0,0,0,0,0,0,0,0,0,0,0,0,0,0,0,0,0,0,0,0,0,0,0,0,0,0,0,0,0,0,0,0,0,0,0,0,0,0,0,0,0,0,0,0,0,0,0,0,0,0,0,0,0,0,0,0,0,0,0,0,0,0,0,0,0,0,0,
0,0,0,0,0,0,0,0,0,0,0,0,0,0,0,0,0,0,0,0,0,0,0,0,0,0,0,0,0,0,0,0,0,0,0,0,0,0,0,0,0,0,0,0,0,0,0,0,0,0,0,0,0,0,0,0,0,0,0,0,0,0,0,0,0,0,0,0,0,0,0,0,
0,0,0,0,0,0,0,0,0,0,0,0,0,0,0,0,0,0,0,0,0,0,0,0,0,0,0,0,0,0,0,0,0,0,0,0,0,0,0,0,0,0,0,0,0,0,0,0,0,0,0,0,0,0,0,0,0,0,0,0,0,0,0,0,0,0,0,0,0,0,0,0
</data>
 </layer>
 <layer id="3" name="Overlay" width="72" height="56">
  <data encoding="csv">
0,0,0,0,0,0,0,0,0,0,0,0,0,0,1882,1883,3811,1884,0,0,0,0,0,0,0,0,0,0,0,0,0,0,0,0,0,0,0,0,0,0,0,0,0,0,0,0,0,0,0,0,0,0,0,0,0,0,0,0,0,0,0,0,0,0,0,0,0,0,0,0,0,0,
0,0,0,0,0,0,0,0,0,0,0,0,0,0,0,1885,3851,1886,0,0,0,0,0,0,0,0,0,0,0,0,0,0,0,0,0,0,0,0,0,0,0,0,0,0,0,0,0,0,0,0,0,0,0,0,0,0,0,0,0,0,0,0,0,0,0,0,0,0,0,0,0,0,
0,0,0,0,0,0,0,0,0,0,0,0,0,0,0,1887,3891,1888,0,0,0,0,0,0,0,0,0,0,0,0,0,0,0,0,0,0,0,0,0,0,0,0,0,0,0,0,0,0,0,0,0,0,0,0,0,0,0,0,0,0,0,0,0,0,0,0,0,0,0,0,0,0,
0,0,0,0,0,0,0,0,0,0,0,0,0,0,0,1889,3931,1890,0,0,0,0,0,0,0,0,0,0,0,0,0,0,0,0,0,0,0,0,0,0,0,0,0,0,0,0,0,0,0,0,0,0,0,0,0,0,0,0,0,0,0,0,0,0,0,0,0,0,0,0,0,0,
0,0,0,0,0,0,0,0,0,0,0,0,0,0,0,1891,3971,1892,0,0,0,0,0,0,0,0,0,0,0,0,0,0,0,0,0,0,0,0,0,0,0,0,0,0,0,0,0,0,0,0,0,0,0,0,0,0,0,0,0,0,0,0,0,0,0,0,0,0,0,0,0,0,
0,0,0,0,0,0,0,0,0,0,0,0,0,0,0,1893,4011,1894,0,0,0,0,0,0,0,0,0,0,0,0,0,0,0,0,0,0,0,0,0,0,0,0,0,0,0,0,0,0,0,0,0,0,0,0,0,0,0,0,0,0,0,0,0,0,0,0,0,0,0,0,0,0,
0,0,0,0,0,0,0,0,0,0,0,0,0,0,0,1895,4051,1896,0,0,0,0,0,0,0,0,0,0,0,0,0,0,0,0,0,0,0,0,0,0,0,0,0,0,0,0,0,0,0,0,0,0,0,0,0,0,0,0,0,0,0,0,0,0,0,0,0,0,0,0,0,0,
0,0,0,0,0,0,0,0,0,0,0,0,0,0,0,1897,4091,1898,0,0,0,0,0,0,0,0,0,0,0,0,0,0,0,0,0,0,0,0,0,0,0,0,0,0,0,0,0,0,0,0,0,0,0,0,0,0,0,0,0,0,0,0,0,0,0,0,0,0,0,0,0,0,
0,0,0,0,0,0,0,0,0,0,0,0,0,0,0,1899,4131,1900,0,0,0,0,0,0,0,0,0,0,0,0,0,0,0,0,0,0,0,0,0,0,0,0,0,0,0,0,0,0,0,0,0,0,0,0,0,0,0,0,0,0,0,0,0,0,0,0,0,0,0,0,0,0,
0,0,0,0,0,0,0,0,0,0,0,0,0,0,0,1901,4171,1902,0,0,0,0,0,0,0,0,0,0,0,0,0,0,0,0,0,0,0,0,0,0,0,0,0,0,0,0,0,0,0,0,0,0,0,0,0,0,0,0,0,0,0,0,0,0,0,0,0,0,0,0,0,0,
0,0,0,0,0,0,0,0,0,0,0,0,0,0,0,1903,4211,1904,1905,0,0,0,0,0,0,0,0,0,0,0,0,0,0,0,0,0,0,0,0,0,0,0,0,0,0,0,0,0,0,0,0,0,0,0,0,0,0,0,0,0,0,0,0,0,0,0,0,0,0,0,0,0,
0,0,0,0,0,0,0,0,0,0,0,0,0,0,0,1906,4251,4252,1907,0,0,0,0,0,0,0,0,0,0,0,0,0,0,0,0,0,0,0,0,0,0,0,0,0,0,0,0,0,0,0,0,0,0,0,0,0,0,0,0,0,0,0,0,0,0,0,0,0,0,0,0,0,
0,0,0,0,0,0,0,0,0,0,0,0,0,0,0,1908,4291,4292,1909,0,0,0,0,0,0,0,0,0,0,0,0,0,0,0,0,0,0,0,0,0,0,0,0,0,0,0,0,0,0,0,0,0,0,0,0,0,0,0,0,0,0,0,0,0,0,0,0,0,0,0,0,0,
0,0,0,0,0,0,0,0,0,1910,1911,1678,0,0,0,1912,1913,4332,1914,0,1915,1916,1917,0,1918,0,0,0,0,0,0,0,0,0,0,0,0,0,0,0,0,0,0,0,1919,1920,1921,0,0,0,0,0,0,0,0,0,0,0,0,0,0,0,0,0,0,0,0,0,0,0,0,0,
0,0,0,0,0,0,0,0,0,1922,1923,1924,0,0,0,1925,1926,4372,1927,0,1928,1929,1930,1931,1932,1933,0,0,0,0,0,0,0,0,0,0,0,0,0,0,0,0,0,0,1934,4360,1935,0,0,0,1936,1937,0,0,0,0,0,0,0,0,0,0,0,0,0,0,0,0,0,0,0,0,
0,0,0,0,0,0,0,0,0,1938,1939,1940,0,0,0,0,1941,4412,1942,1943,1944,1945,1946,1947,1948,1949,1653,1654,1655,1656,1657,1658,0,0,0,0,0,0,0,0,0,0,0,0,1950,4400,1951,0,0,0,1952,1953,0,0,0,0,0,0,0,0,0,0,0,0,0,0,0,0,0,0,0,0,
0,0,0,0,0,0,0,0,0,1954,1955,1956,0,0,0,0,1957,4452,4453,1958,1959,1960,1961,0,1962,1963,1659,1660,1661,1662,1663,1664,0,0,0,0,0,0,0,0,0,0,0,0,1964,4440,1965,0,0,0,1966,1967,0,0,0,0,0,0,0,0,0,0,0,0,0,0,0,0,0,0,0,0,
0,0,0,0,0,0,0,0,0,0,1968,1969,1970,0,1719,1971,1972,1973,4493,1974,1975,1976,1977,0,1978,1979,1980,1665,1666,1667,1668,0,0,0,0,0,0,0,0,0,0,0,0,0,1981,1982,1983,0,0,1984,1985,1986,0,0,0,0,0,0,0,0,0,0,0,0,0,0,0,0,0,0,0,0,
0,0,0,0,0,0,0,0,0,0,0,1987,1988,1989,1990,1991,4531,1992,1993,1994,1995,1996,1997,1998,0,0,0,0,0,0,0,0,0,0,0,0,0,0,0,0,0,0,0,0,1999,2000,2001,0,2002,2003,2004,1848,0,0,0,0,0,0,0,0,0,0,0,0,0,0,0,0,0,0,0,0,
0,0,0,0,0,0,0,0,0,0,0,0,2005,2006,2007,2008,2009,2010,2011,2012,4575,4576,2013,2014,2015,2016,2017,2018,2019,2020,2021,2022,2023,2024,2025,2026,2027,2028,0,0,0,0,0,0,2029,2030,2031,2032,2033,2034,2035,0,0,0,0,0,0,0,0,0,0,0,0,0,0,0,0,0,0,0,0,0,
0,0,0,0,0,0,0,0,0,0,0,0,2036,2037,0,0,0,0,0,2038,2039,2040,4617,4618,4619,4620,4621,4622,4623,4624,4625,4626,2041,2042,4629,2043,2044,2045,2046,2047,2048,2049,2050,2051,2052,2053,2054,2055,2056,2057,0,0,0,0,0,0,0,0,0,0,0,0,0,0,0,0,0,0,0,0,0,0,
0,0,0,0,0,0,0,0,0,0,0,0,2058,2059,0,0,0,0,0,0,1684,2060,2061,2062,2063,2064,2065,2066,2067,2068,2069,2070,2071,2072,2073,4670,4671,4672,4673,4674,4635,4636,2074,2075,2076,0,0,0,0,0,0,0,0,0,0,0,0,0,0,0,0,0,0,0,0,0,0,0,0,0,0,0,
0,0,0,0,0,0,0,2077,2078,0,0,2079,2080,2081,0,0,0,0,0,0,0,0,0,0,0,0,0,2082,2083,2084,2085,0,0,2086,2087,2088,2089,2090,2091,2092,2093,4676,4677,4678,2094,2095,0,0,0,0,0,0,0,0,0,0,0,0,0,0,0,0,0,0,0,0,0,0,0,0,0,0,
0,0,0,0,0,0,0,2096,2097,0,0,2098,2099,2100,0,0,0,0,0,0,0,0,0,0,0,0,0,0,0,0,0,0,0,0,0,0,0,0,0,0,2101,2102,2103,4718,4719,2104,2105,0,0,0,0,0,0,0,0,0,0,0,0,0,0,0,0,0,0,0,0,0,0,0,0,0,
0,0,0,0,0,0,0,2106,2107,2108,2109,2110,2111,0,0,0,0,0,0,0,0,0,0,0,0,0,0,0,0,0,0,0,0,0,0,0,0,0,0,0,0,0,2112,2113,2114,4760,2115,2116,2117,0,0,0,0,0,0,0,0,0,0,0,0,0,0,0,0,0,0,0,0,0,0,0,
0,0,0,0,0,0,0,2118,2119,2120,2121,2122,2123,0,0,0,0,0,0,0,0,0,0,0,0,0,0,0,0,0,0,0,0,0,0,0,0,0,0,0,0,0,0,0,2124,2125,2126,4802,2127,2128,0,0,0,0,0,0,0,0,0,0,0,0,0,0,0,0,0,0,0,0,0,0,
0,0,0,0,0,0,0,0,0,2129,2130,2131,0,0,0,0,0,0,0,0,0,0,0,0,0,0,0,0,0,0,0,0,0,0,0,0,0,0,0,0,0,0,0,0,0,0,2132,2133,4843,2134,2135,2136,2137,2138,2139,2140,0,0,0,0,0,2141,2142,2143,2144,2145,2146,2147,2148,2149,2150,0,
0,0,0,0,0,0,0,0,0,0,0,0,0,0,0,0,0,0,0,0,0,0,0,0,0,0,0,0,0,0,0,0,0,0,0,0,0,0,0,0,0,0,0,0,0,0,0,2151,2152,4884,4885,4886,4887,4888,2153,2154,2155,2156,2157,2158,2159,2160,2161,2162,2163,4900,4901,4902,4903,2164,2165,2166,
0,0,0,0,0,0,0,0,0,0,0,0,0,0,0,0,0,0,0,0,0,0,0,0,0,0,0,0,0,0,0,0,0,0,0,0,0,0,0,0,0,0,0,0,0,0,0,0,2167,2168,2169,2170,4927,4928,4929,4930,4931,4932,4933,4934,4935,4936,4937,2171,2172,4940,4941,4942,4943,4944,4945,4946,
0,0,0,0,0,0,0,0,0,0,0,0,0,0,0,0,0,0,0,0,0,0,0,0,0,0,0,0,0,0,0,0,0,0,0,0,0,0,0,0,0,0,0,0,0,0,0,0,0,0,2173,2174,2175,2176,2177,2178,2179,2180,2181,2182,2183,2184,2185,2186,2187,2188,2189,2190,2191,2192,2193,2194,
1669,1670,1671,1672,0,0,0,0,0,0,0,0,0,0,0,0,0,0,0,0,0,0,0,0,0,0,0,0,0,0,0,0,0,0,0,0,0,0,0,0,0,0,0,0,0,0,0,0,0,0,0,0,0,0,0,0,0,0,0,0,0,0,0,0,0,0,0,0,0,0,0,0,
1673,1674,1675,1676,1677,1678,0,0,0,0,0,0,0,0,0,0,0,0,0,0,0,0,0,0,0,0,0,0,0,0,0,0,0,0,0,0,0,0,0,0,0,0,0,0,0,0,0,0,0,0,0,0,0,0,0,0,0,0,0,0,0,0,0,0,0,0,0,0,0,0,0,0,
1679,1680,1674,1674,1681,1682,1683,0,0,0,0,0,0,0,0,0,0,0,0,0,0,0,0,0,0,0,0,0,0,0,0,0,0,0,0,0,0,0,0,0,0,0,0,0,0,0,0,0,0,0,0,0,0,0,0,0,0,0,0,0,0,0,0,0,0,0,0,0,0,0,0,0,
1684,1685,1686,1674,1674,1674,1687,1688,0,0,0,0,0,0,0,0,0,0,0,0,0,0,0,0,0,0,0,0,0,0,0,0,0,0,0,0,0,0,0,0,0,0,0,0,0,0,0,0,0,0,0,0,0,0,0,0,0,1689,1690,1691,1692,1693,1694,1695,0,0,0,0,0,0,0,0,
0,0,1696,1697,1698,1674,1674,1699,1700,0,0,0,0,0,0,0,0,0,0,0,0,0,0,0,0,0,0,0,0,0,0,0,0,0,0,0,0,0,0,0,0,0,0,0,0,0,0,0,0,0,0,0,0,0,0,0,1701,1702,1703,1674,1674,1674,1674,1704,1705,0,0,0,0,0,0,0,
0,0,0,0,1706,1707,1708,1674,1709,1710,0,0,0,0,0,0,0,0,0,0,0,0,0,0,0,0,0,0,0,0,0,0,0,0,0,0,0,0,0,0,0,0,0,0,0,0,0,0,0,0,0,0,0,0,0,1711,1712,1674,1674,1674,1674,1674,1674,1674,1713,0,0,0,0,0,0,0,
0,0,0,0,0,0,1714,1715,1674,1716,1717,1718,0,0,0,0,0,0,0,0,0,0,0,0,0,0,0,0,0,0,0,0,0,0,0,0,0,0,0,0,0,0,0,0,0,0,0,0,0,0,0,0,0,1719,1720,1721,1674,1674,1674,1674,1674,1674,1674,1674,1722,1723,0,0,0,0,0,0,
0,0,0,0,0,0,0,1724,1725,1674,1674,1726,1727,0,0,0,0,0,0,0,0,0,0,0,0,0,0,0,0,0,0,0,0,0,0,0,0,0,0,0,0,0,0,0,0,0,0,0,0,0,0,1719,1728,1729,1730,1674,1674,1674,1674,1674,1674,1674,1674,1674,1674,1731,0,0,0,0,0,0,
0,0,0,0,0,0,0,0,1732,1733,1734,1674,1735,1736,1737,1738,1739,1678,0,0,0,0,0,0,0,0,0,0,0,0,0,0,0,0,0,0,0,0,0,0,0,0,0,0,0,0,0,0,0,0,1740,1741,1742,1674,1674,1674,1674,1674,1674,1674,1674,1674,1674,1674,1674,1743,1744,0,0,0,0,0,
0,0,0,0,0,0,0,0,0,0,1745,1746,1747,1674,1674,1674,1748,1749,1750,0,0,0,0,0,0,0,0,0,0,0,0,0,0,0,0,0,0,0,0,0,0,0,0,0,0,0,0,0,0,1751,1752,1674,1674,1674,1674,1674,1674,1674,1674,1674,1674,1674,1674,1674,1674,1674,1753,1754,1755,0,0,0,
0,0,0,0,0,0,0,0,0,0,0,0,1756,1757,1674,1674,1674,1674,1758,1759,1760,0,0,0,0,0,0,0,0,0,0,0,0,0,0,0,0,0,0,0,0,0,0,0,0,0,0,0,0,1761,1762,1674,1674,1674,1674,1674,1674,1674,1674,1674,1674,1674,1674,1674,1674,1674,1674,1763,1764,1765,0,0,
0,0,0,0,0,0,0,0,0,0,0,0,0,1766,1767,1768,1769,1770,1674,1674,1771,1772,1773,0,0,0,0,0,0,0,0,0,0,0,0,0,0,0,0,0,0,0,0,0,0,0,0,0,0,1774,1674,1674,1674,1674,1674,1674,1674,1674,1674,1674,1674,1674,1674,1674,1674,1674,1674,1674,1775,1776,0,0,
0,0,0,0,0,0,0,0,0,0,0,0,0,0,0,0,1777,1778,1779,1780,1674,1674,1781,1782,0,0,0,0,0,0,0,0,0,0,0,0,0,0,0,0,0,0,0,0,0,0,0,0,0,1783,1674,1674,1674,1674,1674,1674,1674,1674,1674,1674,1674,1674,1674,1674,1674,1674,1674,1674,1674,1784,0,0,
0,0,0,0,0,0,0,0,0,0,0,0,0,0,0,0,0,0,1684,1785,1786,1787,1674,1788,1789,0,0,0,0,0,0,0,0,0,0,0,0,0,0,0,0,0,0,0,0,0,0,0,0,1790,1674,1674,1674,1674,1674,1674,1674,1674,1674,1674,1674,1674,1674,1674,1674,1674,1674,1674,1674,1791,0,0,
0,0,0,0,0,0,0,0,0,0,0,0,0,0,0,0,0,0,0,0,1792,1793,1794,1795,1796,1797,1798,0,0,0,0,0,0,0,0,0,0,0,0,0,0,0,0,0,0,0,0,0,0,1799,1674,1674,1674,1674,1674,1674,1674,1674,1674,1674,1674,1674,1674,1674,1674,1674,1674,1674,1800,1801,0,0,
0,0,0,0,0,0,0,0,0,0,0,0,0,0,0,0,0,0,0,0,0,0,1802,1803,1804,1674,1805,1806,0,0,0,0,0,0,0,0,0,0,0,0,0,0,0,0,0,0,0,0,0,1807,1674,1674,1674,1674,1674,1674,1674,1674,1674,1674,1674,1674,1674,1674,1674,1674,1674,1674,1808,1809,0,0,
0,0,0,0,0,0,0,0,0,0,0,0,0,0,0,0,0,0,0,0,0,0,0,0,1810,1811,1674,1812,1813,1678,0,0,0,0,0,0,0,0,0,0,0,0,0,0,0,0,0,0,0,1814,1674,1674,1674,1674,1674,1674,1674,1674,1674,1674,1674,1674,1674,1674,1674,1674,1674,1815,1816,0,0,0,
0,0,0,0,0,0,0,0,0,0,0,0,0,0,0,0,0,0,0,0,0,0,0,0,1817,1818,1674,1674,1819,1820,0,0,0,0,0,0,0,0,0,0,0,0,0,0,0,0,0,0,0,1821,1822,1674,1674,1674,1674,1674,1674,1674,1674,1674,1674,1674,1674,1674,1674,1674,1674,1823,1824,0,0,0,
0,0,0,0,0,0,0,0,0,0,0,0,0,0,0,0,0,0,0,0,0,0,0,0,0,1825,1826,1795,1674,1827,1828,0,0,0,0,0,0,0,0,0,0,0,0,0,0,0,0,0,0,0,1829,1830,1831,1832,1833,1834,1835,1836,1837,1838,1674,1674,1674,1674,1674,1674,1839,1840,0,0,0,0,
0,0,0,0,0,0,0,0,0,0,0,0,0,0,0,0,0,0,0,0,0,0,0,0,0,0,1841,1842,1843,1674,1844,1845,0,0,0,0,0,0,0,0,0,0,0,0,0,0,0,0,0,0,0,0,0,1846,1847,1848,0,0,0,1849,1850,1851,1852,1853,1854,1855,1856,0,0,0,0,0,
0,0,0,0,0,0,0,0,0,0,0,0,0,0,0,0,0,0,0,0,0,0,0,0,0,0,0,0,1857,1858,1674,1859,1860,0,0,0,0,0,0,0,0,0,0,0,0,0,0,0,0,0,0,0,0,0,0,0,0,0,0,0,0,0,1861,1862,1863,0,0,0,0,0,0,0,
0,0,0,0,0,0,0,0,0,0,0,0,0,0,0,0,0,0,0,0,0,0,0,0,0,0,0,0,0,1864,1865,1674,1866,1867,0,0,0,0,0,0,0,0,0,0,0,0,0,0,0,0,0,0,0,0,0,0,0,0,0,0,0,0,0,0,0,0,0,0,0,0,0,0,
0,0,0,0,0,0,0,0,0,0,0,0,0,0,0,0,0,0,0,0,0,0,0,0,0,0,0,0,0,1868,1869,1870,1674,1871,0,0,0,0,0,0,0,0,0,0,0,0,0,0,0,0,0,0,0,0,0,0,0,0,0,0,0,0,0,0,0,0,0,0,0,0,0,0,
0,0,0,0,0,0,0,0,0,0,0,0,0,0,0,0,0,0,0,0,0,0,0,0,0,0,0,0,0,0,0,1872,1873,1874,1875,0,0,0,0,0,0,0,0,0,0,0,0,0,0,0,0,0,0,0,0,0,0,0,0,0,0,0,0,0,0,0,0,0,0,0,0,0,
0,0,0,0,0,0,0,0,0,0,0,0,0,0,0,0,0,0,0,0,0,0,0,0,0,0,0,0,0,0,0,0,1876,1877,1878,1879,0,0,0,0,0,0,0,0,0,0,0,0,0,0,0,0,0,0,0,0,0,0,0,0,0,0,0,0,0,0,0,0,0,0,0,0,
0,0,0,0,0,0,0,0,0,0,0,0,0,0,0,0,0,0,0,0,0,0,0,0,0,0,0,0,0,0,0,0,1841,1880,1674,1881,0,0,0,0,0,0,0,0,0,0,0,0,0,0,0,0,0,0,0,0,0,0,0,0,0,0,0,0,0,0,0,0,0,0,0,0
</data>
 </layer>
 <layer id="4" name="Decor" width="72" height="56">
  <data encoding="csv">
7161,0,0,0,0,0,0,0,0,0,0,0,0,0,7139,0,0,0,0,7189,0,0,0,0,0,0,0,0,0,7139,0,0,0,0,0,0,0,0,0,0,0,0,0,0,0,0,0,0,0,0,0,0,0,0,0,0,0,7180,0,0,0,0,0,0,0,0,0,0,0,0,0,0,
0,0,0,0,0,0,0,0,0,0,0,0,0,0,0,0,0,0,0,0,0,0,0,0,0,0,0,0,0,0,0,0,0,0,0,0,0,0,0,0,0,0,0,0,0,0,0,0,7178,0,0,0,0,0,0,0,0,0,0,0,0,0,0,0,0,0,0,0,0,0,0,0,
0,0,0,0,0,0,0,0,0,0,0,0,0,0,0,0,0,0,0,0,0,0,0,0,0,0,0,0,0,0,0,0,0,0,0,0,0,0,7166,0,0,0,0,0,0,0,0,0,0,0,0,0,0,0,0,0,0,7198,0,0,0,0,0,7195,0,0,0,0,0,0,0,0,
0,0,0,0,7153,0,0,0,0,0,0,0,0,0,0,0,0,0,0,0,0,0,0,7162,0,0,0,0,7166,7164,0,0,0,0,0,0,0,0,0,0,0,0,0,0,0,0,0,0,0,0,0,0,0,0,0,0,0,0,0,0,0,0,0,0,0,0,0,0,7166,0,0,0,
0,0,0,0,0,0,0,0,0,0,0,0,7178,0,0,7198,7198,0,0,0,0,0,0,0,0,0,0,0,0,0,0,0,0,0,0,0,0,0,0,0,0,7195,0,0,0,0,7162,0,0,0,0,0,0,0,0,7161,0,0,0,0,0,0,0,0,0,0,0,0,0,0,0,0,
0,0,0,0,0,0,0,0,0,0,0,0,0,0,0,7195,0,0,0,0,0,0,0,0,0,0,0,0,0,0,0,7199,0,7141,0,7167,0,0,0,0,0,0,7161,0,0,0,0,0,0,0,0,0,0,0,0,0,0,0,0,0,0,0,0,0,0,0,0,0,0,0,0,0,
0,0,0,0,0,0,0,0,0,0,0,0,0,0,0,0,0,0,0,0,0,0,0,0,0,0,0,0,0,0,0,0,0,0,0,0,0,0,0,0,7199,0,0,0,7166,0,0,0,0,0,0,0,0,0,0,0,0,0,0,7178,0,0,0,0,0,0,0,0,0,0,0,0,
0,0,0,0,0,0,0,0,0,0,0,0,0,0,7139,0,0,0,7164,0,0,0,0,0,0,0,0,0,0,7150,0,0,7141,7146,0,0,0,0,0,0,0,0,0,0,0,0,0,0,7178,0,0,0,0,0,0,0,0,0,0,0,0,0,0,0,0,0,0,0,7139,0,0,0,
0,0,0,0,0,0,0,7153,0,0,0,7195,0,7162,0,0,0,0,0,0,7189,0,0,0,0,0,0,7167,0,0,0,0,0,0,0,0,0,0,0,0,0,0,0,7154,0,0,0,0,0,0,0,0,0,0,0,0,0,0,0,0,0,0,0,0,0,0,0,0,0,0,0,0,
0,0,0,0,0,0,7164,0,0,0,0,0,0,0,0,0,0,0,0,0,7198,0,0,0,0,0,0,0,0,0,0,0,0,0,0,0,0,0,0,0,0,0,0,7167,0,7154,0,0,0,0,0,0,0,0,0,7161,0,0,0,0,0,0,0,0,0,0,0,0,0,0,0,0,
0,0,0,0,0,0,0,0,0,0,0,0,0,0,0,0,0,0,0,0,0,0,0,0,0,0,0,0,0,0,0,0,0,0,0,0,0,0,0,0,0,0,0,0,0,0,0,0,0,7180,0,0,0,0,0,0,0,0,0,0,7195,0,0,0,0,0,0,0,0,0,0,0,
0,0,0,0,0,0,0,0,0,0,0,0,0,0,0,0,0,0,0,0,0,0,0,0,0,0,0,0,0,0,0,0,0,0,0,0,0,0,0,0,0,0,0,0,0,0,0,0,0,0,0,0,0,0,0,0,0,0,0,0,0,0,0,7139,7164,0,0,7164,0,0,0,0,
0,0,0,0,0,0,0,0,7115,0,0,0,7116,0,0,0,0,0,0,0,0,0,0,0,0,0,0,0,0,0,0,0,0,0,0,0,0,0,0,0,0,0,0,0,0,0,0,0,0,0,0,0,0,0,0,0,0,0,0,0,7153,0,0,0,0,0,0,0,0,0,0,0,
0,0,0,0,0,0,7188,0,7117,7118,0,7119,7120,0,0,0,0,0,0,0,0,0,0,0,0,0,0,0,0,0,0,0,0,0,0,0,0,0,0,0,0,0,0,0,0,0,0,0,0,0,0,0,0,0,0,0,0,0,0,0,0,0,7198,0,0,0,0,0,0,0,0,0,
0,0,0,0,0,0,0,7139,7121,7122,7123,7124,7125,0,0,0,0,0,0,0,0,0,0,0,0,0,0,0,0,0,0,0,0,0,0,0,0,0,0,0,0,0,0,0,0,0,0,0,0,0,0,0,0,0,7166,0,7153,0,0,0,0,0,0,0,0,0,0,0,0,0,0,0,
0,7188,0,0,0,0,0,0,0,0,0,7147,0,0,0,0,0,0,0,0,0,0,0,0,0,0,0,0,0,0,0,0,0,0,0,0,0,0,0,0,0,0,0,0,0,0,0,0,0,0,0,0,0,0,7189,0,7180,0,0,0,0,0,0,0,0,0,7164,0,0,0,0,0,
0,0,0,0,0,0,0,0,0,0,0,0,0,0,0,0,0,0,0,0,0,0,0,0,0,0,0,0,0,0,0,0,0,0,0,7177,0,0,7146,0,0,7167,0,0,0,0,0,0,0,0,0,0,0,0,0,0,0,0,0,0,0,0,0,0,0,7189,0,0,0,0,0,0,
0,0,0,0,0,0,0,0,0,0,0,0,0,0,0,0,0,0,0,0,0,0,0,7147,7166,0,0,0,0,7143,0,0,0,0,0,0,0,0,0,0,0,0,7167,7183,0,0,0,0,0,0,0,0,0,0,0,0,0,0,0,0,0,0,7189,0,0,0,0,0,0,0,0,0,
0,0,0,0,0,0,0,0,0,0,0,0,0,0,0,0,0,0,0,0,0,0,0,0,0,0,0,0,7141,7141,0,7141,0,0,0,0,7150,7154,0,0,0,7170,0,7150,0,0,7162,0,0,0,0,0,0,0,0,0,0,0,0,0,0,0,0,0,0,0,0,0,0,0,0,0,
0,0,0,0,0,0,0,0,0,0,0,0,0,0,0,0,0,0,0,0,0,7166,0,0,0,0,0,0,0,0,0,7141,0,7146,0,0,0,0,0,7177,0,7167,0,0,0,0,7166,0,0,0,0,0,0,0,0,7164,0,0,0,0,0,0,0,0,0,0,0,0,0,0,0,0,
0,0,0,0,0,0,0,0,0,0,0,0,0,0,0,0,0,7178,0,0,0,0,0,0,0,0,0,0,0,0,0,0,0,0,0,0,0,7198,0,0,0,0,0,0,0,0,0,0,0,0,0,0,0,0,0,0,0,0,0,0,0,0,0,7164,0,0,0,0,0,0,7178,0,
0,0,0,0,0,0,0,0,0,0,0,0,0,0,0,0,0,0,0,0,7166,0,0,0,0,0,0,7166,0,0,0,0,0,0,0,0,0,0,0,0,0,0,0,0,0,0,0,0,0,0,0,0,0,0,0,0,0,0,0,0,0,0,0,0,0,0,0,0,0,0,0,0,
0,0,0,0,0,0,0,0,0,0,0,0,0,0,0,0,0,7180,0,0,0,0,0,0,0,0,0,0,0,0,0,0,0,0,0,0,0,0,0,0,0,0,0,0,0,0,0,0,0,7188,0,0,0,0,0,0,0,0,0,0,0,0,0,0,7195,7162,0,0,0,0,7198,0,
0,7166,0,0,0,0,0,0,0,0,0,0,0,0,0,0,0,0,0,0,0,0,7166,0,0,0,0,0,0,0,0,0,0,0,0,0,0,0,0,0,0,0,7178,0,0,0,0,7180,0,0,0,0,0,0,0,0,0,0,0,0,0,0,0,0,0,7180,0,0,0,0,0,0,
7195,0,0,0,0,0,0,0,0,0,0,0,0,0,0,0,0,0,0,0,0,0,0,0,0,0,0,0,0,0,0,0,7164,0,7153,0,0,0,0,0,0,0,0,0,0,0,0,0,0,0,0,0,0,0,0,0,0,0,0,0,0,0,0,0,0,0,0,0,0,7162,0,0,
0,0,0,0,0,0,7139,0,0,0,0,0,7161,7164,0,0,0,0,0,0,0,0,0,0,0,0,0,0,0,7180,7178,0,0,0,0,0,0,0,0,0,0,0,0,7153,0,0,0,0,7195,0,0,0,0,0,7161,0,0,0,0,0,0,0,0,0,0,7198,0,0,0,0,0,0,
7188,0,0,0,0,0,0,0,0,0,0,0,0,0,0,0,0,0,0,0,0,0,0,0,0,0,0,0,0,0,0,0,7139,0,0,0,0,0,0,0,7178,0,0,0,0,7162,0,0,0,0,0,0,0,0,7195,0,0,0,0,7139,0,0,0,0,0,0,0,0,0,0,0,0,
0,0,0,0,0,0,0,0,0,0,0,0,0,0,0,0,0,0,0,0,0,0,0,0,0,7153,0,0,0,7162,0,0,0,0,0,0,0,0,7188,0,0,0,7178,7180,0,0,0,0,0,0,0,7198,0,0,0,0,0,0,0,0,0,0,0,0,0,0,7164,0,0,0,7147,0,
0,0,0,7139,0,0,0,0,0,0,0,0,0,0,0,0,0,0,0,0,0,0,0,0,0,0,0,0,0,0,0,0,0,0,0,0,0,0,0,7161,0,0,0,0,7195,0,0,0,0,0,0,0,0,0,0,0,0,0,0,0,0,0,0,0,0,0,0,0,0,0,7178,0,
0,7166,0,7139,0,0,0,0,0,0,0,0,0,0,0,0,0,0,7147,0,0,0,0,0,0,0,0,0,0,0,0,0,0,0,0,0,0,0,0,0,0,7162,0,0,0,0,0,0,0,0,0,0,0,0,0,7147,0,0,0,0,0,0,0,0,0,0,0,0,0,0,0,0,
0,0,7139,0,0,0,0,0,0,0,0,0,0,7147,0,0,0,0,0,0,0,0,0,0,0,0,0,0,0,0,0,0,0,0,0,0,0,0,0,7195,0,0,0,0,0,0,0,0,0,0,0,0,0,0,7195,0,0,0,0,0,0,0,0,0,0,0,0,0,0,0,0,0,
0,0,7139,0,0,0,0,0,0,0,0,0,0,7164,0,0,0,0,0,0,0,7195,0,0,0,0,0,0,0,0,0,0,0,0,0,0,0,7180,0,0,0,0,0,0,0,0,0,0,7147,0,0,0,0,0,0,0,0,0,7166,7189,0,0,0,0,0,0,0,0,0,0,0,0,
0,0,0,0,0,0,0,7153,0,0,0,0,0,0,0,0,0,0,0,0,0,0,0,0,0,0,0,0,0,0,0,0,0,0,0,0,0,0,0,0,7161,0,0,0,0,0,0,0,0,0,7147,0,0,0,0,0,0,0,7166,0,0,0,0,0,0,7161,0,0,0,0,0,0,
0,0,0,0,0,0,0,0,0,0,0,0,0,0,0,0,0,0,0,0,0,0,0,0,0,0,0,0,0,7166,0,0,0,0,7195,0,0,0,0,0,0,0,0,0,0,0,0,0,0,0,0,0,0,0,0,0,0,0,0,7166,0,0,0,0,0,0,0,0,0,0,0,0,
0,0,0,0,0,0,0,0,0,0,0,0,0,0,0,0,0,0,0,0,0,0,0,0,0,0,0,0,0,0,0,0,0,0,0,0,0,0,0,0,7189,0,0,0,0,0,0,0,0,0,0,0,7153,0,0,0,0,0,0,0,0,0,0,0,0,0,0,0,0,0,0,0,
0,7195,0,0,0,0,0,0,0,0,0,0,0,0,7162,0,0,0,0,0,0,0,0,0,0,7195,0,0,0,0,0,0,0,0,0,0,0,0,0,0,0,0,0,0,0,0,0,0,7139,0,0,0,0,0,0,0,0,0,7147,7161,7164,0,0,0,0,0,0,0,0,0,0,0,
0,0,0,0,0,0,0,0,7161,7180,0,0,7147,0,0,0,0,0,0,0,0,0,7188,0,0,0,0,0,0,0,7178,0,0,0,0,0,7188,0,0,0,0,0,0,0,0,0,0,0,0,7153,0,7164,0,0,0,7166,7166,0,0,0,0,0,0,0,0,0,0,0,0,0,0,0,
0,0,0,0,0,0,0,0,0,0,0,0,0,0,0,0,0,0,0,0,0,0,0,0,0,0,0,0,0,0,0,0,0,0,0,0,7198,0,0,0,0,0,0,7153,0,0,0,0,7195,0,0,7162,0,0,0,0,0,0,0,0,7153,7189,0,0,0,0,0,0,0,0,0,0,
0,0,0,0,0,0,0,0,0,0,7164,0,0,0,0,0,0,0,0,0,0,0,0,7178,0,0,0,0,0,0,0,0,0,0,0,7164,0,0,0,0,0,0,0,0,0,0,7164,0,0,0,0,0,0,0,0,0,0,0,0,0,7166,0,0,0,0,0,0,0,0,0,0,0,
0,0,0,0,0,7180,0,0,0,0,0,0,0,0,0,0,0,0,0,0,0,0,0,0,0,0,0,0,0,0,0,0,0,7162,0,0,0,0,0,0,0,0,0,0,0,0,7161,0,0,0,0,0,0,0,0,0,0,0,0,0,0,0,0,7198,0,0,0,0,0,0,0,0,
0,0,0,0,0,0,0,0,7139,0,0,0,0,0,0,0,0,0,0,0,0,0,0,0,0,0,0,0,0,0,0,0,0,0,0,0,0,0,0,0,0,0,0,0,0,0,0,0,0,0,0,0,0,0,0,0,0,0,0,0,0,0,0,0,0,0,0,0,0,0,0,0,
0,0,0,0,0,0,0,0,0,7162,0,7198,0,0,0,0,0,0,0,0,0,0,0,7162,0,7164,0,0,7189,0,0,0,0,0,0,0,0,0,7188,0,0,0,0,0,0,0,0,0,7147,0,0,0,0,0,0,0,0,0,0,7147,0,0,7164,0,0,7188,0,0,0,7164,0,0,
0,0,0,0,0,0,0,0,0,0,0,0,0,0,0,0,0,0,0,0,0,0,0,0,0,0,0,0,0,0,0,0,0,0,0,0,0,0,0,0,0,0,0,0,0,7147,0,0,0,0,0,0,0,0,0,0,0,0,0,0,0,0,0,0,0,0,0,0,0,0,0,7162,
0,0,0,0,0,0,0,0,0,0,0,0,0,0,0,0,0,0,0,0,0,0,0,7178,0,0,0,0,0,0,0,0,0,0,0,0,0,0,0,0,0,7188,0,0,0,0,0,0,0,0,0,0,0,0,0,0,0,0,0,0,0,0,7195,0,0,0,7164,7161,0,0,0,0,
0,0,0,7188,0,0,0,0,0,0,0,0,0,7147,7164,0,0,0,0,7189,0,0,7161,0,7161,0,0,0,0,0,0,0,0,0,0,0,0,0,0,7195,0,0,7147,0,0,0,0,0,0,0,0,0,0,0,0,7164,0,0,0,0,0,0,0,0,0,0,0,0,0,0,0,0,
0,7147,0,7188,0,0,0,0,0,0,0,0,0,0,0,0,0,0,7161,0,0,0,0,0,0,0,0,0,0,0,0,0,0,0,0,0,0,0,0,0,0,7162,0,0,0,0,7147,0,0,0,0,0,0,0,0,0,0,0,0,0,0,0,0,0,0,0,0,0,0,0,7188,7166,
0,0,0,0,0,0,0,0,7162,0,0,0,0,0,0,0,0,0,0,0,0,0,0,0,0,0,0,0,0,7198,0,7164,0,0,0,0,0,0,0,0,0,0,0,0,0,0,0,0,0,0,0,0,0,0,0,0,0,0,0,7195,0,0,7195,0,0,0,0,0,0,0,0,0,
0,0,0,0,0,0,7180,0,0,0,0,7180,0,7198,0,0,0,0,0,0,0,0,0,0,0,0,0,0,0,0,0,0,0,0,0,0,0,0,0,0,0,0,0,0,0,0,0,0,0,0,0,0,0,0,0,0,0,0,0,0,0,0,0,7161,0,0,0,0,7166,0,0,0,
0,0,0,0,0,7166,0,0,0,0,0,0,0,0,0,0,0,0,0,0,0,0,0,0,0,0,0,0,0,0,0,0,0,0,0,0,0,0,7166,7195,0,0,0,0,0,0,0,0,0,0,0,0,0,0,7189,0,0,0,0,0,0,0,0,0,0,0,0,0,0,0,0,0,
0,0,0,0,7188,0,0,0,0,0,7153,0,0,0,0,0,0,0,7188,0,7198,0,0,0,0,0,0,0,0,0,0,0,0,0,7180,0,0,7180,0,0,0,0,0,0,0,0,0,0,0,0,0,0,0,0,0,0,0,7153,0,0,0,0,0,0,0,0,0,0,0,0,0,0,
0,0,0,0,0,0,0,0,0,0,0,0,0,0,0,0,0,0,0,0,0,0,7162,0,0,0,7162,0,0,0,0,0,7180,0,0,0,0,0,0,0,0,0,0,0,0,0,0,0,0,0,0,0,0,7147,0,0,0,7139,0,0,0,0,0,0,0,0,0,0,0,0,0,0,
0,0,0,0,0,0,0,0,0,0,0,0,0,0,0,7180,0,0,0,0,0,0,0,0,0,0,0,0,0,0,0,0,0,0,0,0,0,0,0,7189,0,0,0,0,0,0,0,0,0,0,0,0,0,0,7164,0,7188,0,0,0,0,0,0,0,0,0,0,0,0,0,0,0,
0,0,0,0,0,0,0,0,0,0,0,0,0,0,0,0,0,0,0,0,0,0,0,0,0,0,0,0,0,0,0,0,0,0,0,0,0,0,0,0,0,0,0,7189,0,0,0,0,0,0,0,0,0,0,0,0,0,0,0,0,0,0,0,0,0,0,0,0,0,0,0,0,
7139,0,0,0,0,0,0,0,0,0,0,0,0,0,0,0,0,0,0,0,0,0,0,0,0,0,0,0,0,0,0,0,0,0,0,0,0,0,0,0,0,0,0,0,0,0,7198,0,0,0,0,0,0,0,0,7147,0,0,0,0,0,0,0,0,0,0,0,0,0,0,0,0,
0,7161,0,7164,0,0,0,0,0,0,7162,0,0,0,0,0,0,0,0,0,0,0,0,0,0,0,0,0,0,0,0,0,0,0,7188,0,0,0,0,0,0,0,0,0,0,0,0,7178,0,0,0,0,0,0,0,0,0,7166,0,0,0,0,0,0,0,0,0,0,0,0,0,7147,
0,0,0,0,0,0,0,0,0,0,0,0,0,0,7180,0,0,0,0,0,0,0,0,0,0,0,7166,7178,0,0,0,0,0,0,7139,0,0,0,7161,0,0,0,0,0,0,0,0,0,0,0,0,0,0,0,0,0,0,0,0,0,0,0,0,0,0,0,0,0,7147,0,0,0
</data>
 </layer>
 <layer id="5" name="Dynamic" width="72" height="56">
  <data encoding="csv">
0,0,0,0,0,0,0,0,0,0,0,0,0,0,0,0,0,0,0,0,0,0,0,0,0,0,0,0,0,0,0,0,0,0,0,0,0,0,0,0,0,0,0,0,0,0,0,0,0,0,0,0,0,0,0,0,0,0,0,0,0,0,0,0,0,0,0,0,0,0,0,0,
0,0,0,0,0,0,0,0,0,0,0,0,0,0,0,0,0,0,0,0,0,0,0,0,0,0,0,0,0,0,0,0,0,0,0,0,0,0,0,0,0,0,0,0,0,0,0,0,0,0,0,0,0,0,0,0,0,0,0,0,0,0,0,0,0,0,0,0,0,0,0,0,
0,0,0,0,0,0,0,0,0,0,0,0,0,0,0,0,0,0,0,0,0,0,0,0,0,0,0,0,0,0,0,0,0,0,0,0,0,0,0,0,0,0,0,0,0,0,0,0,0,0,0,0,0,0,0,0,0,0,0,0,0,0,0,0,0,0,0,0,0,0,0,0,
0,0,0,0,0,0,0,0,0,0,0,0,0,0,0,0,0,0,0,0,0,0,0,0,0,0,0,0,0,0,0,0,0,0,0,0,0,0,0,0,0,0,0,0,0,0,0,0,0,0,0,0,0,0,0,0,0,0,0,0,0,0,0,0,0,0,0,0,0,0,0,0,
0,0,0,0,0,0,0,0,0,0,0,0,0,0,0,0,0,0,0,0,0,0,0,0,0,0,0,0,0,0,0,0,0,0,0,0,0,0,0,0,0,0,0,0,0,0,0,0,0,0,0,0,0,0,0,0,0,0,0,0,0,0,0,0,0,0,0,0,0,0,0,0,
0,0,0,0,0,0,0,0,0,0,0,0,0,0,0,0,0,0,0,0,0,0,0,0,0,0,0,0,0,0,0,0,0,0,0,0,0,0,0,0,0,0,0,0,0,0,0,0,0,0,0,0,0,0,0,0,0,0,0,0,0,0,0,0,0,0,0,0,0,0,0,0,
0,0,0,0,0,0,0,0,0,0,0,0,0,0,0,0,0,0,0,0,0,0,0,0,0,0,0,0,0,0,0,0,0,0,0,0,0,0,0,0,0,0,0,0,0,0,0,0,0,0,0,0,0,0,0,0,0,0,0,0,0,0,0,0,0,0,0,0,0,0,0,0,
0,0,0,0,0,0,0,0,0,0,0,0,0,0,0,0,0,0,0,0,0,0,0,0,0,0,0,0,0,0,0,0,0,0,0,0,0,0,0,0,0,0,0,0,0,0,0,0,0,0,0,0,0,0,0,0,0,0,0,0,0,0,0,0,0,0,0,0,0,0,0,0,
0,0,0,0,0,0,0,0,0,0,0,0,0,0,0,0,0,0,0,0,0,0,0,0,0,0,0,0,0,0,0,0,0,0,0,0,0,0,0,0,0,0,0,0,0,0,0,0,0,0,0,0,0,0,0,0,0,0,0,0,0,0,0,0,0,0,0,0,0,0,0,0,
0,0,0,0,0,0,0,0,0,0,0,0,0,0,0,0,0,0,0,0,0,0,0,0,0,0,0,0,0,0,0,0,0,0,0,0,0,0,0,0,0,0,0,0,0,0,0,0,0,0,0,0,0,0,0,0,0,0,0,0,0,0,0,0,0,0,0,0,0,0,0,0,
0,0,0,0,0,0,0,0,6234,6211,6212,6213,6234,0,0,0,0,0,0,6492,6493,6494,6495,6496,6530,6497,6530,0,0,0,0,0,0,0,0,0,0,0,0,0,0,0,0,0,0,0,0,0,0,0,0,0,0,0,0,0,0,0,0,0,0,0,0,0,0,0,0,0,0,0,0,0,
0,0,0,0,0,0,0,0,6214,6215,6216,6217,6218,0,0,0,0,0,0,6498,6499,6500,6501,6502,6503,6504,6505,0,0,0,0,0,0,0,0,0,0,0,0,0,0,0,0,5792,5774,5775,5776,5792,0,0,0,0,0,0,0,0,0,0,0,0,0,0,0,0,0,0,0,0,0,0,0,0,
0,0,0,0,0,0,0,0,6219,6220,6221,6222,6223,0,0,0,0,0,0,6506,6507,6508,6509,6510,6511,6512,6513,0,0,0,0,0,0,0,0,0,0,0,0,0,0,0,0,5777,5778,5779,5780,5781,0,5750,5732,5733,5734,5750,0,0,0,0,0,0,0,0,0,0,0,0,0,0,0,0,0,0,
0,0,0,0,0,0,0,0,6224,6225,6226,6227,6228,0,0,0,0,0,0,6514,6515,6516,6517,6518,6519,6520,6521,0,0,0,0,0,0,0,0,0,0,0,0,0,0,0,0,5782,5783,5784,5785,5786,0,5735,5736,5737,5738,5739,0,0,0,0,0,0,0,0,0,0,0,0,0,0,0,0,0,0,
0,0,0,0,0,0,0,0,6229,6230,6231,6232,6233,0,0,0,0,0,0,6522,6523,6524,6525,6526,6527,6528,6529,0,0,0,0,0,0,0,0,0,0,0,0,0,0,0,0,5787,5788,5789,5790,5791,0,5740,5741,5742,5743,5744,0,0,0,0,0,0,0,0,0,0,0,0,0,0,0,0,0,0,
0,0,0,0,0,0,0,0,0,0,0,0,0,0,0,0,0,0,0,0,0,0,0,0,0,0,0,0,0,0,0,0,0,0,0,0,0,0,0,0,0,0,0,0,0,0,0,0,0,5745,5746,5747,5748,5749,0,0,0,0,0,0,0,0,0,0,0,0,0,0,0,0,0,0,
0,0,0,0,0,0,0,0,0,0,0,0,0,0,0,0,0,0,0,0,0,0,0,0,0,0,0,0,0,0,0,0,0,0,0,0,0,0,0,0,0,0,0,0,0,0,0,0,0,0,0,0,0,0,0,0,0,0,0,0,0,0,0,0,0,0,0,0,0,0,0,0,
0,0,0,0,0,0,0,0,0,0,0,0,0,0,0,0,0,0,0,0,0,0,0,0,0,0,0,0,0,0,0,0,0,0,0,0,0,0,0,0,0,0,0,0,0,0,0,0,0,0,0,0,0,0,0,0,0,0,0,0,0,0,0,0,0,0,0,0,0,0,0,0,
0,0,0,0,0,0,0,0,0,0,0,0,0,0,0,0,0,0,0,0,0,0,0,0,0,0,0,0,0,0,0,0,0,0,0,0,0,0,0,0,0,0,0,0,0,0,0,0,0,0,0,0,0,0,0,0,0,0,0,0,0,0,0,0,0,0,0,0,0,0,0,0,
0,0,0,0,0,0,0,0,0,0,0,0,0,0,0,0,0,0,0,0,0,0,0,0,0,0,0,0,0,0,0,0,0,0,0,0,0,0,0,0,0,0,0,0,0,0,0,0,0,0,0,0,0,0,0,0,0,0,0,0,0,0,0,0,0,0,0,0,0,0,0,0,
0,0,0,0,0,0,5915,5916,5917,5918,5932,0,0,0,0,0,0,0,0,0,0,0,0,0,0,0,0,0,0,0,0,0,0,0,0,0,0,0,0,0,0,0,0,0,0,0,0,0,0,0,0,0,0,0,0,0,0,0,0,0,0,0,0,0,0,0,0,0,0,0,0,0,
0,0,0,0,0,0,5919,5920,5921,5922,5923,0,0,0,0,0,0,0,0,0,0,0,0,0,0,0,0,0,0,0,0,0,0,0,0,0,0,0,0,0,0,0,0,0,0,0,0,0,0,0,0,0,0,0,0,0,0,0,0,0,0,0,0,0,0,0,0,0,0,0,0,0,
0,0,0,0,0,0,5924,5925,5926,5927,5932,0,0,0,0,0,0,0,0,0,0,0,0,0,0,0,0,0,0,0,0,0,0,0,0,0,0,0,0,0,0,0,0,0,0,0,0,0,0,0,0,0,0,0,0,0,0,0,0,0,0,0,0,0,0,0,0,0,0,0,0,0,
0,0,0,0,0,0,5928,5929,5930,5931,5932,0,0,0,0,0,0,0,0,0,0,0,0,0,0,0,0,0,0,0,0,0,0,0,0,0,0,0,0,0,0,0,0,0,0,0,0,0,0,0,0,0,0,0,0,0,0,0,0,0,0,0,0,0,0,0,0,0,0,0,0,0,
0,0,0,0,0,0,0,0,0,0,0,0,0,0,0,0,0,0,0,0,0,0,0,0,0,0,0,0,0,0,0,0,0,0,0,0,0,0,0,0,0,0,0,0,0,0,0,0,0,0,0,0,0,0,0,0,0,0,0,0,0,0,0,0,0,0,0,0,0,0,0,0,
0,0,0,0,0,0,0,0,0,0,0,0,0,0,0,0,0,0,0,0,0,0,0,0,0,0,0,0,0,0,0,0,0,0,0,0,0,0,0,0,0,0,0,0,0,0,0,0,0,0,0,0,0,0,0,0,0,0,0,0,0,0,0,0,0,0,0,0,0,0,0,0,
0,0,0,0,0,0,0,0,0,0,0,0,0,0,0,0,0,0,0,0,0,0,0,0,0,0,0,0,0,0,0,0,0,0,0,0,0,0,0,0,0,0,0,0,0,0,0,0,0,0,0,0,0,0,0,0,0,0,0,0,0,0,0,0,0,0,0,0,0,0,0,0,
0,0,0,0,0,0,0,0,0,0,0,0,0,0,0,0,0,0,0,0,0,0,0,0,0,0,0,0,0,0,0,0,0,0,0,0,0,0,0,0,0,0,0,0,0,0,0,0,0,0,0,0,0,0,0,0,0,0,0,0,0,0,0,0,0,0,0,0,0,0,0,0,
0,0,0,0,0,0,0,0,0,0,0,0,0,0,0,0,0,0,0,0,0,0,0,0,0,0,0,0,0,0,0,0,0,0,0,0,0,0,0,0,0,0,0,0,0,0,0,0,0,0,0,0,0,0,0,0,0,0,0,0,0,0,0,0,0,0,0,0,0,0,0,0,
0,0,0,0,0,0,0,0,0,0,0,0,0,0,0,0,0,0,0,0,0,0,0,0,0,0,0,0,0,0,0,0,0,0,0,0,0,0,0,0,0,0,0,0,0,0,0,0,0,0,0,0,0,0,0,0,0,0,0,0,0,0,0,0,0,0,0,0,0,0,0,0,
0,0,0,0,0,0,0,0,0,0,0,0,0,0,0,0,0,0,0,0,0,0,0,0,0,0,0,0,0,0,0,0,0,0,0,0,0,0,0,0,0,0,0,0,0,0,0,0,0,0,0,0,0,0,0,0,0,0,0,0,0,0,0,0,0,0,0,0,0,0,0,0,
0,0,0,0,0,0,0,0,0,0,0,0,0,0,0,0,0,0,0,0,0,0,0,0,0,0,0,0,0,0,0,0,0,0,0,0,0,0,0,0,0,0,0,0,0,0,0,0,0,0,0,0,0,0,0,0,0,0,0,0,0,0,0,0,0,0,0,0,0,0,0,0,
0,0,0,0,0,0,0,0,0,0,0,0,0,0,0,0,0,0,0,0,0,0,0,0,0,0,0,0,0,0,0,0,0,0,0,0,0,0,0,0,0,0,0,0,0,0,0,0,0,0,0,0,0,0,0,0,0,0,0,0,0,0,0,0,0,0,0,0,0,0,0,0,
0,0,0,0,0,0,0,0,0,0,0,0,0,0,0,0,0,0,0,0,0,0,0,0,0,0,0,0,0,0,0,0,0,0,0,0,0,0,0,0,0,0,0,0,0,0,0,0,0,0,0,0,0,0,0,0,0,0,0,0,0,0,0,0,0,0,0,0,0,0,0,0,
0,0,0,0,0,0,0,0,0,0,0,0,0,0,0,0,0,0,0,0,0,0,0,0,0,0,0,0,0,0,0,0,0,0,0,0,0,0,0,0,0,0,0,0,0,0,0,0,0,0,0,0,0,0,0,0,0,0,0,0,0,0,0,0,0,0,0,0,0,0,0,0,
0,0,0,0,0,0,0,0,0,0,0,0,0,0,0,0,0,0,0,0,0,0,0,0,0,0,0,0,0,0,0,0,0,0,0,0,0,0,0,0,0,0,0,0,0,0,0,0,0,0,0,0,0,0,0,0,0,0,0,0,0,0,0,0,0,0,0,0,0,0,0,0,
0,0,0,0,0,0,0,0,0,0,0,0,0,0,0,0,0,0,0,0,0,0,0,0,0,0,0,0,0,0,0,0,0,0,0,0,0,0,0,0,0,0,0,0,0,0,0,0,0,0,0,0,0,0,0,0,0,0,0,0,0,0,0,0,0,0,0,0,0,0,0,0,
0,0,0,0,0,0,0,0,0,0,0,0,0,0,0,0,0,0,0,0,0,0,0,0,0,0,0,0,0,0,0,0,0,0,0,0,0,0,0,0,0,0,0,0,0,0,0,0,0,0,0,0,0,0,0,0,0,0,0,0,0,0,0,0,0,0,0,0,0,0,0,0,
0,0,0,0,0,0,0,0,0,0,0,0,0,0,0,0,0,0,0,0,0,0,0,0,0,0,0,0,0,0,0,0,0,0,0,0,0,0,0,0,0,0,0,0,0,0,0,0,0,0,0,0,0,0,0,0,0,0,0,0,0,0,0,0,0,0,0,0,0,0,0,0,
0,0,0,0,0,0,0,0,0,0,0,0,0,0,0,0,0,0,0,0,0,0,0,0,0,0,0,0,0,0,0,0,0,0,0,0,0,0,0,0,0,0,0,0,0,0,0,0,0,0,0,0,0,0,0,0,0,0,0,0,0,0,0,0,0,0,0,0,0,0,0,0,
0,0,0,0,0,0,0,0,0,0,0,0,0,0,0,0,0,0,0,0,0,0,0,0,0,0,0,0,0,0,0,0,0,0,0,0,0,0,0,0,0,0,0,0,0,0,0,0,0,0,0,0,0,0,0,0,0,0,0,0,0,0,0,0,0,0,0,0,0,0,0,0,
0,0,0,0,0,0,0,0,0,0,0,0,0,0,0,0,0,0,0,0,0,0,0,0,0,0,0,0,0,0,0,0,0,0,0,0,0,0,0,0,0,0,0,0,0,0,0,0,0,0,0,0,0,0,0,0,0,0,0,0,0,0,0,0,0,0,0,0,0,0,0,0,
0,0,0,0,0,0,0,0,0,0,0,0,0,0,0,0,0,0,0,0,0,0,0,0,0,0,0,0,0,0,0,0,0,0,0,0,0,0,0,0,0,0,0,0,0,0,0,0,0,0,0,0,0,0,0,0,0,0,0,0,0,0,0,0,0,0,0,0,0,0,0,0,
0,0,0,0,0,0,0,0,0,0,0,0,0,0,0,0,0,0,0,0,0,0,0,0,0,0,0,0,0,0,0,0,0,0,0,0,0,0,0,0,0,0,0,0,0,0,0,0,0,0,0,0,0,0,0,0,0,0,0,0,0,0,0,0,0,0,0,0,0,0,0,0,
0,0,0,0,0,0,0,0,0,0,0,0,0,0,0,0,0,0,0,0,0,0,0,0,0,0,0,0,0,0,0,0,0,0,0,0,0,0,0,0,0,0,0,0,0,0,0,0,0,0,0,0,0,0,0,0,0,0,0,0,0,0,0,0,0,0,0,0,0,0,0,0,
0,0,0,0,0,0,0,0,0,0,0,0,0,0,0,0,0,0,0,0,0,0,0,0,0,0,0,0,0,0,0,0,0,0,0,0,0,0,0,0,0,0,0,0,0,0,0,0,0,0,0,0,0,0,0,0,0,0,0,0,0,0,0,0,0,0,0,0,0,0,0,0,
0,0,0,0,0,0,0,0,0,0,0,0,0,0,0,0,0,0,0,0,0,0,0,0,0,0,0,0,0,0,0,0,0,0,0,0,0,0,0,0,0,0,0,0,0,0,0,0,0,0,0,0,0,0,0,0,0,0,0,0,0,0,0,0,0,0,0,0,0,0,0,0,
0,0,0,0,0,0,0,0,0,0,0,0,0,0,0,0,0,0,0,0,0,0,0,0,0,0,0,0,0,0,0,0,0,0,0,0,0,0,0,0,0,0,0,0,0,0,0,0,0,0,0,0,0,0,0,0,0,0,0,0,0,0,0,0,0,0,0,0,0,0,0,0,
0,0,0,0,0,0,0,0,0,0,0,0,0,0,0,0,0,0,0,0,0,0,0,0,0,0,0,0,0,0,0,0,0,0,0,0,0,0,0,0,0,0,0,0,0,0,0,0,0,0,0,0,0,0,0,0,0,0,0,0,0,0,0,0,0,0,0,0,0,0,0,0,
0,0,0,0,0,0,0,0,0,0,0,0,0,0,0,0,0,0,0,0,0,0,0,0,0,0,0,0,0,0,0,0,0,0,0,0,0,0,0,0,0,0,0,0,0,0,0,0,0,0,0,0,0,0,0,0,0,0,0,0,0,0,0,0,0,0,0,0,0,0,0,0,
0,0,0,0,0,0,0,0,0,0,0,0,0,0,0,0,0,0,0,0,0,0,0,0,0,0,0,0,0,0,0,0,0,0,0,0,0,0,0,0,0,0,0,0,0,0,0,0,0,0,0,0,0,0,0,0,0,0,0,0,0,0,0,0,0,0,0,0,0,0,0,0,
0,0,0,0,0,0,0,0,0,0,0,0,0,0,0,0,0,0,0,0,0,0,0,0,0,0,0,0,0,0,0,0,0,0,0,0,0,0,0,0,0,0,0,0,0,0,0,0,0,0,0,0,0,0,0,0,0,0,0,0,0,0,0,0,0,0,0,0,0,0,0,0,
0,0,0,0,0,0,0,0,0,0,0,0,0,0,0,0,0,0,0,0,0,0,0,0,0,0,0,0,0,0,0,0,0,0,0,0,0,0,0,0,0,0,0,0,0,0,0,0,0,0,0,0,0,0,0,0,0,0,0,0,0,0,0,0,0,0,0,0,0,0,0,0,
0,0,0,0,0,0,0,0,0,0,0,0,0,0,0,0,0,0,0,0,0,0,0,0,0,0,0,0,0,0,0,0,0,0,0,0,0,0,0,0,0,0,0,0,0,0,0,0,0,0,0,0,0,0,0,0,0,0,0,0,0,0,0,0,0,0,0,0,0,0,0,0,
0,0,0,0,0,0,0,0,0,0,0,0,0,0,0,0,0,0,0,0,0,0,0,0,0,0,0,0,0,0,0,0,0,0,0,0,0,0,0,0,0,0,0,0,0,0,0,0,0,0,0,0,0,0,0,0,0,0,0,0,0,0,0,0,0,0,0,0,0,0,0,0,
0,0,0,0,0,0,0,0,0,0,0,0,0,0,0,0,0,0,0,0,0,0,0,0,0,0,0,0,0,0,0,0,0,0,0,0,0,0,0,0,0,0,0,0,0,0,0,0,0,0,0,0,0,0,0,0,0,0,0,0,0,0,0,0,0,0,0,0,0,0,0,0
</data>
 </layer>
 <layer id="6" name="Collision" width="72" height="56">
  <data encoding="csv">
7201,7202,7202,7201,7201,7202,7201,7201,7202,7201,7202,7201,7201,7202,7201,7201,7201,7201,7201,7201,7201,7201,7201,7202,7201,7201,7202,7202,7201,7201,7201,7202,7201,7202,7201,7202,7201,7201,7202,7201,7201,7202,7201,7201,7202,7201,7202,7202,7201,7201,7201,7201,7201,7202,7201,7201,7202,7201,7202,7201,7201,7201,7201,7202,7201,7202,7201,7202,7201,7202,7201,7201,
7201,7201,7201,7201,7201,7201,7201,7201,7201,7201,7201,7201,7201,7201,7201,7201,7201,7201,7201,7201,7201,7201,7201,7201,7201,7201,7202,7201,7201,7202,7201,7201,7201,7201,7201,7201,7202,7201,7202,7201,7201,7201,7201,7201,7201,7201,7201,7201,7201,7201,7201,7202,7201,7202,7201,7201,7202,7201,7201,7201,7202,7201,7201,7201,7202,7201,7202,7201,7201,7201,7201,7201,
7201,7202,7201,7201,7202,7201,7202,7201,7201,7202,7202,7201,7201,7201,7201,7201,7201,7201,7201,7201,7201,7202,7201,7202,7201,7201,7201,7201,7201,7201,7202,7201,7201,7202,7201,7201,7201,7201,7201,7201,7201,7202,7201,7201,7202,7201,7201,7202,7201,7202,7201,7202,7201,7201,7201,7201,7201,7201,7202,7201,7201,7201,7201,7201,7201,7201,7201,7201,7202,7201,7201,7201,
7202,7201,7201,7201,7201,7201,7201,7201,7202,7201,7202,7201,7201,7202,7201,7201,7201,7201,7201,7201,7201,7201,7202,7201,7202,7201,7201,7201,7201,7201,7201,7201,7201,7201,7201,7201,7201,7202,7201,7201,7201,7201,7201,7201,7201,7202,7201,7201,7202,7202,7201,7201,7202,7201,7201,7201,7202,7201,7201,7201,7201,7201,7201,7201,7201,7201,7201,7201,7201,7202,7201,7201,
7201,7201,7201,7202,7201,7202,7201,7201,7201,7201,7201,7201,7201,7201,7201,7201,7201,7201,7201,7201,7201,7201,7201,7201,7201,7201,7202,7201,7201,7202,7201,7201,7202,7201,7201,7201,7202,7201,7201,7202,7201,7201,7201,7201,7202,7201,7201,7201,7201,7201,7201,7201,7201,7201,7201,7201,7201,7202,7201,7202,7201,7201,7201,7202,7201,7202,7201,7202,7201,7201,7201,7201,
7201,7202,7202,7202,7201,7201,7201,7201,7201,7201,7201,7201,7202,7202,7201,7201,7201,7201,7201,7202,7202,7201,7201,7201,7201,7201,7201,7201,7201,7201,7202,7201,7201,7201,7201,7201,7201,7202,7201,7201,7201,7201,7201,7201,7201,7201,7201,7201,7201,7201,7201,7201,7201,7201,7202,7201,7201,7201,7201,7201,7201,7201,7201,7201,7201,7201,7201,7201,7201,7201,7201,7201,
7201,7201,7201,7201,7201,7202,7202,7202,7201,7202,7202,7202,7201,7201,7201,7201,7201,7201,7201,7201,7201,7201,7202,7202,7202,7201,7202,7202,7202,7202,7202,7202,7201,7202,7202,7201,7201,7202,7202,7202,7201,7202,7202,7202,7201,7202,7202,7202,7201,7202,7202,7202,7201,7202,7202,7202,7202,7202,7202,7201,7202,7202,7202,7201,7202,7202,7202,7201,7202,7202,7202,7201,
7201,7201,7201,7201,7201,7201,7201,7201,7201,7201,7201,7201,7201,7201,7201,7201,7201,7201,7201,7201,7201,7201,7201,7201,7201,7201,7201,7201,7201,7201,7201,7201,7201,7201,7201,7202,7202,7201,7202,7201,7201,7201,7201,7201,7201,7201,7201,7201,7201,7201,7201,7201,7201,7201,7201,7201,7201,7201,7201,7201,7201,7201,7201,7201,7201,7201,7201,7201,7201,7201,7201,7201,
7201,7201,7201,7201,7201,7201,7201,7201,7201,7201,7201,7201,7201,7201,7201,7201,7201,7201,7201,7201,7201,7201,7201,7201,7201,7201,7201,7201,7201,7201,7201,7202,7201,7202,7202,7202,7202,7202,7201,7201,7201,7202,7201,7201,7201,7201,7201,7201,7201,7201,7201,7201,7201,7201,7201,7201,7201,7201,7201,7201,7201,7201,7201,7201,7201,7202,7201,7201,7201,7201,7201,7201,
7201,7202,7201,7202,7201,7201,7201,7201,7201,7201,7201,7201,7201,7201,7201,7201,7201,7201,7201,7201,7201,7201,7201,7201,7201,7201,7201,7201,7202,7201,7201,7202,7202,7202,7202,7202,7202,7202,7202,7202,7202,7201,7201,7201,7201,7201,7201,7201,7201,7201,7201,7201,7201,7201,7201,7201,7201,7201,7201,7201,7201,7201,7201,7201,7201,7201,7201,7201,7201,7201,7201,7201,
7201,7201,7201,7202,7201,7201,7201,7201,7201,7201,7201,7201,7201,7201,7201,7201,7201,7201,7201,7201,7201,7201,7201,7201,7201,7201,7201,7201,7201,7202,7202,7202,7202,7202,7202,7202,7202,7202,7202,7202,7202,7202,7202,7202,7201,7201,7201,7201,7201,7201,7201,7201,7201,7201,7201,7201,7201,7201,7201,7201,7201,7201,7201,7201,7201,7201,7201,7201,7201,7202,7201,7201,
7202,7201,7201,7201,7201,7201,7201,7201,7201,7201,7201,7201,7201,7201,7201,7201,7201,7201,7201,7201,7201,7201,7201,7201,7201,7201,7201,7202,7202,7202,7202,7202,7202,7202,7202,7202,7202,7202,7202,7202,7202,7202,7201,7201,7201,7201,7201,7201,7201,7201,7201,7201,7201,7201,7201,7201,7201,7201,7201,7202,7201,7201,7201,7201,7201,7201,7201,7201,7201,7201,7201,7201,
7202,7201,7201,7202,7201,7201,7201,7201,7201,7202,7202,7202,7201,7201,7201,7201,7201,7201,7201,7202,7202,7202,7202,7202,7202,7202,7202,7201,7202,7202,7202,7202,7202,7202,7202,7202,7202,7202,7202,7202,7202,7202,7202,7201,7201,7201,7201,7201,7201,7201,7201,7201,7201,7201,7201,7201,7202,7201,7201,7202,7201,7201,7201,7201,7201,7201,7201,7201,7201,7201,7202,7201,
7201,7201,7201,7201,7201,7201,7201,7201,7201,7202,7202,7202,7202,7201,7201,7201,7201,7201,7201,7202,7202,7202,7202,7202,7202,7202,7201,7202,7202,7202,7202,7202,7202,7202,7202,7202,7202,7202,7202,7202,7202,7202,7202,7202,7202,7202,7202,7202,7201,7201,7201,7201,7201,7201,7202,7201,7201,7201,7201,7201,7201,7201,7201,7201,7201,7202,7201,7201,7201,7201,7201,7201,
7202,7201,7201,7202,7201,7201,7201,7201,7202,7202,7202,7202,7202,7201,7201,7201,7201,7201,7201,7202,7202,7201,7202,7202,7201,7202,7202,7202,7202,7202,7202,7202,7202,7202,7202,7202,7202,7202,7202,7202,7202,7202,7202,7202,7202,7201,7202,7202,7201,7202,7202,7202,7202,7202,7201,7201,7201,7201,7201,7201,7201,7201,7201,7201,7201,7201,7201,7201,7201,7202,7201,7201,
7201,7201,7201,7201,7201,7201,7201,7202,7201,7201,7201,7201,7202,7201,7201,7201,7201,7201,7201,7201,7202,7201,7202,7202,7201,7202,7202,7201,7201,7201,7202,7202,7202,7201,7201,7201,7202,7201,7202,7202,7202,7202,7201,7202,7201,7201,7202,7202,7201,7202,7202,7202,7202,7202,7201,7201,7201,7201,7201,7201,7201,7202,7201,7201,7201,7201,7201,7201,7202,7201,7201,7202,
7201,7202,7201,7201,7201,7201,7201,7201,7201,7201,7201,7201,7201,7201,7201,7201,7201,7201,7201,7201,7201,7201,7201,7201,7201,7201,7201,7201,7201,7201,7201,7201,7201,7202,7201,7201,7201,7202,7201,7201,7201,7201,7201,7201,7201,7201,7201,7201,7201,7201,7201,7201,7201,7201,7202,7202,7201,7202,7201,7201,7201,7201,7201,7201,7201,7201,7201,7201,7201,7201,7201,7201,
7201,7202,7201,7201,7201,7201,7201,7201,7201,7201,7201,7201,7201,7201,7201,7201,7201,7201,7201,7201,7201,7201,7201,7201,7201,7201,7201,7201,7202,7201,7202,7201,7202,7201,7201,7201,7201,7202,7201,7202,7202,7202,7201,7201,7201,7201,7201,7201,7201,7201,7201,7201,7202,7202,7201,7201,7201,7201,7201,7201,7201,7201,7201,7201,7201,7202,7201,7201,7201,7201,7201,7202,
7201,7202,7201,7201,7201,7201,7201,7201,7201,7201,7201,7201,7201,7201,7201,7201,7201,7201,7201,7201,7201,7201,7201,7201,7201,7201,7201,7201,7201,7201,7201,7201,7201,7201,7201,7201,7201,7201,7201,7201,7201,7201,7201,7201,7201,7201,7201,7201,7201,7201,7201,7201,7201,7201,7201,7201,7201,7201,7202,7202,7202,7201,7201,7201,7201,7201,7202,7201,7202,7201,7201,7201,
7202,7201,7201,7201,7201,7201,7201,7201,7201,7201,7201,7201,7201,7201,7201,7201,7201,7201,7201,7201,7201,7201,7201,7201,7201,7201,7201,7201,7201,7201,7201,7201,7201,7201,7201,7201,7201,7201,7201,7201,7201,7201,7201,7201,7201,7201,7201,7201,7201,7201,7201,7201,7201,7201,7201,7201,7201,7201,7201,7201,7202,7201,7201,7201,7201,7201,7201,7201,7201,7201,7201,7201,
7201,7201,7202,7201,7201,7201,7201,7201,7201,7201,7201,7201,7201,7201,7201,7201,7201,7201,7201,7201,7201,7201,7201,7201,7201,7201,7201,7201,7201,7201,7201,7201,7201,7201,7201,7201,7201,7201,7201,7201,7201,7201,7201,7201,7201,7201,7201,7201,7201,7201,7201,7201,7201,7201,7201,7201,7201,7202,7201,7201,7201,7201,7202,7201,7201,7201,7201,7201,7201,7202,7201,7201,
7201,7201,7201,7201,7202,7201,7201,7201,7201,7201,7201,7201,7201,7201,7201,7201,7201,7201,7201,7201,7201,7201,7201,7201,7201,7201,7201,7201,7201,7201,7201,7201,7201,7201,7201,7201,7201,7201,7201,7201,7201,7201,7201,7201,7201,7201,7201,7201,7201,7201,7201,7201,7201,7201,7201,7201,7201,7201,7201,7201,7201,7201,7201,7201,7201,7201,7202,7201,7201,7201,7201,7201,
7201,7202,7201,7201,7201,7201,7202,7202,7202,7202,7201,7201,7201,7201,7201,7201,7201,7201,7201,7201,7201,7201,7201,7201,7201,7201,7201,7201,7201,7201,7201,7201,7201,7201,7201,7201,7201,7201,7201,7201,7201,7201,7201,7201,7201,7201,7201,7201,7201,7201,7201,7201,7201,7201,7201,7201,7201,7201,7201,7201,7201,7201,7201,7201,7201,7201,7201,7201,7201,7202,7201,7201,
7202,7201,7201,7201,7202,7202,7202,7202,7202,7202,7202,7201,7201,7201,7201,7201,7201,7201,7201,7201,7201,7201,7201,7202,7202,7202,7201,7202,7202,7201,7201,7201,7201,7201,7201,7201,7201,7201,7201,7201,7201,7201,7201,7201,7201,7201,7201,7201,7201,7201,7201,7201,7201,7201,7201,7201,7201,7201,7201,7201,7201,7201,7201,7201,7201,7201,7201,7202,7201,7202,7201,7201,
7201,7201,7201,7201,7201,7201,7201,7201,7201,7201,7201,7201,7201,7201,7201,7201,7201,7201,7201,7201,7201,7201,7201,7201,7201,7201,7201,7201,7201,7201,7201,7201,7201,7201,7201,7201,7201,7201,7201,7201,7201,7201,7201,7201,7201,7201,7201,7201,7201,7201,7201,7201,7201,7201,7201,7201,7201,7202,7201,7201,7201,7201,7202,7201,7201,7201,7201,7201,7201,7201,7201,7201,
7201,7201,7201,7201,7201,7201,7201,7201,7201,7201,7201,7201,7201,7201,7201,7201,7201,7201,7201,7201,7201,7201,7201,7201,7201,7201,7201,7201,7201,7201,7201,7201,7201,7202,7202,7201,7201,7201,7201,7201,7201,7201,7201,7201,7201,7201,7201,7201,7201,7201,7201,7201,7201,7201,7201,7201,7201,7201,7201,7201,7201,7201,7201,7201,7201,7201,7201,7201,7201,7201,7201,7202,
7201,7201,7201,7201,7201,7201,7201,7201,7201,7201,7201,7201,7201,7201,7201,7201,7201,7201,7201,7201,7201,7201,7201,7201,7201,7201,7201,7201,7201,7202,7202,7202,7201,7201,7201,7201,7201,7202,7202,7202,7201,7201,7201,7201,7201,7201,7201,7201,7201,7201,7201,7201,7201,7201,7201,7201,7201,7201,7201,7201,7201,7201,7201,7201,7201,7201,7201,7201,7201,7201,7201,7201,
7201,7201,7202,7201,7201,7201,7201,7201,7201,7201,7201,7201,7201,7201,7201,7201,7201,7201,7201,7201,7202,7202,7201,7201,7201,7201,7201,7201,7201,7201,7201,7201,7201,7201,7201,7201,7201,7201,7201,7201,7201,7201,7201,7201,7201,7201,7201,7201,7201,7201,7201,7201,7201,7201,7201,7201,7201,7201,7201,7201,7201,7201,7201,7201,7201,7201,7201,7201,7201,7201,7201,7201,
7202,7201,7201,7201,7201,7201,7201,7201,7201,7201,7201,7201,7201,7201,7201,7201,7201,7201,7201,7201,7201,7201,7202,7202,7202,7202,7201,7201,7201,7201,7201,7201,7201,7201,7201,7201,7201,7201,7201,7201,7201,7201,7201,7201,7201,7201,7201,7201,7201,7201,7201,7201,7201,7201,7201,7201,7201,7201,7201,7201,7201,7201,7201,7201,7201,7201,7201,7201,7201,7201,7201,7201,
7201,7201,7201,7201,7201,7201,7201,7201,7201,7201,7201,7201,7201,7201,7201,7201,7201,7201,7201,7201,7201,7201,7201,7201,7201,7201,7201,7201,7201,7201,7202,7202,7201,7201,7202,7201,7202,7201,7201,7201,7201,7201,7201,7201,7201,7201,7201,7201,7201,7201,7201,7201,7201,7201,7201,7201,7201,7201,7201,7201,7201,7201,7201,7201,7201,7201,7201,7201,7201,7201,7201,7201,
7201,7201,7201,7201,7201,7201,7201,7201,7201,7201,7201,7201,7201,7201,7201,7201,7201,7201,7201,7201,7201,7201,7201,7201,7201,7201,7201,7201,7201,7201,7201,7201,7201,7201,7201,7201,7201,7201,7201,7201,7201,7201,7201,7201,7201,7201,7201,7201,7201,7201,7201,7201,7201,7201,7201,7201,7201,7201,7201,7201,7201,7201,7201,7201,7201,7201,7201,7201,7201,7201,7201,7201,
7201,7201,7201,7201,7201,7201,7201,7201,7201,7201,7201,7201,7201,7201,7201,7201,7201,7201,7201,7201,7201,7201,7201,7201,7201,7201,7201,7201,7201,7201,7201,7201,7201,7201,7201,7201,7201,7201,7201,7201,7201,7201,7201,7201,7201,7201,7201,7201,7201,7201,7201,7201,7201,7201,7201,7201,7201,7201,7201,7201,7201,7201,7201,7201,7201,7201,7201,7201,7201,7201,7201,7201,
7201,7201,7201,7201,7201,7201,7201,7201,7201,7201,7201,7201,7201,7201,7201,7201,7201,7201,7201,7201,7201,7201,7201,7201,7201,7201,7201,7201,7201,7201,7201,7201,7201,7201,7201,7201,7201,7201,7201,7201,7201,7201,7201,7201,7201,7201,7201,7201,7201,7201,7201,7201,7201,7201,7201,7201,7201,7201,7201,7201,7201,7201,7201,7201,7201,7201,7201,7201,7202,7201,7202,7201,
7201,7201,7201,7201,7201,7201,7201,7201,7201,7201,7201,7201,7201,7201,7201,7201,7201,7201,7201,7201,7201,7201,7201,7201,7201,7201,7201,7201,7201,7201,7201,7201,7201,7201,7201,7201,7201,7201,7201,7201,7201,7201,7201,7201,7201,7201,7201,7201,7201,7201,7201,7201,7201,7201,7201,7201,7201,7201,7201,7201,7201,7201,7201,7201,7201,7201,7201,7201,7201,7201,7201,7201,
7202,7201,7201,7201,7201,7201,7201,7201,7201,7201,7201,7201,7201,7201,7201,7201,7201,7201,7201,7201,7201,7201,7201,7201,7201,7201,7201,7201,7201,7201,7201,7201,7201,7201,7201,7201,7201,7201,7201,7201,7201,7201,7201,7201,7201,7201,7201,7201,7201,7201,7201,7201,7201,7201,7201,7202,7202,7201,7202,7202,7201,7201,7201,7201,7201,7201,7201,7201,7202,7202,7201,7201,
7201,7201,7201,7201,7201,7201,7201,7201,7201,7201,7201,7201,7201,7201,7201,7201,7201,7201,7201,7201,7201,7201,7201,7201,7201,7201,7201,7201,7201,7201,7201,7201,7201,7201,7201,7201,7201,7201,7201,7201,7201,7201,7201,7201,7201,7201,7201,7201,7201,7201,7201,7201,7201,7201,7201,7201,7201,7201,7201,7201,7201,7201,7201,7201,7201,7201,7201,7201,7202,7201,7201,7201,
7201,7201,7201,7201,7201,7201,7201,7201,7201,7201,7201,7201,7201,7201,7201,7201,7201,7201,7201,7201,7201,7201,7201,7201,7201,7201,7201,7201,7201,7201,7201,7201,7201,7201,7201,7201,7201,7201,7201,7201,7201,7201,7201,7201,7201,7201,7201,7201,7201,7201,7201,7201,7201,7201,7201,7201,7201,7201,7201,7201,7201,7201,7201,7201,7201,7201,7201,7201,7201,7201,7201,7202,
7201,7201,7201,7201,7201,7201,7201,7201,7201,7201,7201,7201,7201,7201,7201,7201,7201,7201,7201,7201,7201,7201,7201,7201,7201,7201,7201,7201,7201,7201,7201,7201,7202,7201,7201,7201,7201,7201,7201,7201,7201,7201,7201,7201,7201,7201,7201,7201,7201,7201,7201,7201,7201,7201,7201,7202,7201,7201,7201,7202,7201,7201,7201,7201,7201,7201,7201,7201,7201,7201,7201,7202,
7202,7201,7201,7201,7201,7201,7201,7201,7201,7201,7201,7201,7201,7201,7201,7201,7202,7201,7201,7201,7201,7202,7201,7201,7201,7202,7202,7202,7201,7201,7201,7201,7201,7201,7201,7201,7201,7201,7201,7201,7201,7201,7201,7201,7201,7201,7201,7201,7201,7201,7201,7201,7201,7201,7201,7201,7201,7201,7201,7201,7201,7201,7201,7201,7201,7201,7201,7201,7201,7201,7201,7201,
7201,7201,7201,7201,7201,7201,7201,7201,7201,7201,7201,7201,7201,7201,7201,7201,7201,7201,7201,7201,7201,7201,7201,7202,7202,7201,7201,7202,7201,7201,7201,7201,7201,7201,7201,7201,7201,7201,7201,7201,7201,7201,7201,7201,7201,7201,7201,7201,7201,7201,7201,7201,7201,7201,7201,7201,7201,7201,7201,7201,7201,7201,7201,7201,7201,7201,7201,7201,7201,7202,7201,7201,
7201,7202,7201,7201,7201,7201,7201,7201,7201,7201,7201,7201,7201,7201,7201,7201,7201,7201,7201,7201,7202,7201,7201,7201,7202,7202,7201,7201,7202,7202,7201,7201,7201,7201,7202,7201,7201,7201,7201,7201,7201,7201,7201,7201,7201,7201,7201,7201,7201,7201,7201,7201,7201,7201,7201,7202,7201,7201,7201,7202,7201,7201,7201,7201,7201,7201,7201,7201,7201,7201,7201,7202,
7201,7202,7201,7201,7201,7201,7201,7201,7201,7201,7201,7201,7201,7201,7201,7201,7201,7201,7201,7201,7201,7201,7201,7201,7202,7201,7201,7201,7201,7201,7201,7201,7201,7201,7201,7201,7201,7201,7201,7201,7201,7201,7201,7201,7201,7201,7201,7201,7201,7201,7201,7201,7201,7201,7201,7201,7201,7201,7201,7201,7201,7201,7201,7201,7201,7201,7201,7201,7201,7201,7201,7202,
7201,7201,7202,7201,7201,7201,7202,7201,7201,7201,7201,7201,7201,7201,7201,7201,7201,7201,7201,7201,7201,7201,7201,7201,7201,7201,7202,7201,7201,7201,7201,7201,7201,7201,7201,7201,7201,7201,7201,7201,7201,7201,7201,7201,7201,7201,7201,7201,7201,7201,7201,7201,7201,7201,7201,7202,7201,7201,7201,7202,7201,7201,7201,7201,7202,7201,7201,7202,7201,7201,7201,7201,
7201,7201,7201,7201,7201,7201,7201,7201,7201,7201,7201,7201,7201,7201,7201,7201,7201,7202,7201,7201,7201,7201,7201,7201,7201,7201,7201,7201,7201,7202,7201,7201,7201,7202,7201,7201,7201,7201,7201,7201,7201,7201,7201,7201,7201,7201,7201,7201,7201,7201,7201,7201,7201,7201,7201,7201,7201,7201,7201,7201,7201,7201,7201,7201,7201,7201,7201,7201,7201,7201,7201,7201,
7202,7201,7201,7201,7201,7201,7201,7201,7201,7201,7201,7201,7201,7201,7201,7201,7201,7201,7201,7201,7201,7201,7201,7201,7201,7201,7201,7201,7201,7201,7201,7201,7201,7201,7201,7201,7201,7201,7201,7201,7201,7201,7201,7201,7201,7201,7201,7201,7201,7201,7201,7201,7201,7201,7201,7201,7201,7201,7201,7201,7201,7201,7201,7201,7201,7201,7201,7201,7201,7201,7202,7201,
7201,7201,7202,7201,7201,7201,7202,7201,7201,7201,7202,7201,7201,7201,7201,7201,7201,7201,7201,7201,7202,7201,7201,7201,7201,7201,7202,7201,7202,7201,7201,7201,7201,7201,7201,7201,7201,7201,7201,7201,7201,7201,7201,7201,7201,7201,7201,7201,7201,7201,7201,7201,7201,7201,7201,7201,7201,7201,7201,7201,7201,7201,7201,7201,7201,7201,7201,7201,7201,7201,7201,7201,
7201,7202,7201,7201,7201,7201,7201,7201,7201,7201,7201,7201,7202,7201,7201,7202,7201,7201,7201,7201,7201,7201,7201,7201,7201,7201,7201,7201,7201,7201,7202,7201,7201,7201,7201,7201,7201,7201,7201,7201,7201,7201,7201,7201,7201,7201,7201,7201,7201,7201,7201,7201,7201,7201,7201,7201,7201,7201,7202,7201,7201,7201,7201,7201,7201,7201,7201,7202,7201,7201,7201,7201,
7201,7201,7201,7201,7201,7201,7201,7201,7201,7201,7201,7201,7201,7201,7201,7201,7201,7201,7201,7201,7201,7201,7201,7201,7201,7201,7201,7201,7201,7201,7201,7201,7201,7201,7201,7201,7201,7201,7201,7201,7201,7201,7201,7201,7201,7201,7201,7201,7201,7201,7201,7201,7201,7201,7201,7201,7201,7201,7201,7201,7201,7201,7201,7201,7201,7201,7201,7201,7201,7201,7201,7201,
7202,7201,7201,7201,7201,7201,7201,7201,7201,7201,7201,7201,7202,7201,7201,7201,7201,7201,7201,7201,7201,7202,7201,7201,7202,7201,7201,7201,7201,7201,7201,7201,7201,7201,7201,7201,7201,7201,7201,7201,7201,7201,7201,7201,7201,7201,7201,7201,7201,7201,7201,7201,7201,7201,7201,7201,7201,7201,7201,7201,7201,7201,7201,7201,7201,7201,7201,7201,7201,7201,7201,7202,
7201,7201,7201,7201,7201,7201,7201,7201,7201,7201,7201,7201,7201,7201,7201,7201,7201,7201,7201,7201,7201,7201,7201,7201,7201,7201,7201,7201,7201,7201,7201,7201,7201,7202,7201,7201,7201,7201,7201,7201,7201,7201,7201,7201,7201,7201,7201,7201,7201,7201,7201,7201,7201,7201,7201,7201,7201,7201,7201,7201,7201,7201,7201,7201,7201,7201,7201,7201,7201,7201,7201,7202,
7201,7202,7201,7201,7201,7201,7201,7201,7201,7201,7201,7201,7201,7201,7201,7201,7201,7201,7201,7201,7201,7201,7201,7201,7202,7201,7201,7201,7201,7201,7201,7201,7201,7201,7201,7201,7201,7201,7201,7201,7201,7201,7201,7201,7201,7201,7201,7201,7201,7201,7201,7201,7201,7201,7201,7201,7201,7201,7201,7201,7201,7201,7201,7201,7201,7201,7201,7201,7201,7201,7201,7201,
7202,7201,7201,7201,7201,7201,7201,7201,7201,7201,7201,7201,7201,7201,7201,7201,7201,7202,7201,7201,7201,7201,7201,7201,7201,7201,7201,7201,7202,7201,7201,7201,7201,7201,7201,7201,7201,7201,7201,7201,7201,7201,7201,7201,7201,7201,7201,7201,7201,7201,7201,7201,7201,7201,7201,7201,7201,7201,7201,7201,7201,7201,7201,7201,7201,7201,7201,7201,7201,7201,7202,7201,
7201,7201,7201,7201,7201,7202,7201,7201,7202,7201,7201,7201,7201,7201,7201,7201,7201,7201,7201,7201,7201,7201,7201,7201,7201,7201,7201,7201,7202,7201,7201,7201,7201,7201,7201,7202,7201,7201,7201,7201,7201,7201,7201,7201,7201,7202,7201,7201,7201,7201,7201,7201,7201,7201,7201,7201,7201,7201,7201,7201,7201,7201,7201,7201,7201,7201,7201,7201,7201,7202,7201,7201,
7201,7202,7201,7201,7201,7202,7201,7201,7201,7201,7201,7201,7202,7202,7201,7201,7202,7201,7202,7201,7201,7202,7201,7201,7202,7201,7202,7201,7201,7201,7201,7201,7201,7201,7201,7201,7201,7202,7201,7202,7201,7201,7201,7201,7201,7201,7201,7201,7201,7202,7201,7201,7201,7201,7201,7201,7201,7201,7201,7201,7201,7201,7201,7201,7201,7201,7201,7201,7201,7201,7201,7202,
7202,7201,7201,7201,7201,7201,7201,7201,7201,7201,7201,7202,7201,7202,7201,7202,7201,7201,7202,7201,7201,7201,7201,7201,7201,7201,7201,7202,7201,7201,7202,7201,7201,7201,7201,7201,7201,7202,7201,7201,7201,7201,7201,7202,7202,7201,7201,7201,7201,7201,7202,7201,7201,7202,7201,7201,7201,7201,7201,7201,7202,7201,7201,7201,7202,7201,7201,7201,7201,7202,7201,7201,
7201,7201,7201,7202,7201,7201,7202,7201,7202,7201,7201,7201,7201,7202,7201,7201,7201,7201,7201,7202,7201,7201,7201,7202,7202,7201,7201,7201,7201,7201,7201,7201,7201,7201,7201,7202,7201,7201,7201,7201,7202,7201,7201,7201,7201,7201,7201,7201,7202,7201,7201,7201,7201,7201,7201,7201,7201,7202,7201,7201,7201,7201,7202,7201,7201,7201,7201,7202,7201,7201,7201,7201
</data>
 </layer>
 <objectgroup id="7" name="Scenery">
  <object id="1" gid="7258" x="918" y="-1" width="64" height="64" />
  <object id="2" gid="2147490906" x="896" y="1" width="64" height="64" />
  <object id="3" gid="7253" x="826" y="2" width="64" height="64" />
  <object id="4" gid="2147490901" x="866" y="2" width="64" height="64" />
  <object id="5" gid="2147490901" x="1082" y="3" width="64" height="64" />
  <object id="6" gid="7332" x="60" y="4" width="64" height="64" />
  <object id="7" gid="2147490915" x="188" y="4" width="64" height="64" />
  <object id="8" gid="7257" x="385" y="4" width="64" height="64" />
  <object id="9" gid="2147490980" x="415" y="4" width="64" height="64" />
  <object id="10" gid="7265" x="496" y="4" width="64" height="64" />
  <object id="11" gid="7253" x="533" y="4" width="64" height="64" />
  <object id="12" gid="7253" x="136" y="5" width="64" height="64" />
  <object id="13" gid="2147490913" x="345" y="6" width="64" height="64" />
  <object id="14" gid="2147490913" x="107" y="7" width="64" height="64" />
  <object id="15" gid="7258" x="467" y="7" width="64" height="64" />
  <object id="16" gid="2147490901" x="579" y="7" width="64" height="64" />
  <object id="17" gid="7265" x="625" y="7" width="64" height="64" />
  <object id="18" gid="7258" x="707" y="7" width="64" height="64" />
  <object id="19" gid="7258" x="728" y="7" width="64" height="64" />
  <object id="20" gid="7253" x="10" y="8" width="64" height="64" />
  <object id="21" gid="7265" x="988" y="9" width="64" height="64" />
  <object id="22" gid="7253" x="672" y="14" width="64" height="64" />
  <object id="23" gid="2147490901" x="1054" y="14" width="64" height="64" />
  <object id="24" gid="2147490906" x="-15" y="16" width="64" height="64" />
  <object id="25" gid="7255" x="1009" y="16" width="64" height="64" />
  <object id="26" gid="2147490980" x="790" y="19" width="64" height="64" />
  <object id="27" gid="2147490980" x="872" y="26" width="64" height="64" />
  <object id="28" gid="2147490913" x="937" y="27" width="64" height="64" />
  <object id="29" gid="2147490901" x="447" y="29" width="64" height="64" />
  <object id="30" gid="7253" x="545" y="30" width="64" height="64" />
  <object id="31" gid="2147490901" x="590" y="30" width="64" height="64" />
  <object id="32" gid="7257" x="1035" y="30" width="64" height="64" />
  <object id="33" gid="2147490980" x="994" y="31" width="64" height="64" />
  <object id="34" gid="2147490901" x="392" y="32" width="64" height="64" />
  <object id="35" gid="7253" x="819" y="32" width="64" height="64" />
  <object id="36" gid="2147490906" x="725" y="33" width="64" height="64" />
  <object id="37" gid="7258" x="1063" y="33" width="64" height="64" />
  <object id="38" gid="2147490915" x="138" y="37" width="64" height="64" />
  <object id="39" gid="7253" x="506" y="37" width="64" height="64" />
  <object id="40" gid="2147490906" x="123" y="38" width="64" height="64" />
  <object id="41" gid="7255" x="314" y="39" width="64" height="64" />
  <object id="42" gid="2147490915" x="631" y="39" width="64" height="64" />
  <object id="43" gid="2147490903" x="463" y="41" width="64" height="64" />
  <object id="44" gid="7258" x="41" y="43" width="64" height="64" />
  <object id="45" gid="7267" x="69" y="44" width="64" height="64" />
  <object id="46" gid="7258" x="764" y="44" width="64" height="64" />
  <object id="47" gid="2147490906" x="-2" y="45" width="64" height="64" />
  <object id="48" gid="2147490906" x="790" y="45" width="64" height="64" />
  <object id="49" gid="2147490915" x="678" y="46" width="64" height="64" />
  <object id="50" gid="2147490980" x="343" y="47" width="64" height="64" />
  <object id="51" gid="7258" x="910" y="47" width="64" height="64" />
  <object id="52" gid="7332" x="185" y="53" width="64" height="64" />
  <object id="53" gid="7332" x="357" y="54" width="64" height="64" />
  <object id="54" gid="7332" x="-28" y="55" width="64" height="64" />
  <object id="55" gid="7258" x="697" y="55" width="64" height="64" />
  <object id="56" gid="2147490980" x="743" y="55" width="64" height="64" />
  <object id="57" gid="2147490903" x="766" y="55" width="64" height="64" />
  <object id="58" gid="7253" x="322" y="57" width="64" height="64" />
  <object id="59" gid="2147490905" x="135" y="59" width="64" height="64" />
  <object id="60" gid="7257" x="807" y="59" width="64" height="64" />
  <object id="61" gid="2147490906" x="1081" y="61" width="64" height="64" />
  <object id="62" gid="2147490915" x="105" y="63" width="64" height="64" />
  <object id="63" gid="7258" x="869" y="63" width="64" height="64" />
  <object id="64" gid="2147490903" x="567" y="64" width="64" height="64" />
  <object id="65" gid="7255" x="1012" y="65" width="64" height="64" />
  <object id="66" gid="2147490905" x="16" y="66" width="64" height="64" />
  <object id="67" gid="2147490980" x="1045" y="67" width="64" height="64" />
  <object id="68" gid="2147490913" x="545" y="68" width="64" height="64" />
  <object id="69" gid="2147490903" x="487" y="69" width="64" height="64" />
  <object id="70" gid="2147490915" x="890" y="69" width="64" height="64" />
  <object id="71" gid="2147490901" x="980" y="71" width="64" height="64" />
  <object id="72" gid="2147490980" x="48" y="72" width="64" height="64" />
  <object id="73" gid="7258" x="397" y="73" width="64" height="64" />
  <object id="74" gid="7253" x="606" y="73" width="64" height="64" />
  <object id="75" gid="7258" x="672" y="73" width="64" height="64" />
  <object id="76" gid="2147490901" x="925" y="73" width="64" height="64" />
  <object id="77" gid="7255" x="444" y="74" width="64" height="64" />
  <object id="78" gid="2147490913" x="836" y="81" width="64" height="64" />
  <object id="79" gid="7257" x="572" y="84" width="64" height="64" />
  <object id="80" gid="2147490906" x="462" y="86" width="64" height="64" />
  <object id="81" gid="2147490901" x="176" y="89.6" width="64" height="64" />
  <object id="82" gid="7253" x="291.2" y="89.6" width="64" height="64" />
  <object id="83" gid="7258" x="6.4" y="96" width="64" height="64" />
  <object id="84" gid="7258" x="1075.2" y="99.2" width="64" height="64" />
  <object id="85" gid="7253" x="67.2" y="102.4" width="64" height="64" />
  <object id="86" gid="2147490901" x="771.2" y="102.4" width="64" height="64" />
  <object id="87" gid="7253" x="1014.4" y="102.4" width="64" height="64" />
  <object id="88" gid="2147490901" x="406.4" y="104" width="64" height="64" />
  <object id="89" gid="7253" x="649.6" y="104" width="64" height="64" />
  <object id="90" gid="7253" x="892.8" y="104" width="64" height="64" />
  <object id="91" gid="2147490906" x="128" y="105.6" width="64" height="64" />
  <object id="92" gid="7258" x="345.6" y="105.6" width="64" height="64" />
  <object id="93" gid="7332" x="521.6" y="105.6" width="64" height="64" />
  <object id="94" gid="7258" x="710.4" y="105.6" width="64" height="64" />
  <object id="95" gid="7258" x="832" y="105.6" width="64" height="64" />
  <object id="96" gid="2147490906" x="953.6" y="105.6" width="64" height="64" />
  <object id="97" gid="7258" x="460.8" y="110.4" width="64" height="64" />
  <object id="98" gid="2147490906" x="588.8" y="110.4" width="64" height="64" />
  <object id="99" gid="7347" x="502.4" y="112" width="64" height="64" />
  <object id="100" gid="2147490995" x="547.2" y="113.6" width="64" height="64" />
  <object id="101" gid="7276" x="582.4" y="128" width="64" height="64" />
  <object id="102" gid="7251" x="624" y="134.4" width="64" height="64" />
  <object id="103" gid="2147490980" x="1014" y="136" width="64" height="64" />
  <object id="104" gid="2147490924" x="464" y="137.6" width="64" height="64" />
  <object id="105" gid="7355" x="479" y="148" width="64" height="64" />
  <object id="106" gid="7257" x="-6" y="152" width="64" height="64" />
  <object id="107" gid="2147490903" x="19" y="156" width="64" height="64" />
  <object id="108" gid="7251" x="428.8" y="160" width="64" height="64" />
  <object id="109" gid="2147490980" x="1074" y="166" width="64" height="64" />
  <object id="110" gid="7267" x="26" y="173" width="64" height="64" />
  <object id="111" gid="7252" x="649.6" y="176" width="64" height="64" />
  <object id="112" gid="2147490980" x="-25" y="182" width="64" height="64" />
  <object id="113" gid="7253" x="927" y="182" width="64" height="64" />
  <object id="114" gid="7276" x="406.4" y="188.8" width="64" height="64" />
  <object id="115" gid="2147490901" x="1097" y="199" width="64" height="64" />
  <object id="116" gid="2147490901" x="924" y="205" width="64" height="64" />
  <object id="117" gid="7253" x="-22" y="206" width="64" height="64" />
  <object id="118" gid="2147490906" x="18" y="207" width="64" height="64" />
  <object id="119" gid="7257" x="867.2" y="208" width="64" height="64" />
  <object id="120" gid="7255" x="1010" y="212" width="64" height="64" />
  <object id="121" gid="7221" x="166" y="215" width="64" height="64" />
  <object id="122" gid="7331" x="834" y="221" width="64" height="64" />
  <object id="123" gid="7246" x="390" y="226" width="64" height="64" />
  <object id="124" gid="7218" x="105" y="227" width="64" height="64" />
  <object id="125" gid="2147490899" x="400" y="227.2" width="64" height="64" />
  <object id="126" gid="7222" x="168" y="228" width="64" height="64" />
  <object id="127" gid="7220" x="156" y="232" width="64" height="64" />
  <object id="128" gid="7245" x="381" y="233" width="64" height="64" />
  <object id="129" gid="2147490913" x="-29" y="233" width="64" height="64" />
  <object id="130" gid="7258" x="22" y="233" width="64" height="64" />
  <object id="131" gid="7244" x="347" y="234" width="64" height="64" />
  <object id="132" gid="7208" x="697" y="236" width="64" height="64" />
  <object id="133" gid="7219" x="114" y="237" width="64" height="64" />
  <object id="134" gid="2147490915" x="1076" y="237" width="64" height="64" />
  <object id="135" gid="7241" x="288" y="240" width="64" height="64" />
  <object id="136" gid="7242" x="296" y="240" width="64" height="64" />
  <object id="137" gid="7243" x="329" y="240" width="64" height="64" />
  <object id="138" gid="7353" x="334.4" y="244.8" width="64" height="64" />
  <object id="139" gid="7334" x="292.8" y="246.4" width="64" height="64" />
  <object id="140" gid="7334" x="172.8" y="246.4" width="64" height="64" />
  <object id="141" gid="7360" x="89.6" y="246.4" width="64" height="64" />
  <object id="142" gid="7348" x="345.6" y="248" width="64" height="64" />
  <object id="143" gid="7271" x="617.6" y="249.6" width="64" height="64" />
  <object id="144" gid="2147490906" x="957" y="252" width="64" height="64" />
  <object id="145" gid="2147490899" x="592" y="252.8" width="64" height="64" />
  <object id="146" gid="7270" x="387.2" y="252.8" width="64" height="64" />
  <object id="147" gid="7291" x="726.4" y="252.8" width="64" height="64" />
  <object id="148" gid="7253" x="1059" y="253" width="64" height="64" />
  <object id="149" gid="2147490913" x="1113" y="254" width="64" height="64" />
  <object id="150" gid="7290" x="665.6" y="254.4" width="64" height="64" />
  <object id="151" gid="2147490924" x="544" y="256" width="64" height="64" />
  <object id="152" gid="2147490913" x="-16" y="257" width="64" height="64" />
  <object id="153" gid="2147490901" x="888" y="258" width="64" height="64" />
  <object id="154" gid="7251" x="499.2" y="262.4" width="64" height="64" />
  <object id="155" gid="7287" x="570" y="264" width="64" height="64" />
  <object id="156" gid="7288" x="854.4" y="272" width="64" height="64" />
  <object id="157" gid="7307" x="454.4" y="273.6" width="64" height="64" />
  <object id="158" gid="2147490919" x="630.4" y="275.2" width="64" height="64" />
  <object id="159" gid="7258" x="-4" y="277" width="64" height="64" />
  <object id="160" gid="7355" x="567" y="278" width="64" height="64" />
  <object id="161" gid="7273" x="819.2" y="278.4" width="64" height="64" />
  <object id="162" gid="2147490906" x="1017" y="279" width="64" height="64" />
  <object id="163" gid="7356" x="416" y="281.6" width="64" height="64" />
  <object id="164" gid="2147490975" x="595" y="284" width="64" height="64" />
  <object id="165" gid="7349" x="489" y="286" width="64" height="64" />
  <object id="166" gid="2147490915" x="1112" y="288" width="64" height="64" />
  <object id="167" gid="7332" x="941" y="289" width="64" height="64" />
  <object id="168" gid="7253" x="-9" y="291" width="64" height="64" />
  <object id="169" gid="7255" x="1066" y="299" width="64" height="64" />
  <object id="170" gid="7255" x="1029" y="301" width="64" height="64" />
  <object id="171" gid="7264" x="905.6" y="304" width="64" height="64" />
  <object id="172" gid="7253" x="-17" y="310" width="64" height="64" />
  <object id="173" gid="7297" x="934.4" y="313.6" width="64" height="64" />
  <object id="174" gid="2147490979" x="886" y="322" width="64" height="64" />
  <object id="175" gid="7257" x="1081" y="327" width="64" height="64" />
  <object id="176" gid="2147490915" x="5" y="328" width="64" height="64" />
  <object id="177" gid="7265" x="-35" y="332" width="64" height="64" />
  <object id="178" gid="2147490979" x="970" y="336" width="64" height="64" />
  <object id="179" gid="7355" x="41.6" y="342.4" width="64" height="64" />
  <object id="180" gid="2147490901" x="1036" y="350" width="64" height="64" />
  <object id="181" gid="2147490901" x="-5" y="354" width="64" height="64" />
  <object id="182" gid="7257" x="1086" y="355" width="64" height="64" />
  <object id="183" gid="7257" x="1040" y="369" width="64" height="64" />
  <object id="184" gid="7209" x="72" y="374" width="64" height="64" />
  <object id="185" gid="7268" x="408" y="374.4" width="64" height="64" />
  <object id="186" gid="7372" x="121.6" y="377.6" width="64" height="64" />
  <object id="187" gid="7261" x="358.4" y="380.8" width="64" height="64" />
  <object id="188" gid="7211" x="133" y="381" width="64" height="64" />
  <object id="189" gid="7265" x="1077" y="381" width="64" height="64" />
  <object id="190" gid="2147490913" x="-24" y="382" width="64" height="64" />
  <object id="191" gid="7210" x="124" y="384" width="64" height="64" />
  <object id="192" gid="7287" x="48" y="384" width="64" height="64" />
  <object id="193" gid="2147490903" x="890" y="392" width="64" height="64" />
  <object id="194" gid="7253" x="970" y="392" width="64" height="64" />
  <object id="195" gid="2147490915" x="1114" y="408" width="64" height="64" />
  <object id="196" gid="7364" x="508.8" y="414.4" width="64" height="64" />
  <object id="197" gid="7263" x="457.6" y="419.2" width="64" height="64" />
  <object id="198" gid="7260" x="588.8" y="422.4" width="64" height="64" />
  <object id="199" gid="7265" x="1" y="435" width="64" height="64" />
  <object id="200" gid="7271" x="307.2" y="441.6" width="64" height="64" />
  <object id="201" gid="7255" x="-28" y="449" width="64" height="64" />
  <object id="202" gid="7262" x="348.8" y="451.2" width="64" height="64" />
  <object id="203" gid="7274" x="518.4" y="467.2" width="64" height="64" />
  <object id="204" gid="7372" x="547.2" y="473.6" width="64" height="64" />
  <object id="205" gid="7273" x="464" y="480" width="64" height="64" />
  <object id="206" gid="7257" x="1101" y="519" width="64" height="64" />
  <object id="207" gid="7332" x="1058" y="525" width="64" height="64" />
  <object id="208" gid="7358" x="844.8" y="544" width="64" height="64" />
  <object id="209" gid="2147490903" x="-32" y="546" width="64" height="64" />
  <object id="210" gid="7258" x="1066" y="556" width="64" height="64" />
  <object id="211" gid="7265" x="1079" y="559" width="64" height="64" />
  <object id="212" gid="7338" x="848" y="560" width="64" height="64" />
  <object id="213" gid="7338" x="928" y="560" width="64" height="64" />
  <object id="214" gid="7254" x="888" y="563.2" width="64" height="64" />
  <object id="215" gid="7358" x="836.8" y="563.2" width="64" height="64" />
  <object id="216" gid="7358" x="940.8" y="564.8" width="64" height="64" />
  <object id="217" gid="2147490915" x="1070" y="575" width="64" height="64" />
  <object id="218" gid="7253" x="1116" y="582" width="64" height="64" />
  <object id="219" gid="2147490906" x="1105" y="600" width="64" height="64" />
  <object id="220" gid="2147490984" x="492" y="601" width="64" height="64" />
  <object id="221" gid="7272" x="854.4" y="608" width="64" height="64" />
  <object id="222" gid="7272" x="924.8" y="608" width="64" height="64" />
  <object id="223" gid="7331" x="231" y="611" width="64" height="64" />
  <object id="224" gid="7258" x="-28" y="613" width="64" height="64" />
  <object id="225" gid="2147490980" x="308" y="614" width="64" height="64" />
  <object id="226" gid="7309" x="838.4" y="614.4" width="64" height="64" />
  <object id="227" gid="2147490908" x="390.4" y="617.6" width="64" height="64" />
  <object id="228" gid="7309" x="412.8" y="630.4" width="64" height="64" />
  <object id="229" gid="2147490913" x="1079" y="632" width="64" height="64" />
  <object id="230" gid="7273" x="345.6" y="633.6" width="64" height="64" />
  <object id="231" gid="7257" x="1119" y="641" width="64" height="64" />
  <object id="232" gid="7264" x="438.4" y="646.4" width="64" height="64" />
  <object id="233" gid="2147490957" x="294" y="648" width="64" height="64" />
  <object id="234" gid="7272" x="854.4" y="649.6" width="64" height="64" />
  <object id="235" gid="7272" x="924.8" y="649.6" width="64" height="64" />
  <object id="236" gid="7357" x="521" y="650" width="64" height="64" />
  <object id="237" gid="2147490901" x="-1" y="652" width="64" height="64" />
  <object id="238" gid="7271" x="371.2" y="656" width="64" height="64" />
  <object id="239" gid="2147490901" x="-12" y="662" width="64" height="64" />
  <object id="240" gid="7258" x="1106" y="666" width="64" height="64" />
  <object id="241" gid="2147490981" x="367" y="671" width="64" height="64" />
  <object id="242" gid="7272" x="992" y="678.4" width="64" height="64" />
  <object id="243" gid="7272" x="1040" y="678.4" width="64" height="64" />
  <object id="244" gid="2147490905" x="7" y="681" width="64" height="64" />
  <object id="245" gid="2147490981" x="395" y="685" width="64" height="64" />
  <object id="246" gid="7333" x="64" y="686" width="64" height="64" />
  <object id="247" gid="7272" x="854.4" y="688" width="64" height="64" />
  <object id="248" gid="7272" x="924.8" y="688" width="64" height="64" />
  <object id="249" gid="7309" x="976" y="688" width="64" height="64" />
  <object id="250" gid="2147490915" x="442" y="691" width="64" height="64" />
  <object id="251" gid="7255" x="508" y="693" width="64" height="64" />
  <object id="252" gid="2147490979" x="244" y="694" width="64" height="64" />
  <object id="253" gid="7357" x="838.4" y="697.6" width="64" height="64" />
  <object id="254" gid="2147490980" x="-18" y="720" width="64" height="64" />
  <object id="255" gid="2147490915" x="1096" y="720" width="64" height="64" />
  <object id="256" gid="7357" x="386" y="721" width="64" height="64" />
  <object id="257" gid="7332" x="419" y="721" width="64" height="64" />
  <object id="258" gid="2147490981" x="11" y="723" width="64" height="64" />
  <object id="259" gid="2147491005" x="134" y="723" width="64" height="64" />
  <object id="260" gid="2147490981" x="299" y="725" width="64" height="64" />
  <object id="261" gid="7333" x="66" y="726" width="64" height="64" />
  <object id="262" gid="7357" x="208" y="738" width="64" height="64" />
  <object id="263" gid="7256" x="896" y="742.4" width="64" height="64" />
  <object id="264" gid="7336" x="453" y="743" width="64" height="64" />
  <object id="265" gid="7272" x="1040" y="745.6" width="64" height="64" />
  <object id="266" gid="2147490980" x="-10" y="751" width="64" height="64" />
  <object id="267" gid="7373" x="164" y="751" width="64" height="64" />
  <object id="268" gid="7279" x="931.2" y="758.4" width="64" height="64" />
  <object id="269" gid="7282" x="809.6" y="761.6" width="64" height="64" />
  <object id="270" gid="2147490913" x="360" y="771" width="64" height="64" />
  <object id="271" gid="7257" x="-19" y="774" width="64" height="64" />
  <object id="272" gid="7307" x="944" y="774.4" width="64" height="64" />
  <object id="273" gid="2147490906" x="1105" y="776" width="64" height="64" />
  <object id="274" gid="7361" x="921.6" y="777.6" width="64" height="64" />
  <object id="275" gid="2147491005" x="315" y="779" width="64" height="64" />
  <object id="276" gid="2147491005" x="169" y="780" width="64" height="64" />
  <object id="277" gid="7335" x="976" y="787.2" width="64" height="64" />
  <object id="278" gid="2147490915" x="505" y="789" width="64" height="64" />
  <object id="279" gid="2147490980" x="1106" y="799" width="64" height="64" />
  <object id="280" gid="7258" x="-7" y="808" width="64" height="64" />
  <object id="281" gid="7336" x="352" y="811" width="64" height="64" />
  <object id="282" gid="2147490980" x="247" y="818" width="64" height="64" />
  <object id="283" gid="7309" x="416" y="820" width="64" height="64" />
  <object id="284" gid="7332" x="-21" y="822" width="64" height="64" />
  <object id="285" gid="2147490901" x="1100" y="825" width="64" height="64" />
  <object id="286" gid="7332" x="424" y="844" width="64" height="64" />
  <object id="287" gid="7257" x="530" y="844" width="64" height="64" />
  <object id="288" gid="7332" x="703" y="844" width="64" height="64" />
  <object id="289" gid="7265" x="98" y="845" width="64" height="64" />
  <object id="290" gid="2147490905" x="1087" y="847" width="64" height="64" />
  <object id="291" gid="2147490913" x="49" y="848" width="64" height="64" />
  <object id="292" gid="2147490903" x="260" y="850" width="64" height="64" />
  <object id="293" gid="2147490901" x="62" y="851" width="64" height="64" />
  <object id="294" gid="7267" x="-13" y="852" width="64" height="64" />
  <object id="295" gid="7265" x="229" y="853" width="64" height="64" />
  <object id="296" gid="2147490901" x="599" y="854" width="64" height="64" />
  <object id="297" gid="7267" x="182" y="857" width="64" height="64" />
  <object id="298" gid="7253" x="164" y="858" width="64" height="64" />
  <object id="299" gid="7258" x="568" y="858" width="64" height="64" />
  <object id="300" gid="2147490901" x="763" y="860" width="64" height="64" />
  <object id="301" gid="7267" x="1106" y="860" width="64" height="64" />
  <object id="302" gid="7253" x="315" y="862" width="64" height="64" />
  <object id="303" gid="7258" x="385" y="862" width="64" height="64" />
  <object id="304" gid="7258" x="358" y="863" width="64" height="64" />
  <object id="305" gid="7332" x="402" y="871" width="64" height="64" />
  <object id="306" gid="7265" x="270" y="872" width="64" height="64" />
  <object id="307" gid="7253" x="1079" y="872" width="64" height="64" />
  <object id="308" gid="2147490906" x="561" y="873" width="64" height="64" />
  <object id="309" gid="2147490903" x="-17" y="874" width="64" height="64" />
  <object id="310" gid="2147490901" x="144" y="875" width="64" height="64" />
  <object id="311" gid="2147490906" x="214" y="875" width="64" height="64" />
  <object id="312" gid="7332" x="461" y="875" width="64" height="64" />
  <object id="313" gid="2147490903" x="817" y="875" width="64" height="64" />
  <object id="314" gid="2147490906" x="776" y="876" width="64" height="64" />
  <object id="315" gid="7258" x="656" y="878" width="64" height="64" />
  <object id="316" gid="2147490901" x="182" y="879" width="64" height="64" />
  <object id="317" gid="7267" x="683" y="879" width="64" height="64" />
  <object id="318" gid="7332" x="1000" y="879" width="64" height="64" />
  <object id="319" gid="7265" x="933" y="880" width="64" height="64" />
  <object id="320" gid="7258" x="30" y="882" width="64" height="64" />
  <object id="321" gid="2147490913" x="70" y="882" width="64" height="64" />
  <object id="322" gid="7253" x="738" y="883" width="64" height="64" />
  <object id="323" gid="7258" x="96" y="887" width="64" height="64" />
  <object id="324" gid="7267" x="285" y="887" width="64" height="64" />
  <object id="325" gid="7267" x="541" y="887" width="64" height="64" />
  <object id="326" gid="7258" x="889" y="887" width="64" height="64" />
  <object id="327" gid="2147490906" x="1041" y="887" width="64" height="64" />
  <object id="328" gid="7265" x="351" y="888" width="64" height="64" />
  <object id="329" gid="2147490905" x="974" y="888" width="64" height="64" />
  <object id="330" gid="7257" x="358" y="889" width="64" height="64" />
  <object id="331" gid="2147490901" x="618" y="889" width="64" height="64" />
  <object id="332" gid="7255" x="191" y="896" width="64" height="64" />
  <object id="333" gid="7253" x="110" y="898" width="64" height="64" />
  <object id="334" gid="7258" x="43" y="899" width="64" height="64" />
  <object id="335" gid="7253" x="400" y="899" width="64" height="64" />
  <object id="336" gid="7332" x="594" y="899" width="64" height="64" />
  <object id="337" gid="7258" x="669" y="899" width="64" height="64" />
  <object id="338" gid="7253" x="719" y="899" width="64" height="64" />
  <object id="339" gid="2147490915" x="61" y="900" width="64" height="64" />
  <object id="340" gid="2147490906" x="422" y="901" width="64" height="64" />
  <object id="341" gid="2147490905" x="546" y="901" width="64" height="64" />
  <object id="342" gid="2147490906" x="794" y="901" width="64" height="64" />
  <object id="343" gid="2147490906" x="1037" y="901" width="64" height="64" />
  <object id="344" gid="7258" x="1099" y="901" width="64" height="64" />
  <object id="345" gid="2147490906" x="929" y="902" width="64" height="64" />
  <object id="346" gid="7253" x="278" y="903" width="64" height="64" />
  <object id="347" gid="2147490903" x="741" y="903" width="64" height="64" />
  <object id="348" gid="7265" x="833" y="903" width="64" height="64" />
  <object id="349" gid="7265" x="957" y="903" width="64" height="64" />
  <object id="350" gid="7253" x="1068" y="903" width="64" height="64" />
  <object id="351" gid="7258" x="236" y="909" width="64" height="64" />
  <object id="352" gid="7265" x="488" y="909" width="64" height="64" />
  <object id="353" gid="2147490905" x="-15" y="910" width="64" height="64" />
  <object id="354" gid="2147490901" x="882" y="911" width="64" height="64" />
  <object id="355" gid="2147490903" x="628" y="913" width="64" height="64" />
  <object id="356" gid="2147490901" x="164" y="916" width="64" height="64" />
  <object id="357" gid="7258" x="303" y="916" width="64" height="64" />
  <object id="358" gid="7257" x="370" y="918" width="64" height="64" />
  <object id="359" gid="2147490901" x="980" y="918" width="64" height="64" />
 </objectgroup>
 <objectgroup id="8" name="Objects">
  <object id="360" x="264" y="40" name="start" type="start">
   <point />
  </object>
  <object id="361" x="336" y="224" name="potter-home" type="warp" width="16" height="16">
   <properties>
    <property name="goto" value="SunscarAdobe,7,11.5" />
   </properties>
  </object>
  <object id="362" x="384" y="224" name="potter-workshop" type="warp" width="16" height="16">
   <properties>
    <property name="goto" value="SunscarAdobe,17,11.5" />
   </properties>
  </object>
  <object id="363" x="720" y="224" name="silk-pavilion" type="warp" width="16" height="16">
   <properties>
    <property name="goto" value="SunscarPavilion,8,11.5" />
   </properties>
  </object>
  <object id="364" x="240" y="0" name="north-pass" type="warp" width="48" height="32">
   <properties>
    <property name="goto" value="Verdant,16.5,81.5" />
   </properties>
  </object>
  <object id="365" x="1120" y="432" name="east-road" type="warp" width="32" height="48">
   <properties>
    <property name="goto" value="Emberfall,2.5,30.5" />
   </properties>
  </object>
  <object id="366" x="440" y="392" name="merchant-stall" type="marker">
   <point />
  </object>
  <object id="367" x="880" y="128" name="scorpion-rocks" type="marker" width="224" height="272" />
  <object id="368" x="48" y="528" name="dry-wash" type="marker" width="576" height="304" />
  <object id="369" x="768" y="544" name="ruins" type="marker" width="336" height="288" />
  <object id="370" x="48" y="0" type="safe-zone" width="816" height="512" />
  <object id="371" x="864" y="400" type="safe-zone" width="288" height="144" />
  <object id="372" x="0" y="0" name="sunscar" type="soundscape" width="1152" height="896">
   <properties>
    <property name="channel1" value="audio/music/lagoon.flac, 0.24" />
    <property name="channel2" value="audio/ambient/forest_air.flac, 0.3" />
   </properties>
  </object>
  <object id="373" x="416" y="96" name="oasis" type="soundscape" width="304" height="176">
   <properties>
    <property name="channel4" value="audio/ambient/lapping_water.flac, 0.36" />
    <property name="emit" value="2.0" type="float" />
   </properties>
  </object>
  <object id="374" x="512" y="432" name="caravan-fire" type="soundscape" width="80" height="64">
   <properties>
    <property name="channel3" value="audio/ambient/campfire.flac, 0.29" />
    <property name="emit" value="2.0" type="float" />
   </properties>
  </object>
  <object id="375" x="768" y="544" name="ruins" type="soundscape" width="336" height="288">
   <properties>
    <property name="channel3" value="audio/ambient/stone_hum.flac, 0.29" />
    <property name="emit" value="3.0" type="float" />
   </properties>
  </object>
 </objectgroup>
</map>