<?xml version='1.0' encoding='UTF-8'?>
<map version="1.10" tiledversion="1.11.0" orientation="orthogonal" renderorder="right-down" width="23" height="14" tilewidth="16" tileheight="16" infinite="0" nextlayerid="9" nextobjectid="14">
 <tileset firstgid="1" source="../tilesets/sunscar-adobe-terrain.tsx" />
 <tileset firstgid="41" source="../tilesets/sunscar-adobe-decor.tsx" />
 <tileset firstgid="45" source="../tilesets/sunscar-adobe-furniture.tsx" />
 <tileset firstgid="501" source="../tilesets/collision.tsx" />
 <tileset firstgid="503" source="../tilesets/sunscar-adobe-props.tsx" />
 <layer id="1" name="Floor" width="23" height="14">
  <data encoding="csv">
1,1,1,1,1,1,1,1,1,1,1,1,1,1,1,1,1,1,1,1,1,1,1,
1,1,1,1,1,1,1,1,1,1,1,1,1,1,1,1,1,1,1,1,1,1,1,
1,1,1,1,1,1,1,1,1,1,1,1,1,1,1,1,1,1,1,1,1,1,1,
1,1,1,1,1,1,1,1,1,1,1,1,1,1,1,1,1,1,1,1,1,1,1,
1,1,1,1,1,1,1,1,1,1,1,1,1,1,1,1,1,1,1,1,1,1,1,
1,1,1,1,1,1,1,1,1,1,1,1,1,1,1,1,1,1,1,1,1,1,1,
1,1,1,1,1,1,1,1,1,1,1,1,1,1,1,1,1,1,1,1,1,1,1,
1,1,1,1,1,1,1,1,1,1,1,1,1,1,1,1,1,1,1,1,1,1,1,
1,1,1,1,1,1,1,1,1,1,1,1,1,1,1,1,1,1,1,1,1,1,1,
1,1,1,1,1,1,1,1,1,1,1,1,1,1,1,1,1,1,1,1,1,1,1,
1,1,1,1,1,1,1,1,1,1,1,1,1,1,1,1,1,1,1,1,1,1,1,
1,1,1,1,1,1,1,1,1,1,1,1,1,1,1,1,1,1,1,1,1,1,1,
1,1,1,1,1,1,1,1,1,1,1,1,1,1,1,1,1,1,1,1,1,1,1,
1,1,1,1,1,1,1,1,1,1,1,1,1,1,1,1,1,1,1,1,1,1,1
</data>
 </layer>
 <layer id="2" name="Walls" width="23" height="14">
  <data encoding="csv">
7,7,7,7,7,7,7,7,7,7,7,7,7,7,7,7,7,7,7,7,7,7,7,
12,13,13,13,13,13,13,13,13,13,13,19,12,13,13,13,13,13,13,13,13,13,19,
15,16,16,16,16,16,16,16,16,16,16,22,15,16,16,16,16,16,16,16,16,16,22,
9,0,0,0,0,0,0,0,0,0,0,6,9,0,0,0,0,0,0,0,0,0,6,
9,0,0,0,0,0,0,0,0,0,0,18,14,0,0,0,0,0,0,0,0,0,6,
9,0,0,0,0,0,0,0,0,0,0,21,17,0,0,0,0,0,0,0,0,0,6,
9,0,0,0,0,0,0,0,0,0,0,0,0,0,0,0,0,0,0,0,0,0,6,
9,0,0,0,0,0,0,0,0,0,0,0,0,0,0,0,0,0,0,0,0,0,6,
9,0,0,0,0,0,0,0,0,0,0,2,4,0,0,0,0,0,0,0,0,0,6,
9,0,0,0,0,0,0,0,0,0,0,5,9,0,0,0,0,0,0,0,0,0,6,
9,0,0,0,0,0,0,0,0,0,0,6,9,0,0,0,0,0,0,0,0,0,6,
9,0,0,0,0,0,0,0,0,0,0,6,9,0,0,0,0,0,0,0,0,0,6,
10,3,3,3,3,4,0,0,2,3,3,11,10,3,3,4,0,0,2,3,3,3,11,
7,7,7,7,7,9,0,0,5,7,7,7,7,7,7,9,0,0,5,7,7,7,7
</data>
 </layer>
 <layer id="3" name="Rug" width="23" height="14">
  <data encoding="csv">
0,0,0,0,0,0,0,0,0,0,0,0,0,0,0,0,0,0,0,0,0,0,0,
0,0,0,0,0,0,0,0,0,0,0,0,0,0,0,0,0,0,0,0,0,0,0,
0,0,0,0,0,0,0,0,0,0,0,0,0,0,0,0,0,0,0,0,0,0,0,
0,0,0,0,0,0,0,0,0,0,0,0,0,0,0,0,0,0,0,0,0,0,0,
0,0,0,0,0,0,0,0,0,0,0,0,0,0,0,0,0,0,0,0,0,0,0,
0,0,0,0,0,0,0,0,0,0,0,0,0,0,0,0,0,0,0,0,0,0,0,
0,0,0,0,0,0,0,0,0,0,0,0,0,0,0,0,0,0,0,0,0,0,0,
0,34,34,34,34,34,35,0,0,0,0,0,0,0,0,0,0,0,0,0,0,0,0,
0,37,37,37,37,37,27,0,0,0,0,0,0,0,0,0,0,0,0,0,0,0,0,
0,37,37,37,37,37,27,0,0,0,0,0,0,0,0,0,0,0,0,0,0,0,0,
0,37,37,37,37,37,27,0,0,0,0,0,0,0,0,0,0,0,0,0,0,0,0,
0,29,29,29,29,29,31,0,0,0,0,0,0,0,0,0,0,0,0,0,0,0,0,
0,0,0,0,0,0,0,0,0,0,0,0,0,0,0,0,0,0,0,0,0,0,0,
0,0,0,0,0,0,0,0,0,0,0,0,0,0,0,0,0,0,0,0,0,0,0
</data>
 </layer>
 <layer id="4" name="Decor" width="23" height="14">
  <data encoding="csv">
0,0,0,0,0,0,0,0,0,0,0,0,0,0,0,0,0,0,0,0,0,0,0,
0,0,0,0,0,0,0,0,41,42,0,0,0,0,0,0,0,0,0,0,0,0,0,
0,0,0,0,0,0,0,0,43,44,0,0,0,0,0,0,0,0,0,0,0,0,0,
0,0,0,0,0,0,0,0,0,0,0,0,0,0,0,0,0,0,0,0,0,0,0,
0,0,0,0,0,0,0,0,0,0,0,0,0,0,0,0,0,0,0,0,0,0,0,
0,0,0,0,0,0,0,0,0,0,0,0,0,0,0,0,0,0,0,0,0,0,0,
0,0,0,0,0,0,0,0,0,0,0,0,0,0,0,0,0,0,0,0,0,0,0,
0,0,0,0,0,0,0,0,0,0,0,0,0,0,0,0,0,0,0,0,0,0,0,
0,0,0,0,0,0,0,0,0,0,0,0,0,0,0,0,0,0,0,0,0,0,0,
0,0,0,0,0,0,0,0,0,0,0,0,0,0,0,0,0,0,0,0,0,0,0,
0,0,0,0,0,0,0,0,0,0,0,0,0,0,0,0,0,0,0,0,0,0,0,
0,0,0,0,0,0,0,0,0,0,0,0,0,0,0,0,0,0,0,0,0,0,0,
0,0,0,0,0,0,0,0,0,0,0,0,0,0,0,0,0,0,0,0,0,0,0,
0,0,0,0,0,0,0,0,0,0,0,0,0,0,0,0,0,0,0,0,0,0,0
</data>
 </layer>
 <layer id="5" name="Dynamic" width="23" height="14">
  <data encoding="csv">
0,0,0,0,0,0,0,0,0,0,0,0,0,0,0,0,0,0,0,0,0,0,0,
0,0,0,0,0,0,0,0,0,0,0,0,0,0,0,0,0,0,0,0,0,0,0,
0,0,0,0,0,0,0,0,0,0,0,0,0,0,0,0,0,0,0,0,0,0,0,
0,57,58,189,190,0,121,122,109,110,0,0,0,53,54,81,82,117,118,49,50,0,0,
0,59,60,191,192,0,123,124,111,112,0,0,0,55,56,83,84,119,120,51,52,0,0,
0,69,70,0,0,0,0,0,147,148,0,0,0,0,0,0,0,0,0,0,0,0,0,
0,71,72,0,0,0,0,0,149,150,0,0,0,0,0,0,0,0,0,0,0,0,0,
0,0,0,0,0,0,0,0,0,0,0,0,0,0,0,0,0,0,0,0,0,0,0,
0,93,94,0,0,97,98,0,0,0,0,0,0,0,0,0,193,194,197,198,0,0,0,
0,95,96,45,46,99,100,0,0,0,0,0,0,207,208,0,195,196,199,200,0,0,0,
0,0,0,47,48,0,0,0,73,74,0,0,0,209,210,0,0,0,0,139,140,0,0,
0,0,0,0,0,0,0,0,75,76,0,0,0,0,0,0,0,0,0,141,142,0,0,
0,0,0,0,0,0,0,0,0,0,0,0,0,0,0,0,0,0,0,0,0,0,0,
0,0,0,0,0,0,0,0,0,0,0,0,0,0,0,0,0,0,0,0,0,0,0
</data>
 </layer>
 <layer id="6" name="Collision" width="23" height="14">
  <data encoding="csv">
502,502,502,502,502,502,502,502,502,502,502,502,502,502,502,502,502,502,502,502,502,502,502,
502,502,502,502,502,502,502,502,502,502,502,502,502,502,502,502,502,502,502,502,502,502,502,
502,502,502,502,502,502,502,502,502,502,502,502,502,502,502,502,502,502,502,502,502,502,502,
502,501,501,501,501,501,501,501,501,501,501,502,502,501,501,501,501,501,501,501,501,501,502,
502,502,502,502,502,501,502,502,502,502,502,502,502,502,502,502,502,502,502,502,502,501,502,
502,501,501,501,501,501,501,501,501,501,501,502,502,501,501,501,501,501,501,501,501,501,502,
502,502,502,501,501,501,501,501,502,502,501,501,501,501,501,501,501,501,501,501,502,502,502,
502,501,501,501,501,501,501,501,501,501,501,501,501,501,501,501,501,501,501,501,501,502,502,
502,501,501,501,501,501,501,501,501,501,501,502,502,501,501,501,501,501,501,501,501,501,502,
502,502,502,501,501,502,502,501,501,501,501,502,502,501,501,502,502,502,502,502,502,501,502,
502,501,501,502,502,501,501,501,501,501,501,502,502,502,502,501,501,501,501,501,501,501,502,
502,501,501,501,501,501,501,501,502,502,501,502,502,501,502,501,501,501,501,502,502,501,502,
502,502,502,502,502,502,501,501,502,502,502,502,502,502,502,502,501,501,502,502,502,502,502,
502,502,502,502,502,502,501,501,502,502,502,502,502,502,502,502,501,501,502,502,502,502,502
</data>
 </layer>
 <objectgroup id="7" name="Scenery">
  <object id="1" gid="591" x="136" y="78" width="64" height="64" />
  <object id="2" gid="591" x="312" y="110" width="64" height="64" />
  <object id="3" gid="583" x="296" y="110" width="64" height="64" />
  <object id="4" gid="594" x="312" y="126" width="64" height="64" />
  <object id="5" gid="573" x="216" y="158" width="64" height="64" />
  <object id="6" gid="554" x="297.6" y="158.4" width="64" height="64" />
  <object id="7" gid="534" x="200" y="190" width="64" height="64" />
 </objectgroup>
 <objectgroup id="8" name="Objects">
  <object id="8" x="112" y="184" name="start" type="start">
   <point />
  </object>
  <object id="9" x="96" y="192" name="home-door" type="warp" width="32" height="32">
   <properties>
    <property name="goto" value="Sunscar,21.5,15.5" />
   </properties>
  </object>
  <object id="10" x="256" y="192" name="workshop-door" type="warp" width="32" height="32">
   <properties>
    <property name="goto" value="Sunscar,24.5,15.5" />
   </properties>
  </object>
  <object id="11" x="272" y="168" name="potter-wheel" type="marker">
   <point />
  </object>
  <object id="12" x="288" y="48" name="kiln" type="soundscape" width="64" height="48">
   <properties>
    <property name="channel3" value="audio/ambient/campfire.flac, 0.29" />
    <property name="emit" value="3.0" type="float" />
   </properties>
  </object>
  <object id="13" x="112" y="48" name="hearth" type="soundscape" width="48" height="48">
   <properties>
    <property name="channel4" value="audio/ambient/campfire.flac, 0.22" />
    <property name="emit" value="2.0" type="float" />
   </properties>
  </object>
 </objectgroup>
</map>