<?xml version='1.0' encoding='UTF-8'?>
<map version="1.10" tiledversion="1.11.0" orientation="orthogonal" renderorder="right-down" width="16" height="14" tilewidth="16" tileheight="16" infinite="0" nextlayerid="9" nextobjectid="17">
 <tileset firstgid="1" source="../tilesets/sunscar-pavilion-terrain.tsx" />
 <tileset firstgid="41" source="../tilesets/sunscar-pavilion-decor.tsx" />
 <tileset firstgid="45" source="../tilesets/sunscar-pavilion-furniture.tsx" />
 <tileset firstgid="462" source="../tilesets/collision.tsx" />
 <tileset firstgid="464" source="../tilesets/sunscar-pavilion-props.tsx" />
 <layer id="1" name="Floor" width="16" height="14">
  <data encoding="csv">
1,1,1,1,1,1,1,1,1,1,1,1,1,1,1,1,
1,1,1,1,1,1,1,1,1,1,1,1,1,1,1,1,
1,1,1,1,1,1,1,1,1,1,1,1,1,1,1,1,
1,1,1,1,1,1,1,1,1,1,1,1,1,1,1,1,
1,1,1,1,1,1,1,1,1,1,1,1,1,1,1,1,
1,1,1,1,1,1,1,1,1,1,1,1,1,1,1,1,
1,1,1,1,1,1,1,1,1,1,1,1,1,1,1,1,
1,1,1,1,1,1,1,1,1,1,1,1,1,1,1,1,
1,1,1,1,1,1,1,1,1,1,1,1,1,1,1,1,
1,1,1,1,1,1,1,1,1,1,1,1,1,1,1,1,
1,1,1,1,1,1,1,1,1,1,1,1,1,1,1,1,
1,1,1,1,1,1,1,1,1,1,1,1,1,1,1,1,
1,1,1,1,1,1,1,1,1,1,1,1,1,1,1,1,
1,1,1,1,1,1,1,1,1,1,1,1,1,1,1,1
</data>
 </layer>
 <layer id="2" name="Walls" width="16" height="14">
  <data encoding="csv">
7,7,7,7,7,7,7,7,7,7,7,7,7,7,7,7,
12,13,13,13,13,13,13,13,13,13,13,13,13,13,13,19,
15,16,16,16,16,16,16,16,16,16,16,16,16,16,16,22,
9,0,0,0,0,0,0,0,0,0,0,0,0,0,0,6,
9,0,0,0,0,0,0,0,0,0,0,0,0,0,0,6,
9,0,0,0,0,0,0,0,0,0,0,0,0,0,0,6,
9,0,0,0,0,0,0,0,0,0,0,0,0,0,0,6,
9,0,0,0,0,0,0,0,0,0,0,0,0,0,0,6,
9,0,0,0,0,0,0,0,0,0,0,0,0,0,0,6,
9,0,0,0,0,0,0,0,0,0,0,0,0,0,0,6,
9,0,0,0,0,0,0,0,0,0,0,0,0,0,0,6,
9,0,0,0,0,0,0,0,0,0,0,0,0,0,0,6,
10,3,3,3,3,3,4,0,0,2,3,3,3,3,3,11,
7,7,7,7,7,7,9,0,0,5,7,7,7,7,7,7
</data>
 </layer>
 <layer id="3" name="Rug" width="16" height="14">
  <data encoding="csv">
0,0,0,0,0,0,0,0,0,0,0,0,0,0,0,0,
0,0,0,0,0,0,0,0,0,0,0,0,0,0,0,0,
0,0,0,0,0,0,0,0,0,0,0,0,0,0,0,0,
0,0,0,0,0,0,0,0,0,0,0,0,0,0,0,0,
0,0,0,0,0,0,0,0,0,0,0,0,0,0,0,0,
0,0,0,32,34,34,34,34,34,34,34,34,35,0,0,0,
0,0,0,36,37,37,37,37,37,37,37,37,27,0,0,0,
0,0,0,36,37,37,37,37,37,37,37,37,27,0,0,0,
0,0,0,36,37,37,37,37,37,37,37,37,27,0,0,0,
0,0,0,36,37,37,37,37,37,37,37,37,27,0,0,0,
0,0,0,28,29,29,29,29,29,29,29,29,31,0,0,0,
0,0,0,0,0,0,0,0,0,0,0,0,0,0,0,0,
0,0,0,0,0,0,0,0,0,0,0,0,0,0,0,0,
0,0,0,0,0,0,0,0,0,0,0,0,0,0,0,0
</data>
 </layer>
 <layer id="4" name="Decor" width="16" height="14">
  <data encoding="csv">
0,0,0,0,0,0,0,0,0,0,0,0,0,0,0,0,
0,0,0,0,0,0,41,42,0,41,42,0,0,0,0,0,
0,0,0,0,0,0,43,44,0,43,44,0,0,0,0,0,
0,0,0,0,0,0,0,0,0,0,0,0,0,0,0,0,
0,0,0,0,0,0,0,0,0,0,0,0,0,0,0,0,
0,0,0,0,0,0,0,0,0,0,0,0,0,0,0,0,
0,0,0,0,0,0,0,0,0,0,0,0,0,0,0,0,
0,0,0,0,0,0,0,0,0,0,0,0,0,0,0,0,
0,0,0,0,0,0,0,0,0,0,0,0,0,0,0,0,
0,0,0,0,0,0,0,0,0,0,0,0,0,0,0,0,
0,0,0,0,0,0,0,0,0,0,0,0,0,0,0,0,
0,0,0,0,0,0,0,0,0,0,0,0,0,0,0,0,
0,0,0,0,0,0,0,0,0,0,0,0,0,0,0,0,
0,0,0,0,0,0,0,0,0,0,0,0,0,0,0,0
</data>
 </layer>
 <layer id="5" name="Dynamic" width="16" height="14">
  <data encoding="csv">
0,0,0,0,0,0,0,0,0,0,0,0,0,0,0,0,
0,0,0,0,0,0,0,0,0,0,0,0,0,0,0,0,
0,0,0,0,0,0,0,0,0,0,0,0,0,0,0,0,
0,0,0,57,58,0,0,231,232,0,0,0,0,247,248,0,
0,115,116,59,60,0,0,233,234,0,0,69,70,249,250,0,
0,117,118,0,0,0,0,0,0,0,0,71,72,0,0,0,
0,127,128,0,0,0,0,0,0,0,0,0,0,0,0,0,
0,129,130,0,0,0,0,49,50,0,0,0,0,0,0,0,
0,0,0,0,0,0,0,51,52,0,0,0,0,61,62,0,
0,85,86,0,0,0,0,0,0,0,0,0,0,63,64,0,
0,87,88,0,0,0,0,0,0,0,167,168,159,160,0,0,
0,0,0,0,0,0,0,0,0,0,169,170,161,162,0,0,
0,0,0,0,0,0,0,0,0,0,0,0,0,0,0,0,
0,0,0,0,0,0,0,0,0,0,0,0,0,0,0,0
</data>
 </layer>
 <layer id="6" name="Collision" width="16" height="14">
  <data encoding="csv">
463,463,463,463,463,463,463,463,463,463,463,463,463,463,463,463,
463,463,463,463,463,463,463,463,463,463,463,463,463,463,463,463,
463,463,463,463,463,463,463,463,463,463,463,463,463,463,463,463,
463,463,462,462,462,462,462,462,462,462,462,462,462,462,463,463,
463,462,462,463,463,463,462,463,463,463,463,462,462,463,463,463,
463,463,463,463,462,462,462,462,462,462,462,463,463,462,462,463,
463,462,462,462,462,462,462,462,462,462,462,462,462,463,463,463,
463,463,463,462,462,462,462,462,462,462,462,462,462,462,462,463,
463,462,462,462,462,463,462,463,463,462,463,462,462,462,462,463,
463,462,462,462,462,462,462,462,462,462,462,462,462,463,463,463,
463,463,463,462,462,463,462,462,462,462,462,462,462,462,462,463,
463,462,462,462,462,462,462,462,462,462,463,463,463,463,462,463,
463,463,463,463,463,463,463,462,462,463,463,463,463,463,463,463,
463,463,463,463,463,463,463,462,462,463,463,463,463,463,463,463
</data>
 </layer>
 <objectgroup id="7" name="Scenery">
  <object id="1" gid="555" x="-8" y="62" width="64" height="64" />
  <object id="2" gid="555" x="200" y="62" width="64" height="64" />
  <object id="3" gid="486" x="56" y="78" width="64" height="64" />
  <object id="4" gid="486" x="136" y="78" width="64" height="64" />
  <object id="5" gid="518" x="123.2" y="78.4" width="64" height="64" />
  <object id="6" gid="546" x="24" y="94" width="64" height="64" />
  <object id="7" gid="552" x="200" y="110" width="64" height="64" />
  <object id="8" gid="583" x="184" y="110" width="64" height="64" />
  <object id="9" gid="464" x="56" y="137.6" width="64" height="64" />
  <object id="10" gid="464" x="136" y="137.6" width="64" height="64" />
  <object id="11" gid="471" x="-16" y="176" width="64" height="64" />
  <object id="12" gid="473" x="57.6" y="176" width="64" height="64" />
 </objectgroup>
 <objectgroup id="8" name="Objects">
  <object id="13" x="128" y="184" name="start" type="start">
   <point />
  </object>
  <object id="14" x="112" y="192" name="front-door" type="warp" width="32" height="32">
   <properties>
    <property name="goto" value="Sunscar,45.5,15.5" />
   </properties>
  </object>
  <object id="15" x="120" y="89.6" name="silk-prince-seat" type="marker">
   <point />
  </object>
  <object id="16" x="192" y="128" name="brazier" type="soundscape" width="48" height="48">
   <properties>
    <property name="channel3" value="audio/ambient/campfire.flac, 0.22" />
    <property name="emit" value="2.0" type="float" />
   </properties>
  </object>
 </objectgroup>
</map>