<?xml version='1.0' encoding='UTF-8'?>
<map version="1.10" tiledversion="1.11.0" orientation="orthogonal" renderorder="right-down" width="56" height="84" tilewidth="16" tileheight="16" infinite="0" nextlayerid="9" nextobjectid="568">
 <tileset firstgid="1" source="../tilesets/verdant-ground.tsx" />
 <tileset firstgid="1601" source="../tilesets/verdant-terrain.tsx" />
 <tileset firstgid="1617" source="../tilesets/verdant-overlay.tsx" />
 <tileset firstgid="2356" source="../tilesets/verdant-patch.tsx" />
 <tileset firstgid="3956" source="../tilesets/verdant-path.tsx" />
 <tileset firstgid="5556" source="../tilesets/buildings.tsx" />
 <tileset firstgid="7299" source="../tilesets/verdant-decor.tsx" />
 <tileset firstgid="7363" source="../tilesets/collision.tsx" />
 <tileset firstgid="7365" source="../tilesets/verdant-props.tsx" />
 <layer id="1" name="Ground" width="56" height="84">
  <data encoding="csv">
1,2,3,4,5,6,7,8,9,10,11,12,13,14,15,16,17,18,19,20,21,22,23,24,25,26,27,28,29,30,31,32,33,34,35,36,37,38,39,40,1,2,3,4,5,6,7,8,9,10,11,12,13,14,15,16,
41,42,43,44,45,46,47,48,49,50,51,52,53,54,55,56,57,58,59,60,61,62,63,64,65,66,67,68,69,70,71,72,73,74,75,76,77,78,79,80,41,42,43,44,45,46,47,48,49,50,51,52,53,54,55,56,
81,82,83,84,85,86,87,88,89,90,91,92,93,94,95,96,97,98,99,100,101,102,103,104,105,106,107,108,109,110,111,112,113,114,115,116,117,118,119,120,81,82,83,84,85,86,87,88,89,90,91,92,93,94,95,96,
121,122,123,124,125,126,127,128,129,130,131,132,133,134,135,136,137,138,139,140,141,142,143,144,145,146,147,148,149,150,151,152,153,154,155,156,157,158,159,160,121,122,123,124,125,126,127,128,129,130,131,132,133,134,135,136,
161,162,163,164,165,166,167,168,169,170,171,172,173,174,175,176,177,178,179,180,181,182,183,184,185,186,187,188,189,190,191,192,193,194,195,196,197,198,199,200,161,162,163,164,165,166,167,168,169,170,171,172,173,174,175,176,
201,202,203,204,205,206,207,208,209,210,211,212,213,214,215,216,217,218,219,220,221,222,223,224,225,226,227,228,229,230,231,232,233,234,235,236,237,238,239,240,201,202,203,204,205,206,207,208,209,210,211,212,213,214,215,216,
241,242,243,244,245,246,247,248,249,250,251,252,253,254,255,256,257,258,259,260,261,262,263,264,265,266,267,268,269,270,271,272,273,274,275,276,277,278,279,280,241,242,243,244,245,246,247,248,249,250,251,252,253,254,255,256,
281,282,283,284,285,286,287,288,289,290,291,292,293,294,295,296,297,298,299,300,301,302,303,304,305,306,307,308,309,310,311,312,313,314,315,316,317,318,319,320,281,282,283,284,285,286,287,288,289,290,291,292,293,294,295,296,
321,322,323,324,325,326,327,328,329,330,331,332,333,334,335,336,337,338,339,340,341,342,343,344,345,346,347,348,349,350,351,352,353,354,355,356,357,358,359,360,321,322,323,324,325,326,327,328,329,330,331,332,333,334,335,336,
361,362,363,364,365,366,367,368,369,370,371,372,373,374,375,376,377,378,379,380,381,382,383,384,385,386,387,388,389,390,391,392,393,394,395,396,397,398,399,400,361,362,363,364,365,366,367,368,369,370,371,372,373,374,375,376,
401,402,403,404,405,406,407,408,409,410,411,412,413,414,415,416,417,418,419,420,421,422,423,424,425,426,427,428,429,430,431,432,433,434,435,436,437,438,439,440,401,402,403,404,405,406,407,408,409,410,411,412,413,414,415,416,
441,442,443,444,445,446,447,448,449,450,451,452,453,454,455,456,457,458,459,460,461,462,463,464,465,466,467,468,469,470,471,472,473,474,475,476,477,478,479,480,441,442,443,444,445,446,447,448,449,450,451,452,453,454,455,456,
481,482,483,484,485,486,487,488,489,490,491,492,493,494,495,496,497,498,499,500,501,502,503,504,505,506,507,508,509,510,511,512,513,514,515,516,517,518,519,520,481,482,483,484,485,486,487,488,489,490,491,492,493,494,495,496,
521,522,523,524,525,526,527,528,529,530,531,532,533,534,535,536,537,538,539,540,541,542,543,544,545,546,547,548,549,550,551,552,553,554,555,556,557,558,559,560,521,522,523,524,525,526,527,528,529,530,531,532,533,534,535,536,
561,562,563,564,565,566,567,568,569,570,571,572,573,574,575,576,577,578,579,580,581,582,583,584,585,586,587,588,589,590,591,592,593,594,595,596,597,598,599,600,561,562,563,564,565,566,567,568,569,570,571,572,573,574,575,576,
601,602,603,604,605,606,607,608,609,610,611,612,613,614,615,616,617,618,619,620,621,622,623,624,625,626,627,628,629,630,631,632,633,634,635,636,637,638,639,640,601,602,603,604,605,606,607,608,609,610,611,612,613,614,615,616,
641,642,643,644,645,646,647,648,649,650,651,652,653,654,655,656,657,658,659,660,661,662,663,664,665,666,667,668,669,670,671,672,673,674,675,676,677,678,679,680,641,642,643,644,645,646,647,648,649,650,651,652,653,654,655,656,
681,682,683,684,685,686,687,688,689,690,691,692,693,694,695,696,697,698,699,700,701,702,703,704,705,706,707,708,709,710,711,712,713,714,715,716,717,718,719,720,681,682,683,684,685,686,687,688,689,690,691,692,693,694,695,696,
721,722,723,724,725,726,727,728,729,730,731,732,733,734,735,736,737,738,739,740,741,742,743,744,745,746,747,748,749,750,751,752,753,754,755,756,757,758,759,760,721,722,723,724,725,726,727,728,729,730,731,732,733,734,735,736,
761,762,763,764,765,766,767,768,769,770,771,772,773,774,775,776,777,778,779,780,781,782,783,784,785,786,787,788,789,790,791,792,793,794,795,796,797,798,799,800,761,762,763,764,765,766,767,768,769,770,771,772,773,774,775,776,
801,802,803,804,805,806,807,808,809,810,811,812,813,814,815,816,817,818,819,820,821,822,823,824,825,826,827,828,829,830,831,832,833,834,835,836,837,838,839,840,801,802,803,804,805,806,807,808,809,810,811,812,813,814,815,816,
841,842,843,844,845,846,847,848,849,850,851,852,853,854,855,856,857,858,859,860,861,862,863,864,865,866,867,868,869,870,871,872,873,874,875,876,877,878,879,880,841,842,843,844,845,846,847,848,849,850,851,852,853,854,855,856,
881,882,883,884,885,886,887,888,889,890,891,892,893,894,895,896,897,898,899,900,901,902,903,904,905,906,907,908,909,910,911,912,913,914,915,916,917,918,919,920,881,882,883,884,885,886,887,888,889,890,891,892,893,894,895,896,
921,922,923,924,925,926,927,928,929,930,931,932,933,934,935,936,937,938,939,940,941,942,943,944,945,946,947,948,949,950,951,952,953,954,955,956,957,958,959,960,921,922,923,924,925,926,927,928,929,930,931,932,933,934,935,936,
961,962,963,964,965,966,967,968,969,970,971,972,973,974,975,976,977,978,979,980,981,982,983,984,985,986,987,988,989,990,991,992,993,994,995,996,997,998,999,1000,961,962,963,964,965,966,967,968,969,970,971,972,973,974,975,976,
1001,1002,1003,1004,1005,1006,1007,1008,1009,1010,1011,1012,1013,1014,1015,1016,1017,1018,1019,1020,1021,1022,1023,1024,1025,1026,1027,1028,1029,1030,1031,1032,1033,1034,1035,1036,1037,1038,1039,1040,1001,1002,1003,1004,1005,1006,1007,1008,1009,1010,1011,1012,1013,1014,1015,1016,
1041,1042,1043,1044,1045,1046,1047,1048,1049,1050,1051,1052,1053,1054,1055,1056,1057,1058,1059,1060,1061,1062,1063,1064,1065,1066,1067,1068,1069,1070,1071,1072,1073,1074,1075,1076,1077,1078,1079,1080,1041,1042,1043,1044,1045,1046,1047,1048,1049,1050,1051,1052,1053,1054,1055,1056,
1081,1082,1083,1084,1085,1086,1087,1088,1089,1090,1091,1092,1093,1094,1095,1096,1097,1098,1099,1100,1101,1102,1103,1104,1105,1106,1107,1108,1109,1110,1111,1112,1113,1114,1115,1116,1117,1118,1119,1120,1081,1082,1083,1084,1085,1086,1087,1088,1089,1090,1091,1092,1093,1094,1095,1096,
1121,1122,1123,1124,1125,1126,1127,1128,1129,1130,1131,1132,1133,1134,1135,1136,1137,1138,1139,1140,1141,1142,1143,1144,1145,1146,1147,1148,1149,1150,1151,1152,1153,1154,1155,1156,1157,1158,1159,1160,1121,1122,1123,1124,1125,1126,1127,1128,1129,1130,1131,1132,1133,1134,1135,1136,
1161,1162,1163,1164,1165,1166,1167,1168,1169,1170,1171,1172,1173,1174,1175,1176,1177,1178,1179,1180,1181,1182,1183,1184,1185,1186,1187,1188,1189,1190,1191,1192,1193,1194,1195,1196,1197,1198,1199,1200,1161,1162,1163,1164,1165,1166,1167,1168,1169,1170,1171,1172,1173,1174,1175,1176,
1201,1202,1203,1204,1205,1206,1207,1208,1209,1210,1211,1212,1213,1214,1215,1216,1217,1218,1219,1220,1221,1222,1223,1224,1225,1226,1227,1228,1229,1230,1231,1232,1233,1234,1235,1236,1237,1238,1239,1240,1201,1202,1203,1204,1205,1206,1207,1208,1209,1210,1211,1212,1213,1214,1215,1216,
1241,1242,1243,1244,1245,1246,1247,1248,1249,1250,1251,1252,1253,1254,1255,1256,1257,1258,1259,1260,1261,1262,1263,1264,1265,1266,1267,1268,1269,1270,1271,1272,1273,1274,1275,1276,1277,1278,1279,1280,1241,1242,1243,1244,1245,1246,1247,1248,1249,1250,1251,1252,1253,1254,1255,1256,
1281,1282,1283,1284,1285,1286,1287,1288,1289,1290,1291,1292,1293,1294,1295,1296,1297,1298,1299,1300,1301,1302,1303,1304,1305,1306,1307,1308,1309,1310,1311,1312,1313,1314,1315,1316,1317,1318,1319,1320,1281,1282,1283,1284,1285,1286,1287,1288,1289,1290,1291,1292,1293,1294,1295,1296,
1321,1322,1323,1324,1325,1326,1327,1328,1329,1330,1331,1332,1333,1334,1335,1336,1337,1338,1339,1340,1341,1342,1343,1344,1345,1346,1347,1348,1349,1350,1351,1352,1353,1354,1355,1356,1357,1358,1359,1360,1321,1322,1323,1324,1325,1326,1327,1328,1329,1330,1331,1332,1333,1334,1335,1336,
1361,1362,1363,1364,1365,1366,1367,1368,1369,1370,1371,1372,1373,1374,1375,1376,1377,1378,1379,1380,1381,1382,1383,1384,1385,1386,1387,1388,1389,1390,1391,1392,1393,1394,1395,1396,1397,1398,1399,1400,1361,1362,1363,1364,1365,1366,1367,1368,1369,1370,1371,1372,1373,1374,1375,1376,
1401,1402,1403,1404,1405,1406,1407,1408,1409,1410,1411,1412,1413,1414,1415,1416,1417,1418,1419,1420,1421,1422,1423,1424,1425,1426,1427,1428,1429,1430,1431,1432,1433,1434,1435,1436,1437,1438,1439,1440,1401,1402,1403,1404,1405,1406,1407,1408,1409,1410,1411,1412,1413,1414,1415,1416,
1441,1442,1443,1444,1445,1446,1447,1448,1449,1450,1451,1452,1453,1454,1455,1456,1457,1458,1459,1460,1461,1462,1463,1464,1465,1466,1467,1468,1469,1470,1471,1472,1473,1474,1475,1476,1477,1478,1479,1480,1441,1442,1443,1444,1445,1446,1447,1448,1449,1450,1451,1452,1453,1454,1455,1456,
1481,1482,1483,1484,1485,1486,1487,1488,1489,1490,1491,1492,1493,1494,1495,1496,1497,1498,1499,1500,1501,1502,1503,1504,1505,1506,1507,1508,1509,1510,1511,1512,1513,1514,1515,1516,1517,1518,1519,1520,1481,1482,1483,1484,1485,1486,1487,1488,1489,1490,1491,1492,1493,1494,1495,1496,
1521,1522,1523,1524,1525,1526,1527,1528,1529,1530,1531,1532,1533,1534,1535,1536,1537,1538,1539,1540,1541,1542,1543,1544,1545,1546,1547,1548,1549,1550,1551,1552,1553,1554,1555,1556,1557,1558,1559,1560,1521,1522,1523,1524,1525,1526,1527,1528,1529,1530,1531,1532,1533,1534,1535,1536,
1561,1562,1563,1564,1565,1566,1567,1568,1569,1570,1571,1572,1573,1574,1575,1576,1577,1578,1579,1580,1581,1582,1583,1584,1585,1586,1587,1588,1589,1590,1591,1592,1593,1594,1595,1596,1597,1598,1599,1600,1561,1562,1563,1564,1565,1566,1567,1568,1569,1570,1571,1572,1573,1574,1575,1576,
1,2,3,4,5,6,7,8,9,10,11,12,13,14,15,16,17,18,19,20,21,22,23,24,25,26,27,28,29,30,31,32,33,34,35,36,37,38,39,40,1,2,3,4,5,6,7,8,9,10,11,12,13,14,15,16,
41,42,43,44,45,46,47,48,49,50,51,52,53,54,55,56,57,58,59,60,61,62,63,64,65,66,67,68,69,70,71,72,73,74,75,76,77,78,79,80,41,42,43,44,45,46,47,48,49,50,51,52,53,54,55,56,
81,82,83,84,85,86,87,88,89,90,91,92,93,94,95,96,97,98,99,100,101,102,103,104,105,106,107,108,109,110,111,112,113,114,115,116,117,118,119,120,81,82,83,84,85,86,87,88,89,90,91,92,93,94,95,96,
121,122,123,124,125,126,127,128,129,130,131,132,133,134,135,136,137,138,139,140,141,142,143,144,145,146,147,148,149,150,151,152,153,154,155,156,157,158,159,160,121,122,123,124,125,126,127,128,129,130,131,132,133,134,135,136,
161,162,163,164,165,166,167,168,169,170,171,172,173,174,175,176,177,178,179,180,181,182,183,184,185,186,187,188,189,190,191,192,193,194,195,196,197,198,199,200,161,162,163,164,165,166,167,168,169,170,171,172,173,174,175,176,
201,202,203,204,205,206,207,208,209,210,211,212,213,214,215,216,217,218,219,220,221,222,223,224,225,226,227,228,229,230,231,232,233,234,235,236,237,238,239,240,201,202,203,204,205,206,207,208,209,210,211,212,213,214,215,216,
241,242,243,244,245,246,247,248,249,250,251,252,253,254,255,256,257,258,259,260,261,262,263,264,265,266,267,268,269,270,271,272,273,274,275,276,277,278,279,280,241,242,243,244,245,246,247,248,249,250,251,252,253,254,255,256,
281,282,283,284,285,286,287,288,289,290,291,292,293,294,295,296,297,298,299,300,301,302,303,304,305,306,307,308,309,310,311,312,313,314,315,316,317,318,319,320,281,282,283,284,285,286,287,288,289,290,291,292,293,294,295,296,
321,322,323,324,325,326,327,328,329,330,331,332,333,334,335,336,337,338,339,340,341,342,343,344,345,346,347,348,349,350,351,352,353,354,355,356,357,358,359,360,321,322,323,324,325,326,327,328,329,330,331,332,333,334,335,336,
361,362,363,364,365,366,367,368,369,370,371,372,373,374,375,376,377,378,379,380,381,382,383,384,385,386,387,388,389,390,391,392,393,394,395,396,397,398,399,400,361,362,363,364,365,366,367,368,369,370,371,372,373,374,375,376,
401,402,403,404,405,406,407,408,409,410,411,412,413,414,415,416,417,418,419,420,421,422,423,424,425,426,427,428,429,430,431,432,433,434,435,436,437,438,439,440,401,402,403,404,405,406,407,408,409,410,411,412,413,414,415,416,
441,442,443,444,445,446,447,448,449,450,451,452,453,454,455,456,457,458,459,460,461,462,463,464,465,466,467,468,469,470,471,472,473,474,475,476,477,478,479,480,441,442,443,444,445,446,447,448,449,450,451,452,453,454,455,456,
481,482,483,484,485,486,487,488,489,490,491,492,493,494,495,496,497,498,499,500,501,502,503,504,505,506,507,508,509,510,511,512,513,514,515,516,517,518,519,520,481,482,483,484,485,486,487,488,489,490,491,492,493,494,495,496,
521,522,523,524,525,526,527,528,529,530,531,532,533,534,535,536,537,538,539,540,541,542,543,544,545,546,547,548,549,550,551,552,553,554,555,556,557,558,559,560,521,522,523,524,525,526,527,528,529,530,531,532,533,534,535,536,
561,562,563,564,565,566,567,568,569,570,571,572,573,574,575,576,577,578,579,580,581,582,583,584,585,586,587,588,589,590,591,592,593,594,595,596,597,598,599,600,561,562,563,564,565,566,567,568,569,570,571,572,573,574,575,576,
601,602,603,604,605,606,607,608,609,610,611,612,613,614,615,616,617,618,619,620,621,622,623,624,625,626,627,628,629,630,631,632,633,634,635,636,637,638,639,640,601,602,603,604,605,606,607,608,609,610,611,612,613,614,615,616,
641,642,643,644,645,646,647,648,649,650,651,652,653,654,655,656,657,658,659,660,661,662,663,664,665,666,667,668,669,670,671,672,673,674,675,676,677,678,679,680,641,642,643,644,645,646,647,648,649,650,651,652,653,654,655,656,
681,682,683,684,685,686,687,688,689,690,691,692,693,694,695,696,697,698,699,700,701,702,703,704,705,706,707,708,709,710,711,712,713,714,715,716,717,718,719,720,681,682,683,684,685,686,687,688,689,690,691,692,693,694,695,696,
721,722,723,724,725,726,727,728,729,730,731,732,733,734,735,736,737,738,739,740,741,742,743,744,745,746,747,748,749,750,751,752,753,754,755,756,757,758,759,760,721,722,723,724,725,726,727,728,729,730,731,732,733,734,735,736,
761,762,763,764,765,766,767,768,769,770,771,772,773,774,775,776,777,778,779,780,781,782,783,784,785,786,787,788,789,790,791,792,793,794,795,796,797,798,799,800,761,762,763,764,765,766,767,768,769,770,771,772,773,774,775,776,
801,802,803,804,805,806,807,808,809,810,811,812,813,814,815,816,817,818,819,820,821,822,823,824,825,826,827,828,829,830,831,832,833,834,835,836,837,838,839,840,801,802,803,804,805,806,807,808,809,810,811,812,813,814,815,816,
841,842,843,844,845,846,847,848,849,850,851,852,853,854,855,856,857,858,859,860,861,862,863,864,865,866,867,868,869,870,871,872,873,874,875,876,877,878,879,880,841,842,843,844,845,846,847,848,849,850,851,852,853,854,855,856,
881,882,883,884,885,886,887,888,889,890,891,892,893,894,895,896,897,898,899,900,901,902,903,904,905,906,907,908,909,910,911,912,913,914,915,916,917,918,919,920,881,882,883,884,885,886,887,888,889,890,891,892,893,894,895,896,
921,922,923,924,925,926,927,928,929,930,931,932,933,934,935,936,937,938,939,940,941,942,943,944,945,946,947,948,949,950,951,952,953,954,955,956,957,958,959,960,921,922,923,924,925,926,927,928,929,930,931,932,933,934,935,936,
961,962,963,964,965,966,967,968,969,970,971,972,973,974,975,976,977,978,979,980,981,982,983,984,985,986,987,988,989,990,991,992,993,994,995,996,997,998,999,1000,961,962,963,964,965,966,967,968,969,970,971,972,973,974,975,976,
1001,1002,1003,1004,1005,1006,1007,1008,1009,1010,1011,1012,1013,1014,1015,1016,1017,1018,1019,1020,1021,1022,1023,1024,1025,1026,1027,1028,1029,1030,1031,1032,1033,1034,1035,1036,1037,1038,1039,1040,1001,1002,1003,1004,1005,1006,1007,1008,1009,1010,1011,1012,1013,1014,1015,1016,
1041,1042,1043,1044,1045,1046,1047,1048,1049,1050,1051,1052,1053,1054,1055,1056,1057,1058,1059,1060,1061,1062,1063,1064,1065,1066,1067,1068,1069,1070,1071,1072,1073,1074,1075,1076,1077,1078,1079,1080,1041,1042,1043,1044,1045,1046,1047,1048,1049,1050,1051,1052,1053,1054,1055,1056,
1081,1082,1083,1084,1085,1086,1087,1088,1089,1090,1091,1092,1093,1094,1095,1096,1097,1098,1099,1100,1101,1102,1103,1104,1105,1106,1107,1108,1109,1110,1111,1112,1113,1114,1115,1116,1117,1118,1119,1120,1081,1082,1083,1084,1085,1086,1087,1088,1089,1090,1091,1092,1093,1094,1095,1096,
1121,1122,1123,1124,1125,1126,1127,1128,1129,1130,1131,1132,1133,1134,1135,1136,1137,1138,1139,1140,1141,1142,1143,1144,1145,1146,1147,1148,1149,1150,1151,1152,1153,1154,1155,1156,1157,1158,1159,1160,1121,1122,1123,1124,1125,1126,1127,1128,1129,1130,1131,1132,1133,1134,1135,1136,
1161,1162,1163,1164,1165,1166,1167,1168,1169,1170,1171,1172,1173,1174,1175,1176,1177,1178,1179,1180,1181,1182,1183,1184,1185,1186,1187,1188,1189,1190,1191,1192,1193,1194,1195,1196,1197,1198,1199,1200,1161,1162,1163,1164,1165,1166,1167,1168,1169,1170,1171,1172,1173,1174,1175,1176,
1201,1202,1203,1204,1205,1206,1207,1208,1209,1210,1211,1212,1213,1214,1215,1216,1217,1218,1219,1220,1221,1222,1223,1224,1225,1226,1227,1228,1229,1230,1231,1232,1233,1234,1235,1236,1237,1238,1239,1240,1201,1202,1203,1204,1205,1206,1207,1208,1209,1210,1211,1212,1213,1214,1215,1216,
1241,1242,1243,1244,1245,1246,1247,1248,1249,1250,1251,1252,1253,1254,1255,1256,1257,1258,1259,1260,1261,1262,1263,1264,1265,1266,1267,1268,1269,1270,1271,1272,1273,1274,1275,1276,1277,1278,1279,1280,1241,1242,1243,1244,1245,1246,1247,1248,1249,1250,1251,1252,1253,1254,1255,1256,
1281,1282,1283,1284,1285,1286,1287,1288,1289,1290,1291,1292,1293,1294,1295,1296,1297,1298,1299,1300,1301,1302,1303,1304,1305,1306,1307,1308,1309,1310,1311,1312,1313,1314,1315,1316,1317,1318,1319,1320,1281,1282,1283,1284,1285,1286,1287,1288,1289,1290,1291,1292,1293,1294,1295,1296,
1321,1322,1323,1324,1325,1326,1327,1328,1329,1330,1331,1332,1333,1334,1335,1336,1337,1338,1339,1340,1341,1342,1343,1344,1345,1346,1347,1348,1349,1350,1351,1352,1353,1354,1355,1356,1357,1358,1359,1360,1321,1322,1323,1324,1325,1326,1327,1328,1329,1330,1331,1332,1333,1334,1335,1336,
1361,1362,1363,1364,1365,1366,1367,1368,1369,1370,1371,1372,1373,1374,1375,1376,1377,1378,1379,1380,1381,1382,1383,1384,1385,1386,1387,1388,1389,1390,1391,1392,1393,1394,1395,1396,1397,1398,1399,1400,1361,1362,1363,1364,1365,1366,1367,1368,1369,1370,1371,1372,1373,1374,1375,1376,
1401,1402,1403,1404,1405,1406,1407,1408,1409,1410,1411,1412,1413,1414,1415,1416,1417,1418,1419,1420,1421,1422,1423,1424,1425,1426,1427,1428,1429,1430,1431,1432,1433,1434,1435,1436,1437,1438,1439,1440,1401,1402,1403,1404,1405,1406,1407,1408,1409,1410,1411,1412,1413,1414,1415,1416,
1441,1442,1443,1444,1445,1446,1447,1448,1449,1450,1451,1452,1453,1454,1455,1456,1457,1458,1459,1460,1461,1462,1463,1464,1465,1466,1467,1468,1469,1470,1471,1472,1473,1474,1475,1476,1477,1478,1479,1480,1441,1442,1443,1444,1445,1446,1447,1448,1449,1450,1451,1452,1453,1454,1455,1456,
1481,1482,1483,1484,1485,1486,1487,1488,1489,1490,1491,1492,1493,1494,1495,1496,1497,1498,1499,1500,1501,1502,1503,1504,1505,1506,1507,1508,1509,1510,1511,1512,1513,1514,1515,1516,1517,1518,1519,1520,1481,1482,1483,1484,1485,1486,1487,1488,1489,1490,1491,1492,1493,1494,1495,1496,
1521,1522,1523,1524,1525,1526,1527,1528,1529,1530,1531,1532,1533,1534,1535,1536,1537,1538,1539,1540,1541,1542,1543,1544,1545,1546,1547,1548,1549,1550,1551,1552,1553,1554,1555,1556,1557,1558,1559,1560,1521,1522,1523,1524,1525,1526,1527,1528,1529,1530,1531,1532,1533,1534,1535,1536,
1561,1562,1563,1564,1565,1566,1567,1568,1569,1570,1571,1572,1573,1574,1575,1576,1577,1578,1579,1580,1581,1582,1583,1584,1585,1586,1587,1588,1589,1590,1591,1592,1593,1594,1595,1596,1597,1598,1599,1600,1561,1562,1563,1564,1565,1566,1567,1568,1569,1570,1571,1572,1573,1574,1575,1576,
1,2,3,4,5,6,7,8,9,10,11,12,13,14,15,16,17,18,19,20,21,22,23,24,25,26,27,28,29,30,31,32,33,34,35,36,37,38,39,40,1,2,3,4,5,6,7,8,9,10,11,12,13,14,15,16,
41,42,43,44,45,46,47,48,49,50,51,52,53,54,55,56,57,58,59,60,61,62,63,64,65,66,67,68,69,70,71,72,73,74,75,76,77,78,79,80,41,42,43,44,45,46,47,48,49,50,51,52,53,54,55,56,
81,82,83,84,85,86,87,88,89,90,91,92,93,94,95,96,97,98,99,100,101,102,103,104,105,106,107,108,109,110,111,112,113,114,115,116,117,118,119,120,81,82,83,84,85,86,87,88,89,90,91,92,93,94,95,96,
121,122,123,124,125,126,127,128,129,130,131,132,133,134,135,136,137,138,139,140,141,142,143,144,145,146,147,148,149,150,151,152,153,154,155,156,157,158,159,160,121,122,123,124,125,126,127,128,129,130,131,132,133,134,135,136
</data>
 </layer>
 <layer id="2" name="Terrain" width="56" height="84">
  <data encoding="csv">
0,0,0,0,0,0,0,0,0,0,0,0,0,0,0,0,0,0,0,0,0,0,0,0,0,0,0,0,0,0,0,0,0,0,0,0,0,1614,1607,1604,1602,0,0,0,0,0,0,0,0,0,0,0,0,0,0,0,
0,0,0,0,0,0,0,0,0,0,0,0,0,0,0,0,0,0,0,0,0,0,0,0,0,0,0,0,0,0,0,0,0,0,0,0,0,1603,1608,1608,1613,0,0,0,0,0,0,0,0,0,0,0,0,0,0,0,
0,0,0,0,0,0,0,0,0,0,0,0,0,0,0,0,0,0,0,0,0,0,0,0,0,0,0,0,0,0,0,0,0,0,0,0,0,1603,1608,1608,1613,0,0,0,0,0,0,0,0,0,0,0,0,0,0,0,
0,0,0,0,0,0,0,0,0,0,0,0,0,0,0,0,0,0,0,0,0,0,0,0,0,0,0,0,0,0,0,0,0,0,0,0,0,1603,1608,1608,1613,0,0,0,0,0,0,0,0,0,0,0,0,0,0,0,
0,0,0,0,0,0,0,0,0,0,0,0,0,0,0,0,0,0,0,0,0,0,0,0,0,0,0,0,0,0,0,0,0,0,0,0,0,1603,1608,1608,1613,0,0,0,0,0,0,0,0,0,0,0,0,0,0,0,
0,0,0,0,0,0,0,0,0,0,0,0,0,0,0,0,0,0,0,0,0,0,0,0,0,0,0,0,0,0,0,0,0,0,0,0,0,1603,1608,1608,1613,0,0,0,0,0,0,0,0,0,0,0,0,0,0,0,
0,0,0,0,0,0,0,0,0,0,0,0,0,0,0,0,0,0,0,0,0,0,0,0,0,0,0,0,0,0,0,0,0,0,0,0,0,1603,1608,1609,1616,0,0,0,0,0,0,0,0,0,0,0,0,0,0,0,
0,0,0,0,0,0,0,0,0,0,0,0,0,0,0,0,0,0,0,0,0,0,0,0,0,0,0,0,0,0,0,0,0,0,0,0,0,1603,1608,1613,0,0,0,0,0,0,0,0,0,0,0,0,0,0,0,0,
0,0,0,0,0,0,0,0,0,0,0,0,0,0,0,0,0,0,0,0,0,0,0,0,0,0,0,0,0,0,0,0,0,0,0,0,1614,1607,1608,1613,0,0,0,0,0,0,0,0,0,0,0,0,0,0,0,0,
0,0,0,0,0,0,0,0,0,0,0,0,0,0,0,0,0,0,0,0,0,0,0,0,0,0,0,0,0,0,0,0,0,0,0,0,1603,1608,1608,1613,0,0,0,0,0,0,0,0,0,0,0,0,0,0,0,0,
0,0,0,0,0,0,0,0,0,0,0,0,0,0,0,0,0,0,0,0,0,0,0,0,0,0,0,0,0,0,0,0,0,0,0,0,1603,1608,1608,1613,0,0,0,0,0,0,0,0,0,0,0,0,0,0,0,0,
0,0,0,0,0,0,0,0,0,0,0,0,0,0,0,0,0,0,0,0,0,0,0,0,0,0,0,0,0,0,0,0,0,0,0,0,1603,1608,1608,1613,0,0,0,0,0,0,0,0,0,0,0,0,0,0,0,0,
0,0,0,0,0,0,0,0,0,0,0,0,0,0,0,0,0,0,0,0,0,0,0,0,0,0,0,0,0,0,0,0,0,0,0,0,1603,1608,1609,1616,0,0,0,0,0,0,0,0,0,0,0,0,0,0,0,0,
0,0,0,0,0,0,0,0,0,0,0,0,0,0,0,0,0,0,0,0,0,0,0,0,0,0,0,0,0,0,0,0,0,0,0,0,1603,1608,1613,0,0,0,0,0,0,0,0,0,0,0,0,0,0,0,0,0,
0,0,0,0,0,0,0,0,0,0,0,0,0,0,0,0,0,0,0,0,0,0,0,0,0,0,0,0,0,0,0,0,0,0,0,1614,1607,1608,1613,0,0,0,0,0,0,0,0,0,0,0,0,0,0,0,0,0,
0,0,0,0,0,0,0,0,0,0,0,0,0,0,0,0,0,0,0,0,0,0,0,0,0,0,0,0,0,0,0,0,0,0,0,1603,1608,1608,1613,0,0,0,0,0,0,0,0,0,0,0,0,0,0,0,0,0,
0,0,0,0,0,0,0,0,0,0,0,0,0,0,0,0,0,0,0,0,0,0,0,0,0,0,0,0,0,0,0,0,0,0,0,1603,1608,1608,1613,0,0,0,0,0,0,0,0,0,0,0,0,0,0,0,0,0,
0,0,0,0,0,0,0,0,0,0,0,0,0,0,0,0,0,0,0,0,0,0,0,0,0,0,0,0,0,0,0,0,0,0,0,1603,1608,1608,1613,0,0,0,0,0,0,0,0,0,0,0,0,0,0,0,0,0,
0,0,0,0,0,0,0,0,0,0,0,0,0,0,0,0,0,0,0,0,0,0,0,0,0,0,0,0,0,0,0,0,0,0,0,1603,1608,1608,1613,0,0,0,0,0,0,0,0,0,0,0,0,0,0,0,0,0,
0,0,0,0,0,0,0,0,0,0,0,0,0,0,0,0,0,0,0,0,0,0,0,0,0,0,0,0,0,0,0,0,0,0,0,1603,1608,1608,1613,0,0,0,0,0,0,0,0,0,0,0,0,0,0,0,0,0,
0,0,0,0,0,0,0,0,0,0,0,0,0,0,0,0,0,0,0,0,0,0,0,0,0,0,0,0,0,0,0,0,0,0,0,1603,1608,1608,1613,0,0,0,0,0,0,0,0,0,0,0,0,0,0,0,0,0,
0,0,0,0,0,0,0,0,0,0,0,0,0,0,0,0,0,0,0,0,0,0,0,0,0,0,0,0,0,0,0,0,0,0,0,1603,1608,1608,1613,0,0,0,0,0,0,0,0,0,0,0,0,0,0,0,0,0,
0,0,0,0,0,0,0,0,0,0,0,0,0,0,0,0,0,0,0,0,0,0,0,0,0,0,0,0,0,0,0,0,0,0,0,1603,1608,1608,1613,0,0,0,0,0,0,0,0,0,0,0,0,0,0,0,0,0,
0,0,0,0,0,0,0,0,0,0,0,0,0,0,0,0,0,0,0,0,0,0,0,0,0,0,0,0,0,0,0,0,0,0,0,1603,1608,1608,1613,0,0,0,0,0,0,0,0,0,0,0,0,0,0,0,0,0,
0,0,0,0,0,0,0,0,0,0,0,0,0,0,0,0,0,0,0,0,0,0,0,0,0,0,0,0,0,0,0,0,0,0,0,1603,1608,1608,1613,0,0,0,0,0,0,0,0,0,0,0,0,0,0,0,0,0,
0,0,0,0,0,0,0,0,0,0,0,0,0,0,0,0,0,0,0,0,0,0,0,0,0,0,0,0,0,0,0,0,0,0,0,1603,1608,1608,1613,0,0,0,0,0,0,0,0,0,0,0,0,0,0,0,0,0,
0,0,0,0,0,0,0,0,0,0,0,0,0,0,0,0,0,0,0,0,0,0,0,0,0,0,0,0,0,0,0,0,0,0,0,1603,1608,1608,1613,0,0,0,0,0,0,0,0,0,0,0,0,0,0,0,0,0,
0,0,0,0,0,0,0,0,0,0,0,0,0,0,0,0,0,0,0,0,0,0,0,0,0,0,0,0,0,0,0,0,0,0,0,1603,1608,1608,1613,0,0,0,0,0,0,0,0,0,0,0,0,0,0,0,0,0,
0,0,0,0,0,0,0,0,0,0,0,0,0,0,0,0,0,0,0,0,0,0,0,0,0,0,0,0,0,0,0,0,0,0,0,1603,1608,1608,1613,0,0,0,0,0,0,0,0,0,0,0,0,0,0,0,0,0,
0,0,0,0,0,0,0,0,0,0,0,0,0,0,0,0,0,0,0,0,0,0,0,0,0,0,0,0,0,0,0,0,0,0,0,1603,1608,1608,1613,0,0,0,0,0,0,0,0,0,0,0,0,0,0,0,0,0,
0,0,0,0,0,0,0,0,0,0,0,0,0,0,0,0,0,0,0,0,0,0,0,0,0,0,0,0,0,0,0,0,0,0,0,1603,1608,1608,1613,0,0,0,0,0,0,0,0,0,0,0,0,0,0,0,0,0,
0,0,0,0,0,0,0,0,0,0,0,0,0,0,0,0,0,0,0,0,0,0,0,0,0,0,0,0,0,0,0,0,0,0,0,1603,1608,1608,1613,0,0,0,0,0,0,0,0,0,0,0,0,0,0,0,0,0,
0,0,0,0,0,0,0,0,0,0,0,0,0,0,0,0,0,0,0,0,0,0,0,0,0,0,0,0,0,0,0,0,0,0,0,1603,1608,1608,1613,0,0,0,0,0,0,0,0,0,0,0,0,0,0,0,0,0,
0,0,0,0,0,0,0,0,0,0,0,0,0,0,0,0,0,0,0,0,0,0,0,0,0,0,0,0,0,0,0,0,0,0,0,1610,1612,1608,1613,0,0,0,0,0,0,0,0,0,0,0,0,0,0,0,0,0,
0,0,0,0,0,0,0,0,0,0,0,0,0,0,0,0,0,0,0,0,0,0,0,0,0,0,0,0,0,0,0,0,0,0,0,0,1603,1608,1604,1602,0,0,0,0,0,0,0,0,0,0,0,0,0,0,0,0,
0,0,0,0,0,0,0,0,0,0,0,0,0,0,0,0,0,0,0,0,0,0,0,0,0,0,0,0,0,0,0,0,0,0,0,0,1603,1608,1608,1613,0,0,0,0,0,0,0,0,0,0,0,0,0,0,0,0,
0,0,0,0,0,0,0,0,0,0,0,0,0,0,0,0,0,0,0,0,0,0,0,0,0,0,0,0,0,0,0,0,0,0,0,0,1603,1608,1608,1613,0,0,0,0,0,0,0,0,0,0,0,0,0,0,0,0,
0,0,0,0,0,0,0,0,0,0,0,0,0,0,0,0,0,0,0,0,0,0,0,0,0,0,0,0,0,0,0,0,0,0,0,0,1610,1612,1608,1613,0,0,0,0,0,0,0,0,0,0,0,0,0,0,0,0,
0,0,0,0,0,0,0,0,0,0,0,0,0,0,0,0,0,0,0,0,0,0,0,0,0,0,0,0,0,0,0,0,0,0,0,0,0,1603,1608,1604,1602,0,0,0,0,0,0,0,0,0,0,0,0,0,0,0,
0,0,0,0,0,0,0,0,0,0,0,0,0,0,0,0,0,0,0,0,0,0,0,0,0,0,0,0,0,0,0,0,0,0,0,0,0,1603,1608,1608,1613,0,0,0,0,0,0,0,0,0,0,0,0,0,0,0,
0,0,0,0,0,0,0,0,0,0,0,0,0,0,0,0,0,0,0,0,0,0,0,0,0,0,0,0,0,0,0,0,0,0,0,0,0,1603,1608,1608,1613,0,0,0,0,0,0,0,0,0,0,0,0,0,0,0,
0,0,0,0,0,0,0,0,0,0,0,0,0,0,0,0,0,0,0,0,0,0,0,0,0,0,0,0,0,0,0,0,0,0,0,0,0,1610,1612,1608,1613,0,0,0,0,0,0,0,0,0,0,0,0,0,0,0,
0,0,0,0,0,0,0,0,0,0,0,0,0,0,0,0,0,0,0,0,0,0,0,0,0,0,0,0,0,0,0,0,0,0,0,0,0,0,1603,1608,1613,0,0,0,0,0,0,0,0,0,0,0,0,0,0,0,
0,0,0,0,0,0,0,0,0,0,0,0,0,0,0,0,0,0,0,0,0,0,0,0,0,0,0,0,0,0,0,0,0,0,0,0,0,0,1603,1608,1604,1602,0,0,0,0,0,0,0,0,0,0,0,0,0,0,
0,0,0,0,0,0,0,0,0,0,0,0,0,0,0,0,0,0,0,0,0,0,0,0,0,0,0,0,0,0,0,0,0,0,0,0,0,0,1603,1608,1608,1613,0,0,0,0,0,0,0,0,0,0,0,0,0,0,
0,0,0,0,0,0,0,0,0,0,0,0,0,0,0,0,0,0,0,0,0,0,0,0,0,0,0,0,0,0,0,0,0,0,0,0,0,0,1603,1608,1608,1613,0,0,0,0,0,0,0,0,0,0,0,0,0,0,
0,0,0,0,0,0,0,0,0,0,0,0,0,0,0,0,0,0,0,0,0,0,0,0,0,0,0,0,0,0,0,0,0,0,0,0,0,0,1603,1608,1608,1613,0,0,0,0,0,0,0,0,0,0,0,0,0,0,
0,0,0,0,0,0,0,0,0,0,0,0,0,0,0,0,0,0,0,0,0,0,0,0,0,0,0,0,0,0,0,0,0,0,0,0,0,0,1610,1612,1608,1613,0,0,0,0,0,0,0,0,0,0,0,0,0,0,
0,0,0,0,0,0,0,0,0,0,0,0,0,0,0,0,0,0,0,0,0,0,0,0,0,0,0,0,0,0,0,0,0,0,0,0,0,0,0,1603,1608,1613,0,0,0,0,0,0,0,0,0,0,0,0,0,0,
0,0,0,0,0,0,0,0,0,0,0,0,0,0,0,0,0,0,0,0,0,0,0,0,0,0,0,0,0,0,0,0,0,0,0,0,0,0,0,1603,1608,1604,1602,0,0,0,0,0,0,0,0,0,0,0,0,0,
0,0,0,0,0,0,0,0,0,0,0,0,0,0,0,0,0,0,0,0,0,0,0,0,0,0,0,0,0,0,0,0,0,0,0,0,0,0,0,1603,1608,1608,1613,0,0,0,0,0,0,0,0,0,0,0,0,0,
0,0,0,0,0,0,0,0,0,0,0,0,0,0,0,0,0,0,0,0,0,0,0,0,0,0,0,0,0,0,0,0,0,0,0,0,0,0,0,1603,1608,1608,1613,0,0,0,0,0,0,0,0,0,0,0,0,0,
0,0,0,0,0,0,0,0,0,0,0,0,0,0,0,0,0,0,0,0,0,0,0,0,0,0,0,0,0,0,0,0,0,0,0,0,0,0,0,1603,1608,1608,1613,0,0,0,0,0,0,0,0,0,0,0,0,0,
0,0,0,0,0,0,0,0,0,0,0,0,0,0,0,0,0,0,0,0,0,0,0,0,0,0,0,0,0,0,0,0,0,0,0,0,0,0,0,1603,1608,1608,1613,0,0,0,0,0,0,0,0,0,0,0,0,0,
0,0,0,0,0,0,0,0,0,0,0,0,0,0,0,0,0,0,0,0,0,0,0,0,0,0,0,0,0,0,0,0,0,0,0,0,0,0,0,1603,1608,1608,1613,0,0,0,0,0,0,0,0,0,0,0,0,0,
0,0,0,0,0,0,0,0,0,0,0,0,0,0,0,0,0,0,0,0,0,0,0,0,0,0,0,0,0,0,0,0,0,0,0,0,0,0,0,1603,1608,1608,1613,0,0,0,0,0,0,0,0,0,0,0,0,0,
0,0,0,0,0,0,0,0,0,0,0,0,0,0,0,0,0,0,0,0,0,0,0,0,0,0,0,0,0,0,0,0,0,0,0,0,0,0,0,1603,1608,1608,1613,0,0,0,0,0,0,0,0,0,0,0,0,0,
0,0,0,0,0,0,0,0,0,0,0,0,0,0,0,0,0,0,0,0,0,0,0,0,0,0,0,0,0,0,0,0,0,0,0,0,0,0,0,1603,1608,1608,1613,0,0,0,0,0,0,0,0,0,0,0,0,0,
0,0,0,0,0,0,0,0,0,0,0,0,0,0,0,0,0,0,0,0,0,0,0,0,0,0,0,0,0,0,0,0,0,0,0,0,0,0,0,1603,1608,1608,1613,0,0,0,0,0,0,0,0,0,0,0,0,0,
0,0,0,0,0,0,0,0,0,0,0,0,0,0,0,0,0,0,0,0,0,0,0,0,0,0,0,0,0,0,0,0,0,0,0,0,0,0,0,1603,1608,1608,1613,0,0,0,0,0,0,0,0,0,0,0,0,0,
0,0,0,0,0,0,0,0,0,0,0,0,0,0,0,0,0,0,0,0,0,0,0,0,0,0,0,0,0,0,0,0,0,0,0,0,0,0,0,1603,1608,1608,1613,0,0,0,0,0,0,0,0,0,0,0,0,0,
0,0,0,0,0,0,0,0,0,0,0,0,0,0,0,0,0,0,0,0,0,0,0,0,0,0,0,0,0,0,0,0,0,0,0,0,0,0,0,1603,1608,1608,1613,0,0,0,0,0,0,0,1614,1602,0,0,0,0,
0,0,0,0,0,0,0,0,0,0,0,0,0,0,0,0,0,0,0,0,0,0,0,0,0,0,0,0,0,0,0,0,0,0,0,0,0,0,0,1603,1608,1608,1613,0,0,0,0,0,1614,1605,1607,1604,1602,0,0,0,
0,0,0,0,0,0,0,0,0,0,0,0,0,0,0,0,0,0,0,0,0,0,0,0,0,0,0,0,0,0,0,0,0,0,0,0,0,0,0,1603,1608,1608,1613,0,0,0,0,1614,1607,1608,1608,1608,1604,1602,0,0,
0,0,0,0,0,0,0,0,0,0,0,0,0,0,0,0,0,0,0,0,0,0,0,0,0,0,0,0,0,0,0,0,0,0,0,0,0,0,0,1603,1608,1608,1613,0,0,0,0,1610,1612,1608,1608,1608,1609,1616,0,0,
0,0,0,0,0,0,0,0,0,0,0,0,0,0,0,0,0,0,0,0,0,0,0,0,0,0,0,0,0,0,0,0,0,0,0,0,0,0,0,1603,1608,1608,1613,0,0,0,0,0,1610,1611,1611,1611,1616,0,0,0,
0,0,0,0,0,0,0,0,0,0,0,0,0,0,0,0,0,0,0,0,0,0,0,0,0,0,0,0,0,0,0,0,0,0,0,0,0,0,0,1610,1612,1608,1613,0,0,0,0,0,0,0,0,0,0,0,0,0,
0,0,0,0,0,0,0,0,0,0,0,0,0,0,0,0,0,0,0,0,0,0,0,0,0,0,0,0,0,0,0,0,0,0,0,0,0,0,0,0,1603,1608,1604,1602,0,0,0,0,0,0,0,1614,1605,1602,0,0,
0,0,0,0,0,0,0,0,0,0,0,0,0,0,0,0,0,0,0,0,0,0,0,0,0,0,0,0,0,0,0,0,0,0,0,0,0,0,0,0,1603,1608,1608,1613,0,0,0,0,0,0,1614,1607,1608,1604,1602,0,
0,0,0,0,0,0,0,0,0,0,0,0,0,0,0,0,0,0,0,0,0,0,0,0,0,0,0,0,0,0,0,0,0,0,0,0,0,0,0,0,1610,1612,1608,1604,1602,0,0,0,0,0,1603,1608,1608,1608,1613,0,
0,0,0,0,0,0,0,0,0,0,0,0,0,0,0,0,0,0,0,0,0,0,0,0,0,0,0,0,0,0,0,0,0,0,0,0,0,0,0,0,0,1603,1608,1608,1613,0,0,0,0,0,1610,1612,1608,1609,1616,0,
0,0,0,0,0,0,0,0,0,0,0,0,0,0,0,0,0,0,0,0,0,0,0,0,0,0,0,0,0,0,0,0,0,0,0,0,0,0,0,0,0,1610,1612,1608,1604,1602,0,0,0,0,0,1610,1611,1616,0,0,
0,0,0,0,0,0,0,0,0,0,0,0,0,0,0,0,0,0,0,0,0,0,0,0,0,0,0,0,0,0,0,0,0,0,0,0,0,0,0,0,0,0,1610,1612,1608,1604,1602,0,0,0,0,0,0,0,0,0,
0,0,0,0,0,0,0,0,0,0,0,0,0,0,0,0,0,0,0,0,0,0,0,0,0,0,0,0,0,0,0,0,0,0,0,0,0,0,0,0,0,0,0,1610,1612,1608,1604,1602,0,0,0,0,0,0,0,0,
0,0,0,0,0,0,0,0,0,0,0,0,0,0,0,0,0,0,0,0,0,0,0,0,0,0,0,0,0,0,0,0,0,0,0,0,0,0,0,0,0,0,0,1614,1607,1608,1608,1604,1605,1605,1602,0,0,0,0,0,
0,0,0,0,0,0,0,0,0,0,0,0,0,0,0,0,0,0,0,0,0,0,0,0,0,0,0,0,0,0,0,0,0,0,0,0,0,0,0,0,0,0,0,1603,1608,1608,1608,1608,1608,1608,1604,1602,0,0,0,0,
0,0,0,0,0,0,0,0,0,0,0,0,0,0,0,0,0,0,0,0,0,0,0,0,0,0,0,0,0,0,0,0,0,0,0,0,0,0,0,0,0,0,0,1603,1608,1608,1608,1608,1608,1608,1608,1613,0,0,0,0,
0,0,0,0,0,0,0,0,0,0,0,0,0,0,0,0,0,0,0,0,0,0,0,0,0,0,0,0,0,0,0,0,0,0,0,0,0,0,0,0,0,0,0,1610,1612,1608,1608,1608,1608,1608,1609,1616,0,0,0,0,
0,0,0,0,0,0,0,0,0,0,0,0,0,0,0,0,0,0,0,0,0,0,0,0,0,0,0,0,0,0,0,0,0,0,0,0,0,0,0,0,0,0,0,0,1610,1612,1608,1609,1611,1611,1616,0,0,0,0,0,
0,0,0,0,0,0,0,0,0,0,0,0,0,0,0,0,0,0,0,0,0,0,0,0,0,0,0,0,0,0,0,0,0,0,0,0,0,0,0,0,0,0,0,0,0,1610,1611,1616,0,0,0,0,0,0,0,0,
0,0,0,0,0,0,0,0,0,0,0,0,0,0,0,0,0,0,0,0,0,0,0,0,0,0,0,0,0,0,0,0,0,0,0,0,0,0,0,0,0,0,0,0,0,0,0,0,0,0,0,0,0,0,0,0,
0,0,0,0,0,0,0,0,0,0,0,0,0,0,0,0,0,0,0,0,0,0,0,0,0,0,0,0,0,0,0,0,0,0,0,0,0,0,0,0,0,0,0,0,0,0,0,0,0,0,0,0,0,0,0,0,
0,0,0,0,0,0,0,0,0,0,0,0,0,0,0,0,0,0,0,0,0,0,0,0,0,0,0,0,0,0,0,0,0,0,0,0,0,0,0,0,0,0,0,0,0,0,0,0,0,0,0,0,0,0,0,0,
0,0,0,0,0,0,0,0,0,0,0,0,0,0,0,0,0,0,0,0,0,0,0,0,0,0,0,0,0,0,0,0,0,0,0,0,0,0,0,0,0,0,0,0,0,0,0,0,0,0,0,0,0,0,0,0
</data>
 </layer>
 <layer id="3" name="Overlay" width="56" height="84">
  <data encoding="csv">
0,0,0,0,0,0,0,0,0,0,0,0,0,0,0,0,0,0,0,1944,3976,3977,1945,0,0,0,0,0,0,0,0,0,0,0,0,0,0,1617,2394,2395,2356,1618,0,0,0,0,0,0,0,0,0,0,0,0,0,0,
0,0,0,0,0,0,0,0,0,0,0,0,0,0,0,0,0,0,0,1946,4016,4017,1947,0,0,0,0,0,0,0,0,0,0,0,0,0,1619,1620,2434,2435,2396,1621,0,0,0,0,0,0,0,0,0,0,0,0,0,0,
0,0,0,0,0,0,0,0,0,0,0,0,0,0,0,0,0,0,0,1948,4056,1949,1950,0,0,0,0,0,0,0,0,0,0,0,0,0,1622,1623,2474,2475,2436,1624,0,0,0,0,0,0,0,0,0,0,0,0,0,0,
0,0,0,0,0,0,0,0,0,0,0,0,0,0,0,0,0,0,0,1951,1952,1953,0,0,0,0,0,0,0,0,0,0,0,0,0,0,1625,2513,2514,2515,2476,1626,0,0,0,0,0,0,0,0,0,0,0,0,0,0,
0,0,0,0,0,0,0,0,0,0,0,0,0,0,0,0,0,0,0,1954,4136,1955,0,0,0,0,0,0,0,0,0,0,0,0,0,0,1627,2553,2554,2555,2516,1628,0,0,0,0,0,0,0,0,0,0,0,0,0,0,
0,0,0,0,0,0,0,0,0,0,0,0,0,0,0,0,0,0,0,1956,4176,1957,0,0,0,0,0,0,0,0,0,0,0,0,0,0,1629,2593,2594,2595,2556,1630,0,0,0,0,0,0,0,0,0,0,0,0,0,0,
0,0,0,0,0,0,0,0,0,0,0,0,0,0,0,0,0,0,0,1958,4216,1959,0,0,0,0,0,0,0,0,0,0,0,0,0,0,1631,2633,2634,2635,1632,1633,0,0,0,0,0,0,0,0,0,0,0,0,0,0,
0,0,0,0,0,0,0,0,0,0,0,0,0,0,0,0,0,0,1960,1961,4256,1962,0,0,0,0,0,0,0,0,0,0,0,0,0,0,1634,2673,2674,2675,1635,1636,0,0,0,0,0,0,0,0,0,0,0,0,0,0,
0,0,0,0,0,0,0,0,0,0,0,0,0,0,0,0,0,0,1963,4295,1964,1965,0,0,0,0,0,0,0,0,0,0,0,0,0,1637,1638,2713,2714,2715,1639,0,0,0,0,0,0,0,0,0,0,0,0,0,0,0,
0,0,0,0,0,0,0,0,0,0,0,0,0,0,0,0,0,0,1966,4335,1967,0,0,0,0,0,0,0,0,0,0,0,0,0,0,1640,1641,2753,2754,2755,1642,0,0,0,0,0,0,0,0,0,0,0,0,0,0,0,
0,0,0,0,0,0,0,0,0,0,0,0,0,0,0,0,0,0,1968,4375,1969,0,0,0,0,0,0,0,0,0,0,0,0,0,0,1643,2792,2793,2794,2795,1644,0,0,0,0,0,0,0,0,0,0,0,0,0,0,0,
0,0,0,0,0,0,0,0,0,0,0,0,0,0,0,0,0,1970,1971,4415,1972,0,0,0,0,0,0,0,0,0,0,0,0,0,0,1645,2832,2833,2834,1646,1647,0,0,0,0,0,0,0,0,0,0,0,0,0,0,0,
0,0,0,0,0,0,0,0,0,0,0,0,0,0,0,0,0,1973,4454,1974,1975,0,0,0,0,0,0,0,0,0,0,0,0,0,0,1648,2872,2873,2874,1649,1650,0,0,0,0,0,0,0,0,0,0,0,0,0,0,0,
0,0,0,0,0,0,0,0,0,0,0,0,0,0,0,0,0,1976,4494,1977,0,0,0,0,0,0,0,0,0,0,0,0,0,0,0,1651,2912,2913,2914,1652,0,0,0,0,0,0,0,0,0,0,0,0,0,0,0,0,
0,0,0,0,0,0,0,0,0,0,0,0,0,0,0,0,1978,1979,4534,1980,0,0,0,0,0,0,0,0,0,0,0,0,0,0,1653,1654,2952,2953,2954,1655,0,0,0,0,0,0,0,0,0,0,0,0,0,0,0,0,
0,0,0,0,0,0,0,0,0,0,0,0,0,0,0,0,1981,4573,1982,1983,0,0,0,0,0,0,0,0,0,0,0,0,0,0,1656,1657,2992,2993,2994,1658,0,0,0,0,0,0,0,0,0,0,0,0,0,0,0,0,
0,0,0,0,0,0,0,0,0,0,0,0,0,0,0,0,1984,4613,1985,1986,0,0,0,0,0,0,0,0,0,0,0,0,0,0,1659,3031,3032,3033,3034,1660,0,0,0,0,0,0,0,0,0,0,0,0,0,0,0,0,
0,0,0,0,0,0,0,0,0,0,0,0,0,0,0,0,1987,4653,1988,0,0,0,0,0,0,0,0,0,0,0,0,0,0,0,1661,3071,3072,3073,3074,1662,0,0,0,0,0,0,0,0,0,0,0,0,0,0,0,0,
0,0,0,0,0,0,0,0,0,0,0,0,0,0,0,0,1989,1990,1991,0,0,0,0,0,0,0,0,0,0,0,0,0,0,0,1663,3111,3112,3113,3114,1664,0,0,0,0,0,0,0,0,0,0,0,0,0,0,0,0,
0,0,0,0,0,0,0,0,0,0,0,0,0,0,0,0,1992,1993,1994,0,0,0,0,0,0,0,0,0,0,0,0,0,0,0,1665,3151,3152,3153,3154,1666,0,0,0,0,0,0,0,0,0,0,0,0,0,0,0,0,
0,0,0,0,0,0,0,0,0,0,0,0,0,0,0,1995,1996,1997,1998,0,0,0,0,0,0,0,0,0,0,0,0,0,0,0,1667,3191,3192,3193,3194,1668,0,0,0,0,0,0,0,0,0,0,0,0,0,0,0,0,
0,0,0,0,0,0,0,0,0,0,0,0,0,0,0,1999,2000,2001,2002,0,0,0,0,0,0,0,0,0,0,0,0,0,0,0,1669,3231,3232,3233,3234,1670,0,0,0,0,0,0,0,0,0,0,0,0,0,0,0,0,
0,0,0,0,0,0,0,0,0,0,0,0,0,0,0,2003,4852,2004,2005,0,0,0,0,0,0,0,0,0,0,0,0,0,0,0,1671,3271,3272,3273,3274,1672,0,0,0,0,0,0,0,0,0,0,0,0,0,0,0,0,
0,0,0,0,0,0,0,0,0,0,0,2006,2007,0,0,2008,4892,2009,2010,0,0,0,0,0,0,0,0,0,0,0,0,0,0,0,1673,3311,3312,3313,3314,1674,0,0,0,0,0,0,0,0,0,0,0,0,0,0,0,0,
0,0,0,0,0,0,0,0,0,0,0,2011,2012,2013,0,2014,4932,2015,0,0,0,0,0,0,0,0,0,0,0,0,0,0,0,2016,1675,1676,3352,3353,1677,1678,0,0,0,0,0,0,0,0,0,0,0,0,0,0,0,0,
0,0,0,0,0,0,0,0,0,0,0,2017,2018,2019,0,2020,4972,2021,2022,0,0,2023,2024,2025,0,0,0,2026,2027,0,0,0,0,2028,1679,1680,3392,3393,1681,1682,0,0,0,0,0,0,2029,2030,2031,2032,0,0,0,0,0,0,
0,0,0,0,0,0,0,0,0,0,0,2033,2034,2035,2036,2037,5012,2038,2039,0,0,2040,2041,2042,0,0,0,2043,2044,0,0,0,2045,2046,1683,1684,3432,3433,1685,1686,0,0,0,2047,2048,2049,2050,2051,2052,2053,0,0,0,0,0,0,
0,0,0,0,0,0,0,0,0,0,0,2054,2055,2056,5050,5051,5052,5053,2057,0,0,2058,2059,2060,0,0,0,2061,2062,0,0,0,2063,2064,1687,1688,1689,1690,1691,2065,2066,2067,2068,2069,2070,2071,2072,2073,0,0,0,0,0,0,0,0,
0,0,0,0,0,0,0,0,0,0,0,0,2074,2075,2076,2077,5092,5093,2078,2079,0,2080,5098,2081,2082,2083,2084,2085,2086,2087,2088,2089,2090,2091,5110,1692,1693,1694,1695,1696,5076,2092,2093,2094,2095,0,0,0,0,0,0,0,0,0,0,0,
0,0,0,0,0,0,0,0,0,0,0,0,0,0,0,2096,5132,5133,5134,2097,2098,2099,5138,2100,5140,5141,5142,5143,5144,5145,2101,2102,2103,2104,1697,1698,1699,1700,1701,2105,2106,2107,2108,0,0,0,0,0,0,0,0,0,0,0,0,0,
0,0,0,0,0,0,0,0,0,0,0,0,0,0,0,2109,2110,2111,2112,2113,2114,2115,2116,2117,2118,2119,2120,2121,2122,2123,2124,2125,0,0,1702,1703,3592,3593,1704,0,0,0,0,0,0,0,0,0,0,0,0,0,0,0,0,0,
0,0,0,0,0,0,0,0,0,0,0,0,0,0,0,2126,2127,2128,2129,0,0,0,0,0,0,0,0,0,0,0,0,0,0,0,0,1705,3632,3633,1706,1707,0,0,0,0,0,0,0,0,0,0,0,0,0,0,0,0,
0,0,0,0,0,0,0,0,0,0,0,0,0,0,0,2130,2131,2132,0,0,0,0,0,0,0,0,0,0,0,0,0,0,0,0,1708,1709,3672,3673,1710,1711,0,0,0,0,0,0,0,0,0,0,0,0,0,0,0,0,
0,0,0,0,0,0,0,0,0,0,0,0,0,0,0,2133,2134,2135,0,0,0,0,0,0,0,0,0,0,0,0,0,0,0,0,1712,1713,3712,3713,3714,1714,0,0,0,0,0,0,0,0,0,0,0,0,0,0,0,0,
0,0,0,0,0,0,0,0,0,0,0,0,0,0,0,2136,5332,2137,0,0,0,0,0,0,0,0,0,0,0,0,0,0,0,0,1702,1715,3752,3753,3754,1716,1717,0,0,0,0,0,0,0,0,0,0,0,0,0,0,0,
0,0,0,0,0,0,0,0,0,0,0,0,0,0,0,2138,5372,2139,0,0,0,0,0,0,0,0,0,0,0,0,0,0,0,0,0,1718,3792,3793,3794,3795,1719,0,0,0,0,0,0,0,0,0,0,0,0,0,0,0,
0,0,0,0,0,0,0,0,0,0,0,0,0,0,0,2140,5412,2141,0,0,0,0,0,0,0,0,0,0,0,0,0,0,0,0,0,1720,3832,3833,3834,3835,1721,0,0,0,0,0,0,0,0,0,0,0,0,0,0,0,
0,0,0,0,0,0,0,0,0,0,0,0,0,0,0,2142,5452,2143,0,0,0,0,0,0,0,0,0,0,0,0,0,0,0,0,0,1722,1723,3873,3874,3875,1724,0,0,0,0,0,0,0,0,0,0,0,0,0,0,0,
0,0,0,0,0,0,0,0,0,0,0,0,0,0,0,2144,5492,2145,0,0,0,0,0,0,0,0,0,0,0,0,0,0,0,0,0,1725,1726,3913,3914,3915,1727,1728,0,0,0,0,0,0,0,0,0,0,0,0,0,0,
0,0,0,0,0,0,0,0,0,0,0,0,0,0,2146,2147,5532,2148,0,0,0,0,0,0,0,0,0,0,0,0,0,0,0,0,0,0,1729,3953,3954,3955,1730,1731,0,0,0,0,0,0,0,0,0,0,0,0,0,0,
0,0,0,0,0,0,0,0,0,0,0,0,0,0,2149,2150,3972,2151,0,0,0,0,0,0,0,0,0,0,0,0,0,0,0,0,0,0,1732,1733,2394,2395,2356,1734,0,0,0,0,0,0,0,0,0,0,0,0,0,0,
0,0,0,0,0,0,0,0,0,0,0,0,0,0,2152,2153,4012,2154,0,0,0,0,0,0,0,0,0,0,0,0,0,0,0,0,0,0,1735,1736,2434,2435,2396,1737,0,0,0,0,0,0,0,0,0,0,0,0,0,0,
0,0,0,0,0,0,0,0,0,0,0,0,0,0,2155,2156,4052,2157,0,0,0,0,0,0,0,0,0,0,0,0,0,0,0,0,0,0,0,1738,2474,2475,2436,1739,1740,0,0,0,0,0,0,0,0,0,0,0,0,0,
0,0,0,0,0,0,0,0,0,0,0,0,0,0,2074,2158,4092,2159,0,0,0,0,0,0,0,0,0,0,0,0,0,0,0,0,0,0,0,1741,2514,2515,2476,1742,1743,0,0,0,0,0,0,0,0,0,0,0,0,0,
0,0,0,0,0,0,0,0,0,0,0,0,0,0,0,2160,4132,2161,0,0,0,0,0,0,0,0,0,0,0,0,0,0,0,0,0,0,0,1744,2554,2555,2516,1745,1746,0,0,0,0,0,0,0,0,0,0,0,0,0,
0,0,0,0,0,0,0,0,0,0,0,0,0,0,0,2162,4172,2163,0,0,0,0,0,0,0,0,0,0,0,0,0,0,0,0,0,0,0,1747,1748,2595,2556,2557,1749,0,0,0,0,0,0,0,0,0,0,0,0,0,
0,0,0,0,0,0,0,0,0,0,0,0,0,0,0,2164,2165,2166,0,0,0,0,0,0,0,0,0,0,0,0,0,0,0,0,0,0,0,1750,1751,2635,2596,2597,1752,0,0,0,0,0,0,0,0,0,0,0,0,0,
0,0,0,0,0,0,0,0,0,0,0,0,0,0,0,2167,2168,2169,2170,0,0,0,0,0,0,0,0,0,0,0,0,0,0,0,0,0,0,1753,1754,2675,2636,2637,1755,1756,0,0,0,0,0,0,0,0,0,0,0,0,
0,0,0,0,0,0,0,0,0,0,0,0,0,0,0,0,2171,4293,2172,0,0,0,0,0,0,0,0,0,0,0,0,0,0,0,0,0,0,1757,1758,2715,2676,2677,1759,1760,0,0,0,0,0,0,0,0,0,0,0,0,
0,0,0,0,0,0,0,0,0,0,0,0,0,0,0,0,2173,4333,2174,0,0,0,0,0,0,0,0,0,0,0,0,0,0,0,0,0,0,1761,1762,2755,2716,2717,2718,1763,0,0,0,0,0,0,0,0,0,0,0,0,
0,0,0,0,0,0,0,0,0,0,0,0,0,0,0,0,2175,4373,2176,0,0,0,0,0,0,0,0,0,0,0,0,0,0,0,0,0,0,0,1764,2795,2756,2757,2758,1765,0,0,0,0,0,0,0,0,0,0,0,0,
0,0,0,0,0,0,0,0,0,0,0,0,0,0,0,0,2177,2178,2179,2180,0,0,0,0,0,0,0,0,0,0,0,0,0,0,0,0,0,0,1766,2835,2796,2797,2798,1767,0,0,0,0,0,0,0,0,0,0,0,0,
0,0,0,0,0,0,0,0,0,0,0,0,0,0,0,0,2181,2182,2183,2184,0,0,0,0,0,0,0,0,0,0,0,0,0,0,0,0,0,0,1768,2875,2836,2837,2838,1769,0,0,0,0,0,0,0,0,0,0,0,0,
0,0,0,0,0,0,0,0,0,0,0,0,0,0,0,0,0,2185,4494,2186,0,0,0,0,0,0,0,0,0,0,0,0,0,0,0,0,0,0,1770,2915,2876,2877,2878,1771,0,0,0,0,0,0,0,0,0,0,0,0,
0,0,0,0,0,0,0,0,0,0,0,0,0,0,0,0,0,2187,4534,2188,0,0,0,0,0,0,0,0,0,0,0,0,0,0,0,0,0,0,1772,2955,2916,2917,2918,1773,0,0,0,0,0,0,0,0,0,0,0,0,
0,0,0,0,0,0,0,0,0,0,0,0,0,0,0,0,0,2189,4574,2190,2191,0,0,0,0,0,0,0,0,0,0,0,0,0,0,0,0,0,1774,2995,2956,2957,2958,1775,0,0,0,0,0,0,0,0,0,0,0,0,
0,0,0,0,0,0,0,0,0,0,0,0,0,0,0,0,0,2192,4614,2193,2194,0,0,0,0,0,0,0,0,0,0,0,0,0,0,0,0,0,1776,1777,2996,2997,1778,1779,0,0,0,0,0,0,0,0,0,0,0,0,
0,0,0,0,0,0,0,0,0,2195,2196,2197,0,0,0,0,0,2198,4654,2199,2200,0,0,0,0,0,0,0,0,0,0,0,0,0,0,0,0,0,1780,1781,3036,3037,1782,1783,0,0,0,2201,2202,0,0,0,0,0,0,0,
0,0,0,0,0,0,0,0,0,2203,4686,2204,0,0,0,0,0,2205,4694,2206,0,0,0,0,0,0,0,0,0,0,0,0,0,0,0,0,0,0,1784,1785,3076,3077,1786,1787,0,0,2207,2208,2209,0,0,0,0,0,0,0,
0,0,0,0,0,0,0,0,0,2210,4726,2211,0,0,0,0,0,2212,4734,2213,0,0,0,0,0,0,0,0,0,0,0,0,0,0,0,0,0,0,1788,1789,3116,3117,1790,1791,0,2023,2214,2215,2216,0,0,0,0,0,0,0,
0,0,0,0,0,0,0,0,0,2217,4766,2218,0,0,0,0,0,2219,4774,2220,0,0,0,0,0,0,0,0,0,0,0,0,0,0,0,0,0,0,1792,1793,3156,3157,1794,1795,0,2221,2222,2223,0,0,1796,1797,1756,0,0,0,
0,0,0,0,0,0,0,0,0,2224,4806,2225,2226,2227,2228,2229,2230,2231,4814,2232,2233,0,0,0,0,0,0,2023,2234,2235,2236,2237,2238,0,0,0,0,0,1798,1799,3196,3197,1800,1801,2239,2240,2241,1802,1803,1804,1805,1806,1807,1808,0,0,
0,0,0,0,0,0,0,0,0,2242,2243,2244,4848,4849,4850,4851,2245,2246,4854,2247,2248,2249,2250,2251,2252,2253,2254,2255,2256,4865,4866,2257,2258,2259,2260,2261,2262,2263,1809,1810,1811,1812,1813,1814,2264,2265,1815,1816,3244,3245,3246,3247,3248,1817,1818,0,
0,0,0,0,0,0,0,0,0,0,2266,2267,2268,2269,2270,2271,2272,2273,4894,2274,2275,2276,2277,2278,2279,2280,2281,2282,2283,2284,2285,2286,2287,2288,2289,2290,4912,4913,1819,1820,1821,1822,1823,1824,2291,2292,1825,3283,3284,3285,3286,3287,3288,1826,1827,0,
0,0,0,0,0,0,0,0,0,0,0,0,0,0,0,0,0,2293,4934,2294,0,0,2295,2296,2297,2298,2299,2129,2300,2301,2302,2303,0,0,2304,2305,2306,2307,1828,1829,1830,1831,1832,1833,0,0,1834,1835,3324,3325,3326,3327,3328,1836,1837,0,
0,0,0,0,0,0,0,0,0,0,0,0,0,0,0,0,0,2308,4974,2309,0,0,0,0,0,0,0,0,0,0,0,0,0,0,0,0,0,0,1838,1839,3356,3357,1840,1841,0,0,1842,1843,1844,3365,3366,3367,1845,1846,0,0,
0,0,0,0,0,0,0,0,0,0,0,0,0,0,0,0,2310,2311,2312,2313,0,0,0,0,0,0,0,0,0,0,0,0,0,0,0,0,0,0,0,1847,3396,3397,1848,1849,0,0,0,0,1850,1851,1852,1853,1854,1855,1856,0,
0,0,0,0,0,0,0,0,0,0,0,0,0,0,0,0,2314,5053,2315,2316,0,0,0,0,0,0,0,0,0,0,0,0,0,0,0,0,0,0,0,1857,3436,3437,3438,1858,1859,0,0,0,0,0,1860,1861,1862,1863,1864,1865,
0,0,0,0,0,0,0,0,0,0,0,0,0,0,0,0,2317,5093,2318,2319,0,0,0,0,0,0,0,0,0,0,0,0,0,0,0,0,0,0,0,1866,3476,3477,3478,3479,1867,0,0,0,0,1868,1869,3487,3488,3489,3490,1870,
0,0,0,0,0,0,0,0,0,0,0,0,0,0,0,0,2320,5133,2321,2322,0,0,0,0,0,0,0,0,0,0,0,0,0,0,0,0,0,0,1871,1872,3516,3517,3518,3519,1873,1874,0,0,0,1875,3526,3527,3528,3529,3530,1876,
0,0,0,0,0,0,0,0,0,0,0,0,0,0,0,2323,2324,5173,2325,0,0,0,0,0,0,0,0,0,0,0,0,0,0,0,0,0,0,0,0,1877,1878,3557,3558,3559,3560,1879,1880,0,0,1881,3566,3567,3568,3569,3570,1882,
0,0,0,0,0,0,0,0,0,0,0,0,0,0,0,2326,2327,5213,2328,0,0,0,0,0,0,0,0,0,0,0,0,0,0,0,0,0,0,0,0,0,1883,1884,3598,3599,3600,1885,1886,1756,0,1887,1888,1889,1890,3609,1891,1892,
0,0,0,0,0,0,0,0,0,0,0,0,0,0,0,2329,2330,2331,2332,0,0,0,0,0,0,0,0,0,0,0,0,0,0,0,0,0,0,0,0,0,0,1893,1894,3639,3640,3641,1895,1896,1897,1898,0,1702,1899,1900,1901,1636,
0,0,0,0,0,0,0,0,0,0,0,0,0,0,0,2333,5292,2334,2335,0,0,0,0,0,0,0,0,0,0,0,0,0,0,0,0,0,0,0,0,0,0,1902,1903,3679,3680,3681,3682,1904,1905,1906,1907,1908,0,0,0,0,
0,0,0,0,0,0,0,0,0,0,0,0,0,0,0,2336,5332,2337,0,0,0,0,0,0,0,0,0,0,0,0,0,0,0,0,0,0,0,0,0,0,0,0,1909,1910,3720,3721,3722,3723,3724,3725,1911,1912,0,0,0,0,
0,0,0,0,0,0,0,0,0,0,0,0,0,0,0,2338,5372,2339,0,0,0,0,0,0,0,0,0,0,0,0,0,0,0,0,0,0,0,0,0,0,0,1913,1914,3759,3760,3761,3762,3763,3764,3765,3766,1915,1916,0,0,0,
0,0,0,0,0,0,0,0,0,0,0,0,0,0,0,2340,5412,2341,0,0,0,0,0,0,0,0,0,0,0,0,0,0,0,0,0,0,0,0,0,0,0,1917,1918,3799,3800,3801,3802,3803,3804,3805,3806,1919,1920,0,0,0,
0,0,0,0,0,0,0,0,0,0,0,0,0,0,0,2342,5452,2343,0,0,0,0,0,0,0,0,0,0,0,0,0,0,0,0,0,0,0,0,0,0,0,1921,1922,3839,3840,3841,3842,3843,3844,3845,3846,3847,1923,0,0,0,
0,0,0,0,0,0,0,0,0,0,0,0,0,0,0,2344,5492,2345,0,0,0,0,0,0,0,0,0,0,0,0,0,0,0,0,0,0,0,0,0,0,0,1924,1925,1926,1927,3881,3882,3883,3884,3885,1928,1929,1930,0,0,0,
0,0,0,0,0,0,0,0,0,0,0,0,0,0,0,2346,5532,2347,0,0,0,0,0,0,0,0,0,0,0,0,0,0,0,0,0,0,0,0,0,0,0,0,0,1931,1932,1933,1934,1935,1936,1937,1938,1939,0,0,0,0,
0,0,0,0,0,0,0,0,0,0,0,0,0,0,0,2348,3972,2349,0,0,0,0,0,0,0,0,0,0,0,0,0,0,0,0,0,0,0,0,0,0,0,0,0,0,0,0,1940,1941,1942,1943,0,0,0,0,0,0,
0,0,0,0,0,0,0,0,0,0,0,0,0,0,0,2350,4012,2351,0,0,0,0,0,0,0,0,0,0,0,0,0,0,0,0,0,0,0,0,0,0,0,0,0,0,0,0,0,0,0,0,0,0,0,0,0,0,
0,0,0,0,0,0,0,0,0,0,0,0,0,0,0,2352,4052,2353,0,0,0,0,0,0,0,0,0,0,0,0,0,0,0,0,0,0,0,0,0,0,0,0,0,0,0,0,0,0,0,0,0,0,0,0,0,0,
0,0,0,0,0,0,0,0,0,0,0,0,0,0,0,2354,4092,2355,0,0,0,0,0,0,0,0,0,0,0,0,0,0,0,0,0,0,0,0,0,0,0,0,0,0,0,0,0,0,0,0,0,0,0,0,0,0
</data>
 </layer>
 <layer id="4" name="Decor" width="56" height="84">
  <data encoding="csv">
0,0,7317,0,0,0,0,7358,0,0,7302,0,0,0,0,0,0,0,0,0,7320,0,0,7342,0,0,7316,0,0,7316,0,7347,0,0,0,0,0,0,0,0,0,0,7358,0,0,0,0,0,7308,7301,0,0,0,0,0,0,
0,0,0,0,0,0,0,0,0,0,0,0,0,0,0,0,0,0,0,0,0,0,7326,0,0,0,0,0,0,0,0,0,0,0,0,0,0,0,0,0,0,0,0,0,0,0,0,0,7345,0,0,0,7326,7346,7345,0,
0,0,0,0,0,0,0,0,0,0,0,0,0,0,7335,0,0,0,0,0,0,0,7307,0,0,7336,0,0,0,7340,0,7306,7347,0,0,0,0,0,0,0,0,0,7340,0,0,7307,0,0,0,7358,0,0,0,0,7340,0,
0,0,0,0,0,0,0,0,0,0,0,0,0,0,0,0,0,0,0,0,0,0,0,0,0,0,0,0,0,0,0,0,0,0,0,0,0,0,0,0,0,0,0,0,0,0,0,0,0,0,0,7340,0,0,0,0,
0,0,7304,0,0,0,0,0,0,0,0,0,0,0,7331,0,0,0,0,7358,0,0,0,0,0,0,0,0,0,0,0,7358,0,0,0,0,0,0,0,0,0,0,0,0,0,7358,7302,0,7309,0,0,0,7347,7317,0,0,
0,0,0,0,0,0,0,7314,0,0,7345,7301,0,0,0,0,0,7344,0,0,0,0,0,0,0,0,0,0,0,0,0,0,0,0,0,0,0,0,0,0,0,0,0,0,0,7340,0,0,0,0,7336,0,7355,7344,0,0,
0,0,7345,0,0,0,0,7304,0,0,0,7358,0,0,0,0,0,0,0,0,0,0,7323,0,0,7345,0,7346,0,0,0,7342,0,0,0,7345,0,0,0,0,0,0,0,0,0,0,0,0,7307,7325,0,0,0,0,0,0,
0,0,0,0,7336,0,7304,0,0,0,0,0,0,0,0,0,0,0,0,0,0,0,0,7307,0,0,7345,0,0,7340,0,0,7326,7305,0,0,0,0,0,0,0,0,0,0,0,0,0,7309,0,0,7317,0,0,0,0,0,
0,0,0,0,0,0,0,0,0,0,0,0,0,0,0,0,7326,0,0,0,0,0,0,0,7331,7318,0,0,0,0,0,0,7304,0,0,0,0,0,0,0,0,0,7358,0,0,0,0,0,0,0,0,0,0,0,0,0,
0,0,0,0,7347,0,0,0,7331,7308,0,0,0,0,7342,0,0,0,0,0,0,7325,0,0,0,0,0,7326,0,7324,7358,0,7346,0,0,0,0,0,0,0,0,0,7317,0,0,7340,0,0,0,0,0,0,0,0,0,0,
0,0,0,0,0,0,0,0,0,0,0,7306,0,0,0,7355,0,0,0,0,0,7316,0,7335,7318,0,0,0,0,0,0,0,7325,7345,7302,0,0,0,0,0,0,0,7346,0,0,7347,7304,0,0,0,0,0,0,0,0,0,
0,7345,0,0,0,7358,0,0,7340,0,0,0,0,0,0,0,0,7316,0,0,0,0,0,0,0,0,0,7347,0,0,7304,0,0,0,0,0,0,0,0,0,0,0,0,0,0,7324,7336,0,0,7318,0,0,0,0,0,0,
0,0,0,0,0,0,0,0,0,7335,0,0,0,0,0,7318,0,0,0,0,0,0,0,0,0,0,0,0,0,0,0,0,0,0,7335,0,0,0,0,0,0,0,0,7342,7346,0,0,7325,0,0,0,0,0,0,0,0,
0,0,0,0,0,0,0,0,0,0,0,0,0,7325,0,7316,0,0,0,0,0,0,0,0,0,0,0,0,7307,0,7346,0,0,0,0,0,0,0,0,0,0,0,0,0,0,0,7340,0,7326,0,0,0,0,0,0,0,
0,0,0,0,0,0,0,0,0,0,0,0,0,0,0,7326,0,0,0,0,0,7304,0,0,0,0,0,0,0,0,0,0,7355,0,0,0,0,0,0,0,0,0,0,7345,0,7316,0,0,0,0,7347,0,0,0,0,0,
0,0,0,0,7325,7324,0,0,0,0,0,0,0,0,0,0,7340,0,0,0,0,0,0,7336,0,7325,0,0,0,0,0,0,0,0,0,0,0,0,0,0,0,0,0,0,0,0,7306,0,0,7358,0,7300,7318,0,0,0,
0,0,0,0,0,0,0,0,0,0,7301,0,0,0,0,7307,0,0,0,0,0,0,0,0,0,0,0,0,0,0,0,0,0,0,0,0,0,0,0,0,0,0,7340,0,0,7347,0,0,0,0,0,0,0,0,0,0,
0,0,0,0,0,0,0,0,7344,0,7347,0,0,7308,7301,0,0,0,0,0,0,7317,0,0,0,7302,0,0,0,0,0,0,0,0,0,0,0,0,0,0,0,0,0,0,0,0,0,0,0,7358,7326,0,0,0,7309,0,
0,0,0,0,7340,7302,0,0,0,0,0,0,0,0,0,0,0,0,0,7316,0,0,0,0,0,0,7326,0,0,0,7301,7314,0,0,0,0,0,0,0,0,0,0,0,0,0,0,0,0,0,0,0,7316,0,0,0,0,
0,0,0,7302,7355,0,0,0,0,0,0,0,0,0,0,0,0,0,0,0,0,0,0,0,0,0,0,7316,0,0,0,0,0,7302,0,0,0,0,0,0,0,0,0,0,0,0,0,0,0,0,0,0,0,0,7326,0,
0,0,0,0,0,0,0,7326,0,0,0,0,0,0,0,0,0,0,0,0,7336,7300,0,0,0,0,0,0,0,0,0,0,0,7345,0,0,0,0,0,0,0,0,0,0,0,7345,0,0,0,7316,0,0,0,0,0,0,
0,0,0,0,7340,0,0,0,0,0,0,0,0,0,0,0,0,0,0,7347,7344,0,0,0,0,0,0,0,0,0,0,0,0,0,0,0,0,0,0,0,0,0,7308,7300,0,0,0,0,0,0,0,0,0,7307,0,0,
0,0,7346,0,0,0,0,0,0,0,0,0,0,0,0,0,0,0,0,7346,0,0,0,0,0,0,0,0,0,0,0,0,0,0,0,0,0,0,0,0,0,7314,0,0,0,0,0,0,0,0,7306,0,0,0,0,0,
7358,0,0,7335,0,0,0,0,0,0,0,0,0,0,0,0,0,0,7331,0,0,0,0,0,0,0,0,0,0,0,0,0,0,0,0,0,0,0,0,0,0,0,0,0,0,0,0,0,7314,0,7358,0,0,0,0,0,
7317,0,0,0,7345,0,0,0,0,0,0,0,0,0,0,0,0,0,0,0,0,0,0,0,0,7314,0,0,0,0,0,0,0,0,0,0,0,0,0,0,7346,0,0,0,0,0,0,0,0,0,0,0,0,0,0,0,
0,0,0,0,0,0,0,0,0,0,7347,7325,0,0,0,0,0,0,0,0,0,0,0,0,0,7345,0,0,0,0,0,0,0,0,0,0,0,0,0,0,0,0,0,0,7358,0,0,0,0,0,0,0,0,0,0,0,
0,0,0,0,0,0,0,7335,0,0,0,0,0,0,0,0,0,0,0,0,0,0,0,0,0,0,0,0,0,0,0,0,7306,0,0,0,0,0,0,0,0,0,0,0,0,0,0,0,0,0,0,0,0,0,0,0,
0,0,0,0,0,0,0,0,0,0,0,0,0,0,0,7333,0,0,0,0,0,0,0,7345,0,0,0,0,0,0,0,0,0,0,0,7127,7128,7129,7130,0,0,0,0,0,0,0,0,0,0,0,0,0,0,0,0,0,
0,7345,7308,0,0,7325,0,0,0,0,0,0,0,0,0,0,0,0,0,0,0,7300,0,0,0,0,0,0,0,0,0,0,0,0,0,7131,7132,7133,7134,0,0,0,0,0,0,0,0,0,0,7331,0,0,7358,7316,0,7342,
7316,0,0,0,0,7340,0,7317,0,7345,7358,0,0,0,7307,0,0,0,0,0,7303,0,0,0,0,0,0,0,0,0,0,0,0,0,0,7135,7136,7137,7138,7358,0,0,0,0,0,0,0,0,0,0,7347,0,0,0,0,7347,
7325,0,0,0,0,0,0,0,0,0,0,0,7344,0,7335,7355,0,0,0,0,0,0,0,0,0,0,0,0,0,0,0,0,0,7324,0,0,0,0,0,0,7309,0,0,0,0,0,0,0,0,0,0,7305,7346,0,0,0,
0,0,0,7335,0,0,0,0,7326,7314,0,0,0,0,0,0,0,0,0,0,0,0,0,0,0,7305,0,0,7314,0,0,0,0,7304,0,0,0,0,0,0,0,0,0,7324,0,0,0,0,0,7300,0,0,0,0,0,0,
0,0,0,7342,0,0,0,0,0,7309,0,0,0,0,0,0,0,0,0,0,0,0,0,0,0,0,0,0,0,7317,0,0,0,7316,0,0,0,0,0,0,0,0,0,0,0,0,0,0,0,0,0,0,0,0,0,0,
0,0,0,7314,0,0,0,7342,0,0,0,0,0,0,0,0,0,7321,7358,0,0,0,7316,0,0,0,0,0,0,0,0,0,0,0,0,0,0,0,0,0,0,0,0,0,0,0,0,0,0,0,0,7317,0,7326,0,0,
0,0,0,0,0,0,7314,0,0,0,7345,7306,0,0,0,0,0,0,0,7347,7318,0,0,0,0,0,0,0,0,7326,7358,0,0,0,0,0,0,0,0,0,0,0,0,0,0,0,0,0,7340,0,0,7346,7340,7355,0,0,
0,0,0,0,7304,0,0,0,0,0,0,0,0,0,0,0,0,0,0,0,0,0,0,0,0,0,0,0,0,0,0,0,0,0,0,0,0,0,0,0,0,0,0,0,0,0,7342,7331,0,0,0,7318,0,0,0,0,
0,0,0,0,0,0,0,0,0,7316,0,0,0,0,0,0,0,0,7358,7309,0,0,0,7304,0,0,0,0,0,0,0,0,0,7331,7316,0,0,0,0,0,0,0,0,0,0,0,0,0,0,0,0,0,0,0,7306,0,
0,0,0,0,0,0,0,0,7301,0,0,0,0,0,7331,0,0,0,0,7342,0,0,0,7325,7335,0,0,0,0,0,0,0,7355,0,0,0,0,0,0,0,0,0,0,0,0,0,7306,0,0,0,0,0,0,0,0,0,
0,0,7340,0,7325,0,0,7326,0,0,7345,0,0,0,0,0,0,7308,7324,0,0,0,0,0,0,0,0,0,0,0,0,0,0,0,0,0,0,0,0,0,0,0,0,0,0,0,7325,7317,0,0,0,0,0,7342,0,0,
0,0,0,0,0,0,7326,0,0,0,0,0,0,0,0,0,0,0,7302,0,0,0,0,0,7335,7307,7326,0,0,0,0,0,7344,0,0,0,0,0,0,0,0,0,0,0,0,0,0,0,0,0,0,0,0,0,7346,0,
0,0,7317,0,0,0,7326,0,0,0,0,0,0,0,0,0,0,0,0,0,0,0,0,0,0,7317,0,0,0,0,7314,0,7309,0,0,0,0,0,0,0,0,0,0,0,0,0,7316,0,0,0,0,0,0,0,0,0,
0,0,0,0,0,0,0,0,0,0,0,0,0,7335,0,0,0,7303,7323,0,0,0,0,0,0,7346,0,0,0,0,0,0,0,7316,0,0,0,0,0,0,0,0,0,0,0,0,0,0,0,0,0,0,0,0,0,0,
0,0,0,0,0,0,0,7302,7336,0,7324,7342,0,0,0,0,0,0,0,0,0,0,0,0,7323,0,0,0,0,0,0,0,7358,0,0,0,0,0,0,0,0,0,0,0,0,0,0,0,0,0,0,0,0,0,0,7304,
7305,0,0,0,0,0,7342,0,0,0,0,7307,0,0,7335,0,0,0,0,0,0,0,0,7309,0,0,0,0,0,0,0,0,0,0,0,0,0,0,0,0,0,0,0,0,0,0,7344,7344,0,0,7358,0,0,0,0,0,
0,0,0,0,0,0,0,7331,0,0,7346,7301,0,0,0,7320,0,0,7342,0,0,0,0,0,0,0,0,0,0,7301,0,0,0,0,7323,0,0,0,0,0,0,0,0,0,0,0,0,0,0,0,0,0,0,0,0,0,
0,0,7326,0,0,0,0,0,0,0,0,0,0,0,0,0,0,0,0,0,7306,0,0,0,0,0,0,0,0,7304,0,0,0,0,7318,7300,0,0,0,0,0,0,0,0,0,7316,0,7336,0,0,0,0,0,0,0,0,
0,0,7344,0,0,0,0,0,0,7340,0,7336,0,0,0,0,0,0,0,0,0,0,0,0,7301,0,0,0,0,0,0,7308,0,0,0,0,0,0,0,0,0,0,0,0,0,0,0,0,0,0,0,0,0,0,0,0,
0,0,0,0,0,0,0,0,0,7345,0,7304,0,0,0,0,0,0,0,0,0,0,7304,0,0,0,0,0,0,0,7302,0,0,0,0,0,7306,0,0,0,0,0,0,0,0,0,0,0,0,7335,0,0,0,0,0,0,
0,0,0,0,0,0,0,0,0,7302,0,0,7325,7304,0,0,0,0,0,0,0,0,0,0,0,0,0,0,7336,0,0,0,0,0,0,7346,0,0,0,0,0,0,0,0,0,0,0,0,0,0,0,0,7316,0,0,0,
0,0,0,0,7306,0,0,0,0,0,0,0,0,0,0,0,0,0,0,0,7347,0,0,0,0,7301,0,0,0,0,7300,0,0,7317,0,0,0,0,0,0,0,0,0,0,0,7355,0,0,0,0,0,0,7316,0,0,0,
0,0,0,0,0,0,0,0,0,0,0,0,0,0,0,0,0,0,0,7304,7300,7358,0,0,0,0,0,0,0,0,0,0,0,0,0,0,0,0,0,0,0,0,0,0,7326,0,0,0,0,0,0,7358,0,7344,0,0,
0,0,0,0,7358,0,0,0,0,7355,7355,0,0,0,7306,0,7336,0,0,7342,0,0,0,0,0,0,7306,0,7331,0,0,0,0,0,7346,0,0,0,0,0,0,0,0,0,7306,0,0,0,0,0,0,7342,0,0,0,0,
0,0,0,0,0,0,7306,0,0,0,0,0,7317,7336,7331,0,0,0,0,7302,0,7318,0,0,0,0,0,0,0,0,0,0,7335,0,0,7306,0,0,0,0,0,0,0,0,0,0,7314,0,0,0,0,0,0,0,7317,0,
0,0,0,0,0,0,0,0,0,0,0,0,0,0,7304,0,0,0,0,0,0,0,0,0,0,7304,0,0,0,0,0,0,0,0,0,0,7347,0,0,0,0,0,0,0,0,0,0,0,0,7302,0,0,0,0,0,0,
7318,0,0,7325,0,0,0,7325,0,0,0,0,0,0,7358,7306,0,0,0,0,0,0,0,0,0,0,0,0,7316,0,0,0,0,0,7306,0,0,0,0,0,0,0,0,0,0,0,0,0,0,0,0,7300,0,7336,0,0,
0,7340,0,0,0,0,0,0,0,0,0,0,0,0,0,0,0,0,0,7333,7325,0,0,0,0,0,0,0,0,7316,7335,0,0,0,0,0,0,0,0,0,0,0,0,0,0,0,0,0,0,0,0,0,7314,0,0,0,
0,0,0,0,0,7323,0,0,0,0,0,0,0,7304,0,0,0,0,0,7333,0,0,0,7301,0,0,0,0,0,0,0,0,0,0,0,0,0,7355,0,0,0,0,0,0,0,0,0,0,7342,0,7358,0,0,0,0,0,
0,0,0,0,0,0,7346,0,0,0,0,0,0,0,0,0,0,0,0,0,0,0,0,0,0,0,7347,0,0,0,0,0,0,0,0,0,7331,0,0,0,0,0,0,0,0,7358,0,0,0,0,0,7358,0,0,0,7336,
0,0,0,0,0,0,0,0,0,0,0,0,0,0,0,0,0,0,0,0,0,0,0,0,7306,0,0,7345,0,0,7325,0,0,7316,0,0,0,7326,0,0,0,0,0,0,0,0,7318,0,0,0,0,7314,0,0,7326,7318,
0,7306,0,0,0,0,0,0,7318,0,0,0,0,0,0,0,0,7318,0,0,0,0,0,7316,0,0,0,0,7325,7308,0,0,0,0,0,0,0,0,0,0,0,0,0,0,0,7318,0,0,0,7317,0,0,7323,0,0,0,
0,0,0,0,7324,7324,0,0,0,0,0,0,0,7345,0,0,0,0,0,0,0,7324,0,0,0,7346,0,0,0,0,0,0,0,0,7346,0,0,0,0,0,0,0,0,0,0,0,0,0,7336,7342,0,0,0,0,0,0,
0,0,0,0,0,0,0,0,0,0,0,0,0,0,0,0,0,0,0,0,0,7317,0,0,0,7307,7346,0,0,0,0,0,0,0,0,0,0,0,0,7183,0,0,7184,0,0,0,0,0,0,0,0,0,0,0,7309,0,
0,0,0,0,0,7306,0,7304,0,0,0,0,0,0,0,0,0,0,0,0,0,0,0,0,0,0,0,0,0,0,0,0,0,0,0,0,0,0,0,7185,7186,7187,7188,0,7320,0,0,0,0,0,0,0,0,0,0,0,
0,0,7323,0,7358,7304,0,7347,0,7307,0,0,7326,0,0,0,0,7319,0,0,0,0,0,0,0,0,0,0,0,0,0,0,0,0,0,0,0,0,0,7189,7190,7191,7192,0,0,0,0,0,0,0,0,0,0,0,0,0,
0,0,7345,0,0,0,0,0,0,7325,0,0,0,0,0,0,0,0,0,0,0,7335,0,0,0,7326,0,0,0,0,0,0,0,0,0,0,0,0,0,7193,7194,7195,7196,0,0,0,0,0,0,0,0,0,0,0,0,0,
0,0,0,0,0,0,0,0,0,0,0,7335,0,0,0,0,7342,0,0,7305,0,7326,0,0,0,0,0,0,0,7335,0,0,0,0,0,0,0,7340,7340,0,0,0,0,0,0,0,0,0,0,0,0,0,0,0,7346,0,
7324,0,7342,0,0,0,0,7325,0,0,0,0,0,0,0,0,0,0,0,0,7300,0,0,0,0,0,0,0,0,0,0,0,0,0,0,0,0,0,0,0,0,0,0,0,0,0,0,0,0,0,0,0,0,0,0,7300,
0,0,7308,0,0,7306,7340,0,0,0,0,0,0,0,0,0,0,0,0,7318,0,0,7345,0,0,0,0,0,0,0,0,0,0,0,0,0,0,0,0,0,0,0,0,0,0,0,0,0,7305,0,0,0,0,0,0,0,
0,0,0,7300,0,7306,0,0,0,7316,7300,0,0,0,0,0,0,0,0,0,0,0,0,7340,0,0,0,0,0,0,0,7325,7336,0,0,0,0,0,0,0,0,0,0,0,0,7325,0,0,0,0,0,0,0,0,0,0,
0,7301,0,7314,0,0,0,0,0,7307,0,0,0,0,0,7324,0,0,0,0,0,0,0,0,0,0,0,7325,0,0,0,7318,7325,0,0,0,0,7336,7318,0,0,0,0,0,0,0,0,7347,0,0,0,0,0,0,0,0,
0,7314,0,7309,0,0,0,0,0,0,0,0,7335,0,0,0,0,0,0,0,7358,0,0,0,0,0,0,7345,0,0,0,0,0,0,7318,0,0,7317,0,0,0,0,0,0,0,0,0,0,0,0,0,0,0,0,0,0,
0,0,7301,0,0,0,0,0,7358,0,0,7300,0,0,0,0,0,0,0,0,0,0,0,7342,0,0,0,0,0,0,0,0,0,7317,0,0,7318,0,0,0,0,0,0,0,0,0,0,0,0,0,0,0,0,0,0,0,
0,7317,0,7347,0,0,0,0,0,0,0,0,0,0,0,0,0,0,0,0,0,0,7345,0,0,0,0,0,0,0,0,0,0,0,0,0,0,0,7342,0,0,0,0,0,0,0,0,0,7306,0,0,0,0,0,0,0,
0,0,0,0,0,0,0,0,0,0,0,0,0,0,0,0,0,0,7306,0,0,0,0,0,0,0,0,0,0,0,0,0,0,0,7305,7318,0,7335,0,0,0,0,0,0,0,0,0,0,0,0,0,0,0,0,7345,0,
7340,0,0,7340,7345,0,0,0,0,0,0,7316,0,0,0,0,0,0,0,0,0,0,0,0,0,0,0,0,0,0,0,0,0,0,0,0,0,0,0,0,0,0,0,0,0,0,0,0,0,0,0,0,0,0,0,0,
0,0,0,0,7346,0,0,0,0,0,0,0,0,0,0,0,0,0,0,0,0,0,0,0,0,0,7316,0,0,0,7326,0,7336,7342,7326,0,0,7318,0,0,0,0,0,0,0,0,0,0,0,0,0,0,0,7325,0,0,
7355,0,0,0,0,7300,0,0,0,0,0,7342,7306,0,0,0,0,0,0,0,0,0,0,0,0,0,0,0,7317,0,7345,0,0,0,0,0,0,0,7316,7344,0,0,0,0,0,0,0,0,0,0,0,0,0,0,0,0,
0,0,0,0,0,0,7347,0,0,0,7336,7317,0,0,0,7341,0,0,0,0,0,0,0,0,7316,7314,0,0,0,0,0,0,0,0,0,0,0,0,0,0,0,0,0,0,0,0,0,0,0,0,0,0,0,0,0,0,
7307,0,0,0,0,0,0,0,0,0,0,0,0,0,0,0,0,0,7326,0,0,0,0,7335,0,0,0,0,0,0,0,0,0,0,0,0,0,0,7300,0,0,0,0,0,0,0,0,0,0,0,0,0,7345,0,7326,0,
0,0,0,7358,7342,0,0,0,0,0,0,0,0,7317,0,0,0,0,0,7323,0,0,0,0,0,0,0,0,0,0,0,0,0,7326,0,0,0,0,0,0,0,7345,0,0,0,0,0,0,0,0,0,0,0,0,0,0,
0,0,0,0,0,0,0,0,0,0,0,0,0,7306,0,0,0,0,0,0,7301,7335,0,0,0,0,0,0,0,0,0,0,0,0,0,0,0,0,0,0,7335,0,0,0,0,0,0,0,0,0,0,0,0,0,0,0,
0,0,0,0,0,0,0,0,0,0,0,0,0,0,0,0,0,0,0,0,0,0,7340,0,0,0,0,0,7317,0,7345,0,0,0,0,0,0,0,0,0,0,0,0,0,0,0,7325,0,0,0,0,0,0,0,0,0,
0,0,0,0,0,0,0,0,0,0,7318,0,0,0,0,0,0,0,0,0,0,7345,0,0,0,0,7342,0,0,0,7335,0,0,0,0,0,0,0,0,0,0,0,0,0,0,0,0,0,0,0,0,0,0,0,0,0,
0,0,0,0,0,0,0,0,0,0,0,0,0,0,0,0,0,0,0,0,0,0,0,0,0,0,7336,0,0,0,0,0,0,0,0,0,0,0,0,0,0,0,0,0,7342,0,0,0,0,7318,0,0,0,0,0,7316
</data>
 </layer>
 <layer id="5" name="Dynamic" width="56" height="84">
  <data encoding="csv">
0,0,0,0,0,0,0,0,0,0,0,0,0,0,0,0,0,0,0,0,0,0,0,0,0,0,0,0,0,0,0,0,0,0,0,0,0,0,0,0,0,0,0,0,0,0,0,0,0,0,0,0,0,0,0,0,
0,0,0,0,0,0,0,0,0,0,0,0,0,0,0,0,0,0,0,0,0,0,0,0,0,0,0,0,0,0,0,0,0,0,0,0,0,0,0,0,0,0,0,0,0,0,0,0,0,0,0,0,0,0,0,0,
0,0,0,0,0,0,0,0,0,0,0,0,0,0,0,0,0,0,0,0,0,0,0,0,0,0,0,0,0,0,0,0,0,0,0,0,0,0,0,0,0,0,0,0,0,0,0,0,0,0,0,0,0,0,0,0,
0,0,0,0,0,0,0,0,0,0,0,0,0,0,0,0,0,0,0,0,0,0,0,0,0,0,0,0,0,0,0,0,0,0,0,0,0,0,0,0,0,0,0,0,0,0,0,0,0,0,0,0,0,0,0,0,
0,0,0,0,0,0,0,0,0,0,0,0,0,0,0,0,0,0,0,0,0,0,0,0,0,0,0,0,0,0,0,0,0,0,0,0,0,0,0,0,0,0,0,0,0,0,0,0,0,0,0,0,0,0,0,0,
0,0,0,0,0,0,0,0,0,0,0,0,0,0,0,0,0,0,0,0,0,0,0,0,0,0,0,0,0,0,0,0,0,0,0,0,0,0,0,0,0,0,0,0,0,0,0,0,0,0,0,0,0,0,0,0,
0,0,0,0,0,0,0,0,0,0,0,0,0,0,0,0,0,0,0,0,0,0,0,0,0,0,0,0,0,0,0,0,0,0,0,0,0,0,0,0,0,0,0,0,0,0,0,0,0,0,0,0,0,0,0,0,
0,0,0,0,0,0,0,0,0,0,0,0,0,0,0,0,0,0,0,0,0,0,0,0,0,0,0,0,0,0,0,0,0,0,0,0,0,0,0,0,0,0,0,0,0,0,0,0,0,0,0,0,0,0,0,0,
0,0,0,0,0,0,0,0,0,0,0,0,0,0,0,0,0,0,0,0,0,0,0,0,0,0,0,0,0,0,0,0,0,0,0,0,0,0,0,0,0,0,0,0,0,0,0,0,0,0,0,0,0,0,0,0,
0,0,0,0,0,0,0,0,0,0,0,0,0,0,0,0,0,0,0,0,0,0,0,0,0,0,0,0,0,0,0,0,0,0,0,0,0,0,0,0,0,0,0,0,0,0,0,0,0,0,0,0,0,0,0,0,
0,0,0,0,0,0,0,0,0,0,0,0,0,0,0,0,0,0,0,0,0,0,0,0,0,0,0,0,0,0,0,0,0,0,0,0,0,0,0,0,0,0,0,0,0,0,0,0,0,0,0,0,0,0,0,0,
0,0,0,0,0,0,0,0,0,0,0,0,0,0,0,0,0,0,0,0,0,0,0,0,0,0,0,0,0,0,0,0,0,0,0,0,0,0,0,0,0,0,0,0,0,0,0,0,0,0,0,0,0,0,0,0,
0,0,0,0,0,0,0,0,0,0,0,0,0,0,0,0,0,0,0,0,0,0,0,0,0,0,0,0,0,0,0,0,0,0,0,0,0,0,0,0,0,0,0,0,0,0,0,0,0,0,0,0,0,0,0,0,
0,0,0,0,0,0,0,0,0,0,0,0,0,0,0,0,0,0,0,0,0,0,0,0,0,0,0,0,0,0,0,0,0,0,0,0,0,0,0,0,0,0,0,0,0,0,0,0,0,0,0,0,0,0,0,0,
0,0,0,0,0,0,0,0,0,0,0,0,0,0,0,0,0,0,0,0,0,0,0,0,0,0,0,0,0,0,0,0,0,0,0,0,0,0,0,0,0,0,0,0,0,0,0,0,0,0,0,0,0,0,0,0,
0,0,0,0,0,0,0,0,0,0,0,0,0,0,0,0,0,0,0,0,0,0,0,0,0,0,0,0,0,0,0,0,0,0,0,0,0,0,0,0,0,0,0,0,0,0,0,0,0,0,0,0,0,0,0,0,
0,0,0,0,0,0,0,0,0,0,0,0,0,0,0,0,0,0,0,0,0,0,0,0,0,0,0,0,0,0,0,0,0,0,0,0,0,0,0,0,0,0,0,0,0,0,0,0,0,0,0,0,0,0,0,0,
0,0,0,0,0,0,0,0,0,0,0,0,0,0,0,0,0,0,0,0,0,0,0,0,0,0,0,0,0,0,0,0,0,0,0,0,0,0,0,0,0,0,0,0,0,0,0,0,0,0,0,0,0,0,0,0,
0,0,0,0,0,0,0,0,6485,6485,6444,6445,6446,6447,6485,0,0,0,0,0,0,0,0,0,0,0,0,0,0,0,0,0,0,0,0,0,0,0,0,0,0,0,0,0,0,0,0,0,0,0,0,0,0,0,0,0,
0,0,0,0,0,0,0,0,6485,6448,6449,6450,6451,6452,6453,0,0,0,0,0,0,0,0,0,0,0,0,0,0,0,0,0,0,0,0,0,0,0,0,0,0,0,0,0,0,0,0,0,0,0,0,0,0,0,0,0,
0,0,0,0,0,0,0,0,6485,6454,6455,6456,6457,6458,6459,0,0,0,0,0,0,0,0,0,0,0,0,0,0,0,0,0,0,0,0,0,0,0,0,0,0,0,0,0,0,0,0,0,0,0,0,0,0,0,0,0,
0,0,0,0,0,0,0,0,6460,6461,6462,6463,6464,6465,6466,0,0,0,0,0,0,0,0,0,0,0,0,0,0,0,0,6137,6138,6139,6140,6141,0,0,0,0,0,0,0,0,0,0,0,0,0,0,0,0,0,0,0,0,
0,0,0,0,0,0,0,0,6467,6468,6469,6470,6471,6472,6473,0,0,0,0,0,6588,6589,6590,6591,6612,0,5974,5975,5976,5977,0,6142,6143,6144,6145,6146,0,0,0,0,0,0,0,0,0,0,0,0,0,0,0,0,0,0,0,0,
0,0,0,0,0,0,0,0,6474,6475,6476,6477,6478,6479,6480,0,0,0,0,0,6592,6593,6594,6595,6596,0,5978,5979,5980,5981,0,6147,6148,6149,6150,6151,0,0,0,0,0,0,0,0,0,0,0,0,0,0,0,0,0,0,0,0,
0,0,0,0,0,0,0,0,6485,6485,6481,6482,6483,6484,6485,0,0,0,0,0,6597,6598,6599,6600,6601,0,5982,5983,5984,5985,0,6152,6153,6154,6155,6159,0,0,0,0,0,0,0,0,0,0,0,0,0,0,0,0,0,0,0,0,
0,0,0,0,0,0,0,0,0,0,0,0,0,0,0,0,0,0,0,0,6602,6603,6604,6605,6606,0,5986,5987,5988,5989,0,6159,6156,6157,6158,6159,0,0,0,0,0,0,0,0,0,0,0,0,0,0,0,0,0,0,0,0,
0,0,0,0,0,0,0,0,0,0,0,0,0,0,0,0,0,0,0,0,6607,6608,6609,6610,6611,0,5990,5991,5992,5993,0,0,0,0,0,0,0,0,0,0,0,0,0,0,0,0,0,0,0,0,0,0,0,0,0,0,
0,0,0,0,0,0,0,0,0,0,0,0,0,0,0,0,0,0,0,0,0,0,0,0,0,0,0,0,0,0,0,0,0,0,0,0,0,0,0,0,0,0,0,0,0,0,0,0,0,0,0,0,0,0,0,0,
0,0,0,0,0,0,0,0,0,0,0,0,0,0,0,0,0,0,0,0,0,0,0,0,0,0,0,0,0,0,0,0,0,0,0,0,0,0,0,0,0,0,0,0,0,0,0,0,0,0,0,0,0,0,0,0,
0,0,0,0,0,0,0,0,0,0,0,0,0,0,0,0,0,0,0,0,0,0,0,0,0,0,0,0,0,0,0,0,0,0,0,0,0,0,0,0,0,0,0,0,0,0,0,0,0,0,0,0,0,0,0,0,
0,0,0,0,0,0,0,0,0,0,0,0,0,0,0,0,0,0,0,0,0,0,0,0,0,0,0,0,0,0,0,0,0,0,0,0,0,0,0,0,0,0,0,0,0,0,0,0,0,0,0,0,0,0,0,0,
0,0,0,0,0,0,0,0,0,0,0,0,0,0,0,0,0,0,0,0,0,0,0,0,0,0,0,0,0,0,0,0,0,0,0,0,0,0,0,0,0,0,0,0,0,0,0,0,0,0,0,0,0,0,0,0,
0,0,0,0,0,0,0,0,0,0,0,0,0,0,0,0,0,0,0,0,0,0,0,0,0,0,0,0,0,0,0,0,0,0,0,0,0,0,0,0,0,0,0,0,0,0,0,0,0,0,0,0,0,0,0,0,
0,0,0,0,0,0,0,0,0,0,0,0,0,0,0,0,0,0,0,0,0,0,0,0,0,0,0,0,0,0,0,0,0,0,0,0,0,0,0,0,0,0,0,0,0,0,0,0,0,0,0,0,0,0,0,0,
0,0,0,0,0,0,0,0,0,0,0,0,0,0,0,0,0,0,0,0,0,0,0,0,0,0,0,0,0,0,0,0,0,0,0,0,0,0,0,0,0,0,0,0,0,0,0,0,0,0,0,0,0,0,0,0,
0,0,0,0,0,0,0,0,0,0,0,0,0,0,0,0,0,0,0,0,0,0,0,0,0,0,0,0,0,0,0,0,0,0,0,0,0,0,0,0,0,0,0,0,0,0,0,0,0,0,0,0,0,0,0,0,
0,0,0,0,0,0,0,0,0,0,0,0,0,0,0,0,0,0,0,0,0,0,0,0,0,0,0,0,0,0,0,0,0,0,0,0,0,0,0,0,0,0,0,0,0,0,0,0,0,0,0,0,0,0,0,0,
0,0,0,0,0,0,0,0,0,0,0,0,0,0,0,0,0,0,0,0,0,0,0,0,0,0,0,0,0,0,0,0,0,0,0,0,0,0,0,0,0,0,0,0,0,0,0,0,0,0,0,0,0,0,0,0,
0,0,0,0,0,0,0,0,0,0,0,0,0,0,0,0,0,0,0,0,0,0,0,0,0,0,0,0,0,0,0,0,0,0,0,0,0,0,0,0,0,0,0,0,0,0,0,0,0,0,0,0,0,0,0,0,
0,0,0,0,0,0,0,0,0,0,0,0,0,0,0,0,0,0,0,0,0,0,0,0,0,0,0,0,0,0,0,0,0,0,0,0,0,0,0,0,0,0,0,0,0,0,0,0,0,0,0,0,0,0,0,0,
0,0,0,0,0,0,0,0,0,0,0,0,0,0,0,0,0,0,0,0,0,0,0,0,0,0,0,0,0,0,0,0,0,0,0,0,0,0,0,0,0,0,0,0,0,0,0,0,0,0,0,0,0,0,0,0,
0,0,0,0,0,0,0,0,0,0,0,0,0,0,0,0,0,0,0,0,0,0,0,0,0,0,0,0,0,0,0,0,0,0,0,0,0,0,0,0,0,0,0,0,0,0,0,0,0,0,0,0,0,0,0,0,
0,0,0,0,0,0,0,0,0,0,0,0,0,0,0,0,0,0,0,0,0,0,0,0,0,0,0,0,0,0,0,0,0,0,0,0,0,0,0,0,0,0,0,0,0,0,0,0,0,0,0,0,0,0,0,0,
0,0,0,0,0,0,0,0,0,0,0,0,0,0,0,0,0,0,0,0,0,0,0,0,0,0,0,0,0,0,0,0,0,0,0,0,0,0,0,0,0,0,0,0,0,0,0,0,0,0,0,0,0,0,0,0,
0,0,0,0,0,0,0,0,0,0,0,0,0,0,0,0,0,0,0,0,0,0,0,0,0,0,0,0,0,0,0,0,0,0,0,0,0,0,0,0,0,0,0,0,0,0,0,0,0,0,0,0,0,0,0,0,
0,0,0,0,0,0,0,0,0,0,0,0,0,0,0,0,0,0,0,0,0,0,0,0,0,0,0,0,0,0,0,0,0,0,0,0,0,0,0,0,0,0,0,0,0,0,0,0,0,0,0,0,0,0,0,0,
0,0,0,0,0,0,0,0,0,0,0,0,0,0,0,0,0,0,0,0,0,0,0,0,0,0,0,0,0,0,0,0,0,0,0,0,0,0,0,0,0,0,0,0,0,0,0,0,0,0,0,0,0,0,0,0,
0,0,0,0,0,0,0,0,0,0,0,0,0,0,0,0,0,0,0,0,0,0,0,0,0,0,0,0,0,0,0,0,0,0,0,0,0,0,0,0,0,0,0,0,0,0,0,0,0,0,0,0,0,0,0,0,
0,0,0,0,0,0,0,0,0,0,0,0,0,0,0,0,0,0,0,0,0,0,0,0,0,0,0,0,0,0,0,0,0,0,0,0,0,0,0,0,0,0,0,0,0,0,0,0,0,0,0,0,0,0,0,0,
0,0,0,0,0,0,0,0,0,0,0,0,0,0,0,0,0,0,0,0,0,0,0,0,0,0,0,0,0,0,0,0,0,0,0,0,0,0,0,0,0,0,0,0,0,0,0,0,0,0,0,0,0,0,0,0,
0,0,0,0,0,0,0,0,0,0,0,0,0,0,0,0,0,0,0,0,0,0,0,0,0,0,0,0,0,0,0,0,0,0,0,0,0,0,0,0,0,0,0,0,0,0,0,0,0,0,0,0,0,0,0,0,
0,0,0,0,0,0,0,0,0,0,0,0,0,0,0,0,0,0,0,0,0,0,0,0,0,0,0,0,0,0,0,0,0,0,0,0,0,0,0,0,0,0,0,0,0,0,0,0,0,0,0,0,0,0,0,0,
0,0,0,0,0,0,0,0,0,0,0,0,0,0,0,0,0,0,0,0,0,0,0,0,0,0,0,0,0,0,0,0,0,0,0,0,0,0,0,0,0,0,0,0,0,0,0,0,0,0,0,0,0,0,0,0,
0,0,0,0,0,0,0,0,0,0,0,0,0,0,0,0,0,0,0,0,0,0,0,0,0,0,0,0,0,0,0,0,0,0,0,0,0,0,0,0,0,0,0,0,0,0,0,0,0,0,0,0,0,0,0,0,
0,0,0,0,0,0,0,0,6017,5994,5995,5996,6017,0,0,0,0,0,0,0,0,0,0,0,0,0,0,0,0,0,0,0,0,0,0,0,0,0,0,0,0,0,0,0,0,0,0,0,0,0,0,0,0,0,0,0,
0,0,0,0,0,0,0,0,5997,5998,5999,6000,6001,0,0,0,0,0,0,0,0,0,0,0,0,0,0,0,0,0,0,0,0,0,0,0,0,0,0,0,0,0,0,0,0,0,0,0,0,0,0,0,0,0,0,0,
0,0,0,0,0,0,0,0,6002,6003,6004,6005,6006,0,0,0,0,0,0,0,0,0,0,0,0,0,0,0,0,0,0,0,0,0,0,0,0,0,0,0,0,0,0,0,0,0,0,0,0,0,0,0,0,0,0,0,
0,0,0,0,0,0,0,0,6007,6008,6009,6010,6011,0,0,0,0,0,0,0,0,0,0,0,0,0,0,0,0,0,0,0,0,0,0,0,0,0,0,0,0,0,0,0,0,0,0,0,0,0,0,0,0,0,0,0,
0,0,0,0,0,0,0,0,6012,6013,6014,6015,6016,0,0,0,0,0,0,0,0,0,0,0,0,0,0,0,0,0,0,0,0,0,0,0,0,0,0,0,0,0,0,0,0,0,0,0,0,0,0,0,0,0,0,0,
0,0,0,0,0,0,0,0,0,0,0,0,0,0,0,0,0,0,0,0,0,0,0,0,0,0,0,0,0,0,0,0,0,0,0,0,0,0,0,0,0,0,0,0,0,0,0,0,0,0,0,0,0,0,0,0,
0,0,0,0,0,0,0,0,0,0,0,0,0,0,0,0,0,0,0,0,0,0,0,0,0,0,0,0,0,0,0,0,0,0,0,0,0,0,0,0,0,0,0,0,0,0,0,0,0,0,0,0,0,0,0,0,
0,0,0,0,0,0,0,0,0,0,0,0,0,0,0,0,0,0,0,0,0,0,0,0,0,0,0,0,0,0,0,0,0,0,0,0,0,0,0,0,0,0,0,0,0,0,0,0,0,0,0,0,0,0,0,0,
0,0,0,0,0,0,0,0,0,0,0,0,0,0,0,0,0,0,0,0,0,0,0,0,0,0,0,0,0,0,0,0,0,0,0,0,0,0,0,0,0,0,0,0,0,0,0,0,0,0,0,0,0,0,0,0,
0,0,0,0,0,0,0,0,0,0,0,0,0,0,0,0,0,0,0,0,0,0,0,0,0,0,0,0,0,0,0,0,0,0,0,0,0,0,0,0,0,0,0,0,0,0,0,0,0,0,0,0,0,0,0,0,
0,0,0,0,0,0,0,0,0,0,0,0,0,0,0,0,0,0,0,0,0,0,0,0,0,0,0,0,0,0,0,0,0,0,0,0,0,0,0,0,0,0,0,0,0,0,0,0,0,0,0,0,0,0,0,0,
0,0,0,0,0,0,0,0,0,0,0,0,0,0,0,0,0,0,0,0,0,0,0,0,0,0,0,0,0,0,0,0,0,0,0,0,0,0,0,0,0,0,0,0,0,0,0,0,0,0,0,0,0,0,0,0,
0,0,0,0,0,0,0,0,0,0,0,0,0,0,0,0,0,0,0,0,0,0,0,0,0,0,0,0,0,0,0,0,0,0,0,0,0,0,0,0,0,0,0,0,0,0,0,0,0,0,0,0,0,0,0,0,
0,0,0,0,0,0,0,0,0,0,0,0,0,0,0,0,0,0,0,0,0,0,0,0,0,0,0,0,0,0,0,0,0,0,0,0,0,0,0,0,0,0,0,0,0,0,0,0,0,0,0,0,0,0,0,0,
0,0,0,0,0,0,0,0,0,0,0,0,0,0,0,0,0,0,0,0,0,0,0,0,0,0,0,0,0,0,0,0,0,0,0,0,0,0,0,0,0,0,0,0,0,0,0,0,0,0,0,0,0,0,0,0,
0,0,0,0,0,0,0,0,0,0,0,0,0,0,0,0,0,0,0,0,0,0,0,0,0,0,0,0,0,0,0,0,0,0,0,0,0,0,0,0,0,0,0,0,0,0,0,0,0,0,0,0,0,0,0,0,
0,0,0,0,0,0,0,0,0,0,0,0,0,0,0,0,0,0,0,0,0,0,0,0,0,0,0,0,0,0,0,0,0,0,0,0,0,0,0,0,0,0,0,0,0,0,0,0,0,0,0,0,0,0,0,0,
0,0,0,0,0,0,0,0,0,0,0,0,0,0,0,0,0,0,0,0,0,0,0,0,0,0,0,0,0,0,0,0,0,0,0,0,0,0,0,0,0,0,0,0,0,0,0,0,0,0,0,0,0,0,0,0,
0,0,0,0,0,0,0,0,0,0,0,0,0,0,0,0,0,0,0,0,0,0,0,0,0,0,0,0,0,0,0,0,0,0,0,0,0,0,0,0,0,0,0,0,0,0,0,0,0,0,0,0,0,0,0,0,
0,0,0,0,0,0,0,0,0,0,0,0,0,0,0,0,0,0,0,0,0,0,0,0,0,0,0,0,0,0,0,0,0,0,0,0,0,0,0,0,0,0,0,0,0,0,0,0,0,0,0,0,0,0,0,0,
0,0,0,0,0,0,0,0,0,0,0,0,0,0,0,0,0,0,0,0,0,0,0,0,0,0,0,0,0,0,0,0,0,0,0,0,0,0,0,0,0,0,0,0,0,0,0,0,0,0,0,0,0,0,0,0,
0,0,0,0,0,0,0,0,0,0,0,0,0,0,0,0,0,0,0,0,0,0,0,0,0,0,0,0,0,0,0,0,0,0,0,0,0,0,0,0,0,0,0,0,0,0,0,0,0,0,0,0,0,0,0,0,
0,0,0,0,0,0,0,0,0,0,0,0,0,0,0,0,0,0,0,0,0,0,0,0,0,0,0,0,0,0,0,0,0,0,0,0,0,0,0,0,0,0,0,0,0,0,0,0,0,0,0,0,0,0,0,0,
0,0,0,0,0,0,0,0,0,0,0,0,0,0,0,0,0,0,0,0,0,0,0,0,0,0,0,0,0,0,0,0,0,0,0,0,0,0,0,0,0,0,0,0,0,0,0,0,0,0,0,0,0,0,0,0,
0,0,0,0,0,0,0,0,0,0,0,0,0,0,0,0,0,0,0,0,0,0,0,0,0,0,0,0,0,0,0,0,0,0,0,0,0,0,0,0,0,0,0,0,0,0,0,0,0,0,0,0,0,0,0,0,
0,0,0,0,0,0,0,0,0,0,0,0,0,0,0,0,0,0,0,0,0,0,0,0,0,0,0,0,0,0,0,0,0,0,0,0,0,0,0,0,0,0,0,0,0,0,0,0,0,0,0,0,0,0,0,0,
0,0,0,0,0,0,0,0,0,0,0,0,0,0,0,0,0,0,0,0,0,0,0,0,0,0,0,0,0,0,0,0,0,0,0,0,0,0,0,0,0,0,0,0,0,0,0,0,0,0,0,0,0,0,0,0,
0,0,0,0,0,0,0,0,0,0,0,0,0,0,0,0,0,0,0,0,0,0,0,0,0,0,0,0,0,0,0,0,0,0,0,0,0,0,0,0,0,0,0,0,0,0,0,0,0,0,0,0,0,0,0,0,
0,0,0,0,0,0,0,0,0,0,0,0,0,0,0,0,0,0,0,0,0,0,0,0,0,0,0,0,0,0,0,0,0,0,0,0,0,0,0,0,0,0,0,0,0,0,0,0,0,0,0,0,0,0,0,0,
0,0,0,0,0,0,0,0,0,0,0,0,0,0,0,0,0,0,0,0,0,0,0,0,0,0,0,0,0,0,0,0,0,0,0,0,0,0,0,0,0,0,0,0,0,0,0,0,0,0,0,0,0,0,0,0
</data>
 </layer>
 <layer id="6" name="Collision" width="56" height="84">
  <data encoding="csv">
7363,7363,7363,7363,7364,7363,7363,7363,7363,7364,7363,7363,7364,7363,7363,7364,7363,7364,7363,7363,7363,7363,7363,7363,7363,7364,7363,7363,7364,7363,7364,7363,7363,7364,7363,7363,7363,7363,7364,7364,7363,7363,7363,7364,7363,7363,7363,7363,7363,7363,7364,7363,7363,7363,7363,7363,
7364,7363,7363,7363,7363,7363,7363,7363,7364,7363,7364,7363,7363,7363,7363,7363,7363,7363,7363,7363,7363,7363,7363,7363,7363,7363,7363,7363,7363,7363,7363,7363,7363,7363,7363,7363,7363,7364,7364,7364,7364,7363,7363,7363,7364,7363,7364,7364,7363,7364,7363,7364,7363,7363,7363,7363,
7363,7363,7363,7363,7363,7364,7363,7363,7363,7363,7363,7363,7363,7363,7363,7363,7364,7363,7363,7363,7363,7363,7363,7363,7364,7363,7363,7363,7363,7363,7363,7363,7363,7363,7363,7363,7363,7364,7364,7364,7364,7363,7363,7363,7363,7363,7363,7364,7363,7363,7363,7363,7363,7363,7363,7363,
7363,7364,7364,7363,7363,7364,7364,7363,7363,7364,7364,7363,7363,7364,7364,7363,7363,7363,7364,7363,7363,7363,7363,7363,7363,7363,7364,7364,7363,7363,7364,7364,7363,7363,7364,7364,7363,7364,7364,7364,7364,7363,7363,7363,7364,7364,7363,7363,7364,7364,7363,7363,7364,7364,7363,7363,
7363,7363,7363,7363,7363,7363,7363,7363,7363,7363,7363,7364,7363,7363,7363,7363,7363,7363,7363,7363,7363,7363,7363,7363,7363,7363,7363,7363,7363,7363,7363,7363,7363,7363,7363,7363,7363,7364,7364,7364,7364,7363,7363,7364,7363,7363,7363,7363,7363,7363,7363,7363,7363,7363,7363,7363,
7363,7363,7363,7363,7363,7363,7363,7363,7363,7363,7363,7363,7364,7363,7363,7363,7363,7363,7363,7363,7363,7363,7363,7364,7363,7363,7363,7363,7364,7363,7363,7363,7363,7363,7363,7363,7363,7364,7364,7364,7364,7363,7363,7363,7363,7363,7363,7364,7363,7363,7363,7363,7363,7363,7363,7364,
7363,7363,7363,7363,7363,7363,7364,7363,7363,7363,7364,7363,7363,7363,7363,7363,7363,7363,7363,7363,7363,7363,7363,7364,7363,7363,7363,7363,7363,7363,7363,7363,7363,7363,7363,7363,7363,7364,7364,7364,7363,7363,7363,7363,7363,7363,7363,7363,7363,7363,7363,7363,7363,7363,7363,7363,
7363,7363,7363,7363,7363,7363,7363,7363,7363,7363,7363,7363,7363,7363,7363,7363,7363,7363,7363,7363,7363,7363,7363,7363,7363,7363,7363,7363,7363,7363,7363,7363,7363,7363,7363,7364,7363,7364,7364,7364,7363,7363,7363,7363,7363,7363,7363,7363,7363,7364,7363,7364,7363,7363,7364,7364,
7363,7364,7364,7363,7363,7363,7364,7363,7363,7363,7363,7363,7363,7363,7364,7364,7363,7363,7363,7363,7363,7363,7363,7364,7363,7363,7363,7363,7363,7363,7364,7363,7363,7363,7363,7363,7363,7364,7364,7364,7363,7363,7363,7363,7363,7363,7364,7363,7363,7363,7364,7363,7363,7363,7364,7363,
7363,7363,7363,7363,7363,7363,7363,7364,7363,7363,7363,7363,7363,7363,7363,7363,7363,7363,7363,7363,7363,7363,7364,7363,7363,7363,7363,7363,7363,7363,7363,7363,7363,7364,7363,7363,7364,7364,7364,7364,7363,7363,7363,7363,7363,7363,7363,7363,7363,7363,7364,7363,7364,7363,7363,7363,
7363,7363,7363,7364,7363,7363,7364,7363,7363,7363,7363,7363,7363,7364,7364,7363,7363,7363,7363,7363,7363,7363,7363,7363,7363,7364,7363,7363,7363,7363,7363,7363,7363,7363,7363,7363,7364,7364,7364,7364,7363,7363,7363,7363,7363,7363,7363,7363,7364,7363,7364,7363,7363,7363,7364,7363,
7363,7363,7363,7363,7363,7363,7364,7363,7363,7363,7363,7363,7363,7363,7363,7364,7363,7363,7363,7363,7363,7363,7363,7363,7363,7363,7363,7363,7363,7363,7363,7364,7363,7363,7363,7363,7364,7364,7364,7364,7363,7364,7363,7363,7364,7363,7363,7363,7363,7363,7363,7363,7363,7363,7363,7363,
7363,7364,7363,7364,7363,7363,7363,7363,7363,7363,7363,7363,7363,7363,7363,7363,7363,7363,7363,7363,7363,7363,7363,7363,7363,7363,7363,7363,7363,7363,7364,7363,7363,7364,7363,7363,7364,7364,7364,7363,7363,7363,7363,7363,7363,7363,7363,7363,7363,7363,7363,7363,7363,7363,7364,7363,
7363,7363,7364,7363,7363,7363,7363,7363,7363,7363,7363,7364,7363,7363,7363,7363,7363,7363,7363,7363,7363,7363,7363,7364,7363,7363,7363,7364,7363,7363,7363,7363,7363,7363,7363,7363,7364,7364,7364,7363,7363,7364,7363,7363,7364,7364,7363,7363,7363,7363,7363,7363,7363,7363,7363,7363,
7363,7364,7363,7363,7363,7364,7363,7363,7363,7363,7363,7363,7363,7363,7363,7363,7363,7363,7363,7363,7363,7363,7363,7363,7363,7364,7363,7363,7363,7363,7363,7363,7363,7363,7363,7363,7364,7364,7364,7363,7363,7363,7363,7363,7363,7363,7363,7363,7363,7363,7363,7363,7363,7364,7364,7363,
7363,7363,7364,7364,7363,7363,7364,7363,7363,7363,7363,7363,7363,7363,7363,7363,7363,7363,7363,7363,7363,7363,7363,7363,7363,7363,7363,7363,7363,7363,7364,7363,7363,7363,7363,7364,7364,7364,7364,7363,7363,7363,7363,7363,7364,7363,7363,7363,7363,7363,7363,7363,7363,7363,7363,7363,
7363,7363,7363,7363,7364,7363,7364,7363,7363,7363,7363,7364,7363,7364,7363,7363,7363,7363,7363,7364,7363,7363,7363,7364,7363,7363,7363,7363,7363,7363,7364,7363,7363,7363,7363,7364,7364,7364,7364,7363,7364,7364,7363,7363,7363,7363,7363,7363,7364,7363,7363,7363,7364,7363,7363,7364,
7363,7364,7363,7363,7363,7363,7363,7363,7363,7363,7363,7363,7363,7363,7363,7363,7363,7363,7363,7363,7363,7363,7363,7364,7363,7363,7363,7363,7363,7363,7363,7363,7363,7363,7364,7364,7364,7364,7364,7363,7363,7363,7363,7363,7363,7363,7363,7363,7363,7363,7363,7363,7363,7364,7363,7364,
7364,7363,7363,7363,7363,7363,7364,7363,7363,7363,7363,7363,7363,7363,7363,7363,7363,7363,7363,7363,7363,7363,7363,7363,7363,7363,7363,7363,7364,7363,7363,7363,7363,7364,7363,7364,7364,7364,7364,7363,7363,7363,7363,7364,7363,7363,7363,7363,7363,7364,7363,7363,7363,7364,7363,7363,
7363,7364,7363,7363,7363,7363,7364,7363,7363,7363,7363,7363,7363,7363,7363,7363,7363,7363,7363,7363,7363,7363,7363,7363,7364,7363,7363,7363,7363,7363,7363,7363,7363,7363,7363,7364,7364,7364,7364,7363,7364,7363,7363,7363,7363,7363,7363,7363,7363,7363,7363,7363,7363,7363,7363,7363,
7363,7363,7363,7363,7363,7363,7363,7363,7363,7363,7363,7363,7363,7363,7363,7363,7363,7363,7363,7363,7363,7363,7363,7363,7363,7363,7363,7363,7363,7364,7363,7363,7363,7363,7363,7364,7364,7364,7364,7363,7363,7363,7363,7364,7363,7363,7364,7363,7363,7363,7363,7364,7363,7364,7363,7363,
7363,7363,7364,7363,7363,7363,7363,7363,7363,7363,7364,7364,7364,7364,7364,7363,7363,7363,7363,7363,7363,7363,7363,7363,7363,7363,7363,7363,7363,7363,7363,7363,7363,7363,7363,7364,7364,7364,7364,7363,7363,7364,7363,7363,7363,7363,7363,7363,7363,7363,7363,7363,7363,7363,7363,7363,
7364,7363,7363,7363,7363,7363,7363,7363,7364,7364,7364,7364,7364,7364,7364,7363,7363,7363,7363,7363,7363,7363,7363,7363,7363,7363,7363,7363,7363,7363,7363,7363,7363,7363,7363,7364,7364,7364,7364,7363,7364,7363,7363,7363,7363,7363,7363,7363,7363,7364,7363,7364,7364,7363,7363,7363,
7363,7363,7364,7363,7363,7363,7364,7363,7363,7364,7364,7364,7364,7364,7363,7363,7363,7363,7363,7363,7363,7363,7363,7363,7363,7363,7363,7363,7363,7363,7363,7364,7364,7364,7364,7364,7364,7364,7364,7363,7363,7363,7364,7363,7364,7364,7364,7364,7363,7363,7363,7363,7363,7363,7363,7363,
7363,7363,7363,7363,7363,7364,7363,7363,7363,7363,7363,7364,7364,7364,7363,7363,7363,7363,7363,7363,7364,7364,7364,7364,7364,7363,7364,7364,7364,7364,7363,7363,7364,7364,7364,7364,7364,7364,7364,7363,7363,7363,7363,7363,7363,7363,7363,7363,7363,7363,7363,7363,7363,7363,7363,7364,
7363,7363,7363,7363,7363,7363,7363,7363,7363,7364,7363,7363,7363,7363,7363,7363,7363,7363,7363,7363,7363,7364,7364,7364,7364,7363,7364,7364,7364,7364,7363,7363,7364,7364,7364,7364,7364,7364,7364,7363,7363,7363,7363,7363,7363,7363,7363,7363,7363,7364,7363,7363,7363,7363,7363,7363,
7363,7363,7364,7364,7364,7363,7363,7363,7363,7363,7363,7363,7363,7363,7363,7363,7363,7363,7363,7364,7363,7364,7363,7364,7364,7363,7364,7364,7364,7364,7363,7363,7363,7363,7363,7364,7364,7364,7364,7363,7363,7363,7363,7363,7363,7363,7363,7363,7363,7363,7363,7363,7363,7363,7363,7363,
7363,7363,7363,7363,7364,7364,7363,7363,7363,7363,7363,7363,7363,7363,7363,7363,7363,7363,7363,7363,7363,7363,7363,7363,7363,7364,7363,7363,7363,7363,7364,7363,7363,7363,7363,7364,7364,7364,7364,7363,7363,7363,7363,7363,7363,7363,7363,7363,7363,7363,7363,7363,7363,7363,7363,7364,
7363,7363,7363,7364,7363,7363,7363,7363,7363,7363,7363,7363,7363,7363,7363,7363,7363,7363,7363,7363,7363,7363,7363,7363,7363,7363,7363,7363,7363,7363,7363,7363,7363,7363,7363,7363,7363,7363,7363,7363,7363,7363,7363,7363,7363,7363,7363,7363,7363,7363,7363,7363,7363,7363,7363,7363,
7363,7363,7364,7364,7363,7363,7363,7363,7363,7363,7363,7363,7363,7363,7363,7363,7363,7363,7363,7363,7363,7363,7363,7363,7363,7363,7363,7363,7363,7363,7363,7363,7363,7363,7363,7364,7364,7364,7364,7363,7363,7363,7363,7363,7363,7363,7363,7364,7363,7363,7363,7363,7363,7363,7363,7363,
7363,7363,7364,7363,7363,7363,7363,7364,7363,7363,7363,7363,7363,7363,7363,7363,7363,7363,7363,7363,7363,7363,7363,7363,7363,7363,7363,7363,7363,7363,7363,7363,7363,7363,7363,7364,7364,7364,7364,7363,7363,7363,7363,7363,7363,7364,7363,7363,7363,7363,7363,7363,7363,7363,7363,7364,
7363,7363,7363,7363,7363,7363,7363,7363,7363,7363,7363,7363,7363,7363,7363,7364,7363,7363,7363,7363,7363,7363,7363,7363,7364,7363,7363,7363,7363,7363,7363,7363,7363,7363,7363,7364,7364,7364,7364,7363,7363,7363,7363,7363,7363,7363,7363,7363,7364,7363,7363,7363,7363,7364,7363,7364,
7363,7363,7364,7363,7363,7363,7363,7363,7364,7363,7363,7364,7363,7363,7363,7363,7363,7363,7363,7363,7363,7364,7363,7363,7363,7363,7363,7363,7363,7363,7363,7363,7363,7363,7363,7364,7364,7364,7364,7363,7363,7363,7364,7363,7363,7363,7363,7364,7363,7363,7363,7364,7364,7363,7363,7364,
7363,7363,7363,7363,7363,7363,7364,7363,7363,7363,7363,7363,7363,7363,7363,7363,7363,7363,7363,7364,7363,7363,7363,7364,7364,7364,7364,7364,7364,7364,7364,7364,7363,7363,7363,7363,7364,7364,7364,7363,7363,7363,7363,7363,7363,7363,7363,7363,7363,7363,7363,7363,7363,7363,7363,7363,
7363,7363,7364,7363,7363,7363,7363,7363,7363,7363,7363,7363,7363,7363,7363,7363,7363,7363,7363,7363,7363,7363,7363,7363,7363,7363,7363,7363,7363,7363,7363,7363,7363,7363,7363,7363,7364,7364,7364,7363,7363,7363,7363,7364,7363,7364,7363,7364,7363,7363,7363,7363,7363,7363,7363,7364,
7363,7363,7363,7363,7363,7363,7363,7363,7363,7363,7364,7363,7363,7363,7363,7363,7363,7363,7363,7363,7363,7363,7363,7363,7364,7364,7363,7364,7363,7364,7363,7364,7363,7363,7363,7363,7364,7364,7364,7364,7363,7363,7363,7363,7363,7363,7363,7363,7363,7363,7363,7363,7363,7363,7363,7363,
7364,7363,7363,7364,7363,7363,7364,7363,7363,7363,7363,7363,7363,7363,7363,7363,7363,7363,7363,7363,7363,7363,7363,7363,7363,7363,7363,7363,7363,7363,7363,7363,7363,7363,7363,7363,7364,7364,7364,7364,7363,7363,7364,7363,7364,7364,7364,7363,7363,7363,7363,7363,7364,7364,7363,7363,
7363,7363,7363,7363,7363,7364,7363,7363,7363,7363,7363,7363,7364,7364,7363,7363,7363,7363,7363,7363,7364,7363,7363,7363,7363,7363,7364,7363,7364,7363,7364,7363,7363,7363,7363,7363,7363,7364,7364,7364,7363,7363,7363,7363,7363,7363,7363,7363,7364,7363,7363,7364,7364,7363,7363,7363,
7363,7364,7363,7363,7363,7363,7364,7363,7364,7363,7363,7363,7363,7363,7363,7363,7363,7363,7363,7363,7363,7363,7363,7363,7363,7363,7363,7363,7363,7363,7363,7363,7363,7363,7364,7364,7363,7364,7364,7364,7363,7363,7363,7363,7363,7363,7363,7363,7363,7363,7364,7363,7363,7363,7363,7363,
7363,7364,7363,7364,7363,7364,7363,7363,7363,7363,7363,7363,7363,7364,7363,7363,7363,7363,7363,7363,7363,7363,7363,7363,7363,7363,7363,7363,7363,7363,7363,7363,7363,7363,7363,7363,7363,7364,7364,7364,7364,7363,7363,7363,7363,7363,7363,7363,7363,7363,7363,7363,7363,7363,7363,7363,
7363,7363,7363,7363,7363,7363,7363,7363,7364,7363,7364,7363,7363,7363,7363,7363,7363,7363,7363,7363,7363,7363,7363,7363,7363,7363,7363,7363,7363,7363,7363,7363,7363,7363,7363,7364,7363,7364,7364,7364,7364,7363,7363,7364,7363,7363,7363,7364,7364,7363,7363,7363,7364,7364,7364,7363,
7364,7363,7364,7363,7363,7363,7363,7363,7364,7363,7363,7363,7363,7363,7363,7363,7363,7363,7363,7363,7363,7363,7363,7363,7364,7363,7364,7363,7363,7363,7363,7363,7363,7363,7364,7363,7363,7363,7364,7364,7364,7363,7364,7363,7363,7363,7363,7363,7363,7363,7363,7363,7363,7363,7363,7363,
7363,7363,7363,7364,7363,7364,7363,7363,7363,7363,7363,7363,7363,7363,7363,7363,7363,7363,7363,7363,7363,7363,7363,7363,7363,7364,7363,7364,7363,7363,7363,7363,7363,7363,7363,7363,7363,7363,7364,7364,7364,7363,7363,7363,7363,7363,7363,7363,7363,7363,7364,7363,7363,7363,7363,7363,
7363,7363,7364,7363,7363,7363,7363,7363,7363,7363,7363,7363,7363,7364,7363,7363,7363,7363,7363,7363,7363,7363,7363,7363,7363,7364,7363,7363,7363,7364,7363,7363,7364,7363,7364,7363,7363,7364,7364,7364,7364,7363,7363,7363,7363,7363,7363,7363,7363,7363,7363,7363,7363,7363,7363,7363,
7363,7363,7363,7364,7363,7364,7363,7363,7364,7364,7363,7363,7364,7363,7363,7363,7363,7363,7363,7363,7364,7363,7363,7363,7363,7363,7363,7363,7364,7363,7364,7363,7363,7364,7363,7364,7363,7363,7364,7364,7364,7364,7363,7363,7364,7363,7363,7363,7363,7363,7363,7364,7363,7363,7363,7364,
7363,7363,7363,7363,7363,7363,7363,7363,7363,7363,7363,7363,7364,7363,7363,7363,7363,7363,7363,7363,7363,7363,7363,7363,7363,7364,7363,7363,7363,7363,7363,7364,7363,7364,7363,7363,7364,7363,7364,7364,7364,7364,7363,7364,7363,7363,7364,7363,7363,7364,7363,7364,7363,7364,7363,7363,
7364,7363,7363,7363,7364,7363,7363,7363,7363,7363,7363,7363,7363,7363,7363,7363,7363,7363,7363,7363,7364,7363,7363,7363,7363,7363,7363,7363,7364,7363,7363,7363,7363,7363,7363,7363,7363,7363,7364,7364,7364,7364,7363,7363,7363,7363,7364,7363,7363,7363,7363,7363,7363,7363,7364,7363,
7363,7363,7363,7363,7363,7363,7363,7363,7364,7363,7364,7363,7363,7363,7363,7363,7363,7363,7363,7363,7363,7363,7363,7363,7364,7364,7363,7363,7363,7363,7363,7363,7363,7363,7363,7363,7363,7363,7363,7364,7364,7364,7363,7363,7363,7363,7363,7363,7363,7363,7363,7363,7363,7363,7363,7364,
7363,7363,7363,7364,7363,7364,7363,7363,7363,7363,7363,7363,7363,7363,7364,7363,7363,7363,7363,7363,7363,7363,7363,7363,7363,7363,7363,7363,7363,7364,7363,7364,7364,7363,7363,7363,7363,7363,7363,7364,7364,7364,7363,7363,7364,7363,7364,7363,7363,7363,7364,7363,7363,7364,7363,7363,
7363,7364,7363,7364,7363,7363,7363,7364,7363,7363,7363,7363,7363,7363,7363,7363,7363,7363,7363,7363,7363,7364,7363,7363,7363,7363,7363,7363,7363,7363,7363,7363,7364,7363,7363,7363,7363,7363,7363,7364,7364,7364,7363,7363,7364,7363,7364,7363,7363,7363,7363,7364,7363,7364,7363,7363,
7363,7363,7363,7363,7363,7363,7363,7364,7363,7363,7364,7363,7364,7363,7363,7363,7363,7363,7363,7363,7363,7363,7364,7363,7363,7363,7363,7363,7363,7363,7363,7363,7363,7363,7363,7363,7363,7363,7363,7364,7364,7364,7364,7363,7363,7364,7363,7363,7363,7363,7363,7363,7363,7363,7363,7363,
7363,7364,7363,7364,7363,7363,7363,7363,7364,7363,7363,7363,7363,7364,7363,7363,7363,7363,7363,7363,7363,7363,7363,7363,7363,7364,7363,7363,7363,7363,7363,7364,7363,7363,7363,7363,7363,7363,7363,7364,7364,7364,7364,7363,7363,7363,7363,7363,7363,7363,7364,7363,7363,7364,7363,7364,
7363,7363,7363,7363,7364,7363,7363,7364,7363,7363,7364,7363,7363,7363,7363,7363,7363,7363,7363,7363,7363,7363,7363,7363,7363,7363,7363,7363,7363,7363,7364,7363,7363,7363,7363,7363,7364,7363,7363,7364,7364,7364,7364,7363,7364,7363,7363,7363,7364,7363,7363,7363,7363,7363,7363,7363,
7363,7363,7364,7363,7364,7363,7363,7363,7363,7363,7363,7363,7363,7363,7363,7363,7363,7363,7363,7363,7363,7364,7363,7363,7364,7363,7363,7363,7363,7363,7363,7363,7363,7363,7363,7363,7363,7363,7363,7364,7364,7364,7364,7363,7363,7363,7363,7363,7363,7363,7363,7363,7363,7364,7363,7363,
7363,7363,7363,7363,7363,7364,7364,7363,7363,7363,7363,7363,7363,7363,7363,7363,7363,7363,7363,7363,7363,7363,7363,7363,7363,7363,7363,7363,7363,7363,7363,7363,7364,7363,7363,7363,7363,7363,7363,7364,7364,7364,7364,7363,7363,7363,7363,7363,7363,7363,7363,7363,7364,7363,7364,7363,
7364,7363,7364,7363,7363,7363,7363,7363,7363,7363,7363,7363,7363,7363,7363,7363,7363,7363,7363,7363,7363,7363,7363,7363,7364,7364,7363,7363,7363,7363,7363,7363,7363,7363,7363,7363,7363,7363,7363,7364,7364,7364,7364,7363,7363,7363,7363,7363,7364,7364,7364,7363,7363,7363,7363,7363,
7364,7363,7363,7364,7363,7363,7363,7363,7364,7364,7364,7364,7364,7363,7363,7363,7363,7363,7363,7363,7363,7363,7364,7363,7363,7363,7363,7364,7363,7363,7363,7363,7364,7363,7363,7363,7363,7363,7363,7364,7364,7364,7364,7363,7363,7363,7363,7363,7363,7363,7363,7363,7363,7363,7363,7363,
7363,7363,7363,7364,7364,7364,7363,7364,7364,7364,7364,7364,7364,7363,7363,7364,7364,7364,7363,7363,7363,7363,7363,7363,7363,7363,7363,7363,7363,7363,7363,7363,7363,7363,7364,7363,7363,7364,7363,7364,7364,7364,7364,7363,7364,7363,7363,7363,7363,7363,7363,7363,7363,7363,7363,7363,
7363,7364,7363,7363,7363,7363,7363,7363,7364,7364,7363,7364,7364,7363,7363,7363,7363,7363,7363,7363,7363,7363,7363,7363,7363,7363,7363,7363,7363,7363,7363,7364,7363,7363,7363,7363,7364,7363,7363,7364,7364,7364,7364,7363,7363,7363,7363,7363,7363,7363,7363,7363,7363,7363,7363,7363,
7363,7363,7363,7363,7364,7363,7363,7363,7363,7363,7363,7363,7363,7363,7364,7363,7363,7363,7363,7363,7363,7363,7363,7363,7363,7363,7363,7363,7363,7363,7363,7363,7363,7363,7363,7363,7363,7363,7363,7364,7364,7364,7364,7363,7363,7363,7363,7363,7363,7363,7363,7363,7363,7363,7363,7363,
7363,7364,7363,7363,7363,7363,7364,7363,7363,7363,7363,7363,7363,7363,7363,7363,7363,7363,7363,7363,7363,7363,7363,7363,7363,7363,7363,7363,7363,7364,7363,7363,7363,7363,7363,7364,7363,7363,7363,7364,7364,7364,7364,7363,7363,7363,7363,7363,7363,7363,7363,7363,7364,7364,7364,7363,
7364,7363,7363,7364,7363,7363,7363,7363,7364,7363,7363,7363,7363,7364,7363,7363,7363,7363,7363,7363,7363,7363,7363,7364,7363,7363,7363,7364,7363,7363,7363,7364,7363,7364,7363,7364,7363,7363,7363,7364,7364,7364,7364,7363,7363,7363,7363,7363,7363,7363,7363,7363,7363,7363,7363,7363,
7363,7363,7363,7363,7363,7363,7363,7363,7363,7363,7363,7363,7363,7363,7363,7363,7363,7363,7363,7363,7363,7363,7363,7363,7363,7363,7363,7363,7363,7363,7363,7363,7363,7363,7363,7363,7363,7363,7363,7364,7364,7364,7364,7363,7363,7363,7363,7363,7363,7364,7364,7364,7363,7364,7363,7364,
7363,7364,7363,7363,7363,7363,7363,7363,7363,7363,7363,7363,7363,7363,7363,7363,7363,7363,7363,7363,7363,7363,7363,7363,7363,7363,7363,7363,7363,7363,7363,7363,7363,7363,7363,7363,7363,7363,7363,7363,7363,7363,7363,7363,7363,7363,7363,7363,7364,7364,7364,7364,7364,7363,7364,7363,
7363,7363,7363,7363,7364,7364,7363,7363,7363,7363,7363,7363,7363,7363,7363,7363,7363,7363,7363,7363,7364,7363,7363,7363,7363,7363,7363,7363,7363,7363,7363,7363,7363,7363,7363,7363,7363,7363,7363,7364,7364,7364,7364,7363,7363,7363,7363,7363,7364,7364,7364,7364,7364,7363,7364,7364,
7364,7363,7363,7363,7363,7363,7363,7364,7363,7363,7363,7363,7363,7363,7363,7363,7363,7363,7363,7363,7363,7363,7363,7364,7363,7363,7363,7364,7363,7363,7363,7364,7363,7363,7363,7364,7363,7363,7363,7364,7364,7364,7364,7363,7363,7363,7364,7363,7363,7364,7364,7364,7363,7363,7363,7363,
7363,7364,7363,7364,7363,7363,7363,7363,7363,7363,7363,7364,7363,7363,7363,7363,7363,7363,7363,7363,7363,7363,7363,7363,7363,7363,7363,7363,7363,7363,7363,7363,7363,7364,7363,7363,7363,7363,7364,7363,7364,7364,7364,7363,7364,7363,7364,7363,7363,7363,7363,7363,7363,7363,7363,7363,
7363,7363,7363,7363,7363,7363,7363,7364,7363,7363,7363,7363,7363,7363,7363,7363,7363,7363,7363,7363,7363,7363,7363,7363,7363,7363,7363,7363,7363,7363,7363,7363,7363,7363,7363,7363,7363,7363,7363,7363,7364,7364,7364,7363,7363,7363,7363,7363,7363,7363,7364,7363,7364,7363,7363,7363,
7363,7363,7363,7363,7364,7363,7363,7363,7364,7363,7363,7363,7363,7363,7364,7363,7363,7363,7363,7363,7363,7363,7363,7363,7363,7363,7363,7364,7364,7363,7363,7363,7363,7363,7363,7363,7363,7363,7363,7363,7364,7364,7364,7364,7363,7363,7363,7363,7363,7363,7363,7364,7364,7364,7363,7363,
7364,7363,7364,7363,7364,7363,7363,7363,7363,7363,7363,7363,7363,7363,7363,7363,7363,7363,7363,7363,7363,7363,7363,7363,7363,7363,7363,7363,7363,7363,7364,7363,7363,7363,7363,7363,7363,7363,7363,7363,7363,7364,7364,7364,7363,7363,7363,7363,7363,7363,7364,7364,7364,7364,7364,7363,
7364,7363,7363,7363,7363,7364,7363,7363,7363,7363,7363,7363,7363,7363,7364,7363,7363,7363,7363,7363,7363,7363,7363,7363,7364,7363,7363,7363,7363,7363,7364,7363,7363,7363,7363,7363,7363,7363,7363,7364,7363,7364,7364,7364,7364,7364,7364,7363,7363,7363,7363,7364,7364,7364,7363,7363,
7363,7364,7363,7364,7363,7363,7363,7363,7363,7363,7364,7363,7364,7363,7363,7363,7363,7363,7363,7363,7363,7363,7364,7363,7363,7363,7363,7363,7363,7363,7363,7363,7363,7363,7363,7363,7363,7364,7363,7363,7363,7363,7364,7364,7364,7363,7363,7363,7364,7363,7363,7363,7364,7363,7363,7363,
7363,7363,7363,7363,7363,7363,7364,7363,7363,7363,7364,7363,7363,7363,7363,7363,7363,7363,7363,7363,7363,7364,7363,7363,7363,7363,7363,7363,7363,7363,7363,7363,7363,7364,7363,7363,7363,7363,7363,7363,7363,7363,7363,7364,7364,7364,7363,7363,7363,7363,7363,7363,7363,7363,7363,7363,
7363,7364,7363,7363,7363,7364,7364,7363,7363,7364,7363,7363,7363,7364,7363,7363,7363,7363,7363,7363,7363,7363,7363,7363,7363,7363,7363,7363,7363,7364,7363,7363,7363,7363,7363,7363,7363,7363,7363,7363,7363,7363,7363,7363,7364,7364,7364,7363,7363,7363,7364,7363,7363,7363,7363,7363,
7363,7364,7363,7363,7363,7363,7363,7363,7364,7363,7363,7363,7363,7363,7363,7363,7363,7363,7363,7363,7363,7363,7363,7363,7363,7364,7364,7363,7363,7363,7364,7363,7363,7363,7363,7363,7363,7363,7363,7363,7363,7363,7363,7363,7364,7364,7364,7364,7364,7364,7363,7363,7363,7364,7363,7363,
7363,7363,7363,7363,7363,7364,7363,7363,7363,7363,7364,7363,7364,7363,7363,7363,7363,7363,7363,7363,7364,7363,7363,7363,7363,7363,7363,7363,7363,7363,7363,7363,7363,7363,7363,7363,7363,7363,7363,7363,7363,7363,7363,7364,7364,7364,7364,7364,7364,7364,7364,7363,7363,7363,7363,7363,
7363,7363,7363,7363,7363,7363,7364,7363,7363,7363,7363,7363,7363,7364,7363,7363,7363,7363,7363,7363,7363,7364,7363,7363,7363,7363,7363,7363,7363,7363,7363,7363,7363,7363,7363,7364,7363,7363,7363,7363,7363,7363,7363,7364,7364,7364,7364,7364,7364,7364,7364,7364,7363,7363,7363,7363,
7363,7363,7364,7363,7364,7363,7363,7363,7363,7364,7363,7363,7363,7363,7363,7363,7363,7363,7363,7364,7363,7363,7363,7364,7363,7363,7363,7363,7363,7363,7364,7363,7363,7363,7363,7364,7363,7363,7363,7363,7363,7363,7363,7363,7364,7364,7364,7364,7364,7364,7364,7363,7363,7364,7363,7363,
7363,7363,7363,7363,7363,7364,7363,7363,7364,7363,7363,7363,7364,7363,7363,7363,7363,7363,7363,7363,7363,7363,7364,7363,7363,7364,7363,7363,7363,7363,7364,7363,7364,7363,7363,7363,7363,7363,7363,7363,7363,7363,7363,7363,7363,7364,7364,7364,7364,7364,7363,7363,7363,7364,7363,7363,
7363,7363,7364,7363,7363,7363,7363,7363,7363,7363,7363,7363,7363,7363,7363,7363,7363,7363,7363,7363,7363,7363,7363,7363,7363,7363,7363,7363,7363,7363,7363,7363,7363,7363,7363,7363,7363,7363,7364,7364,7363,7363,7363,7363,7363,7363,7364,7363,7363,7363,7363,7363,7364,7363,7364,7363,
7363,7364,7363,7363,7364,7363,7363,7364,7363,7363,7363,7364,7363,7363,7363,7363,7363,7363,7363,7363,7363,7363,7363,7363,7364,7363,7363,7363,7363,7364,7364,7363,7364,7363,7364,7363,7363,7363,7363,7364,7363,7363,7363,7363,7363,7363,7363,7363,7363,7363,7363,7363,7363,7363,7363,7363,
7363,7363,7363,7364,7363,7364,7363,7364,7363,7363,7363,7363,7363,7363,7363,7363,7363,7363,7363,7363,7363,7363,7363,7363,7363,7363,7363,7364,7363,7363,7363,7364,7364,7363,7363,7363,7364,7364,7363,7363,7363,7363,7364,7363,7363,7363,7363,7363,7363,7363,7363,7363,7364,7363,7363,7363,
7364,7363,7363,7363,7363,7363,7363,7363,7363,7363,7363,7363,7363,7363,7363,7363,7363,7363,7363,7363,7363,7363,7363,7363,7364,7363,7363,7364,7363,7363,7363,7363,7364,7363,7363,7363,7364,7363,7363,7364,7363,7363,7363,7363,7364,7364,7363,7363,7363,7364,7363,7363,7363,7363,7364,7363,
7363,7364,7363,7363,7364,7363,7364,7363,7363,7364,7363,7364,7363,7363,7363,7363,7363,7363,7363,7363,7363,7363,7364,7364,7363,7363,7363,7363,7363,7363,7363,7363,7364,7363,7364,7364,7363,7363,7364,7363,7364,7363,7363,7364,7363,7363,7363,7363,7363,7363,7363,7363,7363,7363,7364,7363
</data>
 </layer>
 <objectgroup id="7" name="Scenery">
  <object id="1" gid="2147491014" x="28" y="-1" width="64" height="64" />
  <object id="2" gid="2147491015" x="863" y="-1" width="64" height="64" />
  <object id="3" gid="2147491015" x="124" y="2" width="64" height="64" />
  <object id="4" gid="7368" x="448" y="2" width="64" height="64" />
  <object id="5" gid="7367" x="214" y="4" width="64" height="64" />
  <object id="6" gid="7368" x="47" y="5" width="64" height="64" />
  <object id="7" gid="2147491026" x="661" y="5" width="64" height="64" />
  <object id="8" gid="2147491014" x="244" y="7" width="64" height="64" />
  <object id="9" gid="2147491015" x="428" y="7" width="64" height="64" />
  <object id="10" gid="7376" x="175" y="9" width="64" height="64" />
  <object id="11" gid="2147491016" x="779" y="11" width="64" height="64" />
  <object id="12" gid="2147491026" x="498" y="12" width="64" height="64" />
  <object id="13" gid="7368" x="379" y="15" width="64" height="64" />
  <object id="14" gid="2147491015" x="-21" y="18" width="64" height="64" />
  <object id="15" gid="2147491016" x="798" y="18" width="64" height="64" />
  <object id="16" gid="2147491024" x="707" y="19" width="64" height="64" />
  <object id="17" gid="7367" x="723" y="19" width="64" height="64" />
  <object id="18" gid="7376" x="96" y="20" width="64" height="64" />
  <object id="19" gid="2147491014" x="130" y="26" width="64" height="64" />
  <object id="20" gid="7368" x="687" y="28" width="64" height="64" />
  <object id="21" gid="7368" x="759" y="30" width="64" height="64" />
  <object id="22" gid="2147491026" x="48" y="33" width="64" height="64" />
  <object id="23" gid="7368" x="720" y="33" width="64" height="64" />
  <object id="24" gid="7368" x="224" y="34" width="64" height="64" />
  <object id="25" gid="7368" x="352" y="47" width="64" height="64" />
  <object id="26" gid="7365" x="3.2" y="59.2" width="64" height="64" />
  <object id="27" gid="2147491017" x="67.2" y="59.2" width="64" height="64" />
  <object id="28" gid="7380" x="131.2" y="59.2" width="64" height="64" />
  <object id="29" gid="2147491013" x="195.2" y="59.2" width="64" height="64" />
  <object id="30" gid="7369" x="403.2" y="59.2" width="64" height="64" />
  <object id="31" gid="2147491028" x="467.2" y="59.2" width="64" height="64" />
  <object id="32" gid="7365" x="528" y="59.2" width="64" height="64" />
  <object id="33" gid="2147491017" x="681.6" y="59.2" width="64" height="64" />
  <object id="34" gid="7380" x="745.6" y="59.2" width="64" height="64" />
  <object id="35" gid="2147491013" x="812.8" y="59.2" width="64" height="64" />
  <object id="36" gid="2147491014" x="265" y="60" width="64" height="64" />
  <object id="37" gid="7396" x="668" y="70" width="64" height="64" />
  <object id="38" gid="2147491057" x="158" y="71" width="64" height="64" />
  <object id="39" gid="7378" x="343" y="86" width="64" height="64" />
  <object id="40" gid="7366" x="850" y="89" width="64" height="64" />
  <object id="41" gid="2147491079" x="161" y="93" width="64" height="64" />
  <object id="42" gid="2147491044" x="727" y="93" width="64" height="64" />
  <object id="43" gid="2147491057" x="423" y="95" width="64" height="64" />
  <object id="44" gid="7396" x="138" y="105" width="64" height="64" />
  <object id="45" gid="7367" x="340" y="107" width="64" height="64" />
  <object id="46" gid="7389" x="77" y="111" width="64" height="64" />
  <object id="47" gid="7450" x="757" y="115" width="64" height="64" />
  <object id="48" gid="2147491015" x="855" y="118" width="64" height="64" />
  <object id="49" gid="7411" x="529" y="122" width="64" height="64" />
  <object id="50" gid="2147491044" x="-38" y="123" width="64" height="64" />
  <object id="51" gid="2147491015" x="785" y="127" width="64" height="64" />
  <object id="52" gid="2147491044" x="832" y="128" width="64" height="64" />
  <object id="53" gid="7367" x="0" y="129" width="64" height="64" />
  <object id="54" gid="2147491015" x="223" y="130" width="64" height="64" />
  <object id="55" gid="7389" x="204" y="131" width="64" height="64" />
  <object id="56" gid="2147491079" x="348" y="132" width="64" height="64" />
  <object id="57" gid="2147491098" x="70" y="133" width="64" height="64" />
  <object id="58" gid="7368" x="-2" y="136" width="64" height="64" />
  <object id="59" gid="7368" x="843" y="137" width="64" height="64" />
  <object id="60" gid="7396" x="777" y="139" width="64" height="64" />
  <object id="61" gid="2147491026" x="461" y="141" width="64" height="64" />
  <object id="62" gid="2147491044" x="706" y="144" width="64" height="64" />
  <object id="63" gid="7378" x="811" y="145" width="64" height="64" />
  <object id="64" gid="7450" x="505" y="145" width="64" height="64" />
  <object id="65" gid="7389" x="770" y="147" width="64" height="64" />
  <object id="66" gid="7368" x="94" y="148" width="64" height="64" />
  <object id="67" gid="2147491026" x="325" y="157" width="64" height="64" />
  <object id="68" gid="7396" x="77" y="161" width="64" height="64" />
  <object id="69" gid="7368" x="378" y="161" width="64" height="64" />
  <object id="70" gid="2147491044" x="747" y="166" width="64" height="64" />
  <object id="71" gid="2147491057" x="18" y="167" width="64" height="64" />
  <object id="72" gid="7368" x="832" y="170" width="64" height="64" />
  <object id="73" gid="2147491037" x="200" y="170" width="64" height="64" />
  <object id="74" gid="2147491016" x="-42" y="172" width="64" height="64" />
  <object id="75" gid="2147491098" x="176" y="174" width="64" height="64" />
  <object id="76" gid="7389" x="770" y="175" width="64" height="64" />
  <object id="77" gid="7366" x="467" y="177" width="64" height="64" />
  <object id="78" gid="7411" x="639" y="189" width="64" height="64" />
  <object id="79" gid="7367" x="683" y="190" width="64" height="64" />
  <object id="80" gid="2147491015" x="223" y="191" width="64" height="64" />
  <object id="81" gid="7366" x="65" y="192" width="64" height="64" />
  <object id="82" gid="7368" x="505" y="194" width="64" height="64" />
  <object id="83" gid="7368" x="-10" y="195" width="64" height="64" />
  <object id="84" gid="7376" x="844" y="200" width="64" height="64" />
  <object id="85" gid="7367" x="452" y="205" width="64" height="64" />
  <object id="86" gid="2147491016" x="19" y="208" width="64" height="64" />
  <object id="87" gid="7389" x="415" y="209" width="64" height="64" />
  <object id="88" gid="2147491026" x="144" y="210" width="64" height="64" />
  <object id="89" gid="2147491037" x="350" y="210" width="64" height="64" />
  <object id="90" gid="7374" x="684.8" y="214.4" width="64" height="64" />
  <object id="91" gid="2147491034" x="632" y="216" width="64" height="64" />
  <object id="92" gid="2147491024" x="14" y="219" width="64" height="64" />
  <object id="93" gid="7368" x="837" y="232" width="64" height="64" />
  <object id="94" gid="2147491015" x="-16" y="233" width="64" height="64" />
  <object id="95" gid="7389" x="49" y="234" width="64" height="64" />
  <object id="96" gid="2147491015" x="380" y="234" width="64" height="64" />
  <object id="97" gid="7368" x="817" y="237" width="64" height="64" />
  <object id="98" gid="7450" x="77" y="243" width="64" height="64" />
  <object id="99" gid="7409" x="459" y="243" width="64" height="64" />
  <object id="100" gid="2147491015" x="4" y="251" width="64" height="64" />
  <object id="101" gid="7367" x="27" y="253" width="64" height="64" />
  <object id="102" gid="2147491057" x="676" y="256" width="64" height="64" />
  <object id="103" gid="7431" x="156" y="257" width="64" height="64" />
  <object id="104" gid="2147491026" x="851" y="259" width="64" height="64" />
  <object id="105" gid="7450" x="809" y="259" width="64" height="64" />
  <object id="106" gid="7367" x="635" y="260" width="64" height="64" />
  <object id="107" gid="7450" x="351" y="262" width="64" height="64" />
  <object id="108" gid="2147491026" x="736" y="262" width="64" height="64" />
  <object id="109" gid="7410" x="281.6" y="262.4" width="64" height="64" />
  <object id="110" gid="7396" x="34" y="264" width="64" height="64" />
  <object id="111" gid="7445" x="452" y="268" width="64" height="64" />
  <object id="112" gid="2147491037" x="68" y="269" width="64" height="64" />
  <object id="113" gid="7378" x="182" y="269" width="64" height="64" />
  <object id="114" gid="2147491113" x="621" y="271" width="64" height="64" />
  <object id="115" gid="2147491014" x="854" y="274" width="64" height="64" />
  <object id="116" gid="2147491015" x="-1" y="275" width="64" height="64" />
  <object id="117" gid="7391" x="512" y="275.2" width="64" height="64" />
  <object id="118" gid="2147491057" x="338" y="285" width="64" height="64" />
  <object id="119" gid="7367" x="818" y="288" width="64" height="64" />
  <object id="120" gid="2147491015" x="-27" y="289" width="64" height="64" />
  <object id="121" gid="7396" x="766" y="291" width="64" height="64" />
  <object id="122" gid="7366" x="657" y="294" width="64" height="64" />
  <object id="123" gid="2147491016" x="423" y="295" width="64" height="64" />
  <object id="124" gid="7509" x="502.4" y="300.8" width="64" height="64" />
  <object id="125" gid="7368" x="824" y="301" width="64" height="64" />
  <object id="126" gid="2147491016" x="67" y="302" width="64" height="64" />
  <object id="127" gid="2147491016" x="366" y="309" width="64" height="64" />
  <object id="128" gid="2147491113" x="619" y="310" width="64" height="64" />
  <object id="129" gid="7439" x="521.6" y="313.6" width="64" height="64" />
  <object id="130" gid="2147491015" x="-4" y="314" width="64" height="64" />
  <object id="131" gid="7367" x="69" y="320" width="64" height="64" />
  <object id="132" gid="7445" x="795" y="321" width="64" height="64" />
  <object id="133" gid="7376" x="437" y="322" width="64" height="64" />
  <object id="134" gid="7445" x="668" y="324" width="64" height="64" />
  <object id="135" gid="2147491026" x="-33" y="326" width="64" height="64" />
  <object id="136" gid="7376" x="712" y="327" width="64" height="64" />
  <object id="137" gid="2147491016" x="830" y="333" width="64" height="64" />
  <object id="138" gid="2147491016" x="864" y="335" width="64" height="64" />
  <object id="139" gid="7368" x="634" y="338" width="64" height="64" />
  <object id="140" gid="7409" x="11" y="342" width="64" height="64" />
  <object id="141" gid="7368" x="-19" y="354" width="64" height="64" />
  <object id="142" gid="7412" x="758.4" y="355.2" width="64" height="64" />
  <object id="143" gid="7465" x="621" y="361" width="64" height="64" />
  <object id="144" gid="7395" x="796.8" y="364.8" width="64" height="64" />
  <object id="145" gid="7368" x="652" y="370" width="64" height="64" />
  <object id="146" gid="7367" x="73" y="374" width="64" height="64" />
  <object id="147" gid="7514" x="768" y="377.6" width="64" height="64" />
  <object id="148" gid="7382" x="691.2" y="384" width="64" height="64" />
  <object id="149" gid="7382" x="723.2" y="384" width="64" height="64" />
  <object id="150" gid="2147491015" x="12" y="384" width="64" height="64" />
  <object id="151" gid="7367" x="-36" y="387" width="64" height="64" />
  <object id="152" gid="7378" x="53" y="390" width="64" height="64" />
  <object id="153" gid="2147491016" x="848" y="391" width="64" height="64" />
  <object id="154" gid="7476" x="201.6" y="406.4" width="64" height="64" />
  <object id="155" gid="7418" x="752" y="406.4" width="64" height="64" />
  <object id="156" gid="7439" x="809.6" y="409.6" width="64" height="64" />
  <object id="157" gid="7439" x="460.8" y="412.8" width="64" height="64" />
  <object id="158" gid="7388" x="118.4" y="416" width="64" height="64" />
  <object id="159" gid="2147491057" x="2" y="418" width="64" height="64" />
  <object id="160" gid="7368" x="38" y="422" width="64" height="64" />
  <object id="161" gid="7510" x="272" y="422.4" width="64" height="64" />
  <object id="162" gid="7407" x="518.4" y="425.6" width="64" height="64" />
  <object id="163" gid="2147491015" x="26" y="427" width="64" height="64" />
  <object id="164" gid="7443" x="780.8" y="428.8" width="64" height="64" />
  <object id="165" gid="7511" x="448" y="435.2" width="64" height="64" />
  <object id="166" gid="7494" x="368" y="438.4" width="64" height="64" />
  <object id="167" gid="7368" x="862" y="441" width="64" height="64" />
  <object id="168" gid="7451" x="308.8" y="441.6" width="64" height="64" />
  <object id="169" gid="7451" x="347.2" y="441.6" width="64" height="64" />
  <object id="170" gid="7421" x="188.8" y="441.6" width="64" height="64" />
  <object id="171" gid="7509" x="380.8" y="444.8" width="64" height="64" />
  <object id="172" gid="7367" x="36" y="446" width="64" height="64" />
  <object id="173" gid="2147491057" x="58" y="447" width="64" height="64" />
  <object id="174" gid="7500" x="435.2" y="448" width="64" height="64" />
  <object id="175" gid="2147491026" x="-33" y="451" width="64" height="64" />
  <object id="176" gid="7421" x="268.8" y="451.2" width="64" height="64" />
  <object id="177" gid="7366" x="18" y="454" width="64" height="64" />
  <object id="178" gid="2147491015" x="17" y="468" width="64" height="64" />
  <object id="179" gid="7367" x="8" y="476" width="64" height="64" />
  <object id="180" gid="7367" x="734" y="478" width="64" height="64" />
  <object id="181" gid="7396" x="850" y="482" width="64" height="64" />
  <object id="182" gid="2147491057" x="91" y="487" width="64" height="64" />
  <object id="183" gid="2147491014" x="701" y="492" width="64" height="64" />
  <object id="184" gid="7366" x="10" y="495" width="64" height="64" />
  <object id="185" gid="7421" x="268.8" y="496" width="64" height="64" />
  <object id="186" gid="2147491016" x="-41" y="499" width="64" height="64" />
  <object id="187" gid="7383" x="208" y="499.2" width="64" height="64" />
  <object id="188" gid="2147491015" x="818" y="502" width="64" height="64" />
  <object id="189" gid="7368" x="849" y="506" width="64" height="64" />
  <object id="190" gid="7400" x="364.8" y="508.8" width="64" height="64" />
  <object id="191" gid="7396" x="742" y="512" width="64" height="64" />
  <object id="192" gid="2147491057" x="852" y="517" width="64" height="64" />
  <object id="193" gid="7376" x="148" y="517" width="64" height="64" />
  <object id="194" gid="2147491024" x="652" y="517" width="64" height="64" />
  <object id="195" gid="7445" x="105" y="521" width="64" height="64" />
  <object id="196" gid="7392" x="313.6" y="521.6" width="64" height="64" />
  <object id="197" gid="7368" x="0" y="522" width="64" height="64" />
  <object id="198" gid="7367" x="723" y="525" width="64" height="64" />
  <object id="199" gid="7376" x="800" y="528" width="64" height="64" />
  <object id="200" gid="7385" x="284.8" y="534.4" width="64" height="64" />
  <object id="201" gid="2147491033" x="342.4" y="537.6" width="64" height="64" />
  <object id="202" gid="7382" x="368" y="540.8" width="64" height="64" />
  <object id="203" gid="7382" x="400" y="540.8" width="64" height="64" />
  <object id="204" gid="7382" x="432" y="540.8" width="64" height="64" />
  <object id="205" gid="7382" x="464" y="540.8" width="64" height="64" />
  <object id="206" gid="2147491024" x="77" y="543" width="64" height="64" />
  <object id="207" gid="7367" x="4" y="545" width="64" height="64" />
  <object id="208" gid="2147491044" x="662" y="545" width="64" height="64" />
  <object id="209" gid="7368" x="688" y="546" width="64" height="64" />
  <object id="210" gid="2147491044" x="-34" y="555" width="64" height="64" />
  <object id="211" gid="7368" x="720" y="555" width="64" height="64" />
  <object id="212" gid="7367" x="860" y="556" width="64" height="64" />
  <object id="213" gid="7512" x="358.4" y="563.2" width="64" height="64" />
  <object id="214" gid="7431" x="134" y="564" width="64" height="64" />
  <object id="215" gid="7450" x="368" y="571.2" width="64" height="64" />
  <object id="216" gid="7450" x="400" y="571.2" width="64" height="64" />
  <object id="217" gid="7450" x="432" y="571.2" width="64" height="64" />
  <object id="218" gid="7450" x="464" y="571.2" width="64" height="64" />
  <object id="219" gid="7366" x="646" y="579" width="64" height="64" />
  <object id="220" gid="2147491015" x="826" y="581" width="64" height="64" />
  <object id="221" gid="2147491044" x="-19" y="582" width="64" height="64" />
  <object id="222" gid="7396" x="31" y="582" width="64" height="64" />
  <object id="223" gid="7368" x="75" y="582" width="64" height="64" />
  <object id="224" gid="7375" x="697.6" y="582.4" width="64" height="64" />
  <object id="225" gid="7368" x="805" y="584" width="64" height="64" />
  <object id="226" gid="2147491015" x="183" y="595" width="64" height="64" />
  <object id="227" gid="2147491016" x="788" y="600" width="64" height="64" />
  <object id="228" gid="7368" x="52" y="602" width="64" height="64" />
  <object id="229" gid="2147491044" x="808" y="603" width="64" height="64" />
  <object id="230" gid="7389" x="384" y="604.8" width="64" height="64" />
  <object id="231" gid="7389" x="416" y="604.8" width="64" height="64" />
  <object id="232" gid="7389" x="448" y="604.8" width="64" height="64" />
  <object id="233" gid="2147491093" x="741" y="606" width="64" height="64" />
  <object id="234" gid="2147491026" x="295" y="607" width="64" height="64" />
  <object id="235" gid="2147491057" x="161" y="608" width="64" height="64" />
  <object id="236" gid="7367" x="-15" y="615" width="64" height="64" />
  <object id="237" gid="2147491093" x="75" y="616" width="64" height="64" />
  <object id="238" gid="7409" x="775" y="616" width="64" height="64" />
  <object id="239" gid="2147491016" x="523" y="617" width="64" height="64" />
  <object id="240" gid="7465" x="529" y="622" width="64" height="64" />
  <object id="241" gid="2147491098" x="108" y="623" width="64" height="64" />
  <object id="242" gid="7396" x="21" y="631" width="64" height="64" />
  <object id="243" gid="7366" x="-3" y="634" width="64" height="64" />
  <object id="244" gid="2147491057" x="185" y="638" width="64" height="64" />
  <object id="245" gid="7396" x="52" y="640" width="64" height="64" />
  <object id="246" gid="7371" x="816" y="643.2" width="64" height="64" />
  <object id="247" gid="7378" x="722" y="646" width="64" height="64" />
  <object id="248" gid="7386" x="530" y="646" width="64" height="64" />
  <object id="249" gid="2147491079" x="99" y="649" width="64" height="64" />
  <object id="250" gid="2147491093" x="740" y="649" width="64" height="64" />
  <object id="251" gid="2147491015" x="658" y="650" width="64" height="64" />
  <object id="252" gid="2147491098" x="140" y="651" width="64" height="64" />
  <object id="253" gid="7396" x="840" y="656" width="64" height="64" />
  <object id="254" gid="7368" x="4" y="663" width="64" height="64" />
  <object id="255" gid="2147491113" x="653" y="664" width="64" height="64" />
  <object id="256" gid="2147491016" x="512" y="667" width="64" height="64" />
  <object id="257" gid="7378" x="-28" y="670" width="64" height="64" />
  <object id="258" gid="2147491016" x="391" y="670" width="64" height="64" />
  <object id="259" gid="2147491016" x="356" y="670" width="64" height="64" />
  <object id="260" gid="7368" x="107" y="671" width="64" height="64" />
  <object id="261" gid="2147491016" x="48" y="675" width="64" height="64" />
  <object id="262" gid="2147491014" x="773" y="676" width="64" height="64" />
  <object id="263" gid="2147491015" x="368" y="678" width="64" height="64" />
  <object id="264" gid="2147491015" x="408" y="686" width="64" height="64" />
  <object id="265" gid="2147491015" x="27" y="688" width="64" height="64" />
  <object id="266" gid="2147491044" x="521" y="689" width="64" height="64" />
  <object id="267" gid="7368" x="370" y="692" width="64" height="64" />
  <object id="268" gid="2147491015" x="447" y="692" width="64" height="64" />
  <object id="269" gid="7368" x="485" y="693" width="64" height="64" />
  <object id="270" gid="7367" x="182" y="693" width="64" height="64" />
  <object id="271" gid="2147491016" x="7" y="694" width="64" height="64" />
  <object id="272" gid="7411" x="560" y="704" width="64" height="64" />
  <object id="273" gid="7409" x="462" y="706" width="64" height="64" />
  <object id="274" gid="7409" x="682" y="707" width="64" height="64" />
  <object id="275" gid="2147491016" x="535" y="709" width="64" height="64" />
  <object id="276" gid="2147491098" x="57" y="710" width="64" height="64" />
  <object id="277" gid="2147491015" x="862" y="711" width="64" height="64" />
  <object id="278" gid="7409" x="28" y="712" width="64" height="64" />
  <object id="279" gid="2147491015" x="426" y="712" width="64" height="64" />
  <object id="280" gid="7374" x="112" y="713.6" width="64" height="64" />
  <object id="281" gid="7378" x="785" y="717" width="64" height="64" />
  <object id="282" gid="7409" x="499" y="718" width="64" height="64" />
  <object id="283" gid="7366" x="172" y="719" width="64" height="64" />
  <object id="284" gid="7423" x="297.6" y="720" width="64" height="64" />
  <object id="285" gid="2147491016" x="383" y="721" width="64" height="64" />
  <object id="286" gid="2147491113" x="552" y="721" width="64" height="64" />
  <object id="287" gid="2147491093" x="705" y="722" width="64" height="64" />
  <object id="288" gid="2147491026" x="827" y="724" width="64" height="64" />
  <object id="289" gid="7465" x="659" y="724" width="64" height="64" />
  <object id="290" gid="2147491015" x="-36" y="725" width="64" height="64" />
  <object id="291" gid="7367" x="464" y="733" width="64" height="64" />
  <object id="292" gid="2147491044" x="509" y="734" width="64" height="64" />
  <object id="293" gid="7367" x="767" y="734" width="64" height="64" />
  <object id="294" gid="2147491024" x="785" y="734" width="64" height="64" />
  <object id="295" gid="2147491037" x="164" y="735" width="64" height="64" />
  <object id="296" gid="7367" x="847" y="737" width="64" height="64" />
  <object id="297" gid="7450" x="291" y="737" width="64" height="64" />
  <object id="298" gid="2147491016" x="705" y="744" width="64" height="64" />
  <object id="299" gid="2147491014" x="-23" y="747" width="64" height="64" />
  <object id="300" gid="2147491015" x="429" y="750" width="64" height="64" />
  <object id="301" gid="2147491015" x="39" y="751" width="64" height="64" />
  <object id="302" gid="2147491057" x="96" y="755" width="64" height="64" />
  <object id="303" gid="7376" x="374.4" y="761.6" width="64" height="64" />
  <object id="304" gid="2147491026" x="849" y="762" width="64" height="64" />
  <object id="305" gid="7396" x="129" y="766" width="64" height="64" />
  <object id="306" gid="2147491014" x="18" y="771" width="64" height="64" />
  <object id="307" gid="2147491016" x="54" y="771" width="64" height="64" />
  <object id="308" gid="7409" x="717" y="771" width="64" height="64" />
  <object id="309" gid="2147491057" x="491" y="773" width="64" height="64" />
  <object id="310" gid="7409" x="830" y="774" width="64" height="64" />
  <object id="311" gid="7367" x="444" y="775" width="64" height="64" />
  <object id="312" gid="2147491015" x="-36" y="776" width="64" height="64" />
  <object id="313" gid="7368" x="770" y="779" width="64" height="64" />
  <object id="314" gid="2147491015" x="192" y="780" width="64" height="64" />
  <object id="315" gid="2147491016" x="679" y="781" width="64" height="64" />
  <object id="316" gid="7450" x="478" y="781" width="64" height="64" />
  <object id="317" gid="2147491014" x="91" y="788" width="64" height="64" />
  <object id="318" gid="7378" x="704" y="789" width="64" height="64" />
  <object id="319" gid="7465" x="674" y="793" width="64" height="64" />
  <object id="320" gid="2147491016" x="-3" y="794" width="64" height="64" />
  <object id="321" gid="7409" x="785" y="794" width="64" height="64" />
  <object id="322" gid="2147491015" x="18" y="795" width="64" height="64" />
  <object id="323" gid="7368" x="828" y="798" width="64" height="64" />
  <object id="324" gid="2147491057" x="316" y="798" width="64" height="64" />
  <object id="325" gid="7367" x="495" y="799" width="64" height="64" />
  <object id="326" gid="7368" x="162" y="802" width="64" height="64" />
  <object id="327" gid="7367" x="692" y="803" width="64" height="64" />
  <object id="328" gid="2147491015" x="143" y="805" width="64" height="64" />
  <object id="329" gid="7450" x="84" y="807" width="64" height="64" />
  <object id="330" gid="7367" x="330" y="812" width="64" height="64" />
  <object id="331" gid="7368" x="96" y="817" width="64" height="64" />
  <object id="332" gid="7378" x="829" y="817" width="64" height="64" />
  <object id="333" gid="2147491079" x="465" y="817" width="64" height="64" />
  <object id="334" gid="7368" x="383" y="818" width="64" height="64" />
  <object id="335" gid="7366" x="774" y="820" width="64" height="64" />
  <object id="336" gid="7376" x="19" y="822" width="64" height="64" />
  <object id="337" gid="7448" x="185.6" y="822.4" width="64" height="64" />
  <object id="338" gid="7368" x="-15" y="825" width="64" height="64" />
  <object id="339" gid="7376" x="859" y="828" width="64" height="64" />
  <object id="340" gid="2147491113" x="685" y="833" width="64" height="64" />
  <object id="341" gid="7367" x="40" y="836" width="64" height="64" />
  <object id="342" gid="7450" x="137" y="837" width="64" height="64" />
  <object id="343" gid="2147491093" x="553" y="838" width="64" height="64" />
  <object id="344" gid="7378" x="748" y="838" width="64" height="64" />
  <object id="345" gid="7368" x="86" y="843" width="64" height="64" />
  <object id="346" gid="7409" x="451" y="846" width="64" height="64" />
  <object id="347" gid="7368" x="822" y="850" width="64" height="64" />
  <object id="348" gid="2147491015" x="44" y="852" width="64" height="64" />
  <object id="349" gid="7396" x="314" y="853" width="64" height="64" />
  <object id="350" gid="2147491015" x="359" y="853" width="64" height="64" />
  <object id="351" gid="2147491044" x="9" y="860" width="64" height="64" />
  <object id="352" gid="7367" x="490" y="867" width="64" height="64" />
  <object id="353" gid="7409" x="808" y="870" width="64" height="64" />
  <object id="354" gid="7367" x="839" y="872" width="64" height="64" />
  <object id="355" gid="7367" x="77" y="874" width="64" height="64" />
  <object id="356" gid="7367" x="58" y="880" width="64" height="64" />
  <object id="357" gid="7396" x="360" y="883" width="64" height="64" />
  <object id="358" gid="7368" x="12" y="887" width="64" height="64" />
  <object id="359" gid="7373" x="761.6" y="889.6" width="64" height="64" />
  <object id="360" gid="7376" x="-20" y="890" width="64" height="64" />
  <object id="361" gid="7367" x="377" y="895" width="64" height="64" />
  <object id="362" gid="7367" x="-19" y="897" width="64" height="64" />
  <object id="363" gid="2147491014" x="411" y="899" width="64" height="64" />
  <object id="364" gid="2147491014" x="24" y="901" width="64" height="64" />
  <object id="365" gid="7439" x="716.8" y="902.4" width="64" height="64" />
  <object id="366" gid="7389" x="327" y="903" width="64" height="64" />
  <object id="367" gid="7439" x="806.4" y="905.6" width="64" height="64" />
  <object id="368" gid="7514" x="716.8" y="910.4" width="64" height="64" />
  <object id="369" gid="2147491026" x="487" y="911" width="64" height="64" />
  <object id="370" gid="7368" x="524" y="913" width="64" height="64" />
  <object id="371" gid="7514" x="806.4" y="913.6" width="64" height="64" />
  <object id="372" gid="7370" x="224" y="915.2" width="64" height="64" />
  <object id="373" gid="2147491016" x="87" y="918" width="64" height="64" />
  <object id="374" gid="7399" x="678.4" y="918.4" width="64" height="64" />
  <object id="375" gid="7411" x="567" y="926" width="64" height="64" />
  <object id="376" gid="2147491018" x="41.6" y="928" width="64" height="64" />
  <object id="377" gid="7366" x="-8" y="931" width="64" height="64" />
  <object id="378" gid="2147491015" x="467" y="933" width="64" height="64" />
  <object id="379" gid="7439" x="710.4" y="937.6" width="64" height="64" />
  <object id="380" gid="7367" x="544" y="939" width="64" height="64" />
  <object id="381" gid="7439" x="812.8" y="940.8" width="64" height="64" />
  <object id="382" gid="7421" x="116.8" y="956.8" width="64" height="64" />
  <object id="383" gid="7421" x="156.8" y="956.8" width="64" height="64" />
  <object id="384" gid="7429" x="198.4" y="956.8" width="64" height="64" />
  <object id="385" gid="7396" x="44" y="959" width="64" height="64" />
  <object id="386" gid="2147491016" x="540" y="963" width="64" height="64" />
  <object id="387" gid="2147491024" x="-14" y="966" width="64" height="64" />
  <object id="388" gid="7419" x="70.4" y="966.4" width="64" height="64" />
  <object id="389" gid="7370" x="822.4" y="966.4" width="64" height="64" />
  <object id="390" gid="2147491079" x="446" y="975" width="64" height="64" />
  <object id="391" gid="2147491036" x="179.2" y="979.2" width="64" height="64" />
  <object id="392" gid="7497" x="694.4" y="979.2" width="64" height="64" />
  <object id="393" gid="7450" x="504" y="980" width="64" height="64" />
  <object id="394" gid="7367" x="24" y="984" width="64" height="64" />
  <object id="395" gid="7388" x="96" y="985.6" width="64" height="64" />
  <object id="396" gid="2147491057" x="-25" y="986" width="64" height="64" />
  <object id="397" gid="7381" x="336" y="990.4" width="64" height="64" />
  <object id="398" gid="7381" x="400" y="990.4" width="64" height="64" />
  <object id="399" gid="7480" x="464" y="990.4" width="64" height="64" />
  <object id="400" gid="7381" x="528" y="990.4" width="64" height="64" />
  <object id="401" gid="7396" x="862" y="994" width="64" height="64" />
  <object id="402" gid="7411" x="819" y="994" width="64" height="64" />
  <object id="403" gid="7381" x="790.4" y="1001.6" width="64" height="64" />
  <object id="404" gid="7381" x="752" y="1008" width="64" height="64" />
  <object id="405" gid="7465" x="839" y="1011" width="64" height="64" />
  <object id="406" gid="7396" x="-3" y="1020" width="64" height="64" />
  <object id="407" gid="7367" x="59" y="1033" width="64" height="64" />
  <object id="408" gid="2147491015" x="32" y="1034" width="64" height="64" />
  <object id="409" gid="7480" x="835.2" y="1036.8" width="64" height="64" />
  <object id="410" gid="7445" x="855" y="1039" width="64" height="64" />
  <object id="411" gid="7410" x="300.8" y="1040" width="64" height="64" />
  <object id="412" gid="7367" x="84" y="1043" width="64" height="64" />
  <object id="413" gid="7381" x="336" y="1046.4" width="64" height="64" />
  <object id="414" gid="7480" x="400" y="1046.4" width="64" height="64" />
  <object id="415" gid="7381" x="464" y="1046.4" width="64" height="64" />
  <object id="416" gid="7480" x="528" y="1046.4" width="64" height="64" />
  <object id="417" gid="2147491044" x="-31" y="1051" width="64" height="64" />
  <object id="418" gid="2147491093" x="704" y="1055" width="64" height="64" />
  <object id="419" gid="7465" x="714" y="1060" width="64" height="64" />
  <object id="420" gid="7480" x="684.8" y="1062.4" width="64" height="64" />
  <object id="421" gid="2147491015" x="17" y="1063" width="64" height="64" />
  <object id="422" gid="2147491118" x="579" y="1065" width="64" height="64" />
  <object id="423" gid="7497" x="784" y="1065.6" width="64" height="64" />
  <object id="424" gid="7367" x="-14" y="1068" width="64" height="64" />
  <object id="425" gid="7423" x="502.4" y="1068.8" width="64" height="64" />
  <object id="426" gid="2147491044" x="159" y="1072" width="64" height="64" />
  <object id="427" gid="2147491015" x="91" y="1076" width="64" height="64" />
  <object id="428" gid="7465" x="768" y="1088" width="64" height="64" />
  <object id="429" gid="7431" x="98" y="1090" width="64" height="64" />
  <object id="430" gid="2147491044" x="47" y="1092" width="64" height="64" />
  <object id="431" gid="7434" x="409.6" y="1100.8" width="64" height="64" />
  <object id="432" gid="7490" x="384" y="1100.8" width="64" height="64" />
  <object id="433" gid="7378" x="206" y="1104" width="64" height="64" />
  <object id="434" gid="2147491057" x="6" y="1106" width="64" height="64" />
  <object id="435" gid="7387" x="451.2" y="1107.2" width="64" height="64" />
  <object id="436" gid="2147491057" x="-22" y="1108" width="64" height="64" />
  <object id="437" gid="7388" x="809.6" y="1110.4" width="64" height="64" />
  <object id="438" gid="2147491016" x="41" y="1115" width="64" height="64" />
  <object id="439" gid="2147491018" x="694.4" y="1123.2" width="64" height="64" />
  <object id="440" gid="7500" x="387.2" y="1126.4" width="64" height="64" />
  <object id="441" gid="7367" x="-17" y="1130" width="64" height="64" />
  <object id="442" gid="2147491016" x="57" y="1131" width="64" height="64" />
  <object id="443" gid="2147491057" x="205" y="1131" width="64" height="64" />
  <object id="444" gid="7413" x="457.6" y="1132.8" width="64" height="64" />
  <object id="445" gid="2147491113" x="595" y="1135" width="64" height="64" />
  <object id="446" gid="7513" x="361.6" y="1136" width="64" height="64" />
  <object id="447" gid="7498" x="435.2" y="1136" width="64" height="64" />
  <object id="448" gid="7368" x="171" y="1140" width="64" height="64" />
  <object id="449" gid="2147491026" x="139" y="1142" width="64" height="64" />
  <object id="450" gid="7495" x="425.6" y="1142.4" width="64" height="64" />
  <object id="451" gid="2147491026" x="-11" y="1146" width="64" height="64" />
  <object id="452" gid="2147491014" x="22" y="1147" width="64" height="64" />
  <object id="453" gid="7400" x="326.4" y="1148.8" width="64" height="64" />
  <object id="454" gid="7368" x="564" y="1149" width="64" height="64" />
  <object id="455" gid="7423" x="742.4" y="1152" width="64" height="64" />
  <object id="456" gid="2147491015" x="72" y="1155" width="64" height="64" />
  <object id="457" gid="7396" x="500" y="1158" width="64" height="64" />
  <object id="458" gid="7450" x="306" y="1166" width="64" height="64" />
  <object id="459" gid="2147491016" x="139" y="1167" width="64" height="64" />
  <object id="460" gid="7396" x="123" y="1171" width="64" height="64" />
  <object id="461" gid="7366" x="-12" y="1172" width="64" height="64" />
  <object id="462" gid="2147491098" x="433" y="1172" width="64" height="64" />
  <object id="463" gid="2147491026" x="182" y="1173" width="64" height="64" />
  <object id="464" gid="7425" x="777.6" y="1177.6" width="64" height="64" />
  <object id="465" gid="7396" x="75" y="1178" width="64" height="64" />
  <object id="466" gid="2147491024" x="52" y="1180" width="64" height="64" />
  <object id="467" gid="2147491054" x="373" y="1188" width="64" height="64" />
  <object id="468" gid="7465" x="453" y="1191" width="64" height="64" />
  <object id="469" gid="2147491014" x="399" y="1193" width="64" height="64" />
  <object id="470" gid="7425" x="828.8" y="1193.6" width="64" height="64" />
  <object id="471" gid="7376" x="-2" y="1196" width="64" height="64" />
  <object id="472" gid="7367" x="109" y="1196" width="64" height="64" />
  <object id="473" gid="7368" x="-35" y="1201" width="64" height="64" />
  <object id="474" gid="2147491037" x="136" y="1202" width="64" height="64" />
  <object id="475" gid="7445" x="166" y="1206" width="64" height="64" />
  <object id="476" gid="7366" x="288" y="1206" width="64" height="64" />
  <object id="477" gid="2147491015" x="54" y="1209" width="64" height="64" />
  <object id="478" gid="2147491015" x="535" y="1217" width="64" height="64" />
  <object id="479" gid="2147491037" x="310" y="1218" width="64" height="64" />
  <object id="480" gid="7406" x="178" y="1222" width="64" height="64" />
  <object id="481" gid="2147491015" x="77" y="1225" width="64" height="64" />
  <object id="482" gid="2147491093" x="450" y="1233" width="64" height="64" />
  <object id="483" gid="7389" x="336" y="1237" width="64" height="64" />
  <object id="484" gid="2147491016" x="117" y="1238" width="64" height="64" />
  <object id="485" gid="7367" x="12" y="1240" width="64" height="64" />
  <object id="486" gid="7388" x="284.8" y="1241.6" width="64" height="64" />
  <object id="487" gid="2147491057" x="37" y="1242" width="64" height="64" />
  <object id="488" gid="7411" x="828" y="1243" width="64" height="64" />
  <object id="489" gid="2147491093" x="533" y="1245" width="64" height="64" />
  <object id="490" gid="7368" x="462" y="1250" width="64" height="64" />
  <object id="491" gid="2147491014" x="494" y="1250" width="64" height="64" />
  <object id="492" gid="7378" x="326" y="1255" width="64" height="64" />
  <object id="493" gid="2147491014" x="380" y="1255" width="64" height="64" />
  <object id="494" gid="2147491016" x="49" y="1256" width="64" height="64" />
  <object id="495" gid="7368" x="167" y="1257" width="64" height="64" />
  <object id="496" gid="7378" x="830" y="1263" width="64" height="64" />
  <object id="497" gid="2147491014" x="104" y="1264" width="64" height="64" />
  <object id="498" gid="2147491044" x="-42" y="1267" width="64" height="64" />
  <object id="499" gid="2147491057" x="602" y="1268" width="64" height="64" />
  <object id="500" gid="2147491015" x="847" y="1269" width="64" height="64" />
  <object id="501" gid="7449" x="813" y="1269" width="64" height="64" />
  <object id="502" gid="2147491014" x="13" y="1270" width="64" height="64" />
  <object id="503" gid="7445" x="585" y="1280" width="64" height="64" />
  <object id="504" gid="2147491113" x="436" y="1282" width="64" height="64" />
  <object id="505" gid="2147491014" x="484" y="1282" width="64" height="64" />
  <object id="506" gid="7366" x="39" y="1286" width="64" height="64" />
  <object id="507" gid="7406" x="448" y="1289" width="64" height="64" />
  <object id="508" gid="2147491015" x="-15" y="1290" width="64" height="64" />
  <object id="509" gid="2147491037" x="353" y="1293" width="64" height="64" />
  <object id="510" gid="7371" x="519" y="1293" width="64" height="64" />
  <object id="511" gid="7371" x="594" y="1293" width="64" height="64" />
  <object id="512" gid="7367" x="91" y="1294" width="64" height="64" />
  <object id="513" gid="2147491015" x="151" y="1296" width="64" height="64" />
  <object id="514" gid="7371" x="560" y="1297" width="64" height="64" />
  <object id="515" gid="7371" x="488" y="1299" width="64" height="64" />
  <object id="516" gid="7367" x="415" y="1300" width="64" height="64" />
  <object id="517" gid="2147491019" x="654" y="1305" width="64" height="64" />
  <object id="518" gid="2147491016" x="58" y="1306" width="64" height="64" />
  <object id="519" gid="2147491054" x="469" y="1306" width="64" height="64" />
  <object id="520" gid="2147491014" x="27" y="1307" width="64" height="64" />
  <object id="521" gid="2147491015" x="92" y="1309" width="64" height="64" />
  <object id="522" gid="7396" x="548" y="1312" width="64" height="64" />
  <object id="523" gid="7406" x="815" y="1312" width="64" height="64" />
  <object id="524" gid="7449" x="698" y="1313" width="64" height="64" />
  <object id="525" gid="2147491054" x="486" y="1315" width="64" height="64" />
  <object id="526" gid="2147491054" x="764" y="1315" width="64" height="64" />
  <object id="527" gid="7406" x="596" y="1317" width="64" height="64" />
  <object id="528" gid="7368" x="356" y="1318" width="64" height="64" />
  <object id="529" gid="7396" x="-23" y="1319" width="64" height="64" />
  <object id="530" gid="2147491095" x="559" y="1323" width="64" height="64" />
  <object id="531" gid="2147491044" x="410" y="1324" width="64" height="64" />
  <object id="532" gid="2147491019" x="687" y="1324" width="64" height="64" />
  <object id="533" gid="2147491019" x="842" y="1325" width="64" height="64" />
  <object id="534" gid="7447" x="664" y="1331" width="64" height="64" />
  <object id="535" gid="2147491095" x="157" y="1333" width="64" height="64" />
  <object id="536" gid="2147491019" x="321" y="1333" width="64" height="64" />
  <object id="537" gid="2147491014" x="535" y="1333" width="64" height="64" />
  <object id="538" gid="7371" x="834" y="1333" width="64" height="64" />
  <object id="539" gid="2147491054" x="77" y="1334" width="64" height="64" />
  <object id="540" gid="2147491054" x="36" y="1335" width="64" height="64" />
  <object id="541" gid="2147491095" x="347" y="1336" width="64" height="64" />
  <object id="542" gid="7406" x="-13" y="1338" width="64" height="64" />
  <object id="543" gid="7366" x="118" y="1339" width="64" height="64" />
  <object id="544" gid="2147491095" x="520" y="1342" width="64" height="64" />
  <object id="545" gid="7396" x="623" y="1343" width="64" height="64" />
  <object id="546" gid="2147491054" x="486" y="1344" width="64" height="64" />
  <object id="547" gid="7396" x="585" y="1344" width="64" height="64" />
  <object id="548" gid="7371" x="437" y="1345" width="64" height="64" />
  <object id="549" gid="2147491014" x="726" y="1345" width="64" height="64" />
  <object id="550" gid="7396" x="857" y="1346" width="64" height="64" />
  <object id="551" gid="7371" x="1" y="1347" width="64" height="64" />
  <object id="552" gid="7371" x="409" y="1347" width="64" height="64" />
  <object id="553" gid="7396" x="774" y="1347" width="64" height="64" />
  <object id="554" gid="2147491054" x="699" y="1348" width="64" height="64" />
 </objectgroup>
 <objectgroup id="8" name="Objects">
  <object id="555" x="344" y="40" name="start" type="start">
   <point />
  </object>
  <object id="556" x="352" y="416" name="shaman-hut" type="warp" width="16" height="16">
   <properties>
    <property name="goto" value="VerdantHut,8,9.5" />
   </properties>
  </object>
  <object id="557" x="160" y="928" name="vine-temple" type="warp" width="16" height="16">
   <properties>
    <property name="goto" value="VerdantTemple,9,15.5" />
   </properties>
  </object>
  <object id="558" x="320" y="0" name="fen-path" type="warp" width="48" height="32">
   <properties>
    <property name="goto" value="Mirefen,61,55.5" />
   </properties>
  </object>
  <object id="559" x="240" y="1312" name="desert-road" type="warp" width="48" height="32">
   <properties>
    <property name="goto" value="Sunscar,16.5,2.5" />
   </properties>
  </object>
  <object id="560" x="392" y="1112" name="explorer-camp" type="marker">
   <point />
  </object>
  <object id="561" x="672" y="96" name="panther-jungle" type="marker" width="208" height="576" />
  <object id="562" x="688" y="832" name="lizard-ruins" type="marker" width="192" height="448" />
  <object id="563" x="0" y="0" type="safe-zone" width="656" height="1344" />
  <object id="564" x="0" y="0" name="verdant" type="soundscape" width="896" height="1344">
   <properties>
    <property name="channel1" value="audio/music/forest.flac, 0.24" />
    <property name="channel2" value="audio/ambient/jungle.flac, 0.32" />
   </properties>
  </object>
  <object id="565" x="544" y="0" name="river" type="soundscape" width="160" height="1152">
   <properties>
    <property name="channel4" value="audio/ambient/lapping_water.flac, 0.29" />
    <property name="emit" value="2.0" type="float" />
   </properties>
  </object>
  <object id="566" x="656" y="1120" name="springs" type="soundscape" width="192" height="144">
   <properties>
    <property name="channel4" value="audio/ambient/lake.flac, 0.3" />
    <property name="emit" value="2.0" type="float" />
   </properties>
  </object>
  <object id="567" x="704" y="816" name="shrine" type="soundscape" width="176" height="144">
   <properties>
    <property name="channel3" value="audio/ambient/stone_hum.flac, 0.29" />
    <property name="emit" value="3.0" type="float" />
   </properties>
  </object>
 </objectgroup>
</map>