<?xml version='1.0' encoding='UTF-8'?>
<map version="1.10" tiledversion="1.11.0" orientation="orthogonal" renderorder="right-down" width="18" height="18" tilewidth="16" tileheight="16" infinite="0" nextlayerid="10" nextobjectid="11">
 <tileset firstgid="1" source="../tilesets/verdant-temple-terrain.tsx" />
 <tileset firstgid="41" source="../tilesets/verdant-temple-overlay.tsx" />
 <tileset firstgid="65" source="../tilesets/verdant-temple-rug.tsx" />
 <tileset firstgid="1665" source="../tilesets/verdant-temple-decor.tsx" />
 <tileset firstgid="1677" source="../tilesets/verdant-temple-furniture.tsx" />
 <tileset firstgid="2328" source="../tilesets/collision.tsx" />
 <tileset firstgid="2330" source="../tilesets/verdant-temple-props.tsx" />
 <layer id="1" name="Floor" width="18" height="18">
  <data encoding="csv">
1,1,1,1,1,1,1,1,1,1,1,1,1,1,1,1,1,1,
1,1,1,1,1,1,1,1,1,1,1,1,1,1,1,1,1,1,
1,1,1,1,1,1,1,1,1,1,1,1,1,1,1,1,1,1,
1,1,1,1,1,1,1,1,1,1,1,1,1,1,1,1,1,1,
1,1,1,1,1,1,1,1,1,1,1,1,1,1,1,1,1,1,
1,1,1,1,1,1,1,1,1,1,1,1,1,1,1,1,1,1,
1,1,1,1,1,1,1,1,1,1,1,1,1,1,1,1,1,1,
1,1,1,1,1,1,1,1,1,1,1,1,1,1,1,1,1,1,
1,1,1,1,1,1,1,1,1,1,1,1,1,1,1,1,1,1,
1,1,1,1,1,1,1,1,1,1,1,1,1,1,1,1,1,1,
1,1,1,1,1,1,1,1,1,1,1,1,1,1,1,1,1,1,
1,1,1,1,1,1,1,1,1,1,1,1,1,1,1,1,1,1,
1,1,1,1,1,1,1,1,1,1,1,1,1,1,1,1,1,1,
1,1,1,1,1,1,1,1,1,1,1,1,1,1,1,1,1,1,
1,1,1,1,1,1,1,1,1,1,1,1,1,1,1,1,1,1,
1,1,1,1,1,1,1,1,1,1,1,1,1,1,1,1,1,1,
1,1,1,1,1,1,1,1,1,1,1,1,1,1,1,1,1,1,
1,1,1,1,1,1,1,1,1,1,1,1,1,1,1,1,1,1
</data>
 </layer>
 <layer id="2" name="Walls" width="18" height="18">
  <data encoding="csv">
7,7,7,7,7,7,7,7,7,7,7,7,7,7,7,7,7,7,
12,13,13,13,13,13,13,13,13,13,13,13,13,13,13,13,13,19,
15,16,16,16,16,16,16,16,16,16,16,16,16,16,16,16,16,22,
9,0,0,0,0,0,0,0,0,0,0,0,0,0,0,0,0,6,
9,0,0,0,0,0,0,0,0,0,0,0,0,0,0,0,0,6,
9,0,0,0,0,0,0,0,0,0,0,0,0,0,0,0,0,6,
9,0,0,0,0,0,0,0,0,0,0,0,0,0,0,0,0,6,
10,3,3,3,3,3,3,4,0,0,2,3,3,3,3,3,3,11,
7,7,7,7,7,7,7,9,0,0,5,7,7,7,7,7,7,7,
12,13,13,13,13,13,13,14,0,0,18,13,13,13,13,13,13,19,
15,16,16,16,16,16,16,17,0,0,21,16,16,16,16,16,16,22,
9,0,0,0,0,0,0,0,0,0,0,0,0,0,0,0,0,6,
9,0,0,0,0,0,0,0,0,0,0,0,0,0,0,0,0,6,
9,0,0,0,0,0,0,0,0,0,0,0,0,0,0,0,0,6,
9,0,0,0,0,0,0,0,0,0,0,0,0,0,0,0,0,6,
9,0,0,0,0,0,0,0,0,0,0,0,0,0,0,0,0,6,
10,3,3,3,3,3,3,4,0,0,2,3,3,3,3,3,3,11,
7,7,7,7,7,7,7,9,0,0,5,7,7,7,7,7,7,7
</data>
 </layer>
 <layer id="3" name="Rug" width="18" height="18">
  <data encoding="csv">
0,0,0,0,0,0,0,0,0,0,0,0,0,0,0,0,0,0,
0,0,0,0,0,0,0,0,0,0,0,0,0,0,0,0,0,0,
0,0,0,0,0,0,0,0,0,0,0,0,0,0,0,0,0,0,
0,0,0,0,0,0,0,0,0,0,0,0,0,0,0,0,0,0,
0,0,0,0,0,0,0,0,0,0,0,0,0,0,0,0,0,0,
0,0,0,0,0,0,0,0,0,0,0,0,0,0,0,0,0,0,
0,0,0,0,0,0,0,0,0,0,0,0,0,0,0,0,0,0,
0,0,0,0,0,0,0,0,0,0,0,0,0,0,0,0,0,0,
0,0,0,0,0,0,0,0,0,0,0,0,0,0,0,0,0,0,
0,0,0,0,0,0,0,0,0,0,0,0,0,0,0,0,0,0,
0,0,0,0,0,0,0,0,0,0,0,0,0,0,0,0,0,0,
0,0,0,0,0,0,0,0,0,0,0,0,0,0,0,0,0,0,
0,0,0,0,41,42,43,44,45,46,47,48,49,50,0,0,0,0,
0,0,0,0,51,590,591,592,593,594,595,596,597,52,0,0,0,0,
0,0,0,0,53,630,631,632,633,634,635,636,637,54,0,0,0,0,
0,0,0,0,55,56,57,58,59,60,61,62,63,64,0,0,0,0,
0,0,0,0,0,0,0,0,0,0,0,0,0,0,0,0,0,0,
0,0,0,0,0,0,0,0,0,0,0,0,0,0,0,0,0,0
</data>
 </layer>
 <layer id="4" name="Decor" width="18" height="18">
  <data encoding="csv">
0,0,0,0,0,0,0,0,0,0,0,0,0,0,0,0,0,0,
0,0,0,1665,1666,0,0,0,0,0,0,0,0,1665,1666,0,0,0,
0,0,0,1667,1668,0,0,0,0,0,0,0,0,1667,1668,0,0,0,
0,0,0,0,0,0,0,0,0,0,0,0,0,0,0,0,0,0,
0,0,0,0,0,0,0,0,0,0,0,0,0,0,0,0,0,0,
0,0,0,0,0,0,0,0,0,0,0,0,1669,1670,0,0,0,0,
0,0,0,0,0,0,0,0,0,0,0,0,1671,1672,0,0,0,0,
0,0,0,0,0,0,0,0,0,0,0,0,0,0,0,0,0,0,
0,0,0,0,0,0,0,0,0,0,0,0,0,0,0,0,0,0,
0,0,0,0,0,0,0,0,0,0,0,0,0,0,0,0,0,0,
0,0,0,0,0,0,0,0,0,0,0,0,0,0,0,0,0,0,
0,0,0,0,0,0,0,0,0,0,0,0,0,0,0,0,0,0,
0,0,0,0,0,0,0,0,0,0,0,0,0,0,0,0,0,0,
0,0,0,0,0,0,0,0,0,0,0,0,0,0,0,0,0,0,
0,0,0,0,0,0,0,0,0,0,0,0,0,0,0,0,0,0,
0,0,0,0,0,0,0,0,0,0,0,0,0,0,0,0,0,0,
0,0,0,0,0,0,0,0,0,0,0,0,0,0,0,0,0,0,
0,0,0,0,0,0,0,0,0,0,0,0,0,0,0,0,0,0
</data>
 </layer>
 <layer id="5" name="Decor 2" width="18" height="18">
  <data encoding="csv">
0,0,0,0,0,0,0,0,0,0,0,0,0,0,0,0,0,0,
0,0,0,0,0,0,0,0,0,0,0,0,0,0,0,0,0,0,
0,0,0,0,0,0,0,0,0,0,0,0,0,0,0,0,0,0,
0,0,0,0,0,0,0,0,0,0,0,0,0,0,0,0,0,0,
0,0,0,0,0,0,0,0,0,0,0,0,0,0,0,0,0,0,
0,0,0,0,0,0,0,0,0,0,0,0,1673,1674,0,0,0,0,
0,0,0,0,0,0,0,0,0,0,0,0,1675,1676,0,0,0,0,
0,0,0,0,0,0,0,0,0,0,0,0,0,0,0,0,0,0,
0,0,0,0,0,0,0,0,0,0,0,0,0,0,0,0,0,0,
0,0,0,0,0,0,0,0,0,0,0,0,0,0,0,0,0,0,
0,0,0,0,0,0,0,0,0,0,0,0,0,0,0,0,0,0,
0,0,0,0,0,0,0,0,0,0,0,0,0,0,0,0,0,0,
0,0,0,0,0,0,0,0,0,0,0,0,0,0,0,0,0,0,
0,0,0,0,0,0,0,0,0,0,0,0,0,0,0,0,0,0,
0,0,0,0,0,0,0,0,0,0,0,0,0,0,0,0,0,0,
0,0,0,0,0,0,0,0,0,0,0,0,0,0,0,0,0,0,
0,0,0,0,0,0,0,0,0,0,0,0,0,0,0,0,0,0,
0,0,0,0,0,0,0,0,0,0,0,0,0,0,0,0,0,0
</data>
 </layer>
 <layer id="6" name="Dynamic" width="18" height="18">
  <data encoding="csv">
0,0,0,0,0,0,0,0,0,0,0,0,0,0,0,0,0,0,
0,0,0,0,0,0,0,0,0,0,0,0,0,0,0,0,0,0,
0,0,0,0,0,0,0,0,0,0,0,0,0,0,0,0,0,0,
0,1681,1682,0,0,1697,1698,0,1677,1678,0,1697,1698,0,0,1681,1682,0,
0,1683,1684,0,0,1699,1700,0,1679,1680,0,1699,1700,0,0,1683,1684,0,
0,0,1689,1690,1729,1730,0,0,0,0,0,0,0,0,0,1785,1786,0,
0,0,1691,1692,1731,1732,0,0,0,0,0,0,0,0,0,1787,1788,0,
0,0,0,0,0,0,0,0,0,0,0,0,0,0,0,0,0,0,
0,0,0,0,0,0,0,0,0,0,0,0,0,0,0,0,0,0,
0,0,0,0,0,0,0,0,0,0,0,0,0,0,0,0,0,0,
0,0,0,0,0,0,0,0,0,0,0,0,0,0,0,0,0,0,
0,0,1821,1822,1869,1870,0,0,0,0,0,0,0,0,2112,2113,0,0,
0,0,1823,1824,1871,1872,0,0,0,0,0,0,0,0,2114,2115,0,0,
0,0,0,0,0,0,0,0,0,0,0,0,0,0,1899,1900,0,0,
0,1775,1776,0,0,0,0,0,0,0,0,0,1911,1912,1901,1902,0,0,
0,1777,1778,0,0,0,0,0,0,0,0,0,1913,1914,0,0,0,0,
0,0,0,0,0,0,0,0,0,0,0,0,0,0,0,0,0,0,
0,0,0,0,0,0,0,0,0,0,0,0,0,0,0,0,0,0
</data>
 </layer>
 <layer id="7" name="Collision" width="18" height="18">
  <data encoding="csv">
2329,2329,2329,2329,2329,2329,2329,2329,2329,2329,2329,2329,2329,2329,2329,2329,2329,2329,
2329,2329,2329,2329,2329,2329,2329,2329,2329,2329,2329,2329,2329,2329,2329,2329,2329,2329,
2329,2329,2329,2329,2329,2329,2329,2329,2329,2329,2329,2329,2329,2329,2329,2329,2329,2329,
2329,2328,2328,2328,2328,2328,2328,2328,2328,2328,2328,2328,2328,2328,2328,2328,2328,2329,
2329,2329,2329,2328,2328,2329,2329,2328,2329,2329,2328,2329,2329,2328,2328,2329,2329,2329,
2329,2328,2328,2328,2328,2328,2328,2328,2328,2328,2328,2328,2328,2328,2328,2328,2328,2329,
2329,2328,2329,2329,2329,2329,2329,2328,2328,2328,2328,2328,2328,2328,2329,2329,2329,2329,
2329,2329,2329,2329,2329,2329,2329,2329,2328,2328,2329,2329,2329,2329,2329,2329,2329,2329,
2329,2329,2329,2329,2329,2329,2329,2329,2328,2328,2329,2329,2329,2329,2329,2329,2329,2329,
2329,2329,2329,2329,2329,2329,2329,2329,2328,2328,2329,2329,2329,2329,2329,2329,2329,2329,
2329,2329,2329,2329,2329,2329,2329,2329,2328,2328,2329,2329,2329,2329,2329,2329,2329,2329,
2329,2328,2328,2328,2328,2328,2329,2328,2328,2328,2328,2328,2328,2328,2328,2328,2329,2329,
2329,2328,2329,2329,2329,2329,2328,2328,2328,2328,2328,2328,2328,2328,2329,2329,2328,2329,
2329,2328,2328,2328,2328,2328,2328,2328,2328,2328,2328,2328,2328,2328,2328,2328,2328,2329,
2329,2328,2328,2328,2328,2328,2328,2328,2328,2328,2328,2328,2328,2328,2329,2329,2328,2329,
2329,2329,2329,2329,2328,2329,2328,2328,2328,2328,2328,2328,2329,2329,2328,2328,2328,2329,
2329,2329,2329,2329,2329,2329,2329,2329,2328,2328,2329,2329,2329,2329,2329,2329,2329,2329,
2329,2329,2329,2329,2329,2329,2329,2329,2328,2328,2329,2329,2329,2329,2329,2329,2329,2329
</data>
 </layer>
 <objectgroup id="8" name="Scenery">
  <object id="1" gid="2438" x="72" y="110" width="64" height="64" />
  <object id="2" gid="2415" x="200" y="110" width="64" height="64" />
  <object id="3" gid="2415" x="232" y="190" width="64" height="64" />
  <object id="4" gid="2435" x="72" y="190" width="64" height="64" />
  <object id="5" gid="2383" x="24" y="254" width="64" height="64" />
  <object id="6" gid="2522" x="48" y="254.4" width="64" height="64" />
 </objectgroup>
 <objectgroup id="9" name="Objects">
  <object id="7" x="144" y="248" name="start" type="start">
   <point />
  </object>
  <object id="8" x="128" y="256" name="front-door" type="warp" width="32" height="32">
   <properties>
    <property name="goto" value="Verdant,10.5,59.5" />
   </properties>
  </object>
  <object id="9" x="104" y="208" name="archaeologist-table" type="marker">
   <point />
  </object>
  <object id="10" x="16" y="48" name="sanctum" type="soundscape" width="256" height="64">
   <properties>
    <property name="channel3" value="audio/ambient/stone_hum.flac, 0.29" />
    <property name="emit" value="3.0" type="float" />
   </properties>
  </object>
 </objectgroup>
</map>