<?xml version='1.0' encoding='UTF-8'?>
<map version="1.10" tiledversion="1.11.0" orientation="orthogonal" renderorder="right-down" width="16" height="12" tilewidth="16" tileheight="16" infinite="0" nextlayerid="9" nextobjectid="17">
 <tileset firstgid="1" source="../tilesets/verdant-hut-terrain.tsx" />
 <tileset firstgid="41" source="../tilesets/verdant-hut-decor.tsx" />
 <tileset firstgid="51" source="../tilesets/verdant-hut-furniture.tsx" />
 <tileset firstgid="452" source="../tilesets/collision.tsx" />
 <tileset firstgid="454" source="../tilesets/verdant-hut-props.tsx" />
 <layer id="1" name="Floor" width="16" height="12">
  <data encoding="csv">
1,1,1,1,1,1,1,1,1,1,1,1,1,1,1,1,
1,1,1,1,1,1,1,1,1,1,1,1,1,1,1,1,
1,1,1,1,1,1,1,1,1,1,1,1,1,1,1,1,
1,1,1,1,1,1,1,1,1,1,1,1,1,1,1,1,
1,1,1,1,1,1,1,1,1,1,1,1,1,1,1,1,
1,1,1,1,1,1,1,1,1,1,1,1,1,1,1,1,
1,1,1,1,1,1,1,1,1,1,1,1,1,1,1,1,
1,1,1,1,1,1,1,1,1,1,1,1,1,1,1,1,
1,1,1,1,1,1,1,1,1,1,1,1,1,1,1,1,
1,1,1,1,1,1,1,1,1,1,1,1,1,1,1,1,
1,1,1,1,1,1,1,1,1,1,1,1,1,1,1,1,
1,1,1,1,1,1,1,1,1,1,1,1,1,1,1,1
</data>
 </layer>
 <layer id="2" name="Walls" width="16" height="12">
  <data encoding="csv">
7,7,7,7,7,7,7,7,7,7,7,7,7,7,7,7,
12,13,13,13,13,13,13,13,13,13,13,13,13,13,13,19,
15,16,16,16,16,16,16,16,16,16,16,16,16,16,16,22,
9,0,0,0,0,0,0,0,0,0,0,0,0,0,0,6,
9,0,0,0,0,0,0,0,0,0,0,0,0,0,0,6,
9,0,0,0,0,0,0,0,0,0,0,0,0,0,0,6,
9,0,0,0,0,0,0,0,0,0,0,0,0,0,0,6,
9,0,0,0,0,0,0,0,0,0,0,0,0,0,0,6,
9,0,0,0,0,0,0,0,0,0,0,0,0,0,0,6,
9,0,0,0,0,0,0,0,0,0,0,0,0,0,0,6,
10,3,3,3,3,3,4,0,0,2,3,3,3,3,3,11,
7,7,7,7,7,7,9,0,0,5,7,7,7,7,7,7
</data>
 </layer>
 <layer id="3" name="Rug" width="16" height="12">
  <data encoding="csv">
0,0,0,0,0,0,0,0,0,0,0,0,0,0,0,0,
0,0,0,0,0,0,0,0,0,0,0,0,0,0,0,0,
0,0,0,0,0,0,0,0,0,0,0,0,0,0,0,0,
0,0,0,0,0,0,0,0,0,0,0,0,0,0,0,0,
0,0,0,0,0,0,0,0,0,0,0,0,0,0,0,0,
0,0,0,0,0,32,34,34,34,34,35,0,0,0,0,0,
0,0,0,0,0,36,37,37,37,37,27,0,0,0,0,0,
0,0,0,0,0,36,37,37,37,37,27,0,0,0,0,0,
0,0,0,0,0,28,29,29,29,29,31,0,0,0,0,0,
0,0,0,0,0,0,0,0,0,0,0,0,0,0,0,0,
0,0,0,0,0,0,0,0,0,0,0,0,0,0,0,0,
0,0,0,0,0,0,0,0,0,0,0,0,0,0,0,0
</data>
 </layer>
 <layer id="4" name="Decor" width="16" height="12">
  <data encoding="csv">
0,0,0,0,0,0,0,0,0,0,0,0,0,0,0,0,
0,0,0,0,0,41,42,0,0,45,46,0,0,0,0,0,
0,0,0,0,0,43,44,0,0,47,48,0,0,0,0,0,
0,0,0,0,0,0,0,0,0,0,0,0,0,0,0,0,
0,0,0,0,0,0,0,0,0,0,0,0,0,0,0,0,
0,0,0,0,0,0,0,0,0,0,0,0,0,0,0,0,
0,0,0,0,0,0,0,0,0,0,0,0,0,0,0,0,
0,0,0,0,0,0,0,49,50,0,0,0,0,0,0,0,
0,0,0,0,0,0,0,0,0,0,0,0,0,0,0,0,
0,0,0,0,0,0,0,0,0,0,0,0,0,0,0,0,
0,0,0,0,0,0,0,0,0,0,0,0,0,0,0,0,
0,0,0,0,0,0,0,0,0,0,0,0,0,0,0,0
</data>
 </layer>
 <layer id="5" name="Dynamic" width="16" height="12">
  <data encoding="csv">
0,0,0,0,0,0,0,0,0,0,0,0,0,0,0,0,
0,0,0,0,0,0,0,0,0,0,0,0,0,0,0,0,
0,0,0,0,0,0,0,0,0,0,0,0,0,0,0,0,
0,183,184,135,136,0,0,175,176,0,59,60,0,67,68,0,
0,185,186,137,138,0,0,177,178,0,61,62,0,69,70,0,
0,0,0,147,148,0,0,0,0,0,0,0,0,229,230,0,
0,0,0,149,150,0,0,0,0,0,0,0,0,231,232,0,
0,0,0,0,0,0,0,0,0,0,0,0,0,0,0,0,
0,79,80,123,124,0,0,0,0,0,71,72,0,0,89,90,
0,81,82,125,126,0,0,0,0,0,73,74,0,0,91,92,
0,0,0,0,0,0,0,0,0,0,0,0,0,0,0,0,
0,0,0,0,0,0,0,0,0,0,0,0,0,0,0,0
</data>
 </layer>
 <layer id="6" name="Collision" width="16" height="12">
  <data encoding="csv">
453,453,453,453,453,453,453,453,453,453,453,453,453,453,453,453,
453,453,453,453,453,453,453,453,453,453,453,453,453,453,453,453,
453,453,453,453,453,453,453,453,453,453,453,453,453,453,453,453,
453,452,452,452,452,453,453,452,452,453,452,452,453,452,452,453,
453,453,453,453,453,452,452,453,453,452,453,453,452,453,453,453,
453,453,453,452,452,452,452,452,452,452,452,452,452,452,452,453,
453,453,452,453,453,452,452,452,452,452,452,452,453,453,453,453,
453,452,452,452,453,452,452,452,452,452,452,452,452,452,452,453,
453,452,452,452,452,452,452,452,452,452,452,452,452,452,452,453,
453,453,453,453,453,453,452,452,452,452,453,453,453,453,453,453,
453,453,453,453,453,453,453,452,452,453,453,453,453,453,453,453,
453,453,453,453,453,453,453,452,452,453,453,453,453,453,453,453
</data>
 </layer>
 <objectgroup id="7" name="Scenery">
  <object id="1" gid="492" x="72" y="62" width="64" height="64" />
  <object id="2" gid="492" x="120" y="62" width="64" height="64" />
  <object id="3" gid="579" x="56" y="62" width="64" height="64" />
  <object id="4" gid="522" x="168" y="62" width="64" height="64" />
  <object id="5" gid="527" x="-8" y="94" width="64" height="64" />
  <object id="6" gid="574" x="8" y="94" width="64" height="64" />
  <object id="7" gid="547" x="-8" y="110" width="64" height="64" />
  <object id="8" gid="542" x="168" y="110" width="64" height="64" />
  <object id="9" gid="473" x="40" y="126" width="64" height="64" />
  <object id="10" gid="463" x="168" y="158" width="64" height="64" />
  <object id="11" gid="537" x="184" y="158" width="64" height="64" />
  <object id="12" gid="523" x="56" y="158" width="64" height="64" />
 </objectgroup>
 <objectgroup id="8" name="Objects">
  <object id="13" x="128" y="152" name="start" type="start">
   <point />
  </object>
  <object id="14" x="112" y="160" name="front-door" type="warp" width="32" height="32">
   <properties>
    <property name="goto" value="Verdant,22.5,27.5" />
   </properties>
  </object>
  <object id="15" x="120" y="89.6" name="shaman-mat" type="marker">
   <point />
  </object>
  <object id="16" x="144" y="112" name="cookfire" type="soundscape" width="64" height="48">
   <properties>
    <property name="channel3" value="audio/ambient/campfire.flac, 0.22" />
    <property name="emit" value="2.0" type="float" />
   </properties>
  </object>
 </objectgroup>
</map>